; generated by PrusaSlicer 2.8.0+MacOS-arm64 on 2024-08-13 at 16:09:02 UTC

; 

; external perimeters extrusion width = 0.42mm
; perimeters extrusion width = 0.44mm
; infill extrusion width = 0.44mm
; solid infill extrusion width = 0.44mm
; top infill extrusion width = 0.40mm
; first layer extrusion width = 0.42mm


; printing object Cannon DV Camera Rubber Wheel clip v0.4.stl id:0 copy 0
; stop printing object Cannon DV Camera Rubber Wheel clip v0.4.stl id:0 copy 0

;TYPE:Custom
G90 ; use absolute coordinates
M83 ; extruder relative mode
M104 S150 ; set temporary nozzle temp to prevent oozing during homing
M140 S60 ; set final bed temp
G4 S30 ; allow partial nozzle warmup
G28 ; home all axis
G1 Z50 F240
G1 X2.0 Y10 F3000
M104 S210 ; set final nozzle temp
M190 S60 ; wait for bed temp to stabilize
M109 S210 ; wait for nozzle temp to stabilize
G1 Z0.28 F240
G92 E0
G1 X2.0 Y140 E10 F1500 ; prime the nozzle
G1 X2.3 Y140 F5000
G92 E0
G1 X2.3 Y10 E10 F1200 ; prime the nozzle
G92 E0
G21 ; set units to millimeters
G90 ; use absolute coordinates
M83 ; use relative distances for extrusion
; Filament gcode
M107
;LAYER_CHANGE
;Z:0.2
;HEIGHT:0.2
G1 E-2.5 F1800
G1 Z.2 F9000
G1 X18.339 Y17.336
G1 Z.2
G1 E2.5 F1200
M204 S500
;TYPE:Skirt/Brim
;WIDTH:0.42
G1 F900
G1 X19.312 Y16.639 E.03753
G1 X20.346 Y16.167 E.03564
G1 X21.51 Y15.888 E.03753
G1 X22.697 Y15.844 E.03724
G1 X23.843 Y16.028 E.03639
G1 X24.981 Y16.45 E.03806
G1 X25.983 Y17.069 E.03693
G1 X26.854 Y17.881 E.03734
G1 X27.533 Y18.825 E.03646
G1 X28.028 Y19.902 E.03716
G1 X28.303 Y21.059 E.03729
G1 X28.347 Y22.21 E.03612
G1 X28.154 Y23.418 E.03836
G1 X27.739 Y24.524 E.03704
G1 X27.121 Y25.526 E.03691
G1 X26.308 Y26.397 E.03736
G1 X25.335 Y27.094 E.03753
G1 X24.287 Y27.571 E.0361
G1 X23.131 Y27.846 E.03726
G1 X21.95 Y27.888 E.03705
G1 X20.772 Y27.697 E.03742
G1 X19.666 Y27.282 E.03704
G1 X18.664 Y26.664 E.03691
G1 X17.793 Y25.851 E.03736
G1 X17.096 Y24.878 E.03753
G1 X16.619 Y23.83 E.0361
G1 X16.344 Y22.674 E.03726
G1 X16.301 Y21.507 E.03662
G1 X16.49 Y20.329 E.03741
G1 X16.894 Y19.239 E.03645
G1 X17.526 Y18.207 E.03794
G1 X18.298 Y17.38 E.03547
G1 X18.298 Y17.38 F9000
G1 X18.572 Y17.636
G1 F900
G1 X18.592 Y17.616 E.00089
G1 X19.504 Y16.963 E.03517
G1 X20.474 Y16.521 E.03342
G1 X21.566 Y16.261 E.0352
G1 X22.679 Y16.221 E.03492
G1 X23.754 Y16.394 E.03414
G1 X24.819 Y16.791 E.03564
G1 X25.758 Y17.372 E.03462
G1 X26.574 Y18.134 E.03501
G1 X27.21 Y19.02 E.0342
G1 X27.673 Y20.03 E.03484
G1 X27.93 Y21.115 E.03496
G1 X27.97 Y22.193 E.03382
G1 X27.788 Y23.326 E.03598
G1 X27.399 Y24.362 E.0347
G1 X26.818 Y25.301 E.03462
G1 X26.055 Y26.117 E.03503
G1 X25.143 Y26.769 E.03515
G1 X24.159 Y27.216 E.03389
G1 X23.075 Y27.473 E.03493
G1 X21.968 Y27.512 E.03473
G1 X20.864 Y27.331 E.03508
G1 X19.828 Y26.941 E.03471
G1 X18.889 Y26.361 E.03461
G1 X18.073 Y25.598 E.03503
G1 X17.42 Y24.686 E.03517
G1 X16.974 Y23.702 E.03387
G1 X16.717 Y22.618 E.03493
G1 X16.678 Y21.525 E.03429
G1 X16.855 Y20.42 E.03509
G1 X17.236 Y19.398 E.0342
G1 X17.829 Y18.432 E.03554
G1 X18.531 Y17.68 E.03226
G1 X18.531 Y17.68 F9000
G1 X18.806 Y17.937
G1 F900
G1 X18.844 Y17.895 E.00178
G1 X19.697 Y17.288 E.03283
G1 X20.602 Y16.876 E.03118
G1 X21.622 Y16.634 E.03287
G1 X22.661 Y16.598 E.0326
G1 X23.664 Y16.761 E.03186
G1 X24.658 Y17.132 E.03327
G1 X25.534 Y17.675 E.03232
G1 X26.294 Y18.387 E.03265
G1 X26.888 Y19.215 E.03195
G1 X27.319 Y20.158 E.03251
G1 X27.557 Y21.17 E.0326
G1 X27.593 Y22.177 E.03159
G1 X27.422 Y23.234 E.03357
G1 X27.058 Y24.201 E.0324
G1 X26.515 Y25.077 E.03232
G1 X25.803 Y25.837 E.03265
G1 X24.95 Y26.445 E.03284
G1 X24.031 Y26.861 E.03163
G1 X23.019 Y27.1 E.0326
G1 X21.986 Y27.135 E.03241
G1 X20.956 Y26.965 E.03273
G1 X19.989 Y26.601 E.0324
G1 X19.113 Y26.058 E.03232
G1 X18.352 Y25.345 E.0327
G1 X17.745 Y24.493 E.0328
G1 X17.328 Y23.574 E.03164
G1 X17.09 Y22.562 E.0326
G1 X17.054 Y21.543 E.03197
G1 X17.221 Y20.512 E.03275
G1 X17.578 Y19.556 E.032
G1 X18.132 Y18.656 E.03314
G1 X18.765 Y17.981 E.02901
G1 X18.765 Y17.981 F9000
G1 X19.039 Y18.238
G1 F900
G1 X19.097 Y18.175 E.00268
G1 X19.889 Y17.612 E.03047
G1 X20.73 Y17.231 E.02895
G1 X21.678 Y17.007 E.03054
G1 X22.643 Y16.974 E.03027
G1 X23.575 Y17.127 E.02961
G1 X24.497 Y17.473 E.03088
G1 X25.309 Y17.978 E.02998
G1 X26.015 Y18.64 E.03035
G1 X26.565 Y19.41 E.02967
G1 X26.964 Y20.286 E.03018
G1 X27.184 Y21.226 E.03027
G1 X27.217 Y22.16 E.0293
G1 X27.057 Y23.142 E.0312
G1 X26.717 Y24.039 E.03008
G1 X26.212 Y24.852 E.03001
G1 X25.55 Y25.558 E.03035
G1 X24.758 Y26.121 E.03047
G1 X23.903 Y26.507 E.02941
G1 X22.963 Y26.727 E.03027
G1 X22.004 Y26.758 E.03008
G1 X21.048 Y26.6 E.03038
G1 X20.15 Y26.26 E.03011
G1 X19.338 Y25.755 E.02998
G1 X18.632 Y25.093 E.03035
G1 X18.069 Y24.301 E.03047
G1 X17.683 Y23.446 E.02941
G1 X17.463 Y22.506 E.03027
G1 X17.431 Y21.561 E.02965
G1 X17.587 Y20.604 E.0304
G1 X17.92 Y19.715 E.02977
G1 X18.435 Y18.88 E.03076
G1 X18.997 Y18.281 E.02575
G1 E-.5 F1800
;WIPE_START
G1 F7200
G1 X19.039 Y18.238 E-.01428
G1 X19.097 Y18.175 E-.02034
G1 X19.889 Y17.612 E-.23078
G1 X20.73 Y17.231 E-.21928
G1 X21.678 Y17.007 E-.23135
G1 X22.643 Y16.974 E-.22932
G1 X23.575 Y17.127 E-.22431
G1 X24.497 Y17.473 E-.23389
G1 X25.309 Y17.978 E-.2271
G1 X26.015 Y18.64 E-.22986
G1 X26.356 Y19.118 E-.13949
;WIPE_END
; printing object Cannon DV Camera Rubber Wheel clip v0.4.stl id:0 copy 0
G1 X21.614 Y21.154 F9000
G1 E2.5 F1200
;TYPE:External perimeter
;WIDTH:0.424761
G1 F900
G1 X21.887 Y20.948 E.01086
;WIDTH:0.423321
G1 X22.284 Y20.846 E.01297
;WIDTH:0.421427
G1 X22.69 Y20.906 E.01292
;WIDTH:0.419594
G1 X23.037 Y21.117 E.01272
;WIDTH:0.419297
G1 X23.275 Y21.442 E.01261
;WIDTH:0.418972
G1 X23.371 Y21.83 E.0125
G1 X23.313 Y22.224 E.01245
G1 X23.112 Y22.566 E.0124
;WIDTH:0.419428
G1 X22.798 Y22.806 E.01237
;WIDTH:0.419906
G1 X22.415 Y22.912 E.01246
;WIDTH:0.420153
G1 X22.018 Y22.866 E.01254
;WIDTH:0.420606
G1 X21.667 Y22.67 E.01263
G1 X21.422 Y22.37 E.01216
;WIDTH:0.422143
G1 X21.304 Y21.96 E.01345
;WIDTH:0.423435
G1 X21.355 Y21.551 E.01304
;WIDTH:0.424761
G1 X21.56 Y21.196 E.01302
G1 X21.567 Y21.191 E.00027
G1 X21.567 Y21.191 F9000
G1 X21.292 Y20.943
;WIDTH:0.4329
G1 F900
G1 X21.423 Y20.8 E.00629
G1 X21.723 Y20.605 E.0116
;WIDTH:0.422276
G1 X22.205 Y20.469 E.0158
G1 X22.734 Y20.52 E.01676
;WIDTH:0.420774
G1 X23.176 Y20.745 E.01558
;WIDTH:0.427509
G1 X23.405 Y20.958 E.01
G1 X23.611 Y21.273 E.01204
;WIDTH:0.419798
G1 X23.744 Y21.747 E.01543
;WIDTH:0.427141
G1 X23.743 Y21.989 E.00773
G1 X23.668 Y22.348 E.01172
;WIDTH:0.419184
G1 X23.419 Y22.79 E.01587
;WIDTH:0.419294
G1 X23.015 Y23.12 E.01633
G1 X22.579 Y23.268 E.01441
;WIDTH:0.427117
G1 X22.205 Y23.284 E.01196
G1 X21.882 Y23.217 E.01054
;WIDTH:0.420207
G1 X21.442 Y22.975 E.01575
G1 X21.15 Y22.641 E.01392
;WIDTH:0.428462
G1 X20.988 Y22.293 E.01231
G1 X20.925 Y21.987 E.01002
;WIDTH:0.422915
G1 X20.978 Y21.478 E.01617
;WIDTH:0.424277
G1 X21.185 Y21.059 E.01482
;WIDTH:0.4329
G1 X21.252 Y20.987 E.00319
M106 S255
;LAYER_CHANGE
;Z:0.28
;HEIGHT:0.08
;BEFORE_LAYER_CHANGE
G92 E0
;0.28


G1 E-.5 F1800
;WIPE_START
G1 F7200
G1 X21.292 Y20.943 E-.01412
G1 X21.423 Y20.8 E-.04606
G1 X21.723 Y20.605 E-.08498
G1 X22.205 Y20.469 E-.11894
G1 X22.734 Y20.52 E-.12622
G1 X23.176 Y20.745 E-.11779
G1 X23.405 Y20.958 E-.07428
G1 X23.611 Y21.273 E-.08939
G1 X23.744 Y21.747 E-.11692
G1 X23.743 Y21.989 E-.05748
G1 X23.668 Y22.348 E-.0871
G1 X23.419 Y22.79 E-.12049
G1 X23.015 Y23.12 E-.12389
G1 X22.579 Y23.268 E-.10935
G1 X22.205 Y23.284 E-.08891
G1 X21.882 Y23.217 E-.07835
G1 X21.442 Y22.975 E-.11926
G1 X21.15 Y22.641 E-.10537
G1 X20.988 Y22.293 E-.09117
G1 X20.925 Y21.987 E-.0742
G1 X20.978 Y21.478 E-.12154
G1 X21.042 Y21.349 E-.03419
;WIPE_END
G1 Z.28 F9000
;AFTER_LAYER_CHANGE
;0.28
M104 S205 ; set temperature
; stop printing object Cannon DV Camera Rubber Wheel clip v0.4.stl id:0 copy 0
G1 Z.28
G1 X16.707 Y19.742
G1 E2.5 F1200
;TYPE:Skirt/Brim
;WIDTH:0.42
G1 F900
G1 X16.894 Y19.239 E.00719
G1 X17.526 Y18.207 E.01621
G1 X18.339 Y17.336 E.01596
G1 X19.312 Y16.639 E.01604
G1 X20.346 Y16.167 E.01523
G1 X21.51 Y15.888 E.01604
G1 X22.697 Y15.844 E.01591
G1 X23.843 Y16.028 E.01555
G1 X24.981 Y16.45 E.01626
G1 X25.983 Y17.069 E.01578
G1 X26.854 Y17.881 E.01595
G1 X27.533 Y18.825 E.01558
G1 X28.028 Y19.902 E.01588
G1 X28.303 Y21.059 E.01593
G1 X28.347 Y22.21 E.01543
G1 X28.154 Y23.418 E.01639
G1 X27.739 Y24.524 E.01583
G1 X27.121 Y25.526 E.01577
G1 X26.308 Y26.397 E.01596
G1 X25.335 Y27.094 E.01604
G1 X24.287 Y27.571 E.01543
G1 X23.131 Y27.846 E.01592
G1 X21.95 Y27.888 E.01583
G1 X20.772 Y27.697 E.01599
G1 X19.666 Y27.282 E.01583
G1 X18.664 Y26.664 E.01577
G1 X17.793 Y25.851 E.01596
G1 X17.096 Y24.878 E.01604
G1 X16.619 Y23.83 E.01543
G1 X16.344 Y22.674 E.01592
G1 X16.301 Y21.507 E.01565
G1 X16.49 Y20.329 E.01598
G1 X16.686 Y19.798 E.00758
G1 X16.686 Y19.798 F9000
G1 X17.038 Y19.929
G1 F900
G1 X17.236 Y19.398 E.00759
G1 X17.829 Y18.432 E.01519
G1 X18.592 Y17.616 E.01497
G1 X19.504 Y16.963 E.01503
G1 X20.474 Y16.521 E.01428
G1 X21.566 Y16.261 E.01504
G1 X22.679 Y16.221 E.01492
G1 X23.754 Y16.394 E.01459
G1 X24.819 Y16.791 E.01523
G1 X25.758 Y17.372 E.01479
G1 X26.574 Y18.134 E.01496
G1 X27.21 Y19.02 E.01461
G1 X27.673 Y20.03 E.01489
G1 X27.93 Y21.115 E.01494
G1 X27.97 Y22.193 E.01445
G1 X27.788 Y23.326 E.01537
G1 X27.399 Y24.362 E.01483
G1 X26.818 Y25.301 E.01479
G1 X26.055 Y26.117 E.01497
G1 X25.143 Y26.769 E.01502
G1 X24.159 Y27.216 E.01448
G1 X23.075 Y27.473 E.01493
G1 X21.968 Y27.512 E.01484
G1 X20.864 Y27.331 E.01499
G1 X19.828 Y26.941 E.01483
G1 X18.889 Y26.361 E.01479
G1 X18.073 Y25.598 E.01497
G1 X17.42 Y24.686 E.01503
G1 X16.974 Y23.702 E.01447
G1 X16.717 Y22.618 E.01493
G1 X16.678 Y21.525 E.01465
G1 X16.855 Y20.42 E.01499
G1 X17.017 Y19.985 E.00622
G1 X17.017 Y19.985 F9000
G1 X17.369 Y20.117
G1 F900
G1 X17.578 Y19.556 E.00802
G1 X18.132 Y18.656 E.01416
G1 X18.844 Y17.895 E.01396
G1 X19.697 Y17.288 E.01403
G1 X20.602 Y16.876 E.01332
G1 X21.622 Y16.634 E.01405
G1 X22.661 Y16.598 E.01393
G1 X23.664 Y16.761 E.01361
G1 X24.658 Y17.132 E.01422
G1 X25.534 Y17.675 E.01381
G1 X26.294 Y18.387 E.01395
G1 X26.888 Y19.215 E.01365
G1 X27.319 Y20.158 E.01389
G1 X27.557 Y21.17 E.01393
G1 X27.593 Y22.177 E.0135
G1 X27.422 Y23.234 E.01435
G1 X27.058 Y24.201 E.01384
G1 X26.515 Y25.077 E.01381
G1 X25.803 Y25.837 E.01395
G1 X24.95 Y26.445 E.01403
G1 X24.031 Y26.861 E.01352
G1 X23.019 Y27.1 E.01393
G1 X21.986 Y27.135 E.01385
G1 X20.956 Y26.965 E.01399
G1 X19.989 Y26.601 E.01384
G1 X19.113 Y26.058 E.01381
G1 X18.352 Y25.345 E.01397
G1 X17.745 Y24.493 E.01402
G1 X17.328 Y23.574 E.01352
G1 X17.09 Y22.562 E.01393
G1 X17.054 Y21.543 E.01366
G1 X17.221 Y20.512 E.01399
G1 X17.348 Y20.173 E.00485
G1 X17.348 Y20.173 F9000
G1 X17.699 Y20.304
G1 F900
G1 X17.92 Y19.715 E.00843
G1 X18.435 Y18.88 E.01314
G1 X19.097 Y18.175 E.01296
G1 X19.889 Y17.612 E.01302
G1 X20.73 Y17.231 E.01237
G1 X21.678 Y17.007 E.01305
G1 X22.643 Y16.974 E.01294
G1 X23.575 Y17.127 E.01265
G1 X24.497 Y17.473 E.01319
G1 X25.309 Y17.978 E.01281
G1 X26.015 Y18.64 E.01297
G1 X26.565 Y19.41 E.01268
G1 X26.964 Y20.286 E.0129
G1 X27.184 Y21.226 E.01293
G1 X27.217 Y22.16 E.01252
G1 X27.057 Y23.142 E.01333
G1 X26.717 Y24.039 E.01285
G1 X26.212 Y24.852 E.01282
G1 X25.55 Y25.558 E.01297
G1 X24.758 Y26.121 E.01302
G1 X23.903 Y26.507 E.01257
G1 X22.963 Y26.727 E.01293
G1 X22.004 Y26.758 E.01286
G1 X21.048 Y26.6 E.01298
G1 X20.15 Y26.26 E.01287
G1 X19.338 Y25.755 E.01281
G1 X18.632 Y25.093 E.01297
G1 X18.069 Y24.301 E.01302
G1 X17.683 Y23.446 E.01257
G1 X17.463 Y22.506 E.01293
G1 X17.431 Y21.561 E.01267
G1 X17.587 Y20.604 E.01299
G1 X17.678 Y20.361 E.00348
G1 E-.5 F1800
;WIPE_START
G1 F7200
G1 X17.699 Y20.304 E-.01443
G1 X17.92 Y19.715 E-.14941
G1 X18.435 Y18.88 E-.233
G1 X19.097 Y18.175 E-.22968
G1 X19.889 Y17.612 E-.23078
G1 X20.73 Y17.231 E-.21928
G1 X21.678 Y17.007 E-.23135
G1 X22.643 Y16.974 E-.22932
G1 X23.575 Y17.127 E-.22431
G1 X24.497 Y17.473 E-.23389
G1 X24.513 Y17.483 E-.00455
;WIPE_END
; printing object Cannon DV Camera Rubber Wheel clip v0.4.stl id:0 copy 0
G1 X21.402 Y21.604 F9000
G1 E2.5 F1200
;TYPE:External perimeter
;WIDTH:0.512561
G1 F900
G1 X21.41 Y21.565 E.00066
G1 X21.615 Y21.218 E.00664
;WIDTH:0.51221
G1 X21.967 Y20.971 E.00708
;WIDTH:0.507447
G1 X22.389 Y20.899 E.00698
G1 X22.77 Y20.996 E.00641
;WIDTH:0.501125
G1 X23.078 Y21.228 E.00621
;WIDTH:0.494516
G1 X23.273 Y21.558 E.00609
;WIDTH:0.488049
G1 X23.327 Y21.942 E.00607
;WIDTH:0.483536
G1 X23.225 Y22.323 E.00612
;WIDTH:0.480643
G1 X22.982 Y22.633 E.00607
;WIDTH:0.483208
G1 X22.637 Y22.823 E.00611
G1 X22.303 Y22.87 E.00523
;WIDTH:0.488232
G1 X21.93 Y22.781 E.00601
;WIDTH:0.495409
G1 X21.619 Y22.555 E.00612
;WIDTH:0.501915
G1 X21.417 Y22.226 E.00622
;WIDTH:0.507858
G1 X21.356 Y21.843 E.00633
;WIDTH:0.512561
G1 X21.391 Y21.663 E.00302
G1 X21.391 Y21.663 F9000
G1 X20.918 Y21.544
;WIDTH:0.510579
G1 F900
G1 X20.945 Y21.401 E.00239
;WIDTH:0.515315
G1 X21.184 Y20.963 E.00827
G1 X21.366 Y20.772 E.00437
;WIDTH:0.513258
G1 X21.692 Y20.558 E.00643
;WIDTH:0.512094
G1 X22.157 Y20.42 E.00798
G1 X22.429 Y20.412 E.00448
;WIDTH:0.507464
G1 X22.822 Y20.497 E.00656
;WIDTH:0.502171
G1 X23.232 Y20.722 E.00754
;WIDTH:0.501426
G1 X23.439 Y20.917 E.00458
;WIDTH:0.494395
G1 X23.689 Y21.335 E.00773
;WIDTH:0.488372
G1 X23.786 Y21.746 E.00662
G1 X23.791 Y21.891 E.00227
;WIDTH:0.478766
G1 X23.708 Y22.357 E.00727
;WIDTH:0.480642
G1 X23.475 Y22.782 E.00747
G1 X23.298 Y22.968 E.00396
;WIDTH:0.477558
G1 X22.899 Y23.218 E.00721
;WIDTH:0.482056
G1 X22.429 Y23.332 E.00748
;WIDTH:0.488052
G1 X21.924 Y23.278 E.00795
;WIDTH:0.494216
G1 X21.654 Y23.168 E.00463
G1 X21.315 Y22.925 E.00662
;WIDTH:0.501128
G1 X21.051 Y22.581 E.00698
;WIDTH:0.507642
G1 X20.922 Y22.266 E.00555
;WIDTH:0.507858
G1 X20.87 Y21.795 E.00773
;WIDTH:0.510579
G1 X20.907 Y21.603 E.00321
;LAYER_CHANGE
;Z:0.36
;HEIGHT:0.08
;BEFORE_LAYER_CHANGE
G92 E0
;0.36


G1 E-.5 F1800
;WIPE_START
G1 F7200
G1 X20.918 Y21.544 E-.01425
G1 X20.945 Y21.401 E-.03456
G1 X21.184 Y20.963 E-.1185
G1 X21.366 Y20.772 E-.06266
G1 X21.692 Y20.558 E-.09262
G1 X22.157 Y20.42 E-.1152
G1 X22.429 Y20.412 E-.06463
G1 X22.822 Y20.497 E-.0955
G1 X23.232 Y20.722 E-.11107
G1 X23.439 Y20.917 E-.06754
G1 X23.689 Y21.335 E-.11568
G1 X23.786 Y21.746 E-.10029
G1 X23.791 Y21.891 E-.03446
G1 X23.708 Y22.357 E-.11242
G1 X23.475 Y22.782 E-.11511
G1 X23.298 Y22.968 E-.06098
G1 X22.899 Y23.218 E-.11183
G1 X22.429 Y23.332 E-.11486
G1 X21.924 Y23.278 E-.12062
G1 X21.654 Y23.168 E-.06924
G1 X21.315 Y22.925 E-.09906
G1 X21.051 Y22.581 E-.10299
G1 X20.946 Y22.324 E-.06593
;WIPE_END
G1 Z.36 F9000
;AFTER_LAYER_CHANGE
;0.36
G1 Z.36
G1 X21.409 Y22.176
G1 E2.5 F1200
;WIDTH:0.507857
G1 F900
G1 X21.356 Y21.843 E.0055
;WIDTH:0.512562
G1 X21.41 Y21.565 E.00467
G1 X21.615 Y21.218 E.00664
;WIDTH:0.51221
G1 X21.967 Y20.971 E.00708
;WIDTH:0.507414
G1 X22.387 Y20.899 E.00695
G1 X22.77 Y20.996 E.00644
;WIDTH:0.501124
G1 X23.078 Y21.228 E.00621
;WIDTH:0.494515
G1 X23.273 Y21.558 E.00609
;WIDTH:0.48805
G1 X23.327 Y21.942 E.00607
;WIDTH:0.483537
G1 X23.225 Y22.323 E.00612
;WIDTH:0.480643
G1 X22.982 Y22.633 E.00607
;WIDTH:0.483208
G1 X22.637 Y22.823 E.00611
G1 X22.303 Y22.87 E.00523
;WIDTH:0.488232
G1 X21.93 Y22.781 E.00601
;WIDTH:0.495408
G1 X21.619 Y22.555 E.00612
;WIDTH:0.501916
G1 X21.422 Y22.234 E.00607
G1 X21.422 Y22.234 F9000
G1 X20.974 Y22.396
;WIDTH:0.507566
G1 F900
G1 X20.876 Y22.036 E.00609
;WIDTH:0.512483
G1 X20.878 Y21.7 E.00554
G1 X21.015 Y21.234 E.008
;WIDTH:0.51221
G1 X21.237 Y20.901 E.00659
;WIDTH:0.515006
G1 X21.617 Y20.596 E.00807
G1 X21.925 Y20.467 E.00553
;WIDTH:0.512541
G1 X22.425 Y20.412 E.00829
;WIDTH:0.507438
G1 X22.821 Y20.497 E.0066
;WIDTH:0.502256
G1 X23.232 Y20.722 E.00756
;WIDTH:0.501427
G1 X23.439 Y20.917 E.00458
;WIDTH:0.494395
G1 X23.689 Y21.335 E.00773
;WIDTH:0.488373
G1 X23.786 Y21.746 E.00662
G1 X23.791 Y21.891 E.00227
;WIDTH:0.478764
G1 X23.708 Y22.357 E.00727
;WIDTH:0.480643
G1 X23.475 Y22.782 E.00747
G1 X23.258 Y23.005 E.0048
G1 X22.814 Y23.251 E.00782
;WIDTH:0.478765
G1 X22.348 Y23.334 E.00727
;WIDTH:0.487322
G1 X21.868 Y23.261 E.00759
