; generated by PrusaSlicer 2.8.0+MacOS-arm64 on 2024-08-13 at 17:05:25 UTC

; 

; external perimeters extrusion width = 0.42mm
; perimeters extrusion width = 0.44mm
; infill extrusion width = 0.44mm
; solid infill extrusion width = 0.44mm
; top infill extrusion width = 0.40mm
; first layer extrusion width = 0.42mm


; printing object Cannon DV Camera Rubber Wheel clip v0.8.stl id:0 copy 0
; stop printing object Cannon DV Camera Rubber Wheel clip v0.8.stl id:0 copy 0

;TYPE:Custom
G90 ; use absolute coordinates
M83 ; extruder relative mode
M104 S150 ; set temporary nozzle temp to prevent oozing during homing
M140 S60 ; set final bed temp
G4 S30 ; allow partial nozzle warmup
G28 ; home all axis
G1 Z50 F240
G1 X2.0 Y10 F3000
M104 S210 ; set final nozzle temp
M190 S60 ; wait for bed temp to stabilize
M109 S210 ; wait for nozzle temp to stabilize
G1 Z0.28 F240
G92 E0
G1 X2.0 Y140 E10 F1500 ; prime the nozzle
G1 X2.3 Y140 F5000
G92 E0
G1 X2.3 Y10 E10 F1200 ; prime the nozzle
G92 E0
G21 ; set units to millimeters
G90 ; use absolute coordinates
M83 ; use relative distances for extrusion
; Filament gcode
M107
;LAYER_CHANGE
;Z:0.2
;HEIGHT:0.2
G1 E-2.5 F1800
G1 Z.2 F9000
G1 X15.29 Y88.513
G1 Z.2
G1 E2.5 F1200
M204 S500
;TYPE:Skirt/Brim
;WIDTH:0.42
G1 F900
G1 X16.471 Y88.47 E.03705
G1 X17.651 Y88.662 E.03748
G1 X18.736 Y89.065 E.03629
G1 X19.749 Y89.687 E.03727
G1 X20.62 Y90.495 E.03725
G1 X21.316 Y91.458 E.03725
G1 X21.808 Y92.535 E.03713
G1 X22.082 Y93.688 E.03716
G1 X22.126 Y94.856 E.03665
G1 X21.933 Y96.05 E.03792
G1 X21.524 Y97.147 E.03671
G1 X20.899 Y98.159 E.03729
G1 X20.1 Y99.019 E.03681
G1 X19.144 Y99.711 E.037
G1 X18.055 Y100.209 E.03755
G1 X16.907 Y100.481 E.03699
G1 X15.725 Y100.524 E.03709
G1 X14.545 Y100.332 E.03748
G1 X13.448 Y99.923 E.03671
G1 X12.436 Y99.298 E.03729
G1 X11.576 Y98.499 E.03681
G1 X10.877 Y97.53 E.03746
G1 X10.386 Y96.454 E.03708
G1 X10.114 Y95.306 E.03699
G1 X10.071 Y94.124 E.03709
G1 X10.263 Y92.944 E.03748
G1 X10.673 Y91.847 E.03672
G1 X11.277 Y90.862 E.03623
G1 X12.096 Y89.975 E.03785
G1 X13.065 Y89.276 E.03746
G1 X14.128 Y88.79 E.03665
G1 X15.231 Y88.527 E.03555
G1 X15.231 Y88.527 F9000
G1 X15.318 Y88.892
G1 F900
G1 X15.346 Y88.886 E.0009
G1 X16.454 Y88.847 E.03476
G1 X17.559 Y89.027 E.0351
G1 X18.576 Y89.407 E.03404
G1 X19.524 Y89.99 E.03489
G1 X20.341 Y90.749 E.03496
G1 X20.993 Y91.652 E.03492
G1 X21.454 Y92.662 E.03481
G1 X21.709 Y93.744 E.03485
G1 X21.748 Y94.852 E.03476
G1 X21.568 Y95.958 E.03513
G1 X21.183 Y96.987 E.03445
G1 X20.596 Y97.935 E.03496
G1 X19.846 Y98.74 E.0345
G1 X18.949 Y99.388 E.0347
G1 X17.928 Y99.854 E.03519
G1 X16.851 Y100.108 E.03469
G1 X15.743 Y100.147 E.03476
G1 X14.637 Y99.967 E.03513
G1 X13.608 Y99.581 E.03446
G1 X12.66 Y98.995 E.03494
G1 X11.855 Y98.245 E.0345
G1 X11.2 Y97.336 E.03513
G1 X10.741 Y96.327 E.03476
G1 X10.487 Y95.25 E.03469
G1 X10.448 Y94.142 E.03476
G1 X10.629 Y93.036 E.03514
G1 X11.014 Y92.007 E.03445
G1 X11.582 Y91.084 E.03398
G1 X12.35 Y90.254 E.03546
G1 X13.259 Y89.599 E.03513
G1 X14.255 Y89.144 E.03433
G1 X15.26 Y88.906 E.03238
G1 X15.26 Y88.906 F9000
G1 X15.346 Y89.272
G1 F900
G1 X15.401 Y89.259 E.00177
G1 X16.436 Y89.223 E.03247
G1 X17.467 Y89.393 E.03276
G1 X18.417 Y89.749 E.03181
G1 X19.3 Y90.293 E.03252
G1 X20.063 Y91.003 E.03268
G1 X20.669 Y91.846 E.03255
G1 X21.099 Y92.789 E.0325
G1 X21.336 Y93.8 E.03256
G1 X21.372 Y94.835 E.03247
G1 X21.202 Y95.866 E.03276
G1 X20.841 Y96.826 E.03216
G1 X20.293 Y97.71 E.03261
G1 X19.592 Y98.462 E.03223
G1 X18.754 Y99.065 E.03237
G1 X17.8 Y99.499 E.03286
G1 X16.795 Y99.735 E.03237
G1 X15.76 Y99.771 E.03247
G1 X14.729 Y99.601 E.03276
G1 X13.769 Y99.24 E.03216
G1 X12.885 Y98.692 E.03261
G1 X12.134 Y97.991 E.03221
G1 X11.524 Y97.142 E.03278
G1 X11.096 Y96.199 E.03247
G1 X10.86 Y95.194 E.03237
G1 X10.824 Y94.159 E.03247
G1 X10.994 Y93.128 E.03276
G1 X11.355 Y92.168 E.03216
G1 X11.887 Y91.306 E.03176
G1 X12.604 Y90.532 E.03308
G1 X13.453 Y89.923 E.03276
G1 X14.382 Y89.499 E.03202
G1 X15.288 Y89.286 E.02918
G1 X15.288 Y89.286 F9000
G1 X15.374 Y89.651
G1 F900
G1 X15.457 Y89.632 E.00267
G1 X16.418 Y89.6 E.03015
G1 X17.375 Y89.759 E.03042
G1 X18.257 Y90.091 E.02955
G1 X19.075 Y90.596 E.03014
G1 X19.784 Y91.257 E.03039
G1 X20.346 Y92.04 E.03022
G1 X20.744 Y92.916 E.03017
G1 X20.964 Y93.856 E.03027
G1 X20.995 Y94.817 E.03015
G1 X20.836 Y95.774 E.03042
G1 X20.5 Y96.666 E.02989
G1 X19.99 Y97.486 E.03028
G1 X19.338 Y98.183 E.02993
G1 X18.559 Y98.743 E.03008
G1 X17.673 Y99.145 E.03051
G1 X16.739 Y99.362 E.03006
G1 X15.778 Y99.394 E.03015
G1 X14.821 Y99.235 E.03042
G1 X13.929 Y98.899 E.02989
G1 X13.109 Y98.389 E.03028
G1 X12.412 Y97.737 E.02993
G1 X11.847 Y96.948 E.03043
G1 X11.451 Y96.072 E.03014
G1 X11.233 Y95.138 E.03007
G1 X11.201 Y94.177 E.03015
G1 X11.36 Y93.22 E.03042
G1 X11.696 Y92.328 E.02989
G1 X12.191 Y91.528 E.0295
G1 X12.859 Y90.811 E.03073
G1 X13.647 Y90.246 E.0304
G1 X14.509 Y89.854 E.02969
G1 X15.315 Y89.665 E.02596
G1 E-.5 F1800
;WIPE_START
G1 F7200
G1 X15.374 Y89.651 E-.0144
G1 X15.457 Y89.632 E-.02022
G1 X16.418 Y89.6 E-.22836
G1 X17.375 Y89.759 E-.2304
G1 X18.257 Y90.091 E-.22382
G1 X19.075 Y90.596 E-.22832
G1 X19.784 Y91.257 E-.23022
G1 X20.346 Y92.04 E-.22891
G1 X20.744 Y92.916 E-.22852
G1 X20.964 Y93.856 E-.22928
G1 X20.983 Y94.435 E-.13755
;WIPE_END
; printing object Cannon DV Camera Rubber Wheel clip v0.8.stl id:0 copy 0
G1 X15.841 Y93.169 F9000
G1 E2.5 F1200
;TYPE:External perimeter
;WIDTH:0.678456
G1 F900
G1 X16.136 Y93.119 E.01581
;WIDTH:0.673598
G1 X16.627 Y93.22 E.02629
;WIDTH:0.671632
G1 X17.065 Y93.507 E.02738
;WIDTH:0.665752
G1 X17.357 Y93.924 E.02636
;WIDTH:0.679054
G1 X17.451 Y94.228 E.01683
G1 X17.483 Y94.447 E.01171
;WIDTH:0.67517
G1 X17.452 Y94.767 E.0169
G1 X17.353 Y95.088 E.01766
;WIDTH:0.652366
G1 X17.06 Y95.501 E.02566
;WIDTH:0.652946
G1 X16.631 Y95.783 E.02604
;WIDTH:0.653878
G1 X16.138 Y95.885 E.02558
;WIDTH:0.659376
G1 X15.637 Y95.801 E.02604
;WIDTH:0.683974
G1 X15.333 Y95.641 E.01831
G1 X15.089 Y95.44 E.01685
;WIDTH:0.671164
G1 X14.816 Y95.01 E.02661
;WIDTH:0.675422
G1 X14.717 Y94.497 E.02748
;WIDTH:0.676996
G1 X14.813 Y94.003 E.02653
;WIDTH:0.680034
G1 X15.084 Y93.571 E.02702
;WIDTH:0.70056
G1 X15.338 Y93.36 E.01806
G1 X15.634 Y93.204 E.0183
;WIDTH:0.678456
G1 X15.782 Y93.179 E.00793
M106 S255
;LAYER_CHANGE
;Z:0.28
;HEIGHT:0.08
;BEFORE_LAYER_CHANGE
G92 E0
;0.28


G1 E-.5 F1800
;WIPE_START
G1 F7200
G1 X15.841 Y93.169 E-.01421
G1 X16.136 Y93.119 E-.07106
G1 X16.627 Y93.22 E-.11905
G1 X17.065 Y93.507 E-.12437
G1 X17.357 Y93.924 E-.1209
G1 X17.451 Y94.228 E-.07557
G1 X17.483 Y94.447 E-.05256
G1 X17.452 Y94.767 E-.07636
G1 X17.353 Y95.088 E-.07978
G1 X17.06 Y95.501 E-.12026
G1 X16.631 Y95.783 E-.12193
G1 X16.138 Y95.885 E-.11957
G1 X15.637 Y95.801 E-.12065
G1 X15.333 Y95.641 E-.08159
G1 X15.089 Y95.44 E-.07508
G1 X14.816 Y95.01 E-.12097
G1 X14.717 Y94.497 E-.12409
G1 X14.813 Y94.003 E-.11952
G1 X15.084 Y93.571 E-.12112
G1 X15.338 Y93.36 E-.07842
G1 X15.572 Y93.236 E-.06294
;WIPE_END
G1 Z.28 F9000
;AFTER_LAYER_CHANGE
;0.28
M104 S205 ; set temperature
; stop printing object Cannon DV Camera Rubber Wheel clip v0.8.stl id:0 copy 0
G1 Z.28
G1 X13.64 Y89.013
G1 E2.5 F1200
;TYPE:Skirt/Brim
;WIDTH:0.42
G1 F900
G1 X14.128 Y88.79 E.00719
G1 X15.29 Y88.513 E.01601
G1 X16.471 Y88.47 E.01583
G1 X17.651 Y88.662 E.01602
G1 X18.736 Y89.065 E.01551
G1 X19.749 Y89.687 E.01593
G1 X20.62 Y90.495 E.01592
G1 X21.316 Y91.458 E.01592
G1 X21.808 Y92.535 E.01586
G1 X22.082 Y93.688 E.01588
G1 X22.126 Y94.856 E.01566
G1 X21.933 Y96.05 E.01621
G1 X21.524 Y97.147 E.01569
G1 X20.899 Y98.159 E.01594
G1 X20.1 Y99.019 E.01573
G1 X19.144 Y99.711 E.01581
G1 X18.055 Y100.209 E.01604
G1 X16.907 Y100.481 E.01581
G1 X15.725 Y100.524 E.01585
G1 X14.545 Y100.332 E.01602
G1 X13.448 Y99.923 E.01569
G1 X12.436 Y99.298 E.01594
G1 X11.576 Y98.499 E.01573
G1 X10.877 Y97.53 E.01601
G1 X10.386 Y96.454 E.01585
G1 X10.114 Y95.306 E.01581
G1 X10.071 Y94.124 E.01585
G1 X10.263 Y92.944 E.01602
G1 X10.673 Y91.847 E.01569
G1 X11.277 Y90.862 E.01548
G1 X12.096 Y89.975 E.01618
G1 X13.065 Y89.276 E.01601
G1 X13.585 Y89.038 E.00766
G1 X13.585 Y89.038 F9000
G1 X13.741 Y89.379
G1 F900
G1 X14.255 Y89.144 E.00757
G1 X15.346 Y88.886 E.01502
G1 X16.454 Y88.847 E.01485
G1 X17.559 Y89.027 E.015
G1 X18.576 Y89.407 E.01455
G1 X19.524 Y89.99 E.01491
G1 X20.341 Y90.749 E.01494
G1 X20.993 Y91.652 E.01492
G1 X21.454 Y92.662 E.01488
G1 X21.709 Y93.744 E.01489
G1 X21.748 Y94.852 E.01485
G1 X21.568 Y95.958 E.01501
G1 X21.183 Y96.987 E.01472
G1 X20.596 Y97.935 E.01494
G1 X19.846 Y98.74 E.01474
G1 X18.949 Y99.388 E.01483
G1 X17.928 Y99.854 E.01504
G1 X16.851 Y100.108 E.01483
G1 X15.743 Y100.147 E.01485
G1 X14.637 Y99.967 E.01501
G1 X13.608 Y99.581 E.01472
G1 X12.66 Y98.995 E.01493
G1 X11.855 Y98.245 E.01474
G1 X11.2 Y97.336 E.01501
G1 X10.741 Y96.327 E.01485
G1 X10.487 Y95.25 E.01483
G1 X10.448 Y94.142 E.01485
G1 X10.629 Y93.036 E.01502
G1 X11.014 Y92.007 E.01472
G1 X11.582 Y91.084 E.01452
G1 X12.35 Y90.254 E.01515
G1 X13.259 Y89.599 E.01501
G1 X13.687 Y89.404 E.0063
G1 X13.687 Y89.404 F9000
G1 X13.842 Y89.745
G1 F900
G1 X14.382 Y89.499 E.00795
G1 X15.401 Y89.259 E.01403
G1 X16.436 Y89.223 E.01388
G1 X17.467 Y89.393 E.014
G1 X18.417 Y89.749 E.01359
G1 X19.3 Y90.293 E.0139
G1 X20.063 Y91.003 E.01396
G1 X20.669 Y91.846 E.01391
G1 X21.099 Y92.789 E.01389
G1 X21.336 Y93.8 E.01391
G1 X21.372 Y94.835 E.01388
G1 X21.202 Y95.866 E.014
G1 X20.841 Y96.826 E.01374
G1 X20.293 Y97.71 E.01394
G1 X19.592 Y98.462 E.01377
G1 X18.754 Y99.065 E.01383
G1 X17.8 Y99.499 E.01404
G1 X16.795 Y99.735 E.01383
G1 X15.76 Y99.771 E.01388
G1 X14.729 Y99.601 E.014
G1 X13.769 Y99.24 E.01374
G1 X12.885 Y98.692 E.01394
G1 X12.134 Y97.991 E.01376
G1 X11.524 Y97.142 E.01401
G1 X11.096 Y96.199 E.01387
G1 X10.86 Y95.194 E.01383
G1 X10.824 Y94.159 E.01388
G1 X10.994 Y93.128 E.014
G1 X11.355 Y92.168 E.01374
G1 X11.887 Y91.306 E.01357
G1 X12.604 Y90.532 E.01414
G1 X13.453 Y89.923 E.014
G1 X13.787 Y89.77 E.00492
G1 X13.787 Y89.77 F9000
G1 X13.942 Y90.112
G1 F900
G1 X14.509 Y89.854 E.00835
G1 X15.457 Y89.632 E.01305
G1 X16.418 Y89.6 E.01288
G1 X17.375 Y89.759 E.013
G1 X18.257 Y90.091 E.01263
G1 X19.075 Y90.596 E.01288
G1 X19.784 Y91.257 E.01299
G1 X20.346 Y92.04 E.01291
G1 X20.744 Y92.916 E.01289
G1 X20.964 Y93.856 E.01293
G1 X20.995 Y94.817 E.01288
G1 X20.836 Y95.774 E.013
G1 X20.5 Y96.666 E.01277
G1 X19.99 Y97.486 E.01294
G1 X19.338 Y98.183 E.01279
G1 X18.559 Y98.743 E.01285
G1 X17.673 Y99.145 E.01304
G1 X16.739 Y99.362 E.01285
G1 X15.778 Y99.394 E.01288
G1 X14.821 Y99.235 E.013
G1 X13.929 Y98.899 E.01277
G1 X13.109 Y98.389 E.01294
G1 X12.412 Y97.737 E.01279
G1 X11.847 Y96.948 E.013
G1 X11.451 Y96.072 E.01288
G1 X11.233 Y95.138 E.01285
G1 X11.201 Y94.177 E.01288
G1 X11.36 Y93.22 E.013
G1 X11.696 Y92.328 E.01277
G1 X12.191 Y91.528 E.0126
G1 X12.859 Y90.811 E.01313
G1 X13.647 Y90.246 E.01299
G1 X13.888 Y90.136 E.00355
G1 E-.5 F1800
;WIPE_START
G1 F7200
G1 X13.942 Y90.112 E-.01403
G1 X14.509 Y89.854 E-.14795
G1 X15.457 Y89.632 E-.23124
G1 X16.418 Y89.6 E-.22836
G1 X17.375 Y89.759 E-.2304
G1 X18.257 Y90.091 E-.22382
G1 X19.075 Y90.596 E-.22832
G1 X19.784 Y91.257 E-.23022
G1 X20.346 Y92.04 E-.22891
G1 X20.744 Y92.916 E-.22852
G1 X20.752 Y92.95 E-.00823
;WIPE_END
; printing object Cannon DV Camera Rubber Wheel clip v0.8.stl id:0 copy 0
G1 X15.461 Y93.295 F9000
G1 E2.5 F1200
;TYPE:External perimeter
;WIDTH:0.70037
G1 F900
G1 X15.636 Y93.203 E.00449
;WIDTH:0.678462
G1 X16.132 Y93.119 E.01106
;WIDTH:0.674774
G1 X16.627 Y93.22 E.01105
;WIDTH:0.67168
G1 X17.077 Y93.518 E.01175
;WIDTH:0.666208
G1 X17.38 Y93.966 E.01168
;WIDTH:0.66084
G1 X17.488 Y94.497 E.0116
;WIDTH:0.674984
G1 X17.453 Y94.767 E.00596
G1 X17.352 Y95.09 E.0074
;WIDTH:0.652426
G1 X17.059 Y95.502 E.01068
;WIDTH:0.653006
G1 X16.631 Y95.783 E.01083
;WIDTH:0.653876
G1 X16.139 Y95.884 E.01064
;WIDTH:0.659442
G1 X15.639 Y95.802 E.01082
;WIDTH:0.683784
G1 X15.333 Y95.641 E.00767
G1 X15.088 Y95.438 E.00705
;WIDTH:0.671168
G1 X14.815 Y95.009 E.01106
;WIDTH:0.675482
G1 X14.717 Y94.497 E.01141
;WIDTH:0.676994
G1 X14.813 Y94.005 E.011
;WIDTH:0.680096
G1 X15.082 Y93.573 E.01122
;WIDTH:0.70037
G1 X15.338 Y93.36 E.00757
G1 X15.408 Y93.323 E.0018
;LAYER_CHANGE
;Z:0.36
;HEIGHT:0.08
;BEFORE_LAYER_CHANGE
G92 E0
;0.36


G1 E-.5 F1800
;WIPE_START
G1 F7200
G1 X15.461 Y93.295 E-.01424
G1 X15.636 Y93.203 E-.04696
G1 X16.132 Y93.119 E-.11948
G1 X16.627 Y93.22 E-.11998
G1 X17.077 Y93.518 E-.12818
G1 X17.38 Y93.966 E-.12845
G1 X17.488 Y94.497 E-.12869
G1 X17.453 Y94.767 E-.06466
G1 X17.352 Y95.09 E-.08038
G1 X17.059 Y95.502 E-.12007
G1 X16.631 Y95.783 E-.1216
G1 X16.139 Y95.884 E-.11929
G1 X15.639 Y95.802 E-.12034
G1 X15.333 Y95.641 E-.08212
G1 X15.088 Y95.438 E-.07557
G1 X14.815 Y95.009 E-.12077
G1 X14.717 Y94.497 E-.12381
G1 X14.813 Y94.005 E-.11905
G1 X15.082 Y93.573 E-.12087
G1 X15.229 Y93.45 E-.04549
;WIPE_END
G1 Z.36 F9000
;AFTER_LAYER_CHANGE
;0.36
G1 Z.36
G1 X15.236 Y93.445
G1 E2.5 F1200
G1 F900
G1 X15.338 Y93.36 E.00302
G1 X15.635 Y93.203 E.00763
;WIDTH:0.678428
G1 X16.129 Y93.119 E.01102
;WIDTH:0.675456
G1 X16.627 Y93.22 E.01113
;WIDTH:0.671682
G1 X17.064 Y93.507 E.01138
;WIDTH:0.66575
G1 X17.356 Y93.922 E.01095
;WIDTH:0.678872
G1 X17.451 Y94.228 E.00705
G1 X17.483 Y94.445 E.00483
;WIDTH:0.67498
G1 X17.453 Y94.767 E.00708
G1 X17.352 Y95.09 E.0074
;WIDTH:0.65243
G1 X17.059 Y95.502 E.01068
;WIDTH:0.653006
G1 X16.631 Y95.783 E.01083
;WIDTH:0.653876
G1 X16.139 Y95.884 E.01064
;WIDTH:0.659442
G1 X15.639 Y95.802 E.01082
;WIDTH:0.683786
G1 X15.333 Y95.641 E.00767
G1 X15.088 Y95.438 E.00705
;WIDTH:0.671168
G1 X14.815 Y95.009 E.01106
;WIDTH:0.675482
G1 X14.717 Y94.497 E.01141
;WIDTH:0.676992
G1 X14.813 Y94.005 E.011
;WIDTH:0.680096
G1 X15.082 Y93.573 E.01122
;WIDTH:0.70037
G1 X15.19 Y93.483 E.00319
;LAYER_CHANGE
;Z:0.44
;HEIGHT:0.08
;BEFORE_LAYER_CHANGE
G92 E0
;0.44


G1 E-.5 F1800
;WIPE_START
G1 F7200
G1 X15.236 Y93.445 E-.01417
G1 X15.338 Y93.36 E-.03153
G1 X15.635 Y93.203 E-.07979
G1 X16.129 Y93.119 E-.11901
G1 X16.627 Y93.22 E-.12068
G1 X17.064 Y93.507 E-.12417
G1 X17.356 Y93.922 E-.12052
G1 X17.451 Y94.228 E-.0761
G1 X17.483 Y94.445 E-.05209
G1 X17.453 Y94.767 E-.07681
G1 X17.352 Y95.09 E-.08038
G1 X17.059 Y95.502 E-.12007
G1 X16.631 Y95.783 E-.1216
G1 X16.139 Y95.884 E-.11929
G1 X15.639 Y95.802 E-.12034
G1 X15.333 Y95.641 E-.08212
G1 X15.088 Y95.438 E-.07557
G1 X14.815 Y95.009 E-.12077
G1 X14.717 Y94.497 E-.12381
G1 X14.813 Y94.005 E-.11905
G1 X15.041 Y93.64 E-.10213
;WIPE_END
G1 Z.44 F9000
;AFTER_LAYER_CHANGE
;0.44
G1 Z.44
G1 X15.046 Y93.635
G1 E2.5 F1200
G1 F900
G1 X15.174 Y93.481 E.00455
;WIDTH:0.680096
G1 X15.606 Y93.211 E.01123
;WIDTH:0.677
G1 X16.127 Y93.118 E.01161
;WIDTH:0.676154
G1 X16.627 Y93.22 E.01118
;WIDTH:0.671682
G1 X17.077 Y93.518 E.01175
;WIDTH:0.66621
G1 X17.38 Y93.966 E.01168
;WIDTH:0.660838
G1 X17.488 Y94.497 E.0116
;WIDTH:0.674982
G1 X17.453 Y94.767 E.00596
G1 X17.352 Y95.09 E.0074
;WIDTH:0.652428
G1 X17.059 Y95.502 E.01068
;WIDTH:0.653008
G1 X16.631 Y95.783 E.01083
;WIDTH:0.653876
G1 X16.139 Y95.884 E.01064
;WIDTH:0.657852
G1 X15.609 Y95.793 E.01146
;WIDTH:0.663022
G1 X15.153 Y95.506 E.01157
;WIDTH:0.668512
G1 X14.841 Y95.067 E.01167
;WIDTH:0.672778
G1 X14.72 Y94.539 E.01181
;WIDTH:0.67855
G1 X14.804 Y94.036 E.01122
;WIDTH:0.70037
G1 X14.961 Y93.737 E.00767
G1 X15.007 Y93.681 E.00165
;LAYER_CHANGE
;Z:0.52
;HEIGHT:0.08
;BEFORE_LAYER_CHANGE
G92 E0
;0.52


G1 E-.5 F1800
;WIPE_START
G1 F7200
G1 X15.046 Y93.635 E-.01432
G1 X15.174 Y93.481 E-.04756
G1 X15.606 Y93.211 E-.12099
G1 X16.127 Y93.118 E-.12569
G1 X16.627 Y93.22 E-.1212
G1 X17.077 Y93.518 E-.12818
G1 X17.38 Y93.966 E-.12845
G1 X17.488 Y94.497 E-.12869
G1 X17.453 Y94.767 E-.06466
G1 X17.352 Y95.09 E-.08038
G1 X17.059 Y95.502 E-.12007
G1 X16.631 Y95.783 E-.1216
G1 X16.139 Y95.884 E-.11929
G1 X15.609 Y95.793 E-.12772
G1 X15.153 Y95.506 E-.12796
G1 X14.841 Y95.067 E-.12791
G1 X14.72 Y94.539 E-.12865
G1 X14.804 Y94.036 E-.12112
G1 X14.893 Y93.866 E-.04556
;WIPE_END
G1 Z.52 F9000
;AFTER_LAYER_CHANGE
;0.52
G1 Z.52
G1 X14.896 Y93.86
G1 E2.5 F1200
;WIDTH:0.700372
G1 F900
