; generated by PrusaSlicer 2.8.0+MacOS-arm64 on 2024-08-13 at 16:43:20 UTC

; 

; external perimeters extrusion width = 0.42mm
; perimeters extrusion width = 0.44mm
; infill extrusion width = 0.44mm
; solid infill extrusion width = 0.44mm
; top infill extrusion width = 0.40mm
; first layer extrusion width = 0.42mm


; printing object Cannon DV Camera Rubber Wheel clip v0.6.stl id:0 copy 0
; stop printing object Cannon DV Camera Rubber Wheel clip v0.6.stl id:0 copy 0

;TYPE:Custom
G90 ; use absolute coordinates
M83 ; extruder relative mode
M104 S150 ; set temporary nozzle temp to prevent oozing during homing
M140 S60 ; set final bed temp
G4 S30 ; allow partial nozzle warmup
G28 ; home all axis
G1 Z50 F240
G1 X2.0 Y10 F3000
M104 S210 ; set final nozzle temp
M190 S60 ; wait for bed temp to stabilize
M109 S210 ; wait for nozzle temp to stabilize
G1 Z0.28 F240
G92 E0
G1 X2.0 Y140 E10 F1500 ; prime the nozzle
G1 X2.3 Y140 F5000
G92 E0
G1 X2.3 Y10 E10 F1200 ; prime the nozzle
G92 E0
G21 ; set units to millimeters
G90 ; use absolute coordinates
M83 ; use relative distances for extrusion
; Filament gcode
M107
;LAYER_CHANGE
;Z:0.2
;HEIGHT:0.2
G1 E-2.5 F1800
G1 Z.2 F9000
G1 X12.859 Y53.864
G1 Z.2
G1 E2.5 F1200
M204 S500
;TYPE:Skirt/Brim
;WIDTH:0.42
G1 F900
G1 X14.016 Y53.59 E.03728
G1 X15.197 Y53.547 E.03705
G1 X16.361 Y53.735 E.03697
G1 X17.481 Y54.153 E.03748
G1 X18.482 Y54.771 E.03689
G1 X19.354 Y55.584 E.03738
G1 X20.033 Y56.527 E.03643
G1 X20.517 Y57.577 E.03625
G1 X20.802 Y58.761 E.03818
G1 X20.846 Y59.928 E.03662
G1 X20.653 Y61.121 E.03789
G1 X20.245 Y62.213 E.03655
G1 X19.62 Y63.228 E.03737
G1 X18.808 Y64.099 E.03734
G1 X17.835 Y64.796 E.03753
G1 X16.787 Y65.273 E.0361
G1 X15.631 Y65.548 E.03726
G1 X14.45 Y65.591 E.03705
G1 X13.271 Y65.399 E.03745
G1 X12.166 Y64.985 E.037
G1 X11.164 Y64.366 E.03693
G1 X10.293 Y63.554 E.03734
G1 X9.596 Y62.58 E.03755
G1 X9.119 Y61.533 E.03607
G1 X8.849 Y60.409 E.03624
G1 X8.801 Y59.21 E.03762
G1 X8.993 Y58.017 E.03789
G1 X9.407 Y56.911 E.03703
G1 X10.026 Y55.909 E.03693
G1 X10.838 Y55.038 E.03734
G1 X11.812 Y54.341 E.03755
G1 X12.805 Y53.889 E.03421
G1 X12.805 Y53.889 F9000
G1 X12.96 Y54.231
G1 F900
G1 X12.987 Y54.219 E.00093
G1 X14.072 Y53.962 E.03496
G1 X15.179 Y53.923 E.03473
G1 X16.269 Y54.101 E.03463
G1 X17.319 Y54.494 E.03515
G1 X18.258 Y55.074 E.03461
G1 X19.074 Y55.837 E.03503
G1 X19.71 Y56.722 E.03417
G1 X20.206 Y57.828 E.03801
G1 X20.429 Y58.817 E.03179
G1 X20.469 Y59.91 E.03429
G1 X20.288 Y61.029 E.03554
G1 X19.904 Y62.053 E.03429
G1 X19.317 Y63.003 E.03501
G1 X18.555 Y63.819 E.03501
G1 X17.642 Y64.472 E.03519
G1 X16.659 Y64.918 E.03385
G1 X15.575 Y65.175 E.03493
G1 X14.468 Y65.214 E.03473
G1 X13.363 Y65.033 E.03511
G1 X12.327 Y64.644 E.0347
G1 X11.388 Y64.063 E.03462
G1 X10.572 Y63.301 E.03501
G1 X9.92 Y62.388 E.03518
G1 X9.473 Y61.405 E.03386
G1 X9.222 Y60.35 E.034
G1 X9.177 Y59.228 E.03521
G1 X9.359 Y58.109 E.03555
G1 X9.748 Y57.073 E.0347
G1 X10.329 Y56.134 E.03462
G1 X11.091 Y55.318 E.03501
G1 X12.004 Y54.666 E.03518
G1 X12.905 Y54.256 E.03104
G1 X12.905 Y54.256 F9000
G1 X13.061 Y54.598
G1 F900
G1 X13.115 Y54.574 E.00185
G1 X14.127 Y54.335 E.0326
G1 X15.161 Y54.3 E.03244
G1 X16.177 Y54.466 E.03228
G1 X17.158 Y54.834 E.03285
G1 X18.034 Y55.377 E.03232
G1 X18.794 Y56.09 E.03267
G1 X19.387 Y56.917 E.03191
G1 X19.847 Y57.946 E.03534
G1 X20.057 Y58.873 E.0298
G1 X20.092 Y59.892 E.03197
G1 X19.922 Y60.937 E.0332
G1 X19.563 Y61.892 E.03199
G1 X19.014 Y62.779 E.03271
G1 X18.302 Y63.54 E.03268
G1 X17.45 Y64.147 E.0328
G1 X16.531 Y64.564 E.03164
G1 X15.519 Y64.802 E.0326
G1 X14.485 Y64.837 E.03244
G1 X13.455 Y64.668 E.03273
G1 X12.489 Y64.303 E.03238
G1 X11.613 Y63.76 E.03232
G1 X10.852 Y63.048 E.03268
G1 X10.244 Y62.196 E.03282
G1 X9.828 Y61.277 E.03163
G1 X9.594 Y60.292 E.03174
G1 X9.554 Y59.246 E.03282
G1 X9.724 Y58.201 E.0332
G1 X10.089 Y57.234 E.03241
G1 X10.632 Y56.358 E.03232
G1 X11.344 Y55.598 E.03265
G1 X12.196 Y54.99 E.03282
G1 X13.006 Y54.623 E.02788
G1 X13.006 Y54.623 F9000
G1 X13.161 Y54.966
G1 F900
G1 X13.243 Y54.928 E.00283
G1 X14.183 Y54.708 E.03027
G1 X15.143 Y54.677 E.03012
G1 X16.085 Y54.832 E.02993
G1 X16.996 Y55.175 E.03052
G1 X17.809 Y55.68 E.03001
G1 X18.514 Y56.342 E.03032
G1 X19.064 Y57.112 E.02967
G1 X19.489 Y58.064 E.03269
G1 X19.684 Y58.929 E.0278
G1 X19.716 Y59.874 E.02965
G1 X19.556 Y60.845 E.03086
G1 X19.221 Y61.732 E.02973
G1 X18.711 Y62.555 E.03036
G1 X18.049 Y63.26 E.03032
G1 X17.258 Y63.823 E.03044
G1 X16.403 Y64.209 E.02941
G1 X15.463 Y64.429 E.03027
G1 X14.503 Y64.461 E.03012
G1 X13.547 Y64.302 E.03039
G1 X12.65 Y63.962 E.03008
G1 X11.837 Y63.457 E.03001
G1 X11.132 Y62.795 E.03032
G1 X10.569 Y62.003 E.03047
G1 X10.183 Y61.149 E.02938
G1 X9.967 Y60.233 E.02951
G1 X9.931 Y59.263 E.03043
G1 X10.09 Y58.293 E.03082
G1 X10.43 Y57.396 E.03008
G1 X10.935 Y56.583 E.03001
G1 X11.597 Y55.877 E.03035
G1 X12.389 Y55.314 E.03047
G1 X13.106 Y54.99 E.02467
G1 E-.5 F1800
;WIPE_START
G1 F7200
G1 X13.161 Y54.966 E-.01425
G1 X13.243 Y54.928 E-.02146
G1 X14.183 Y54.708 E-.22928
G1 X15.143 Y54.677 E-.22812
G1 X16.085 Y54.832 E-.22673
G1 X16.996 Y55.175 E-.23119
G1 X17.809 Y55.68 E-.22731
G1 X18.514 Y56.342 E-.22968
G1 X19.064 Y57.112 E-.22474
G1 X19.489 Y58.064 E-.24761
G1 X19.6 Y58.555 E-.11963
;WIPE_END
; printing object Cannon DV Camera Rubber Wheel clip v0.6.stl id:0 copy 0
G1 X14.302 Y58.267 F9000
G1 E2.5 F1200
;TYPE:External perimeter
;WIDTH:0.610686
G1 F900
G1 X14.327 Y58.251 E.0014
;WIDTH:0.602846
G1 X14.834 Y58.154 E.02403
;WIDTH:0.595684
G1 X15.367 Y58.255 E.02493
;WIDTH:0.583136
G1 X15.835 Y58.557 E.02502
;WIDTH:0.566078
G1 X16.152 Y59.015 E.02423
;WIDTH:0.55619
G1 X16.231 Y59.288 E.01213
G1 X16.272 Y59.569 E.01212
;WIDTH:0.529144
G1 X16.176 Y60.099 E.02178
;WIDTH:0.535096
G1 X16.025 Y60.373 E.0128
G1 X15.819 Y60.629 E.01345
;WIDTH:0.515456
G1 X15.376 Y60.915 E.02072
;WIDTH:0.522026
G1 X14.882 Y61.016 E.02009
;WIDTH:0.535898
G1 X14.337 Y60.924 E.02266
;WIDTH:0.555198
G1 X13.866 Y60.632 E.02361
;WIDTH:0.573624
G1 X13.539 Y60.178 E.02469
;WIDTH:0.590686
G1 X13.411 Y59.631 E.02559
;WIDTH:0.60423
G1 X13.498 Y59.1 E.02511
;WIDTH:0.631962
G1 X13.661 Y58.792 E.01707
G1 X13.87 Y58.537 E.01615
;WIDTH:0.610686
G1 X14.252 Y58.298 E.02127
M106 S255
;LAYER_CHANGE
;Z:0.28
;HEIGHT:0.08
;BEFORE_LAYER_CHANGE
G92 E0
;0.28


G1 E-.5 F1800
;WIPE_START
G1 F7200
G1 X14.302 Y58.267 E-.01397
G1 X14.327 Y58.251 E-.00705
G1 X14.834 Y58.154 E-.1226
G1 X15.367 Y58.255 E-.12884
G1 X15.835 Y58.557 E-.13228
G1 X16.152 Y59.015 E-.13229
G1 X16.231 Y59.288 E-.0675
G1 X16.272 Y59.569 E-.06744
G1 X16.176 Y60.099 E-.12792
G1 X16.025 Y60.373 E-.0743
G1 X15.819 Y60.629 E-.07804
G1 X15.376 Y60.915 E-.12523
G1 X14.882 Y61.016 E-.11975
G1 X14.337 Y60.924 E-.13127
G1 X13.866 Y60.632 E-.13162
G1 X13.539 Y60.178 E-.13288
G1 X13.411 Y59.631 E-.13342
G1 X13.498 Y59.1 E-.12779
G1 X13.661 Y58.792 E-.08276
G1 X13.829 Y58.587 E-.06305
;WIPE_END
G1 Z.28 F9000
;AFTER_LAYER_CHANGE
;0.28
M104 S205 ; set temperature
; stop printing object Cannon DV Camera Rubber Wheel clip v0.6.stl id:0 copy 0
G1 Z.28
G1 X10.459 Y55.445
G1 E2.5 F1200
;TYPE:Skirt/Brim
;WIDTH:0.42
G1 F900
G1 X10.838 Y55.038 E.00745
G1 X11.812 Y54.341 E.01605
G1 X12.859 Y53.864 E.01542
G1 X14.016 Y53.59 E.01593
G1 X15.197 Y53.547 E.01583
G1 X16.361 Y53.735 E.0158
G1 X17.481 Y54.153 E.01602
G1 X18.482 Y54.771 E.01576
G1 X19.354 Y55.584 E.01597
G1 X20.033 Y56.527 E.01557
G1 X20.517 Y57.577 E.01549
G1 X20.802 Y58.761 E.01632
G1 X20.846 Y59.928 E.01565
G1 X20.653 Y61.121 E.01619
G1 X20.245 Y62.213 E.01562
G1 X19.62 Y63.228 E.01597
G1 X18.808 Y64.099 E.01595
G1 X17.835 Y64.796 E.01604
G1 X16.787 Y65.273 E.01543
G1 X15.631 Y65.548 E.01592
G1 X14.45 Y65.591 E.01583
G1 X13.271 Y65.399 E.016
G1 X12.166 Y64.985 E.01581
G1 X11.164 Y64.366 E.01578
G1 X10.293 Y63.554 E.01595
G1 X9.596 Y62.58 E.01605
G1 X9.119 Y61.533 E.01542
G1 X8.849 Y60.409 E.01549
G1 X8.801 Y59.21 E.01608
G1 X8.993 Y58.017 E.01619
G1 X9.407 Y56.911 E.01582
G1 X10.026 Y55.909 E.01578
G1 X10.418 Y55.489 E.0077
G1 X10.418 Y55.489 F9000
G1 X10.692 Y55.745
G1 F900
G1 X11.091 Y55.318 E.00783
G1 X12.004 Y54.666 E.01503
G1 X12.987 Y54.219 E.01447
G1 X14.072 Y53.962 E.01494
G1 X15.179 Y53.923 E.01484
G1 X16.269 Y54.101 E.0148
G1 X17.319 Y54.494 E.01502
G1 X18.258 Y55.074 E.01479
G1 X19.074 Y55.837 E.01497
G1 X19.71 Y56.722 E.0146
G1 X20.206 Y57.828 E.01624
G1 X20.429 Y58.817 E.01358
G1 X20.469 Y59.91 E.01465
G1 X20.288 Y61.029 E.01519
G1 X19.904 Y62.053 E.01465
G1 X19.317 Y63.003 E.01496
G1 X18.555 Y63.819 E.01496
G1 X17.642 Y64.472 E.01504
G1 X16.659 Y64.918 E.01446
G1 X15.575 Y65.175 E.01493
G1 X14.468 Y65.214 E.01484
G1 X13.363 Y65.033 E.015
G1 X12.327 Y64.644 E.01483
G1 X11.388 Y64.063 E.01479
G1 X10.572 Y63.301 E.01496
G1 X9.92 Y62.388 E.01503
G1 X9.473 Y61.405 E.01447
G1 X9.222 Y60.35 E.01453
G1 X9.177 Y59.228 E.01504
G1 X9.359 Y58.109 E.01519
G1 X9.748 Y57.073 E.01483
G1 X10.329 Y56.134 E.01479
G1 X10.651 Y55.789 E.00632
G1 X10.651 Y55.789 F9000
G1 X10.925 Y56.045
G1 F900
G1 X11.344 Y55.598 E.00821
G1 X12.196 Y54.99 E.01402
G1 X13.115 Y54.574 E.01352
G1 X14.127 Y54.335 E.01393
G1 X15.161 Y54.3 E.01386
G1 X16.177 Y54.466 E.01379
G1 X17.158 Y54.834 E.01404
G1 X18.034 Y55.377 E.01381
G1 X18.794 Y56.09 E.01396
G1 X19.387 Y56.917 E.01363
G1 X19.847 Y57.946 E.0151
G1 X20.057 Y58.873 E.01273
G1 X20.092 Y59.892 E.01366
G1 X19.922 Y60.937 E.01419
G1 X19.563 Y61.892 E.01367
G1 X19.014 Y62.779 E.01398
G1 X18.302 Y63.54 E.01396
G1 X17.45 Y64.147 E.01402
G1 X16.531 Y64.564 E.01352
G1 X15.519 Y64.802 E.01393
G1 X14.485 Y64.837 E.01386
G1 X13.455 Y64.668 E.01398
G1 X12.489 Y64.303 E.01384
G1 X11.613 Y63.76 E.01381
G1 X10.852 Y63.048 E.01396
G1 X10.244 Y62.196 E.01402
G1 X9.828 Y61.277 E.01352
G1 X9.594 Y60.292 E.01356
G1 X9.554 Y59.246 E.01402
G1 X9.724 Y58.201 E.01419
G1 X10.089 Y57.234 E.01385
G1 X10.632 Y56.358 E.01381
G1 X10.884 Y56.089 E.00494
G1 X10.884 Y56.089 F9000
G1 X11.158 Y56.346
G1 F900
G1 X11.597 Y55.877 E.00861
G1 X12.389 Y55.314 E.01302
G1 X13.243 Y54.928 E.01256
G1 X14.183 Y54.708 E.01293
G1 X15.143 Y54.677 E.01287
G1 X16.085 Y54.832 E.01279
G1 X16.996 Y55.175 E.01304
G1 X17.809 Y55.68 E.01282
G1 X18.514 Y56.342 E.01296
G1 X19.064 Y57.112 E.01268
G1 X19.489 Y58.064 E.01397
G1 X19.684 Y58.929 E.01188
G1 X19.716 Y59.874 E.01267
G1 X19.556 Y60.845 E.01319
G1 X19.221 Y61.732 E.0127
G1 X18.711 Y62.555 E.01297
G1 X18.049 Y63.26 E.01296
G1 X17.258 Y63.823 E.01301
G1 X16.403 Y64.209 E.01257
G1 X15.463 Y64.429 E.01293
G1 X14.503 Y64.461 E.01287
G1 X13.547 Y64.302 E.01298
G1 X12.65 Y63.962 E.01285
G1 X11.837 Y63.457 E.01282
G1 X11.132 Y62.795 E.01296
G1 X10.569 Y62.003 E.01302
G1 X10.183 Y61.149 E.01256
G1 X9.967 Y60.233 E.01261
G1 X9.931 Y59.263 E.01301
G1 X10.09 Y58.293 E.01317
G1 X10.43 Y57.396 E.01285
G1 X10.935 Y56.583 E.01282
G1 X11.117 Y56.389 E.00356
G1 E-.5 F1800
;WIPE_START
G1 F7200
G1 X11.158 Y56.346 E-.01411
G1 X11.597 Y55.877 E-.15257
G1 X12.389 Y55.314 E-.23078
G1 X13.243 Y54.928 E-.22258
G1 X14.183 Y54.708 E-.22928
G1 X15.143 Y54.677 E-.22812
G1 X16.085 Y54.832 E-.22673
G1 X16.996 Y55.175 E-.23119
G1 X17.809 Y55.68 E-.22731
G1 X18.514 Y56.342 E-.22968
G1 X18.533 Y56.368 E-.00765
;WIPE_END
; printing object Cannon DV Camera Rubber Wheel clip v0.6.stl id:0 copy 0
G1 X13.745 Y58.691 F9000
G1 E2.5 F1200
;TYPE:External perimeter
;WIDTH:0.631778
G1 F900
G1 X13.872 Y58.536 E.0041
;WIDTH:0.61075
G1 X14.328 Y58.251 E.01062
;WIDTH:0.60285
G1 X14.836 Y58.154 E.01007
;WIDTH:0.595654
G1 X15.367 Y58.255 E.0104
;WIDTH:0.583024
G1 X15.835 Y58.557 E.01048
;WIDTH:0.565918
G1 X16.154 Y59.018 E.01023
;WIDTH:0.545506
G1 X16.272 Y59.569 E.0099
;WIDTH:0.529078
G1 X16.176 Y60.096 E.00912
;WIDTH:0.534916
G1 X16.026 Y60.373 E.00542
G1 X15.817 Y60.63 E.0057
;WIDTH:0.516748
G1 X15.351 Y60.922 E.00914
;WIDTH:0.530082
G1 X14.809 Y61.016 E.00938
;WIDTH:0.546036
G1 X14.267 Y60.897 E.00976
;WIDTH:0.566282
G1 X13.809 Y60.577 E.0102
;WIDTH:0.583024
G1 X13.51 Y60.113 E.01039
;WIDTH:0.590688
G1 X13.411 Y59.632 E.00937
;WIDTH:0.604298
G1 X13.497 Y59.102 E.01049
;WIDTH:0.631778
G1 X13.661 Y58.792 E.00717
G1 X13.706 Y58.737 E.00145
;LAYER_CHANGE
;Z:0.36
;HEIGHT:0.08
;BEFORE_LAYER_CHANGE
G92 E0
;0.36


G1 E-.5 F1800
;WIPE_START
G1 F7200
G1 X13.745 Y58.691 E-.01432
G1 X13.872 Y58.536 E-.04759
G1 X14.328 Y58.251 E-.12771
G1 X14.836 Y58.154 E-.12283
G1 X15.367 Y58.255 E-.12837
G1 X15.835 Y58.557 E-.13228
G1 X16.154 Y59.018 E-.13314
G1 X16.272 Y59.569 E-.13383
G1 X16.176 Y60.096 E-.12722
G1 X16.026 Y60.373 E-.07481
G1 X15.817 Y60.63 E-.07867
G1 X15.351 Y60.922 E-.13061
G1 X14.809 Y61.016 E-.13065
G1 X14.267 Y60.897 E-.13179
G1 X13.809 Y60.577 E-.1327
G1 X13.51 Y60.113 E-.1311
G1 X13.411 Y59.632 E-.11663
G1 X13.483 Y59.192 E-.10575
;WIPE_END
G1 Z.36 F9000
;AFTER_LAYER_CHANGE
;0.36
G1 Z.36
G1 X13.483 Y59.187
G1 E2.5 F1200
;WIDTH:0.602852
G1 F900
G1 X13.505 Y59.074 E.00224
;WIDTH:0.610748
G1 X13.79 Y58.618 E.01062
;WIDTH:0.631776
G1 X14.046 Y58.407 E.00678
G1 X14.355 Y58.243 E.00715
;WIDTH:0.604178
G1 X14.874 Y58.156 E.01027
;WIDTH:0.59343
G1 X15.367 Y58.255 E.00964
;WIDTH:0.583022
G1 X15.835 Y58.557 E.01048
;WIDTH:0.565916
G1 X16.154 Y59.018 E.01023
;WIDTH:0.545506
G1 X16.272 Y59.569 E.0099
;WIDTH:0.529078
G1 X16.176 Y60.096 E.00912
;WIDTH:0.534916
G1 X16.026 Y60.373 E.00542
G1 X15.817 Y60.63 E.0057
;WIDTH:0.51675
G1 X15.351 Y60.922 E.00914
;WIDTH:0.530082
G1 X14.809 Y61.016 E.00938
;WIDTH:0.546038
G1 X14.267 Y60.897 E.00976
;WIDTH:0.566282
G1 X13.809 Y60.577 E.0102
;WIDTH:0.58381
G1 X13.507 Y60.103 E.01059
;WIDTH:0.597626
G1 X13.408 Y59.569 E.01049
;WIDTH:0.602852
G1 X13.472 Y59.246 E.00641
;LAYER_CHANGE
;Z:0.44
;HEIGHT:0.08
;BEFORE_LAYER_CHANGE
G92 E0
;0.44


G1 E-.5 F1800
;WIPE_START
G1 F7200
G1 X13.483 Y59.187 E-.01425
G1 X13.505 Y59.074 E-.02734
G1 X13.79 Y58.618 E-.12771
G1 X14.046 Y58.407 E-.07879
G1 X14.355 Y58.243 E-.08308
G1 X14.874 Y58.156 E-.12498
G1 X15.367 Y58.255 E-.11942
G1 X15.835 Y58.557 E-.13228
G1 X16.154 Y59.018 E-.13314
G1 X16.272 Y59.569 E-.13383
G1 X16.176 Y60.096 E-.12722
G1 X16.026 Y60.373 E-.07481
G1 X15.817 Y60.63 E-.07867
G1 X15.351 Y60.922 E-.13061
G1 X14.809 Y61.016 E-.13065
G1 X14.267 Y60.897 E-.13179
G1 X13.809 Y60.577 E-.1327
G1 X13.507 Y60.103 E-.13348
G1 X13.442 Y59.75 E-.08525
;WIPE_END
G1 Z.44 F9000
;AFTER_LAYER_CHANGE
;0.44
G1 Z.44
G1 X13.441 Y59.744
G1 E2.5 F1200
;WIDTH:0.597626
G1 F900
G1 X13.408 Y59.569 E.00344
;WIDTH:0.602852
G1 X13.505 Y59.074 E.00983
;WIDTH:0.610748
G1 X13.79 Y58.618 E.01062
;WIDTH:0.631776
G1 X14.046 Y58.407 E.00678
G1 X14.355 Y58.243 E.00715
;WIDTH:0.604148
G1 X14.871 Y58.156 E.01022
;WIDTH:0.594138
G1 X15.367 Y58.255 E.00971
;WIDTH:0.583024
G1 X15.835 Y58.557 E.01048
;WIDTH:0.565916
G1 X16.151 Y59.012 E.01011
;WIDTH:0.556006
G1 X16.231 Y59.288 E.00515
G1 X16.272 Y59.569 E.00509
;WIDTH:0.529078
G1 X16.176 Y60.096 E.00912
;WIDTH:0.534914
G1 X16.026 Y60.373 E.00542
G1 X15.817 Y60.63 E.0057
;WIDTH:0.516748
G1 X15.351 Y60.922 E.00914
;WIDTH:0.530082
G1 X14.809 Y61.016 E.00938
;WIDTH:0.546038
G1 X14.267 Y60.897 E.00976
;WIDTH:0.566282
G1 X13.809 Y60.577 E.0102
;WIDTH:0.58381
G1 X13.507 Y60.103 E.01059
;WIDTH:0.597626
G1 X13.452 Y59.803 E.00589
;LAYER_CHANGE
;Z:0.52
;HEIGHT:0.08
;BEFORE_LAYER_CHANGE
G92 E0
;0.52


G1 E-.5 F1800
;WIPE_START
G1 F7200
G1 X13.441 Y59.744 E-.01425
G1 X13.408 Y59.569 E-.0423
G1 X13.505 Y59.074 E-.1198
G1 X13.79 Y58.618 E-.12771
G1 X14.046 Y58.407 E-.07879
G1 X14.355 Y58.243 E-.08308
G1 X14.871 Y58.156 E-.12428
G1 X15.367 Y58.255 E-.12012
G1 X15.835 Y58.557 E-.13228
G1 X16.151 Y59.012 E-.13157
G1 X16.231 Y59.288 E-.06825
G1 X16.272 Y59.569 E-.06744
G1 X16.176 Y60.096 E-.12722
G1 X16.026 Y60.373 E-.07481
G1 X15.817 Y60.63 E-.07867
G1 X15.351 Y60.922 E-.13061
G1 X14.809 Y61.016 E-.13065
G1 X14.267 Y60.897 E-.13179
G1 X13.809 Y60.577 E-.1327
G1 X13.62 Y60.28 E-.08368
;WIPE_END
G1 Z.52 F9000
;AFTER_LAYER_CHANGE
;0.52
G1 Z.52
G1 X13.613 Y60.27
G1 E2.5 F1200
;WIDTH:0.58381
G1 F900
G1 X13.507 Y60.103 E.00373
;WIDTH:0.597626
G1 X13.408 Y59.569 E.01049
;WIDTH:0.602852
G1 X13.505 Y59.074 E.00983
;WIDTH:0.610748
