; generated by PrusaSlicer 2.8.0+MacOS-arm64 on 2024-08-13 at 16:52:41 UTC

; 

; external perimeters extrusion width = 0.42mm
; perimeters extrusion width = 0.44mm
; infill extrusion width = 0.44mm
; solid infill extrusion width = 0.44mm
; top infill extrusion width = 0.40mm
; first layer extrusion width = 0.42mm


; printing object Cannon DV Camera Rubber Wheel clip v0.7.stl id:0 copy 0
; stop printing object Cannon DV Camera Rubber Wheel clip v0.7.stl id:0 copy 0

;TYPE:Custom
G90 ; use absolute coordinates
M83 ; extruder relative mode
M104 S150 ; set temporary nozzle temp to prevent oozing during homing
M140 S60 ; set final bed temp
G4 S30 ; allow partial nozzle warmup
G28 ; home all axis
G1 Z50 F240
G1 X2.0 Y10 F3000
M104 S210 ; set final nozzle temp
M190 S60 ; wait for bed temp to stabilize
M109 S210 ; wait for nozzle temp to stabilize
G1 Z0.28 F240
G92 E0
G1 X2.0 Y140 E10 F1500 ; prime the nozzle
G1 X2.3 Y140 F5000
G92 E0
G1 X2.3 Y10 E10 F1200 ; prime the nozzle
G92 E0
G21 ; set units to millimeters
G90 ; use absolute coordinates
M83 ; use relative distances for extrusion
; Filament gcode
M107
;LAYER_CHANGE
;Z:0.2
;HEIGHT:0.2
G1 E-2.5 F1800
G1 Z.2 F9000
G1 X26.509 Y10.448
G1 Z.2
G1 E2.5 F1200
M204 S500
;TYPE:Skirt/Brim
;WIDTH:0.42
G1 F900
G1 X27.128 Y9.446 E.03693
G1 X27.941 Y8.575 E.03736
G1 X28.914 Y7.878 E.03753
G1 X29.948 Y7.406 E.03564
G1 X31.112 Y7.127 E.03753
G1 X32.299 Y7.083 E.03724
G1 X33.445 Y7.267 E.03639
G1 X34.583 Y7.689 E.03806
G1 X35.585 Y8.308 E.03693
G1 X36.456 Y9.12 E.03734
G1 X37.145 Y10.081 E.03708
G1 X37.63 Y11.141 E.03655
G1 X37.905 Y12.298 E.03729
G1 X37.947 Y13.479 E.03705
G1 X37.756 Y14.657 E.03742
G1 X37.347 Y15.75 E.03659
G1 X36.723 Y16.765 E.03736
G1 X35.91 Y17.636 E.03736
G1 X34.937 Y18.333 E.03753
G1 X33.889 Y18.81 E.0361
G1 X32.733 Y19.085 E.03726
G1 X31.552 Y19.127 E.03705
G1 X30.374 Y18.936 E.03742
G1 X29.268 Y18.521 E.03704
G1 X28.266 Y17.903 E.03691
G1 X27.395 Y17.09 E.03736
G1 X26.698 Y16.117 E.03753
G1 X26.226 Y15.083 E.03564
G1 X25.951 Y13.946 E.03668
G1 X25.903 Y12.746 E.03766
G1 X26.095 Y11.554 E.03786
G1 X26.488 Y10.504 E.03515
G1 X26.488 Y10.504 F9000
G1 X26.84 Y10.636
G1 F900
G1 X26.85 Y10.609 E.0009
G1 X27.431 Y9.671 E.0346
G1 X28.193 Y8.855 E.03501
G1 X29.106 Y8.202 E.03519
G1 X30.076 Y7.76 E.03342
G1 X31.168 Y7.5 E.0352
G1 X32.281 Y7.46 E.03492
G1 X33.355 Y7.633 E.03411
G1 X34.421 Y8.03 E.03567
G1 X35.36 Y8.611 E.03462
G1 X36.176 Y9.373 E.03501
G1 X36.821 Y10.274 E.03474
G1 X37.275 Y11.269 E.03429
G1 X37.532 Y12.354 E.03496
G1 X37.571 Y13.461 E.03473
G1 X37.39 Y14.565 E.03508
G1 X37.006 Y15.589 E.03429
G1 X36.42 Y16.54 E.03502
G1 X35.657 Y17.356 E.03503
G1 X34.745 Y18.008 E.03515
G1 X33.761 Y18.455 E.03389
G1 X32.677 Y18.712 E.03493
G1 X31.57 Y18.751 E.03473
G1 X30.466 Y18.57 E.03508
G1 X29.429 Y18.18 E.03474
G1 X28.491 Y17.6 E.03458
G1 X27.675 Y16.837 E.03503
G1 X27.022 Y15.925 E.03517
G1 X26.581 Y14.955 E.03341
G1 X26.324 Y13.887 E.03444
G1 X26.279 Y12.764 E.03524
G1 X26.461 Y11.645 E.03555
G1 X26.819 Y10.693 E.03189
G1 X26.819 Y10.693 F9000
G1 X27.171 Y10.825
G1 F900
G1 X27.191 Y10.771 E.00181
G1 X27.734 Y9.895 E.03232
G1 X28.446 Y9.134 E.03268
G1 X29.299 Y8.527 E.03283
G1 X30.204 Y8.115 E.03118
G1 X31.224 Y7.873 E.03287
G1 X32.263 Y7.837 E.0326
G1 X33.266 Y8 E.03186
G1 X34.26 Y8.371 E.03327
G1 X35.136 Y8.914 E.03232
G1 X35.896 Y9.626 E.03265
G1 X36.497 Y10.466 E.03238
G1 X36.92 Y11.397 E.03206
G1 X37.159 Y12.409 E.0326
G1 X37.194 Y13.443 E.03244
G1 X37.024 Y14.473 E.03273
G1 X36.665 Y15.429 E.03202
G1 X36.117 Y16.316 E.03269
G1 X35.404 Y17.076 E.03267
G1 X34.552 Y17.684 E.03282
G1 X33.633 Y18.1 E.03163
G1 X32.621 Y18.339 E.0326
G1 X31.588 Y18.374 E.03241
G1 X30.558 Y18.204 E.03273
G1 X29.591 Y17.84 E.0324
G1 X28.715 Y17.297 E.03232
G1 X27.954 Y16.584 E.0327
G1 X27.347 Y15.732 E.0328
G1 X26.935 Y14.827 E.03118
G1 X26.696 Y13.828 E.03221
G1 X26.656 Y12.782 E.03282
G1 X26.826 Y11.737 E.0332
G1 X27.149 Y10.881 E.02869
G1 X27.149 Y10.881 F9000
G1 X27.501 Y11.014
G1 F900
G1 X27.532 Y10.932 E.00275
G1 X28.037 Y10.119 E.03001
G1 X28.699 Y9.414 E.03032
G1 X29.491 Y8.851 E.03047
G1 X30.332 Y8.47 E.02895
G1 X31.279 Y8.246 E.03051
G1 X32.245 Y8.213 E.03031
G1 X33.177 Y8.366 E.02961
G1 X34.098 Y8.712 E.03085
G1 X34.911 Y9.217 E.03001
G1 X35.617 Y9.879 E.03035
G1 X36.172 Y10.658 E.02999
G1 X36.566 Y11.525 E.02986
G1 X36.786 Y12.465 E.03027
G1 X36.817 Y13.425 E.03012
G1 X36.659 Y14.381 E.03038
G1 X36.323 Y15.269 E.02977
G1 X35.814 Y16.091 E.03031
G1 X35.152 Y16.797 E.03035
G1 X34.36 Y17.36 E.03047
G1 X33.505 Y17.746 E.02941
G1 X32.565 Y17.966 E.03027
G1 X31.606 Y17.997 E.03008
G1 X30.65 Y17.839 E.03038
G1 X29.752 Y17.499 E.03011
G1 X28.94 Y16.994 E.02998
G1 X28.234 Y16.332 E.03035
G1 X27.671 Y15.54 E.03047
G1 X27.29 Y14.699 E.02895
G1 X27.069 Y13.77 E.02994
G1 X27.033 Y12.8 E.03043
G1 X27.192 Y11.829 E.03085
G1 X27.48 Y11.07 E.02545
G1 E-.5 F1800
;WIPE_START
G1 F7200
G1 X27.501 Y11.014 E-.0142
G1 X27.532 Y10.932 E-.02082
G1 X28.037 Y10.119 E-.22731
G1 X28.699 Y9.414 E-.22968
G1 X29.491 Y8.851 E-.23078
G1 X30.332 Y8.47 E-.21928
G1 X31.279 Y8.246 E-.23112
G1 X32.245 Y8.213 E-.22956
G1 X33.177 Y8.366 E-.22431
G1 X34.098 Y8.712 E-.23366
G1 X34.596 Y9.022 E-.13928
;WIPE_END
; printing object Cannon DV Camera Rubber Wheel clip v0.7.stl id:0 copy 0
G1 X30.681 Y12.61 F9000
G1 E2.5 F1200
;TYPE:External perimeter
;WIDTH:0.709594
G1 F900
G1 X30.836 Y12.302 E.01911
;WIDTH:0.724334
G1 X31.174 Y11.982 E.02637
G1 X31.407 Y11.855 E.01504
;WIDTH:0.71836
G1 X31.891 Y11.745 E.02788
;WIDTH:0.698662
G1 X32.365 Y11.809 E.02608
;WIDTH:0.677202
G1 X32.837 Y12.071 E.02847
;WIDTH:0.65881
G1 X33.141 Y12.443 E.0246
;WIDTH:0.65187
G1 X33.286 Y12.835 E.02116
G1 X33.318 Y13.007 E.00886
;WIDTH:0.623184
G1 X33.259 Y13.535 E.02563
;WIDTH:0.610248
G1 X33.008 Y14 E.02493
;WIDTH:0.606852
G1 X32.599 Y14.336 E.02482
;WIDTH:0.620672
G1 X32.143 Y14.487 E.02308
;WIDTH:0.635146
G1 X31.612 Y14.462 E.02618
;WIDTH:0.653616
G1 X31.129 Y14.237 E.02706
;WIDTH:0.68003
G1 X30.784 Y13.869 E.02672
;WIDTH:0.697962
G1 X30.665 Y13.627 E.01469
G1 X30.569 Y13.214 E.02309
;WIDTH:0.69764
G1 X30.62 Y12.732 E.02639
;WIDTH:0.709594
G1 X30.654 Y12.664 E.00421
M106 S255
;LAYER_CHANGE
;Z:0.28
;HEIGHT:0.08
;BEFORE_LAYER_CHANGE
G92 E0
;0.28


G1 E-.5 F1800
;WIPE_START
G1 F7200
G1 X30.681 Y12.61 E-.01434
G1 X30.836 Y12.302 E-.08189
G1 X31.174 Y11.982 E-.11054
G1 X31.407 Y11.855 E-.06302
G1 X31.891 Y11.745 E-.11788
G1 X32.365 Y11.809 E-.1136
G1 X32.837 Y12.071 E-.12821
G1 X33.141 Y12.443 E-.1141
G1 X33.286 Y12.835 E-.09927
G1 X33.318 Y13.007 E-.04155
G1 X33.259 Y13.535 E-.12618
G1 X33.008 Y14 E-.1255
G1 X32.599 Y14.336 E-.12571
G1 X32.143 Y14.487 E-.11408
G1 X31.612 Y14.462 E-.12625
G1 X31.129 Y14.237 E-.12655
G1 X30.784 Y13.869 E-.1198
G1 X30.665 Y13.627 E-.06405
G1 X30.569 Y13.214 E-.1007
G1 X30.607 Y12.851 E-.08678
;WIPE_END
G1 Z.28 F9000
;AFTER_LAYER_CHANGE
;0.28
M104 S205 ; set temperature
; stop printing object Cannon DV Camera Rubber Wheel clip v0.7.stl id:0 copy 0
G1 Z.28
G1 X26.006 Y12.109
G1 E2.5 F1200
;TYPE:Skirt/Brim
;WIDTH:0.42
G1 F900
G1 X26.095 Y11.554 E.00753
G1 X26.509 Y10.448 E.01582
G1 X27.128 Y9.446 E.01578
G1 X27.941 Y8.575 E.01596
G1 X28.914 Y7.878 E.01604
G1 X29.948 Y7.406 E.01523
G1 X31.112 Y7.127 E.01604
G1 X32.299 Y7.083 E.01591
G1 X33.445 Y7.267 E.01555
G1 X34.583 Y7.689 E.01626
G1 X35.585 Y8.308 E.01578
G1 X36.456 Y9.12 E.01595
G1 X37.145 Y10.081 E.01584
G1 X37.63 Y11.141 E.01562
G1 X37.905 Y12.298 E.01593
G1 X37.947 Y13.479 E.01583
G1 X37.756 Y14.657 E.01599
G1 X37.347 Y15.75 E.01564
G1 X36.723 Y16.765 E.01596
G1 X35.91 Y17.636 E.01596
G1 X34.937 Y18.333 E.01604
G1 X33.889 Y18.81 E.01543
G1 X32.733 Y19.085 E.01592
G1 X31.552 Y19.127 E.01583
G1 X30.374 Y18.936 E.01599
G1 X29.268 Y18.521 E.01583
G1 X28.266 Y17.903 E.01577
G1 X27.395 Y17.09 E.01596
G1 X26.698 Y16.117 E.01604
G1 X26.226 Y15.083 E.01523
G1 X25.951 Y13.946 E.01567
G1 X25.903 Y12.746 E.01609
G1 X25.996 Y12.168 E.00784
G1 X25.996 Y12.168 F9000
G1 X26.366 Y12.228
G1 F900
G1 X26.461 Y11.645 E.00791
G1 X26.85 Y10.609 E.01483
G1 X27.431 Y9.671 E.01478
G1 X28.193 Y8.855 E.01496
G1 X29.106 Y8.202 E.01504
G1 X30.076 Y7.76 E.01428
G1 X31.168 Y7.5 E.01504
G1 X32.281 Y7.46 E.01492
G1 X33.355 Y7.633 E.01458
G1 X34.421 Y8.03 E.01524
G1 X35.36 Y8.611 E.01479
G1 X36.176 Y9.373 E.01496
G1 X36.821 Y10.274 E.01485
G1 X37.275 Y11.269 E.01465
G1 X37.532 Y12.354 E.01494
G1 X37.571 Y13.461 E.01484
G1 X37.39 Y14.565 E.01499
G1 X37.006 Y15.589 E.01465
G1 X36.42 Y16.54 E.01497
G1 X35.657 Y17.356 E.01497
G1 X34.745 Y18.008 E.01502
G1 X33.761 Y18.455 E.01448
G1 X32.677 Y18.712 E.01493
G1 X31.57 Y18.751 E.01484
G1 X30.466 Y18.57 E.01499
G1 X29.429 Y18.18 E.01484
G1 X28.491 Y17.6 E.01478
G1 X27.675 Y16.837 E.01497
G1 X27.022 Y15.925 E.01503
G1 X26.581 Y14.955 E.01428
G1 X26.324 Y13.887 E.01472
G1 X26.279 Y12.764 E.01506
G1 X26.357 Y12.288 E.00646
G1 X26.357 Y12.288 F9000
G1 X26.727 Y12.348
G1 F900
G1 X26.826 Y11.737 E.00829
G1 X27.191 Y10.771 E.01384
G1 X27.734 Y9.895 E.01381
G1 X28.446 Y9.134 E.01396
G1 X29.299 Y8.527 E.01403
G1 X30.204 Y8.115 E.01332
G1 X31.224 Y7.873 E.01405
G1 X32.263 Y7.837 E.01393
G1 X33.266 Y8 E.01361
G1 X34.26 Y8.371 E.01422
G1 X35.136 Y8.914 E.01381
G1 X35.896 Y9.626 E.01395
G1 X36.497 Y10.466 E.01384
G1 X36.92 Y11.397 E.0137
G1 X37.159 Y12.409 E.01393
G1 X37.194 Y13.443 E.01386
G1 X37.024 Y14.473 E.01399
G1 X36.665 Y15.429 E.01368
G1 X36.117 Y16.316 E.01397
G1 X35.404 Y17.076 E.01396
G1 X34.552 Y17.684 E.01402
G1 X33.633 Y18.1 E.01352
G1 X32.621 Y18.339 E.01393
G1 X31.588 Y18.374 E.01385
G1 X30.558 Y18.204 E.01399
G1 X29.591 Y17.84 E.01384
G1 X28.715 Y17.297 E.01381
G1 X27.954 Y16.584 E.01397
G1 X27.347 Y15.732 E.01402
G1 X26.935 Y14.827 E.01332
G1 X26.696 Y13.828 E.01376
G1 X26.656 Y12.782 E.01402
G1 X26.717 Y12.407 E.00509
G1 X26.717 Y12.407 F9000
G1 X27.087 Y12.468
G1 F900
G1 X27.192 Y11.829 E.00868
G1 X27.532 Y10.932 E.01285
G1 X28.037 Y10.119 E.01282
G1 X28.699 Y9.414 E.01296
G1 X29.491 Y8.851 E.01302
G1 X30.332 Y8.47 E.01237
G1 X31.279 Y8.246 E.01304
G1 X32.245 Y8.213 E.01295
G1 X33.177 Y8.366 E.01265
G1 X34.098 Y8.712 E.01318
G1 X34.911 Y9.217 E.01282
G1 X35.617 Y9.879 E.01297
G1 X36.172 Y10.658 E.01282
G1 X36.566 Y11.525 E.01276
G1 X36.786 Y12.465 E.01293
G1 X36.817 Y13.425 E.01287
G1 X36.659 Y14.381 E.01298
G1 X36.323 Y15.269 E.01272
G1 X35.814 Y16.091 E.01295
G1 X35.152 Y16.797 E.01297
G1 X34.36 Y17.36 E.01302
G1 X33.505 Y17.746 E.01257
G1 X32.565 Y17.966 E.01293
G1 X31.606 Y17.997 E.01286
G1 X30.65 Y17.839 E.01298
G1 X29.752 Y17.499 E.01287
G1 X28.94 Y16.994 E.01281
G1 X28.234 Y16.332 E.01297
G1 X27.671 Y15.54 E.01302
G1 X27.29 Y14.699 E.01237
G1 X27.069 Y13.77 E.01279
G1 X27.033 Y12.8 E.01301
G1 X27.078 Y12.527 E.00371
G1 E-.5 F1800
;WIPE_START
G1 F7200
G1 X27.087 Y12.468 E-.01417
G1 X27.192 Y11.829 E-.1538
G1 X27.532 Y10.932 E-.22783
G1 X28.037 Y10.119 E-.22731
G1 X28.699 Y9.414 E-.22968
G1 X29.491 Y8.851 E-.23078
G1 X30.332 Y8.47 E-.21928
G1 X31.279 Y8.246 E-.23112
G1 X32.245 Y8.213 E-.22956
G1 X33.177 Y8.366 E-.22431
G1 X33.225 Y8.384 E-.01216
;WIPE_END
; printing object Cannon DV Camera Rubber Wheel clip v0.7.stl id:0 copy 0
G1 X30.591 Y13.004 F9000
G1 E2.5 F1200
;TYPE:External perimeter
;WIDTH:0.697706
G1 F900
G1 X30.62 Y12.732 E.00619
;WIDTH:0.709908
G1 X30.834 Y12.304 E.01103
;WIDTH:0.724146
G1 X31.174 Y11.982 E.01101
G1 X31.407 Y11.855 E.00624
;WIDTH:0.718312
G1 X31.9 Y11.745 E.01178
;WIDTH:0.698338
G1 X32.365 Y11.809 E.01063
;WIDTH:0.677264
G1 X32.837 Y12.071 E.01185
;WIDTH:0.658874
G1 X33.139 Y12.441 E.01019
;WIDTH:0.651682
G1 X33.286 Y12.834 E.00886
G1 X33.318 Y13.007 E.00371
;WIDTH:0.623244
G1 X33.259 Y13.535 E.01071
;WIDTH:0.610314
G1 X33.008 Y14 E.01042
;WIDTH:0.606912
G1 X32.599 Y14.336 E.01038
;WIDTH:0.616388
G1 X32.094 Y14.494 E.01055
;WIDTH:0.635406
G1 X31.614 Y14.462 E.00989
;WIDTH:0.653876
G1 X31.131 Y14.238 E.01127
;WIDTH:0.67984
G1 X30.784 Y13.869 E.01116
;WIDTH:0.697706
G1 X30.665 Y13.627 E.0061
G1 X30.569 Y13.211 E.00966
G1 X30.584 Y13.064 E.00334
;LAYER_CHANGE
;Z:0.36
;HEIGHT:0.08
;BEFORE_LAYER_CHANGE
G92 E0
;0.36


G1 E-.5 F1800
;WIPE_START
G1 F7200
G1 X30.591 Y13.004 E-.01435
G1 X30.62 Y12.732 E-.06497
G1 X30.834 Y12.304 E-.11365
G1 X31.174 Y11.982 E-.11122
G1 X31.407 Y11.855 E-.06302
G1 X31.9 Y11.745 E-.11997
G1 X32.365 Y11.809 E-.11148
G1 X32.837 Y12.071 E-.12821
G1 X33.139 Y12.441 E-.11343
G1 X33.286 Y12.834 E-.09965
G1 X33.318 Y13.007 E-.04178
G1 X33.259 Y13.535 E-.12618
G1 X33.008 Y14 E-.1255
G1 X32.599 Y14.336 E-.12571
G1 X32.094 Y14.494 E-.12567
G1 X31.614 Y14.462 E-.11425
G1 X31.131 Y14.238 E-.12645
G1 X30.784 Y13.869 E-.1203
G1 X30.665 Y13.627 E-.06405
G1 X30.579 Y13.257 E-.09016
;WIPE_END
G1 Z.36 F9000
;AFTER_LAYER_CHANGE
;0.36
G1 Z.36
G1 X30.584 Y13.277
G1 E2.5 F1200
;WIDTH:0.697704
G1 F900
G1 X30.569 Y13.211 E.00153
G1 X30.62 Y12.732 E.0109
;WIDTH:0.70991
G1 X30.834 Y12.304 E.01103
;WIDTH:0.724146
G1 X31.174 Y11.982 E.01101
G1 X31.407 Y11.855 E.00624
;WIDTH:0.718392
G1 X31.903 Y11.745 E.01185
;WIDTH:0.697978
G1 X32.365 Y11.809 E.01056
;WIDTH:0.677264
G1 X32.837 Y12.071 E.01185
;WIDTH:0.658874
G1 X33.139 Y12.441 E.01019
;WIDTH:0.651686
G1 X33.286 Y12.834 E.00886
G1 X33.32 Y13.105 E.00576
;WIDTH:0.63671
G1 X33.259 Y13.535 E.00895
;WIDTH:0.610312
G1 X33.008 Y14 E.01042
;WIDTH:0.60691
G1 X32.599 Y14.336 E.01038
;WIDTH:0.616388
G1 X32.094 Y14.494 E.01055
;WIDTH:0.635406
G1 X31.614 Y14.462 E.00989
;WIDTH:0.653878
G1 X31.131 Y14.238 E.01127
;WIDTH:0.679842
G1 X30.784 Y13.869 E.01116
;WIDTH:0.697704
G1 X30.665 Y13.627 E.0061
G1 X30.598 Y13.336 E.00676
;LAYER_CHANGE
;Z:0.44
;HEIGHT:0.08
;BEFORE_LAYER_CHANGE
G92 E0
;0.44


G1 E-.5 F1800
;WIPE_START
G1 F7200
G1 X30.584 Y13.277 E-.0144
G1 X30.569 Y13.211 E-.01607
G1 X30.62 Y12.732 E-.11441
G1 X30.834 Y12.304 E-.11365
G1 X31.174 Y11.982 E-.11122
G1 X31.407 Y11.855 E-.06302
G1 X31.903 Y11.745 E-.12066
G1 X32.365 Y11.809 E-.11077
G1 X32.837 Y12.071 E-.12821
G1 X33.139 Y12.441 E-.11343
G1 X33.286 Y12.834 E-.09965
G1 X33.32 Y13.105 E-.06487
G1 X33.259 Y13.535 E-.10315
G1 X33.008 Y14 E-.1255
G1 X32.599 Y14.336 E-.12571
G1 X32.094 Y14.494 E-.12567
G1 X31.614 Y14.462 E-.11425
G1 X31.131 Y14.238 E-.12645
G1 X30.784 Y13.869 E-.1203
G1 X30.665 Y13.627 E-.06405
G1 X30.642 Y13.526 E-.02456
;WIPE_END
G1 Z.44 F9000
;AFTER_LAYER_CHANGE
;0.44
G1 Z.44
G1 X30.651 Y13.538
G1 E2.5 F1200
;WIDTH:0.686042
G1 F900
G1 X30.572 Y13.277 E.00607
;WIDTH:0.704474
G1 X30.603 Y12.798 E.01097
;WIDTH:0.721562
G1 X30.801 Y12.353 E.01141
;WIDTH:0.723892
G1 X30.97 Y12.15 E.00621
G1 X31.363 Y11.873 E.0113
;WIDTH:0.70869
G1 X31.842 Y11.748 E.01139
;WIDTH:0.69139
G1 X32.365 Y11.809 E.01181
;WIDTH:0.677266
G1 X32.837 Y12.071 E.01185
;WIDTH:0.658876
G1 X33.139 Y12.441 E.01019
;WIDTH:0.651682
G1 X33.286 Y12.834 E.00886
G1 X33.318 Y13.007 E.00371
;WIDTH:0.623244
G1 X33.259 Y13.535 E.01071
;WIDTH:0.610314
G1 X33.008 Y14 E.01042
;WIDTH:0.606912
G1 X32.599 Y14.336 E.01038
;WIDTH:0.616386
G1 X32.094 Y14.494 E.01055
;WIDTH:0.635406
G1 X31.614 Y14.462 E.00989
;WIDTH:0.659794
G1 X31.156 Y14.255 E.01074
;WIDTH:0.679582
G1 X30.954 Y14.077 E.00593
G1 X30.71 Y13.736 E.00924
;WIDTH:0.686042
G1 X30.668 Y13.596 E.00325
;LAYER_CHANGE
;Z:0.52
;HEIGHT:0.08
;BEFORE_LAYER_CHANGE
G92 E0
;0.52


G1 E-.5 F1800
;WIPE_START
G1 F7200
G1 X30.651 Y13.538 E-.01435
G1 X30.572 Y13.277 E-.06476
G1 X30.603 Y12.798 E-.114
G1 X30.801 Y12.353 E-.11568
G1 X30.97 Y12.15 E-.06273
G1 X31.363 Y11.873 E-.11419
G1 X31.842 Y11.748 E-.11757
G1 X32.365 Y11.809 E-.12505
G1 X32.837 Y12.071 E-.12821
G1 X33.139 Y12.441 E-.11343
G1 X33.286 Y12.834 E-.09965
G1 X33.318 Y13.007 E-.04178
G1 X33.259 Y13.535 E-.12618
G1 X33.008 Y14 E-.1255
G1 X32.599 Y14.336 E-.12571
G1 X32.094 Y14.494 E-.12567
G1 X31.614 Y14.462 E-.11425
G1 X31.156 Y14.255 E-.11937
G1 X30.954 Y14.077 E-.06394
G1 X30.738 Y13.775 E-.08798
;WIPE_END
G1 Z.52 F9000
;AFTER_LAYER_CHANGE
;0.52
G1 Z.52
G1 X30.748 Y13.788
G1 E2.5 F1200
;WIDTH:0.679582
G1 F900
G1 X30.71 Y13.736 E.00142
;WIDTH:0.686044
G1 X30.572 Y13.277 E.01066
;WIDTH:0.704474
G1 X30.603 Y12.798 E.01097
;WIDTH:0.721564
