; generated by PrusaSlicer 2.8.0+MacOS-arm64 on 2024-08-13 at 15:53:18 UTC

; 

; external perimeters extrusion width = 0.42mm
; perimeters extrusion width = 0.44mm
; infill extrusion width = 0.44mm
; solid infill extrusion width = 0.44mm
; top infill extrusion width = 0.40mm
; first layer extrusion width = 0.42mm


; printing object Cannon DV Camera Rubber Wheel clip v0.3.stl id:0 copy 0
; stop printing object Cannon DV Camera Rubber Wheel clip v0.3.stl id:0 copy 0

;TYPE:Custom
G90 ; use absolute coordinates
M83 ; extruder relative mode
M104 S150 ; set temporary nozzle temp to prevent oozing during homing
M140 S60 ; set final bed temp
G4 S30 ; allow partial nozzle warmup
G28 ; home all axis
G1 Z50 F240
G1 X2.0 Y10 F3000
M104 S210 ; set final nozzle temp
M190 S60 ; wait for bed temp to stabilize
M109 S210 ; wait for nozzle temp to stabilize
G1 Z0.28 F240
G92 E0
G1 X2.0 Y140 E10 F1500 ; prime the nozzle
G1 X2.3 Y140 F5000
G92 E0
G1 X2.3 Y10 E10 F1200 ; prime the nozzle
G92 E0
G21 ; set units to millimeters
G90 ; use absolute coordinates
M83 ; use relative distances for extrusion
; Filament gcode
M107
;LAYER_CHANGE
;Z:0.2
;HEIGHT:0.2
G1 E-2.5 F1800
G1 Z.2 F9000
G1 X16.032 Y26.047
G1 Z.2
G1 E2.5 F1200
M204 S500
;TYPE:Skirt/Brim
;WIDTH:0.42
G1 F900
G1 X17.081 Y25.565 E.0362
G1 X18.238 Y25.286 E.03732
G1 X19.415 Y25.24 E.03693
G1 X20.579 Y25.423 E.03694
G1 X21.689 Y25.832 E.03709
G1 X22.716 Y26.463 E.03779
G1 X23.576 Y27.264 E.03685
G1 X24.268 Y28.222 E.03705
G1 X24.755 Y29.283 E.0366
G1 X25.025 Y30.404 E.03615
G1 X25.074 Y31.626 E.03835
G1 X24.896 Y32.752 E.03574
G1 X24.48 Y33.885 E.03784
G1 X23.851 Y34.906 E.0376
G1 X23.04 Y35.776 E.03729
G1 X22.093 Y36.458 E.03659
G1 X21.031 Y36.945 E.03663
G1 X19.873 Y37.221 E.03733
G1 X18.703 Y37.265 E.03671
G1 X17.532 Y37.078 E.03718
G1 X16.436 Y36.673 E.03664
G1 X15.409 Y36.042 E.03779
G1 X14.539 Y35.23 E.03731
G1 X13.856 Y34.283 E.03661
G1 X13.375 Y33.235 E.03615
G1 X13.095 Y32.069 E.0376
G1 X13.05 Y30.893 E.0369
G1 X13.235 Y29.728 E.03699
G1 X13.644 Y28.62 E.03703
G1 X14.265 Y27.611 E.03715
G1 X15.085 Y26.729 E.03776
G1 X15.983 Y26.082 E.0347
G1 X15.983 Y26.082 F9000
G1 X16.202 Y26.387
G1 F900
G1 X16.226 Y26.37 E.00092
G1 X17.21 Y25.919 E.03394
G1 X18.294 Y25.659 E.03495
G1 X19.399 Y25.616 E.03467
G1 X20.49 Y25.79 E.03464
G1 X21.529 Y26.174 E.03473
G1 X22.491 Y26.766 E.03542
G1 X23.297 Y27.517 E.03454
G1 X23.945 Y28.416 E.03475
G1 X24.4 Y29.412 E.03433
G1 X24.653 Y30.463 E.03389
G1 X24.697 Y31.608 E.03593
G1 X24.529 Y32.664 E.03353
G1 X24.138 Y33.725 E.03545
G1 X23.548 Y34.681 E.03522
G1 X22.787 Y35.496 E.03496
G1 X21.898 Y36.135 E.03433
G1 X20.903 Y36.59 E.0343
G1 X19.816 Y36.848 E.03503
G1 X18.721 Y36.888 E.03436
G1 X17.622 Y36.712 E.0349
G1 X16.595 Y36.331 E.03435
G1 X15.633 Y35.739 E.03542
G1 X14.818 Y34.977 E.03498
G1 X14.18 Y34.088 E.03431
G1 X13.689 Y32.99 E.03771
G1 X13.467 Y32.013 E.03141
G1 X13.426 Y30.911 E.03458
G1 X13.601 Y29.818 E.03471
G1 X13.986 Y28.78 E.03471
G1 X14.568 Y27.835 E.0348
G1 X15.338 Y27.009 E.03541
G1 X16.154 Y26.422 E.03152
G1 X16.154 Y26.422 F9000
G1 X16.373 Y26.727
G1 F900
G1 X16.421 Y26.693 E.00184
G1 X17.34 Y26.273 E.03168
G1 X18.35 Y26.032 E.03256
G1 X19.382 Y25.993 E.03238
G1 X20.401 Y26.156 E.03236
G1 X21.37 Y26.515 E.0324
G1 X22.267 Y27.069 E.03306
G1 X23.017 Y27.77 E.03219
G1 X23.622 Y28.611 E.03248
G1 X24.046 Y29.541 E.03205
G1 X24.28 Y30.522 E.03162
G1 X24.321 Y31.59 E.03351
G1 X24.162 Y32.577 E.03135
G1 X23.797 Y33.565 E.03302
G1 X23.245 Y34.457 E.03289
G1 X22.534 Y35.217 E.03263
G1 X21.704 Y35.812 E.03202
G1 X20.774 Y36.236 E.03205
G1 X19.76 Y36.475 E.03266
G1 X18.739 Y36.512 E.03203
G1 X17.713 Y36.346 E.03259
G1 X16.755 Y35.99 E.03204
G1 X15.858 Y35.436 E.03306
G1 X15.098 Y34.724 E.03265
G1 X14.503 Y33.894 E.03202
G1 X14.047 Y32.872 E.03509
G1 X13.84 Y31.956 E.02944
G1 X13.803 Y30.929 E.03222
G1 X13.967 Y29.908 E.03242
G1 X14.328 Y28.939 E.03242
G1 X14.871 Y28.06 E.0324
G1 X15.59 Y27.288 E.03308
G1 X16.324 Y26.762 E.02831
G1 X16.324 Y26.762 F9000
G1 X16.543 Y27.068
G1 F900
G1 X16.615 Y27.016 E.00278
G1 X17.47 Y26.627 E.02945
G1 X18.406 Y26.405 E.03016
G1 X19.365 Y26.37 E.03009
G1 X20.312 Y26.522 E.03007
G1 X21.21 Y26.857 E.03005
G1 X22.042 Y27.372 E.03068
G1 X22.737 Y28.023 E.02986
G1 X23.299 Y28.805 E.03019
G1 X23.691 Y29.669 E.02975
G1 X23.908 Y30.581 E.02939
G1 X23.944 Y31.572 E.03109
G1 X23.795 Y32.489 E.02913
G1 X23.455 Y33.406 E.03066
G1 X22.942 Y34.232 E.03049
G1 X22.281 Y34.937 E.0303
G1 X21.51 Y35.489 E.02973
G1 X20.645 Y35.882 E.02979
G1 X19.704 Y36.102 E.0303
G1 X18.757 Y36.135 E.02971
G1 X17.803 Y35.98 E.0303
G1 X16.914 Y35.648 E.02975
G1 X16.082 Y35.133 E.03068
G1 X15.378 Y34.472 E.03028
G1 X14.826 Y33.7 E.02976
G1 X14.406 Y32.755 E.03242
G1 X14.213 Y31.9 E.02748
G1 X14.18 Y30.947 E.0299
G1 X14.333 Y29.999 E.03011
G1 X14.669 Y29.099 E.03012
G1 X15.174 Y28.284 E.03006
G1 X15.843 Y27.568 E.03072
G1 X16.494 Y27.103 E.02508
G1 E-.5 F1800
;WIPE_START
G1 F7200
G1 X16.543 Y27.068 E-.0143
G1 X16.615 Y27.016 E-.02109
G1 X17.47 Y26.627 E-.22309
G1 X18.406 Y26.405 E-.22847
G1 X19.365 Y26.37 E-.22791
G1 X20.312 Y26.522 E-.22779
G1 X21.21 Y26.857 E-.22763
G1 X22.042 Y27.372 E-.23239
G1 X22.737 Y28.023 E-.22617
G1 X23.299 Y28.805 E-.22871
G1 X23.547 Y29.351 E-.14245
;WIPE_END
; printing object Cannon DV Camera Rubber Wheel clip v0.3.stl id:0 copy 0
G1 X18.517 Y30.426 F9000
G1 E2.5 F1200
;TYPE:External perimeter
;WIDTH:0.423619
G1 F900
G1 X18.629 Y30.341 E.00445
;WIDTH:0.422836
G1 X19.028 Y30.241 E.01299
;WIDTH:0.420917
G1 X19.419 Y30.3 E.01243
;WIDTH:0.419947
G1 X19.763 Y30.508 E.0126
;WIDTH:0.419149
G1 X19.999 Y30.828 E.01244
;WIDTH:0.418965
G1 X20.095 Y31.213 E.01241
;WIDTH:0.419077
G1 X20.038 Y31.602 E.0123
G1 X19.839 Y31.942 E.01232
;WIDTH:0.419327
G1 X19.527 Y32.18 E.01228
;WIDTH:0.419739
G1 X19.146 Y32.284 E.01237
;WIDTH:0.420115
G1 X18.755 Y32.236 E.01236
G1 X18.407 Y32.041 E.01251
G1 X18.168 Y31.748 E.01186
;WIDTH:0.421584
G1 X18.052 Y31.338 E.01342
;WIDTH:0.42322
G1 X18.103 Y30.937 E.01278
;WIDTH:0.423619
G1 X18.306 Y30.586 E.01284
G1 X18.469 Y30.462 E.00648
G1 X18.469 Y30.462 F9000
G1 X18.236 Y30.148
;WIDTH:0.431608
G1 F900
G1 X18.465 Y29.999 E.00883
;WIDTH:0.422056
G1 X18.945 Y29.865 E.01571
G1 X19.451 Y29.913 E.01602
;WIDTH:0.420739
G1 X19.902 Y30.136 E.01581
;WIDTH:0.427246
G1 X20.134 Y30.352 E.01013
G1 X20.336 Y30.661 E.0118
;WIDTH:0.419664
G1 X20.469 Y31.134 E.01539
G1 X20.421 Y31.646 E.01611
;WIDTH:0.419487
G1 X20.207 Y32.08 E.01515
;WIDTH:0.426895
G1 X19.973 Y32.332 E.01098
G1 X19.654 Y32.534 E.01206
;WIDTH:0.419529
G1 X19.184 Y32.66 E.01524
;WIDTH:0.419796
G1 X18.673 Y32.607 E.0161
G1 X18.273 Y32.409 E.01399
;WIDTH:0.42743
G1 X17.996 Y32.155 E.01202
G1 X17.804 Y31.854 E.01141
;WIDTH:0.421049
G1 X17.674 Y31.372 E.0157
;WIDTH:0.422762
G1 X17.726 Y30.867 E.01603
;WIDTH:0.423493
G1 X17.933 Y30.449 E.01476
;WIDTH:0.431608
G1 X18.168 Y30.193 E.01123
G1 X18.186 Y30.181 E.0007
M106 S255
;LAYER_CHANGE
;Z:0.28
;HEIGHT:0.08
;BEFORE_LAYER_CHANGE
G92 E0
;0.28


G1 E-.5 F1800
;WIPE_START
G1 F7200
G1 X18.236 Y30.148 E-.01423
G1 X18.465 Y29.999 E-.06489
G1 X18.945 Y29.865 E-.11836
G1 X19.451 Y29.913 E-.12071
G1 X19.902 Y30.136 E-.11949
G1 X20.134 Y30.352 E-.07528
G1 X20.336 Y30.661 E-.08768
G1 X20.469 Y31.134 E-.11669
G1 X20.421 Y31.646 E-.12213
G1 X20.207 Y32.08 E-.11492
G1 X19.973 Y32.332 E-.08167
G1 X19.654 Y32.534 E-.08967
G1 X19.184 Y32.66 E-.11557
G1 X18.673 Y32.607 E-.12201
G1 X18.273 Y32.409 E-.106
G1 X17.996 Y32.155 E-.08926
G1 X17.804 Y31.854 E-.08479
G1 X17.674 Y31.372 E-.11857
G1 X17.726 Y30.867 E-.12057
G1 X17.933 Y30.449 E-.11078
G1 X17.952 Y30.428 E-.00673
;WIPE_END
G1 Z.28 F9000
;AFTER_LAYER_CHANGE
;0.28
M104 S205 ; set temperature
; stop printing object Cannon DV Camera Rubber Wheel clip v0.3.stl id:0 copy 0
G1 Z.28
G1 X14.018 Y28.012
G1 E2.5 F1200
;TYPE:Skirt/Brim
;WIDTH:0.42
G1 F900
G1 X14.265 Y27.611 E.00631
G1 X15.085 Y26.729 E.01614
G1 X16.032 Y26.047 E.01564
G1 X17.081 Y25.565 E.01547
G1 X18.238 Y25.286 E.01595
G1 X19.415 Y25.24 E.01578
G1 X20.579 Y25.423 E.01579
G1 X21.689 Y25.832 E.01585
G1 X22.716 Y26.463 E.01615
G1 X23.576 Y27.264 E.01575
G1 X24.268 Y28.222 E.01583
G1 X24.755 Y29.283 E.01564
G1 X25.025 Y30.404 E.01545
G1 X25.074 Y31.626 E.01639
G1 X24.896 Y32.752 E.01527
G1 X24.48 Y33.885 E.01617
G1 X23.851 Y34.906 E.01607
G1 X23.04 Y35.776 E.01594
G1 X22.093 Y36.458 E.01564
G1 X21.031 Y36.945 E.01565
G1 X19.873 Y37.221 E.01595
G1 X18.703 Y37.265 E.01569
G1 X17.532 Y37.078 E.01589
G1 X16.436 Y36.673 E.01565
G1 X15.409 Y36.042 E.01615
G1 X14.539 Y35.23 E.01594
G1 X13.856 Y34.283 E.01564
G1 X13.375 Y33.235 E.01545
G1 X13.095 Y32.069 E.01607
G1 X13.05 Y30.893 E.01577
G1 X13.235 Y29.728 E.0158
G1 X13.644 Y28.62 E.01582
G1 X13.987 Y28.063 E.00876
G1 X13.987 Y28.063 F9000
G1 X14.306 Y28.259
G1 F900
G1 X14.568 Y27.835 E.00668
G1 X15.338 Y27.009 E.01513
G1 X16.226 Y26.37 E.01466
G1 X17.21 Y25.919 E.0145
G1 X18.294 Y25.659 E.01494
G1 X19.399 Y25.616 E.01482
G1 X20.49 Y25.79 E.0148
G1 X21.529 Y26.174 E.01484
G1 X22.491 Y26.766 E.01513
G1 X23.297 Y27.517 E.01476
G1 X23.945 Y28.416 E.01485
G1 X24.4 Y29.412 E.01467
G1 X24.653 Y30.463 E.01448
G1 X24.697 Y31.608 E.01535
G1 X24.529 Y32.664 E.01433
G1 X24.138 Y33.725 E.01515
G1 X23.548 Y34.681 E.01505
G1 X22.787 Y35.496 E.01494
G1 X21.898 Y36.135 E.01467
G1 X20.903 Y36.59 E.01466
G1 X19.816 Y36.848 E.01497
G1 X18.721 Y36.888 E.01468
G1 X17.622 Y36.712 E.01491
G1 X16.595 Y36.331 E.01468
G1 X15.633 Y35.739 E.01513
G1 X14.818 Y34.977 E.01495
G1 X14.18 Y34.088 E.01466
G1 X13.689 Y32.99 E.01612
G1 X13.467 Y32.013 E.01342
G1 X13.426 Y30.911 E.01478
G1 X13.601 Y29.818 E.01483
G1 X13.986 Y28.78 E.01483
G1 X14.275 Y28.311 E.00738
G1 X14.275 Y28.311 F9000
G1 X14.594 Y28.508
G1 F900
G1 X14.871 Y28.06 E.00706
G1 X15.59 Y27.288 E.01413
G1 X16.421 Y26.693 E.01369
G1 X17.34 Y26.273 E.01354
G1 X18.35 Y26.032 E.01391
G1 X19.382 Y25.993 E.01384
G1 X20.401 Y26.156 E.01383
G1 X21.37 Y26.515 E.01385
G1 X22.267 Y27.069 E.01413
G1 X23.017 Y27.77 E.01375
G1 X23.622 Y28.611 E.01388
G1 X24.046 Y29.541 E.01369
G1 X24.28 Y30.522 E.01351
G1 X24.321 Y31.59 E.01432
G1 X24.162 Y32.577 E.01339
G1 X23.797 Y33.565 E.01411
G1 X23.245 Y34.457 E.01405
G1 X22.534 Y35.217 E.01394
G1 X21.704 Y35.812 E.01368
G1 X20.774 Y36.236 E.01369
G1 X19.76 Y36.475 E.01396
G1 X18.739 Y36.512 E.01369
G1 X17.713 Y36.346 E.01393
G1 X16.755 Y35.99 E.01369
G1 X15.858 Y35.436 E.01413
G1 X15.098 Y34.724 E.01395
G1 X14.503 Y33.894 E.01368
G1 X14.047 Y32.872 E.01499
G1 X13.84 Y31.956 E.01258
G1 X13.803 Y30.929 E.01377
G1 X13.967 Y29.908 E.01385
G1 X14.328 Y28.939 E.01385
G1 X14.563 Y28.559 E.00599
G1 X14.563 Y28.559 F9000
G1 X14.882 Y28.756
G1 F900
G1 X15.174 Y28.284 E.00744
G1 X15.843 Y27.568 E.01313
G1 X16.615 Y27.016 E.01272
G1 X17.47 Y26.627 E.01259
G1 X18.406 Y26.405 E.01289
G1 X19.365 Y26.37 E.01286
G1 X20.312 Y26.522 E.01285
G1 X21.21 Y26.857 E.01284
G1 X22.042 Y27.372 E.01311
G1 X22.737 Y28.023 E.01276
G1 X23.299 Y28.805 E.0129
G1 X23.691 Y29.669 E.01271
G1 X23.908 Y30.581 E.01256
G1 X23.944 Y31.572 E.01329
G1 X23.795 Y32.489 E.01245
G1 X23.455 Y33.406 E.0131
G1 X22.942 Y34.232 E.01303
G1 X22.281 Y34.937 E.01295
G1 X21.51 Y35.489 E.0127
G1 X20.645 Y35.882 E.01273
G1 X19.704 Y36.102 E.01295
G1 X18.757 Y36.135 E.0127
G1 X17.803 Y35.98 E.01295
G1 X16.914 Y35.648 E.01271
G1 X16.082 Y35.133 E.01311
G1 X15.378 Y34.472 E.01294
G1 X14.826 Y33.7 E.01272
G1 X14.406 Y32.755 E.01386
G1 X14.213 Y31.9 E.01174
G1 X14.18 Y30.947 E.01278
G1 X14.333 Y29.999 E.01287
G1 X14.669 Y29.099 E.01287
G1 X14.85 Y28.807 E.0046
G1 E-.5 F1800
;WIPE_START
G1 F7200
G1 X14.882 Y28.756 E-.0143
G1 X15.174 Y28.284 E-.13182
G1 X15.843 Y27.568 E-.23273
G1 X16.615 Y27.016 E-.2254
G1 X17.47 Y26.627 E-.22309
G1 X18.406 Y26.405 E-.22847
G1 X19.365 Y26.37 E-.22791
G1 X20.312 Y26.522 E-.22779
G1 X21.21 Y26.857 E-.22763
G1 X22.042 Y27.372 E-.23239
G1 X22.129 Y27.454 E-.02847
;WIPE_END
; printing object Cannon DV Camera Rubber Wheel clip v0.3.stl id:0 copy 0
G1 X18.236 Y30.82 F9000
G1 E2.5 F1200
;TYPE:External perimeter
;WIDTH:0.510386
G1 F900
G1 X18.357 Y30.614 E.00392
G1 X18.665 Y30.387 E.00628
;WIDTH:0.509402
G1 X19.042 Y30.296 E.00635
;WIDTH:0.506372
G1 X19.41 Y30.354 E.00606
;WIDTH:0.501867
G1 X19.735 Y30.552 E.00614
;WIDTH:0.49621
G1 X19.959 Y30.857 E.00603
;WIDTH:0.490753
G1 X20.048 Y31.224 E.00595
;WIDTH:0.486231
G1 X19.992 Y31.596 E.00587
;WIDTH:0.483345
G1 X19.799 Y31.919 E.00583
;WIDTH:0.483079
G1 X19.497 Y32.145 E.00585
;WIDTH:0.486232
G1 X19.131 Y32.238 E.00589
;WIDTH:0.491018
G1 X18.757 Y32.186 E.00595
;WIDTH:0.496209
G1 X18.43 Y31.993 E.00605
;WIDTH:0.501604
G1 X18.201 Y31.689 E.00613
;WIDTH:0.50628
G1 X18.106 Y31.32 E.0062
;WIDTH:0.508368
G1 X18.151 Y30.965 E.00585
;WIDTH:0.510386
G1 X18.206 Y30.872 E.00177
G1 X18.206 Y30.872 F9000
G1 X17.763 Y30.665
;WIDTH:0.510223
G1 F900
G1 X17.874 Y30.436 E.00417
;WIDTH:0.517236
G1 X18.128 Y30.153 E.00632
G1 X18.453 Y29.943 E.00644
;WIDTH:0.508051
G1 X18.944 Y29.809 E.00831
;WIDTH:0.507602
G1 X19.485 Y29.863 E.00887
;WIDTH:0.503295
G1 X19.911 Y30.078 E.00772
;WIDTH:0.501821
G1 X20.169 Y30.314 E.00564
G1 X20.387 Y30.654 E.00651
;WIDTH:0.489572
G1 X20.515 Y31.132 E.00778
;WIDTH:0.492422
G1 X20.513 Y31.372 E.00379
G1 X20.413 Y31.795 E.00687
;WIDTH:0.483345
G1 X20.177 Y32.197 E.00723
;WIDTH:0.482676
G1 X19.771 Y32.53 E.00813
;WIDTH:0.484483
G1 X19.334 Y32.682 E.00719
;WIDTH:0.494395
G1 X18.943 Y32.702 E.00621
G1 X18.597 Y32.632 E.0056
;WIDTH:0.495267
G1 X18.158 Y32.391 E.00796
;WIDTH:0.498891
G1 X17.86 Y32.059 E.00715
;WIDTH:0.509979
G1 X17.685 Y31.696 E.00661
G1 X17.618 Y31.371 E.00544
;WIDTH:0.508979
G1 X17.67 Y30.855 E.00848
;WIDTH:0.510223
G1 X17.736 Y30.719 E.00248
;LAYER_CHANGE
;Z:0.36
;HEIGHT:0.08
;BEFORE_LAYER_CHANGE
G92 E0
;0.36


G1 E-.5 F1800
;WIPE_START
G1 F7200
G1 X17.763 Y30.665 E-.01434
G1 X17.874 Y30.436 E-.06044
G1 X18.128 Y30.153 E-.09031
G1 X18.453 Y29.943 E-.0919
G1 X18.944 Y29.809 E-.12088
G1 X19.485 Y29.863 E-.12913
G1 X19.911 Y30.078 E-.11333
G1 X20.169 Y30.314 E-.08304
G1 X20.387 Y30.654 E-.09592
G1 X20.515 Y31.132 E-.11752
G1 X20.513 Y31.372 E-.057
G1 X20.413 Y31.795 E-.10323
G1 X20.177 Y32.197 E-.11071
G1 X19.771 Y32.53 E-.12471
G1 X19.334 Y32.682 E-.10989
G1 X18.943 Y32.702 E-.09298
G1 X18.597 Y32.632 E-.08384
G1 X18.158 Y32.391 E-.11894
G1 X17.86 Y32.059 E-.10595
G1 X17.685 Y31.696 E-.09571
G1 X17.618 Y31.371 E-.07881
G1 X17.619 Y31.365 E-.00142
;WIPE_END
G1 Z.36 F9000
;AFTER_LAYER_CHANGE
;0.36
G1 Z.36
G1 X18.118 Y31.368
G1 E2.5 F1200
;WIDTH:0.506281
G1 F900
G1 X18.106 Y31.32 E.0008
;WIDTH:0.508367
G1 X18.151 Y30.965 E.00585
;WIDTH:0.510386
G1 X18.357 Y30.614 E.00668
G1 X18.666 Y30.387 E.00629
;WIDTH:0.509442
G1 X19.044 Y30.296 E.00637
;WIDTH:0.506413
G1 X19.41 Y30.354 E.00603
;WIDTH:0.501868
G1 X19.735 Y30.552 E.00614
;WIDTH:0.496208
G1 X19.959 Y30.857 E.00603
;WIDTH:0.490754
G1 X20.048 Y31.224 E.00595
;WIDTH:0.486231
G1 X19.992 Y31.596 E.00587
;WIDTH:0.483346
G1 X19.799 Y31.919 E.00583
;WIDTH:0.48308
G1 X19.497 Y32.145 E.00585
;WIDTH:0.486232
G1 X19.131 Y32.238 E.00589
;WIDTH:0.491018
G1 X18.757 Y32.186 E.00595
;WIDTH:0.49621
G1 X18.43 Y31.993 E.00605
;WIDTH:0.501603
G1 X18.201 Y31.689 E.00613
;WIDTH:0.506281
G1 X18.133 Y31.426 E.00442
G1 X18.133 Y31.426 F9000
G1 X17.644 Y31.499
;WIDTH:0.509979
G1 F900
G1 X17.618 Y31.371 E.00214
;WIDTH:0.508979
G1 X17.67 Y30.855 E.00848
;WIDTH:0.510223
G1 X17.874 Y30.436 E.00764
;WIDTH:0.517236
G1 X18.128 Y30.153 E.00632
G1 X18.453 Y29.943 E.00644
;WIDTH:0.508051
G1 X18.944 Y29.809 E.00831
;WIDTH:0.507699
G1 X19.485 Y29.863 E.00887
;WIDTH:0.503261
G1 X19.911 Y30.078 E.00771
;WIDTH:0.501821
G1 X20.169 Y30.314 E.00564
G1 X20.387 Y30.654 E.00651
;WIDTH:0.489572
G1 X20.515 Y31.132 E.00778
;WIDTH:0.492422
G1 X20.513 Y31.372 E.00379
G1 X20.413 Y31.795 E.00687
;WIDTH:0.483346
G1 X20.177 Y32.197 E.00723
;WIDTH:0.482676
G1 X19.771 Y32.53 E.00813
;WIDTH:0.484483
G1 X19.334 Y32.682 E.00719
;WIDTH:0.494395
G1 X18.943 Y32.702 E.00621
G1 X18.597 Y32.632 E.0056
;WIDTH:0.495269
G1 X18.158 Y32.391 E.00796
;WIDTH:0.498891
G1 X17.86 Y32.059 E.00715
