; generated by PrusaSlicer 2.8.0+MacOS-arm64 on 2024-08-13 at 16:17:33 UTC

; 

; external perimeters extrusion width = 0.42mm
; perimeters extrusion width = 0.44mm
; infill extrusion width = 0.44mm
; solid infill extrusion width = 0.44mm
; top infill extrusion width = 0.40mm
; first layer extrusion width = 0.42mm


; printing object Cannon DV Camera Rubber Wheel clip v0.5.stl id:0 copy 0
; stop printing object Cannon DV Camera Rubber Wheel clip v0.5.stl id:0 copy 0

;TYPE:Custom
G90 ; use absolute coordinates
M83 ; extruder relative mode
M104 S150 ; set temporary nozzle temp to prevent oozing during homing
M140 S60 ; set final bed temp
G4 S30 ; allow partial nozzle warmup
G28 ; home all axis
G1 Z50 F240
G1 X2.0 Y10 F3000
M104 S210 ; set final nozzle temp
M190 S60 ; wait for bed temp to stabilize
M109 S210 ; wait for nozzle temp to stabilize
G1 Z0.28 F240
G92 E0
G1 X2.0 Y140 E10 F1500 ; prime the nozzle
G1 X2.3 Y140 F5000
G92 E0
G1 X2.3 Y10 E10 F1200 ; prime the nozzle
G92 E0
G21 ; set units to millimeters
G90 ; use absolute coordinates
M83 ; use relative distances for extrusion
; Filament gcode
M107
;LAYER_CHANGE
;Z:0.2
;HEIGHT:0.2
G1 E-2.5 F1800
G1 Z.2 F9000
G1 X19.502 Y42.79
G1 Z.2
G1 E2.5 F1200
M204 S500
;TYPE:Skirt/Brim
;WIDTH:0.42
G1 F900
G1 X20.666 Y42.511 E.03753
G1 X21.853 Y42.468 E.03724
G1 X22.999 Y42.651 E.03639
G1 X24.137 Y43.074 E.03807
G1 X25.139 Y43.692 E.03691
G1 X26 Y44.494 E.03689
G1 X26.689 Y45.448 E.0369
G1 X27.179 Y46.512 E.03673
G1 X27.459 Y47.682 E.03772
G1 X27.501 Y48.863 E.03705
G1 X27.31 Y50.041 E.03742
G1 X26.895 Y51.147 E.03704
G1 X26.277 Y52.149 E.03691
G1 X25.464 Y53.02 E.03736
G1 X24.491 Y53.717 E.03753
G1 X23.443 Y54.194 E.0361
G1 X22.287 Y54.469 E.03726
G1 X21.106 Y54.512 E.03705
G1 X19.928 Y54.32 E.03742
G1 X18.822 Y53.906 E.03703
G1 X17.82 Y53.287 E.03693
G1 X16.949 Y52.475 E.03734
G1 X16.252 Y51.501 E.03755
G1 X15.775 Y50.454 E.03607
G1 X15.5 Y49.297 E.03729
G1 X15.458 Y48.116 E.03705
G1 X15.648 Y46.944 E.03723
G1 X16.064 Y45.832 E.03723
G1 X16.662 Y44.859 E.03581
G1 X17.495 Y43.959 E.03845
G1 X18.468 Y43.262 E.03753
G1 X19.447 Y42.815 E.03374
G1 X19.447 Y42.815 F9000
G1 X19.603 Y43.157
G1 F900
G1 X19.63 Y43.145 E.00093
G1 X20.722 Y42.884 E.0352
G1 X21.835 Y42.844 E.03492
G1 X22.91 Y43.018 E.03414
G1 X23.975 Y43.415 E.03564
G1 X24.914 Y43.995 E.03461
G1 X25.721 Y44.747 E.03459
G1 X26.366 Y45.643 E.03462
G1 X26.824 Y46.64 E.0344
G1 X27.086 Y47.738 E.03539
G1 X27.125 Y48.845 E.03473
G1 X26.944 Y49.949 E.03508
G1 X26.555 Y50.985 E.0347
G1 X25.974 Y51.924 E.03462
G1 X25.211 Y52.74 E.03503
G1 X24.299 Y53.393 E.03517
G1 X23.315 Y53.839 E.03387
G1 X22.231 Y54.096 E.03493
G1 X21.124 Y54.135 E.03473
G1 X20.02 Y53.954 E.03508
G1 X18.984 Y53.565 E.0347
G1 X18.045 Y52.984 E.03462
G1 X17.229 Y52.222 E.03501
G1 X16.576 Y51.309 E.03519
G1 X16.13 Y50.326 E.03385
G1 X15.873 Y49.241 E.03496
G1 X15.834 Y48.134 E.03473
G1 X16.013 Y47.036 E.03488
G1 X16.404 Y45.994 E.0349
G1 X16.966 Y45.081 E.03362
G1 X17.748 Y44.239 E.03603
G1 X18.66 Y43.587 E.03515
G1 X19.549 Y43.182 E.03063
G1 X19.549 Y43.182 F9000
G1 X19.704 Y43.524
G1 F900
G1 X19.758 Y43.5 E.00185
G1 X20.778 Y43.257 E.03288
G1 X21.817 Y43.221 E.0326
G1 X22.82 Y43.384 E.03186
G1 X23.814 Y43.755 E.03327
G1 X24.69 Y44.298 E.03232
G1 X25.441 Y45 E.03223
G1 X26.044 Y45.838 E.03237
G1 X26.47 Y46.768 E.03207
G1 X26.713 Y47.794 E.03306
G1 X26.748 Y48.827 E.03241
G1 X26.578 Y49.857 E.03273
G1 X26.214 Y50.824 E.0324
G1 X25.671 Y51.7 E.03232
G1 X24.959 Y52.461 E.03268
G1 X24.106 Y53.068 E.03283
G1 X23.187 Y53.485 E.03164
G1 X22.175 Y53.723 E.0326
G1 X21.142 Y53.758 E.03241
G1 X20.112 Y53.589 E.03273
G1 X19.145 Y53.224 E.03241
G1 X18.269 Y52.681 E.03232
G1 X17.508 Y51.969 E.03268
G1 X16.901 Y51.117 E.0328
G1 X16.484 Y50.198 E.03164
G1 X16.246 Y49.186 E.0326
G1 X16.211 Y48.152 E.03244
G1 X16.379 Y47.128 E.03254
G1 X16.745 Y46.155 E.03259
G1 X17.271 Y45.303 E.03139
G1 X18 Y44.519 E.03357
G1 X18.853 Y43.911 E.03284
G1 X19.649 Y43.549 E.02742
G1 X19.649 Y43.549 F9000
G1 X19.805 Y43.891
G1 F900
G1 X19.886 Y43.854 E.00279
G1 X20.834 Y43.63 E.03054
G1 X21.799 Y43.598 E.03027
G1 X22.731 Y43.751 E.02961
G1 X23.653 Y44.096 E.03087
G1 X24.465 Y44.601 E.02998
G1 X25.161 Y45.253 E.0299
G1 X25.721 Y46.033 E.03011
G1 X26.115 Y46.896 E.02975
G1 X26.34 Y47.85 E.03073
G1 X26.371 Y48.809 E.03008
G1 X26.213 Y49.765 E.03038
G1 X25.873 Y50.663 E.03011
G1 X25.368 Y51.476 E.03001
G1 X24.706 Y52.181 E.03032
G1 X23.914 Y52.744 E.03047
G1 X23.06 Y53.13 E.02938
G1 X22.119 Y53.35 E.0303
G1 X21.16 Y53.382 E.03009
G1 X20.204 Y53.223 E.03039
G1 X19.306 Y52.883 E.03011
G1 X18.494 Y52.378 E.02998
G1 X17.788 Y51.716 E.03035
G1 X17.225 Y50.924 E.03047
G1 X16.839 Y50.07 E.02938
G1 X16.619 Y49.13 E.03027
G1 X16.588 Y48.17 E.03012
G1 X16.745 Y47.22 E.03019
G1 X17.086 Y46.317 E.03026
G1 X17.576 Y45.525 E.0292
G1 X18.253 Y44.798 E.03115
G1 X19.045 Y44.235 E.03047
G1 X19.75 Y43.916 E.02426
G1 E-.5 F1800
;WIPE_START
G1 F7200
G1 X19.805 Y43.891 E-.01435
G1 X19.886 Y43.854 E-.02115
G1 X20.834 Y43.63 E-.23135
G1 X21.799 Y43.598 E-.22931
G1 X22.731 Y43.751 E-.22431
G1 X23.653 Y44.096 E-.2338
G1 X24.465 Y44.601 E-.2271
G1 X25.161 Y45.253 E-.2265
G1 X25.721 Y46.033 E-.22805
G1 X26.115 Y46.896 E-.22531
G1 X26.249 Y47.464 E-.13877
;WIPE_END
; printing object Cannon DV Camera Rubber Wheel clip v0.5.stl id:0 copy 0
G1 X21.061 Y47.505 F9000
G1 E2.5 F1200
;TYPE:External perimeter
;WIDTH:0.424679
G1 F900
G1 X21.092 Y47.486 E.00115
;WIDTH:0.419644
G1 X21.494 Y47.416 E.01278
G1 X21.902 Y47.507 E.01309
;WIDTH:0.41978
G1 X22.242 Y47.746 E.01302
;WIDTH:0.419925
G1 X22.466 Y48.098 E.01308
;WIDTH:0.420512
G1 X22.537 Y48.51 E.01313
G1 X22.443 Y48.92 E.01321
;WIDTH:0.420971
G1 X22.199 Y49.261 E.01318
G1 X21.841 Y49.482 E.01323
;WIDTH:0.424722
G1 X21.394 Y49.542 E.01432
G1 X20.996 Y49.433 E.0131
;WIDTH:0.423916
G1 X20.668 Y49.179 E.01314
G1 X20.462 Y48.816 E.01322
G1 X20.411 Y48.403 E.01318
;WIDTH:0.424339
G1 X20.525 Y48 E.01328
;WIDTH:0.424679
G1 X20.784 Y47.673 E.01324
G1 X21.01 Y47.536 E.00839
G1 X21.01 Y47.536 F9000
G1 X20.847 Y47.189
;WIDTH:0.425228
G1 F900
G1 X21.04 Y47.107 E.00667
G1 X21.461 Y47.041 E.01355
;WIDTH:0.42085
G1 X21.943 Y47.119 E.01534
;WIDTH:0.423865
G1 X22.379 Y47.361 E.0158
;WIDTH:0.426209
G1 X22.58 Y47.56 E.00901
G1 X22.8 Y47.924 E.01356
;WIDTH:0.424733
G1 X22.91 Y48.367 E.01449
G1 X22.911 Y48.542 E.00556
;WIDTH:0.421043
G1 X22.832 Y48.959 E.01334
;WIDTH:0.425654
G1 X22.598 Y49.383 E.01541
G1 X22.389 Y49.598 E.00954
G1 X21.961 Y49.838 E.01562
;WIDTH:0.420503
G1 X21.536 Y49.921 E.0136
;WIDTH:0.42631
G1 X21.079 Y49.869 E.01466
G1 X20.784 Y49.749 E.01015
;WIDTH:0.423916
G1 X20.392 Y49.438 E.01585
;WIDTH:0.421066
G1 X20.166 Y49.089 E.01307
;WIDTH:0.425557
G1 X20.04 Y48.649 E.01456
G1 X20.034 Y48.346 E.00964
;WIDTH:0.423926
G1 X20.172 Y47.86 E.01601
;WIDTH:0.420122
G1 X20.403 Y47.516 E.013
;WIDTH:0.424325
G1 X20.778 Y47.218 E.01519
;WIDTH:0.425228
G1 X20.792 Y47.212 E.00048
M106 S255
;LAYER_CHANGE
;Z:0.28
;HEIGHT:0.08
;BEFORE_LAYER_CHANGE
G92 E0
;0.28


G1 E-.5 F1800
;WIPE_START
G1 F7200
G1 X20.847 Y47.189 E-.01416
G1 X21.04 Y47.107 E-.0498
G1 X21.461 Y47.041 E-.10121
G1 X21.943 Y47.119 E-.11596
G1 X22.379 Y47.361 E-.11843
G1 X22.58 Y47.56 E-.06718
G1 X22.8 Y47.924 E-.10101
G1 X22.91 Y48.367 E-.10841
G1 X22.911 Y48.542 E-.04156
G1 X22.832 Y48.959 E-.1008
G1 X22.598 Y49.383 E-.11502
G1 X22.389 Y49.598 E-.07121
G1 X21.961 Y49.838 E-.11654
G1 X21.536 Y49.921 E-.10284
G1 X21.079 Y49.869 E-.10924
G1 X20.784 Y49.749 E-.07564
G1 X20.392 Y49.438 E-.11884
G1 X20.166 Y49.089 E-.09875
G1 X20.04 Y48.649 E-.1087
G1 X20.034 Y48.346 E-.07198
G1 X20.172 Y47.86 E-.11999
G1 X20.342 Y47.606 E-.07273
;WIPE_END
G1 Z.28 F9000
;AFTER_LAYER_CHANGE
;0.28
M104 S205 ; set temperature
; stop printing object Cannon DV Camera Rubber Wheel clip v0.5.stl id:0 copy 0
G1 Z.28
G1 X16.991 Y44.503
G1 E2.5 F1200
;TYPE:Skirt/Brim
;WIDTH:0.42
G1 F900
G1 X17.495 Y43.959 E.00994
G1 X18.468 Y43.262 E.01604
G1 X19.502 Y42.79 E.01523
G1 X20.666 Y42.511 E.01604
G1 X21.853 Y42.468 E.01591
G1 X22.999 Y42.651 E.01555
G1 X24.137 Y43.074 E.01627
G1 X25.139 Y43.692 E.01577
G1 X26 Y44.494 E.01577
G1 X26.689 Y45.448 E.01577
G1 X27.179 Y46.512 E.01569
G1 X27.459 Y47.682 E.01612
G1 X27.501 Y48.863 E.01583
G1 X27.31 Y50.041 E.01599
G1 X26.895 Y51.147 E.01583
G1 X26.277 Y52.149 E.01577
G1 X25.464 Y53.02 E.01596
G1 X24.491 Y53.717 E.01604
G1 X23.443 Y54.194 E.01543
G1 X22.287 Y54.469 E.01592
G1 X21.106 Y54.512 E.01583
G1 X19.928 Y54.32 E.01599
G1 X18.822 Y53.906 E.01582
G1 X17.82 Y53.287 E.01578
G1 X16.949 Y52.475 E.01595
G1 X16.252 Y51.501 E.01605
G1 X15.775 Y50.454 E.01542
G1 X15.5 Y49.297 E.01593
G1 X15.458 Y48.116 E.01583
G1 X15.648 Y46.944 E.01591
G1 X16.064 Y45.832 E.01591
G1 X16.662 Y44.859 E.0153
G1 X16.951 Y44.547 E.0057
G1 X16.951 Y44.547 F9000
G1 X17.225 Y44.802
G1 F900
G1 X17.748 Y44.239 E.0103
G1 X18.66 Y43.587 E.01502
G1 X19.63 Y43.145 E.01428
G1 X20.722 Y42.884 E.01504
G1 X21.835 Y42.844 E.01492
G1 X22.91 Y43.018 E.01459
G1 X23.975 Y43.415 E.01523
G1 X24.914 Y43.995 E.01479
G1 X25.721 Y44.747 E.01478
G1 X26.366 Y45.643 E.01479
G1 X26.824 Y46.64 E.0147
G1 X27.086 Y47.738 E.01512
G1 X27.125 Y48.845 E.01484
G1 X26.944 Y49.949 E.01499
G1 X26.555 Y50.985 E.01483
G1 X25.974 Y51.924 E.01479
G1 X25.211 Y52.74 E.01497
G1 X24.299 Y53.393 E.01503
G1 X23.315 Y53.839 E.01447
G1 X22.231 Y54.096 E.01493
G1 X21.124 Y54.135 E.01484
G1 X20.02 Y53.954 E.01499
G1 X18.984 Y53.565 E.01483
G1 X18.045 Y52.984 E.01479
G1 X17.229 Y52.222 E.01496
G1 X16.576 Y51.309 E.01504
G1 X16.13 Y50.326 E.01446
G1 X15.873 Y49.241 E.01494
G1 X15.834 Y48.134 E.01484
G1 X16.013 Y47.036 E.01491
G1 X16.404 Y45.994 E.01491
G1 X16.966 Y45.081 E.01436
G1 X17.184 Y44.846 E.00429
G1 X17.184 Y44.846 F9000
G1 X17.459 Y45.101
G1 F900
G1 X18 Y44.519 E.01065
G1 X18.853 Y43.911 E.01403
G1 X19.758 Y43.5 E.01332
G1 X20.778 Y43.257 E.01405
G1 X21.817 Y43.221 E.01393
G1 X22.82 Y43.384 E.01361
G1 X23.814 Y43.755 E.01422
G1 X24.69 Y44.298 E.01381
G1 X25.441 Y45 E.01377
G1 X26.044 Y45.838 E.01383
G1 X26.47 Y46.768 E.01371
G1 X26.713 Y47.794 E.01413
G1 X26.748 Y48.827 E.01385
G1 X26.578 Y49.857 E.01399
G1 X26.214 Y50.824 E.01384
G1 X25.671 Y51.7 E.01381
G1 X24.959 Y52.461 E.01396
G1 X24.106 Y53.068 E.01403
G1 X23.187 Y53.485 E.01352
G1 X22.175 Y53.723 E.01393
G1 X21.142 Y53.758 E.01385
G1 X20.112 Y53.589 E.01398
G1 X19.145 Y53.224 E.01385
G1 X18.269 Y52.681 E.01381
G1 X17.508 Y51.969 E.01396
G1 X16.901 Y51.117 E.01402
G1 X16.484 Y50.198 E.01352
G1 X16.246 Y49.186 E.01393
G1 X16.211 Y48.152 E.01386
G1 X16.379 Y47.128 E.0139
G1 X16.745 Y46.155 E.01393
G1 X17.271 Y45.303 E.01342
G1 X17.418 Y45.145 E.00289
G1 X17.418 Y45.145 F9000
G1 X17.692 Y45.4
G1 F900
G1 X18.253 Y44.798 E.01103
G1 X19.045 Y44.235 E.01302
G1 X19.886 Y43.854 E.01237
G1 X20.834 Y43.63 E.01305
G1 X21.799 Y43.598 E.01294
G1 X22.731 Y43.751 E.01265
G1 X23.653 Y44.096 E.01319
G1 X24.465 Y44.601 E.01281
G1 X25.161 Y45.253 E.01278
G1 X25.721 Y46.033 E.01287
G1 X26.115 Y46.896 E.01271
G1 X26.34 Y47.85 E.01313
G1 X26.371 Y48.809 E.01286
G1 X26.213 Y49.765 E.01298
G1 X25.873 Y50.663 E.01287
G1 X25.368 Y51.476 E.01282
G1 X24.706 Y52.181 E.01296
G1 X23.914 Y52.744 E.01302
G1 X23.06 Y53.13 E.01256
G1 X22.119 Y53.35 E.01295
G1 X21.16 Y53.382 E.01286
G1 X20.204 Y53.223 E.01298
G1 X19.306 Y52.883 E.01287
G1 X18.494 Y52.378 E.01281
G1 X17.788 Y51.716 E.01297
G1 X17.225 Y50.924 E.01302
G1 X16.839 Y50.07 E.01256
G1 X16.619 Y49.13 E.01293
G1 X16.588 Y48.17 E.01287
G1 X16.745 Y47.22 E.0129
G1 X17.086 Y46.317 E.01293
G1 X17.576 Y45.525 E.01248
G1 X17.651 Y45.444 E.00148
G1 E-.5 F1800
;WIPE_START
G1 F7200
G1 X17.692 Y45.4 E-.01428
G1 X18.253 Y44.798 E-.19543
G1 X19.045 Y44.235 E-.23078
G1 X19.886 Y43.854 E-.21928
G1 X20.834 Y43.63 E-.23135
G1 X21.799 Y43.598 E-.22931
G1 X22.731 Y43.751 E-.22431
G1 X23.653 Y44.096 E-.2338
G1 X24.465 Y44.601 E-.2271
G1 X25.062 Y45.16 E-.19436
;WIPE_END
; printing object Cannon DV Camera Rubber Wheel clip v0.5.stl id:0 copy 0
G1 X20.691 Y47.839 F9000
G1 E2.5 F1200
;TYPE:External perimeter
;WIDTH:0.458441
G1 F900
G1 X20.801 Y47.697 E.00264
;WIDTH:0.45969
G1 X21.158 Y47.499 E.00601
;WIDTH:0.462279
G1 X21.547 Y47.454 E.0058
G1 X21.898 Y47.541 E.00535
;WIDTH:0.465388
G1 X22.224 Y47.777 E.006
;WIDTH:0.469184
G1 X22.435 Y48.12 E.00605
;WIDTH:0.472934
G1 X22.499 Y48.519 E.00613
;WIDTH:0.47488
G1 X22.404 Y48.912 E.00616
;WIDTH:0.479244
G1 X22.139 Y49.258 E.0067
G1 X21.795 Y49.454 E.00608
;WIDTH:0.477478
G1 X21.402 Y49.506 E.00607
;WIDTH:0.474707
G1 X21.016 Y49.404 E.00608
;WIDTH:0.470483
G1 X20.697 Y49.161 E.00605
;WIDTH:0.466783
G1 X20.493 Y48.81 E.00607
;WIDTH:0.462735
G1 X20.435 Y48.475 E.00504
;WIDTH:0.455083
G1 X20.534 Y48.043 E.00646
;WIDTH:0.458441
G1 X20.654 Y47.887 E.00289
G1 X20.654 Y47.887 F9000
G1 X20.3 Y47.625
;WIDTH:0.458016
G1 F900
G1 X20.493 Y47.383 E.00454
;WIDTH:0.45468
G1 X20.835 Y47.156 E.00597
;WIDTH:0.459051
G1 X21.313 Y47.016 E.00732
;WIDTH:0.462279
G1 X21.59 Y47.013 E.0041
G1 X22.028 Y47.117 E.00666
;WIDTH:0.466781
G1 X22.4 Y47.333 E.00643
;WIDTH:0.470903
G1 X22.606 Y47.536 E.00436
G1 X22.833 Y47.906 E.00655
;WIDTH:0.474708
G1 X22.949 Y48.368 E.00725
G1 X22.951 Y48.553 E.00282
;WIDTH:0.475005
G1 X22.874 Y48.962 E.00634
;WIDTH:0.479244
G1 X22.632 Y49.406 E.00777
G1 X22.415 Y49.629 E.00478
G1 X21.963 Y49.88 E.00795
;WIDTH:0.473958
G1 X21.553 Y49.96 E.00635
;WIDTH:0.474557
G1 X21.073 Y49.907 E.00735
G1 X20.816 Y49.808 E.00419
;WIDTH:0.469061
G1 X20.484 Y49.579 E.00606
;WIDTH:0.46636
G1 X20.186 Y49.205 E.00714
G1 X20.076 Y48.958 E.00404
;WIDTH:0.460881
G1 X20.001 Y48.562 E.00595
;WIDTH:0.459767
G1 X20.055 Y48.08 E.00714
G1 X20.182 Y47.772 E.0049
;WIDTH:0.458016
G1 X20.263 Y47.671 E.0019
;LAYER_CHANGE
;Z:0.36
;HEIGHT:0.08
;BEFORE_LAYER_CHANGE
G92 E0
;0.36


G1 E-.5 F1800
;WIPE_START
G1 F7200
G1 X20.3 Y47.625 E-.01402
G1 X20.493 Y47.383 E-.07351
G1 X20.835 Y47.156 E-.09749
G1 X21.313 Y47.016 E-.11829
G1 X21.59 Y47.013 E-.06579
G1 X22.028 Y47.117 E-.10692
G1 X22.4 Y47.333 E-.10216
G1 X22.606 Y47.536 E-.06869
G1 X22.833 Y47.906 E-.10309
G1 X22.949 Y48.368 E-.11313
G1 X22.951 Y48.553 E-.04394
G1 X22.874 Y48.962 E-.09884
G1 X22.632 Y49.406 E-.1201
G1 X22.415 Y49.629 E-.0739
G1 X21.963 Y49.88 E-.12279
G1 X21.553 Y49.96 E-.09921
G1 X21.073 Y49.907 E-.11469
G1 X20.816 Y49.808 E-.06541
G1 X20.484 Y49.579 E-.09579
G1 X20.186 Y49.205 E-.11357
G1 X20.076 Y48.958 E-.06422
G1 X20.001 Y48.562 E-.09572
G1 X20.015 Y48.442 E-.02873
;WIPE_END
G1 Z.36 F9000
;AFTER_LAYER_CHANGE
;0.36
G1 Z.36
G1 X20.449 Y48.475
G1 E2.5 F1200
;WIDTH:0.462738
G1 F900
G1 X20.44 Y48.41 E.00097
;WIDTH:0.459536
G1 X20.549 Y48.017 E.006
;WIDTH:0.458443
G1 X20.801 Y47.697 E.00598
;WIDTH:0.459661
G1 X21.158 Y47.499 E.00601
;WIDTH:0.462209
G1 X21.543 Y47.454 E.00574
G1 X21.898 Y47.541 E.00541
;WIDTH:0.465388
G1 X22.224 Y47.777 E.006
;WIDTH:0.469183
G1 X22.435 Y48.12 E.00605
;WIDTH:0.472934
G1 X22.499 Y48.519 E.00613
;WIDTH:0.47488
G1 X22.404 Y48.912 E.00616
;WIDTH:0.479244
G1 X22.139 Y49.258 E.0067
G1 X21.795 Y49.454 E.00608
;WIDTH:0.477478
G1 X21.42 Y49.509 E.0058
;WIDTH:0.472932
G1 X21.016 Y49.404 E.00633
;WIDTH:0.470484
G1 X20.697 Y49.161 E.00605
;WIDTH:0.466782
G1 X20.493 Y48.81 E.00607
;WIDTH:0.462738
G1 X20.457 Y48.534 E.00412
G1 X20.457 Y48.534 F9000
G1 X20.002 Y48.556
;WIDTH:0.459766
G1 F900
G1 X20.055 Y48.08 E.00705
G1 X20.149 Y47.837 E.00384
;WIDTH:0.45508
G1 X20.432 Y47.442 E.00708
G1 X20.827 Y47.16 E.00707
;WIDTH:0.458886
G1 X21.313 Y47.016 E.00745
;WIDTH:0.462209
G1 X21.585 Y47.013 E.00403
G1 X22.028 Y47.117 E.00674
;WIDTH:0.466783
G1 X22.4 Y47.333 E.00643
;WIDTH:0.470903
G1 X22.606 Y47.536 E.00436
G1 X22.833 Y47.906 E.00655
;WIDTH:0.474708
G1 X22.949 Y48.368 E.00725
G1 X22.951 Y48.553 E.00282
;WIDTH:0.475003
G1 X22.874 Y48.962 E.00634
;WIDTH:0.479244
G1 X22.632 Y49.406 E.00777
G1 X22.415 Y49.629 E.00478
G1 X21.963 Y49.88 E.00795
;WIDTH:0.473959
G1 X21.553 Y49.96 E.00635
;WIDTH:0.474557
G1 X21.073 Y49.907 E.00735
G1 X20.816 Y49.808 E.00419
;WIDTH:0.469063
G1 X20.484 Y49.579 E.00606
;WIDTH:0.466361
G1 X20.186 Y49.205 E.00714
