; File Parsed By Flow Comp Script
; Script Ver. V0.7.1
; Flow Model Ver. V0.2.1
; Logger Ver. V0.0.1
; Flow Comp Model Points:
; (0, 0)
; (0.2, 0.4444)
; (0.4, 0.6145)
; (0.6, 0.7059)
; (0.8, 0.7619)
; (1.5, 0.8571)
; (2, 0.8889)
; (3, 0.9231)
; (5, 0.952)
; (10, 1)

; generated by PrusaSlicer 2.9.2 on 2025-04-15 at 09:20:45 UTC

; 

; external perimeters extrusion width = 0.45mm
; perimeters extrusion width = 0.45mm
; infill extrusion width = 0.45mm
; solid infill extrusion width = 0.45mm
; top infill extrusion width = 0.40mm
; support material extrusion width = 0.35mm
; first layer extrusion width = 0.42mm

;TYPE:Custom
G90 ; use absolute coordinates
M83 ; extruder relative mode
CALCULATE_PA BOWDEN_LENGTH=34.3 MATERIAL=PLA LAYER_HEIGHT=0.2 NOZZLE_SIZE=0.4 PRINT_SPEED=120 FILAMENT_DIAMETER=1.75 LINE_WIDTH=0.45 ; auto pressure advance
M104 S210 ; set temporary nozzle temp to prevent oozing during homing
M140 S58 ; set final bed temp
G4 S30 ; allow partial nozzle warmup
G28 ; home all axis
G1 Z50 F240
G1 X2.0 Y10 F3000
M104 S208 ; set final nozzle temp
M190 S58 ; wait for bed temp to stabilize
M109 S208 ; wait for nozzle temp to stabilize
G1 Z0.28 F240
G92 E0
G1 X2.0 Y140 E10 F1500 ; prime the nozzle
G1 X2.3 Y140 F5000
G92 E0
G1 X2.3 Y10 E10 F1200 ; prime the nozzle
G92 E0
G21 ; set units to millimeters
G90 ; use absolute coordinates
M83 ; use relative distances for extrusion
; Filament gcode
M107
;LAYER_CHANGE
;Z:0.2
;HEIGHT:0.2
G1 E-3.5 F1500
G1 Z.2 F54000
G1 X11.279 Y45.501
G1 Z.2
G1 E3.5 F1500
M204 S3500
;TYPE:Skirt/Brim
;WIDTH:0.42
G1 F2100
G1 X39.279 Y45.501 E.87792
G1 X41.459 Y45.898 E.06948
G1 X43.359 Y47.038 E.06947
G1 X44.737 Y48.774 E.06949
G1 X45.467 Y51.69 E.09425
G1 X45.467 Y79.69 E.87792
G1 X45.07 Y81.87 E.06948
G1 X43.931 Y83.771 E.06948
G1 X42.195 Y85.148 E.06948
G1 X39.279 Y85.879 E.09426
G1 X11.279 Y85.879 E.87792
G1 X9.098 Y85.482 E.06951
G1 X7.198 Y84.342 E.06947
G1 X5.82 Y82.606 E.06949
G1 X5.09 Y79.69 E.09425
G1 X5.09 Y51.69 E.87792
G1 X5.487 Y49.51 E.06948
G1 X6.626 Y47.609 E.06948
G1 X8.362 Y46.232 E.06948
G1 X11.22 Y45.516 E.09238
G1 E-3.5 F1500
G1 X28.018 Y67.524 F54000
G1 E3.5 F1500
;TYPE:Perimeter
;WIDTH:0.419999
G1 F2100
G1 X27.803 Y67.615 E.00732
G1 X27.37 Y67.73 E.01405
G1 X26.815 Y67.736 E.0174
G1 X26.407 Y67.671 E.01295
G1 X25.869 Y67.463 E.01809
G1 X25.509 Y67.23 E.01345
G1 X25.097 Y66.806 E.01854
G1 X24.888 Y66.512 E.01131
G1 X24.673 Y65.987 E.01779
G1 X24.585 Y65.616 E.01196
G1 X24.58 Y65.069 E.01715
G1 X24.645 Y64.661 E.01295
G1 X24.832 Y64.182 E.01612
G1 X24.929 Y63.986 E.00686
G1 X25.392 Y63.45 E.02221
G1 X25.792 Y63.159 E.01551
G1 X26.183 Y62.975 E.01355
G1 X26.578 Y62.86 E.0129
G1 X27.027 Y62.814 E.01415
G1 X27.7 Y62.918 E.02135
G1 X28.162 Y63.1 E.01557
G1 X28.526 Y63.331 E.01352
G1 X28.887 Y63.67 E.01553
G1 X29.141 Y64.019 E.01353
G1 X29.328 Y64.387 E.01294
G1 X29.476 Y64.945 E.0181
G1 X29.496 Y65.417 E.01481
G1 X29.398 Y65.956 E.01718
G1 X29.253 Y66.354 E.01328
G1 X28.981 Y66.785 E.01598
G1 X28.708 Y67.094 E.01293
G1 X28.299 Y67.406 E.01613
G1 X28.074 Y67.501 E.00766
G1 X27.707 Y67.246 F54000
G1 F2100
G1 X27.664 Y67.265 E.00147
G1 X27.281 Y67.358 E.01236
G1 X26.75 Y67.357 E.01665
G1 X26.25 Y67.224 E.01622
G1 X25.821 Y66.994 E.01526
G1 X25.372 Y66.547 E.01987
G1 X25.182 Y66.249 E.01108
G1 X24.969 Y65.652 E.01987
G1 X24.957 Y65.069 E.01828
G1 X25.023 Y64.722 E.01107
G1 X25.216 Y64.246 E.0161
G1 X25.372 Y64.023 E.00853
G1 X25.667 Y63.708 E.01353
G1 X25.953 Y63.5 E.01109
G1 X26.582 Y63.241 E.02133
G1 X27.027 Y63.191 E.01404
G1 X27.63 Y63.288 E.01915
G1 X27.96 Y63.418 E.01112
G1 X28.324 Y63.65 E.01353
G1 X28.582 Y63.891 E.01107
G1 X28.836 Y64.241 E.01356
G1 X29.059 Y64.778 E.01823
G1 X29.125 Y65.284 E.016
G1 X29.028 Y65.886 E.01912
G1 X28.897 Y66.216 E.01113
G1 X28.584 Y66.689 E.01778
G1 X28.164 Y67.046 E.01728
G1 X27.762 Y67.222 E.01376
G1 X27.397 Y66.953 F54000
G1 F2100
G1 X27.247 Y66.982 E.00479
G1 X26.713 Y66.972 E.01675
G1 X26.228 Y66.799 E.01615
G1 X25.942 Y66.604 E.01085
G1 X25.583 Y66.209 E.01674
G1 X25.374 Y65.709 E.01699
G1 X25.334 Y65.501 E.00664
G1 X25.342 Y64.979 E.01637
G1 X25.533 Y64.46 E.01734
G1 X25.646 Y64.281 E.00664
G1 X25.942 Y63.966 E.01355
G1 X26.113 Y63.842 E.00662
G1 X26.647 Y63.612 E.01823
G1 X27.132 Y63.578 E.01524
G1 X27.56 Y63.659 E.01366
G1 X27.758 Y63.737 E.00667
G1 X28.122 Y63.968 E.01352
G1 X28.277 Y64.113 E.00665
G1 X28.611 Y64.62 E.01904
G1 X28.725 Y65.016 E.01292
G1 X28.738 Y65.391 E.01176
G1 X28.623 Y65.929 E.01725
G1 X28.345 Y66.38 E.01661
G1 X27.958 Y66.731 E.01638
G1 X27.456 Y66.942 E.01707
G1 X27.037 Y66.601 F54000
;TYPE:External perimeter
G1 F2100
G1 X26.757 Y66.595 E.00878
G1 X26.345 Y66.43 E.01392
G1 X26.217 Y66.346 E.0048
G1 X25.883 Y65.971 E.01575
G1 X25.711 Y65.501 E.01569
G1 X25.725 Y65 E.01571
G1 X25.921 Y64.539 E.01571
G1 X26.217 Y64.224 E.01355
G1 X26.665 Y63.999 E.01572
G1 X27.062 Y63.948 E.01255
G1 X27.556 Y64.055 E.01585
G1 X27.972 Y64.335 E.01572
G1 X28.252 Y64.737 E.01536
G1 X28.35 Y65.051 E.01031
G1 X28.368 Y65.32 E.00845
G1 X28.261 Y65.81 E.01573
G1 X27.988 Y66.222 E.0155
G1 X27.718 Y66.432 E.01072
G1 X27.247 Y66.605 E.01573
G1 X27.097 Y66.602 E.0047
G1 X26.699 Y66.557 F54000
G1 E-3.5 F1500
G1 X21.255 Y67.603 F54000
G1 E3.5 F1500
;TYPE:Perimeter
G1 F2100
G1 X21.242 Y67.609 E.00045
G1 X20.653 Y67.733 E.01887
G1 X20.209 Y67.742 E.01392
G1 X19.637 Y67.629 E.01828
G1 X19.273 Y67.469 E.01247
G1 X18.735 Y67.105 E.02037
G1 X18.3 Y66.577 E.02145
G1 X18.048 Y65.987 E.02012
G1 X17.955 Y65.501 E.01551
G1 X17.955 Y65.069 E.01355
G1 X18.048 Y64.584 E.01548
G1 X18.207 Y64.182 E.01355
G1 X18.472 Y63.765 E.01549
G1 X18.767 Y63.45 E.01353
G1 X19.167 Y63.159 E.01551
G1 X19.558 Y62.975 E.01355
G1 X19.953 Y62.86 E.0129
G1 X20.402 Y62.814 E.01415
G1 X21.075 Y62.918 E.02135
G1 X21.537 Y63.1 E.01557
G1 X21.901 Y63.331 E.01352
G1 X22.262 Y63.67 E.01553
G1 X22.594 Y64.141 E.01807
G1 X22.792 Y64.661 E.01745
G1 X22.857 Y65.069 E.01295
G1 X22.852 Y65.616 E.01715
G1 X22.703 Y66.183 E.01838
G1 X22.516 Y66.551 E.01294
G1 X22.123 Y67.062 E.02021
G1 X21.622 Y67.416 E.01923
G1 X21.309 Y67.575 E.01101
G1 X21.058 Y67.265 F54000
G1 F2100
G1 X20.583 Y67.363 E.01521
G1 X20.217 Y67.36 E.01148
G1 X19.7 Y67.255 E.01654
G1 X19.252 Y67.008 E.01604
G1 X18.912 Y66.75 E.01338
G1 X18.624 Y66.384 E.0146
G1 X18.398 Y65.848 E.01824
G1 X18.332 Y65.501 E.01107
G1 X18.332 Y65.069 E.01355
G1 X18.398 Y64.722 E.01107
G1 X18.557 Y64.321 E.01353
G1 X18.746 Y64.023 E.01106
G1 X19.042 Y63.708 E.01355
G1 X19.328 Y63.5 E.01109
G1 X19.957 Y63.241 E.02133
G1 X20.402 Y63.191 E.01404
G1 X21.005 Y63.288 E.01915
G1 X21.335 Y63.418 E.01112
G1 X21.699 Y63.65 E.01353
G1 X21.957 Y63.891 E.01107
G1 X22.267 Y64.328 E.0168
G1 X22.468 Y64.918 E.01954
G1 X22.48 Y65.501 E.01828
G1 X22.389 Y65.931 E.01378
G1 X22.211 Y66.329 E.01367
G1 X21.858 Y66.794 E.0183
G1 X21.42 Y67.098 E.01672
G1 X21.124 Y67.251 E.01045
G1 X21.117 Y67.253 E.00023
G1 X20.732 Y66.948 F54000
G1 F2100
G1 X20.444 Y67.001 E.00918
G1 X19.876 Y66.911 E.01803
G1 X19.678 Y66.833 E.00667
G1 X19.238 Y66.543 E.01652
G1 X18.948 Y66.192 E.01428
G1 X18.749 Y65.709 E.01638
G1 X18.709 Y65.501 E.00664
G1 X18.709 Y65.069 E.01355
G1 X18.749 Y64.861 E.00664
G1 X18.908 Y64.46 E.01353
G1 X19.021 Y64.281 E.00664
G1 X19.317 Y63.966 E.01355
G1 X19.488 Y63.842 E.00662
G1 X20.022 Y63.612 E.01823
G1 X20.507 Y63.578 E.01524
G1 X20.935 Y63.659 E.01366
G1 X21.133 Y63.737 E.00667
G1 X21.497 Y63.968 E.01352
G1 X21.652 Y64.113 E.00665
G1 X21.962 Y64.558 E.017
G1 X22.103 Y65.069 E.01662
G1 X22.095 Y65.592 E.0164
G1 X21.935 Y66.064 E.01563
G1 X21.64 Y66.472 E.01579
G1 X21.218 Y66.779 E.01636
G1 X20.936 Y66.911 E.00976
G1 X20.791 Y66.938 E.00462
G1 X20.4 Y66.617 F54000
;TYPE:External perimeter
G1 F2100
G1 X20.371 Y66.622 E.00092
G1 X19.881 Y66.515 E.01573
G1 X19.469 Y66.242 E.0155
G1 X19.259 Y65.972 E.01072
G1 X19.086 Y65.501 E.01573
G1 X19.086 Y65.069 E.01355
G1 X19.258 Y64.599 E.01569
G1 X19.592 Y64.224 E.01575
G1 X20.04 Y63.999 E.01572
G1 X20.437 Y63.948 E.01255
G1 X20.931 Y64.055 E.01585
G1 X21.347 Y64.335 E.01572
G1 X21.627 Y64.737 E.01536
G1 X21.726 Y65.069 E.01086
G1 X21.716 Y65.559 E.01537
G1 X21.601 Y65.886 E.01087
G1 X21.295 Y66.284 E.01574
G1 X20.865 Y66.541 E.01571
G1 X20.46 Y66.607 E.01287
G1 X20.064 Y66.551 F54000
G1 E-3.5 F1500
G1 X18.998 Y77.812 F54000
G1 E3.5 F1500
;TYPE:Perimeter
;WIDTH:0.431403
G1 F2100
G1 X18.724 Y77.908 E.00938
G1 X18.203 Y77.975 E.01697
;WIDTH:0.431601
G1 X17.678 Y77.955 E.01698
G1 X17.168 Y77.826 E.017
;WIDTH:0.419999
G1 X16.58 Y77.539 E.02052
G1 X16.134 Y77.188 E.0178
G1 X15.793 Y76.787 E.0165
G1 X15.534 Y76.331 E.01644
G1 X15.366 Y75.834 E.01645
G1 X15.293 Y75.314 E.01646
G1 X15.319 Y74.79 E.01645
G1 X15.443 Y74.28 E.01646
G1 X15.66 Y73.802 E.01646
G1 X15.963 Y73.374 E.01644
G1 X16.341 Y73.01 E.01645
G1 X16.78 Y72.722 E.01646
G1 X17.266 Y72.523 E.01647
G1 X17.91 Y72.409 E.02051
G1 X18.477 Y72.431 E.01779
G1 X18.988 Y72.554 E.01648
G1 X19.466 Y72.772 E.01647
G1 X19.895 Y73.075 E.01647
G1 X20.261 Y73.455 E.01654
G1 X20.603 Y74.013 E.02052
G1 X20.791 Y74.546 E.01772
G1 X20.864 Y75.066 E.01646
G1 X20.838 Y75.59 E.01645
G1 X20.714 Y76.1 E.01646
G1 X20.497 Y76.578 E.01646
G1 X20.192 Y77.009 E.01656
G1 X19.708 Y77.45 E.02053
G1 X19.219 Y77.734 E.01773
;WIDTH:0.431403
G1 X19.055 Y77.792 E.00562
G1 X18.729 Y77.502 F54000
;WIDTH:0.419999
G1 F2100
G1 X18.443 Y77.574 E.00925
G1 X17.99 Y77.6 E.01423
G1 X17.54 Y77.541 E.01423
G1 X17.083 Y77.384 E.01515
G1 X16.592 Y77.089 E.01796
G1 X16.261 Y76.775 E.01431
G1 X15.996 Y76.407 E.01422
G1 X15.805 Y75.995 E.01424
G1 X15.694 Y75.554 E.01426
G1 X15.668 Y75.101 E.01423
G1 X15.694 Y74.826 E.00866
G1 X15.87 Y74.22 E.01979
G1 X16.091 Y73.824 E.01422
G1 X16.382 Y73.476 E.01422
G1 X16.734 Y73.188 E.01426
G1 X17.133 Y72.971 E.01424
G1 X17.594 Y72.829 E.01512
G1 X18.164 Y72.78 E.01794
G1 X18.617 Y72.839 E.01432
G1 X19.048 Y72.982 E.01424
G1 X19.445 Y73.203 E.01425
G1 X19.793 Y73.494 E.01422
G1 X20.097 Y73.873 E.01523
G1 X20.332 Y74.324 E.01595
G1 X20.463 Y74.826 E.01627
G1 X20.489 Y75.279 E.01423
G1 X20.429 Y75.729 E.01423
G1 X20.287 Y76.16 E.01423
G1 X20.065 Y76.557 E.01426
G1 X19.75 Y76.926 E.01521
G1 X19.295 Y77.272 E.01792
G1 X18.883 Y77.464 E.01425
G1 X18.787 Y77.488 E.0031
G1 X18.411 Y77.198 F54000
G1 F2100
G1 X18.407 Y77.199 E.00013
G1 X18.025 Y77.225 E.01201
G1 X17.645 Y77.179 E.012
G1 X17.264 Y77.054 E.01257
G1 X16.842 Y76.806 E.01535
G1 X16.559 Y76.544 E.01209
G1 X16.332 Y76.235 E.01202
G1 X16.167 Y75.89 E.01199
G1 X16.07 Y75.519 E.01202
G1 X16.044 Y75.137 E.01201
G1 X16.07 Y74.861 E.00869
G1 X16.206 Y74.391 E.01534
G1 X16.389 Y74.055 E.012
G1 X16.632 Y73.758 E.01203
G1 X16.926 Y73.513 E.012
G1 X17.26 Y73.326 E.012
G1 X17.642 Y73.204 E.01257
G1 X18.129 Y73.155 E.01535
G1 X18.512 Y73.201 E.01209
G1 X18.877 Y73.318 E.01202
G1 X19.332 Y73.592 E.01665
G1 X19.695 Y73.953 E.01605
G1 X19.95 Y74.39 E.01586
G1 X20.087 Y74.861 E.01538
G1 X20.113 Y75.243 E.01201
G1 X20.067 Y75.624 E.01203
G1 X19.951 Y75.989 E.01201
G1 X19.768 Y76.325 E.012
G1 X19.51 Y76.635 E.01265
G1 X19.124 Y76.936 E.01535
G1 X18.778 Y77.101 E.01202
G1 X18.469 Y77.182 E.01002
G1 X18.072 Y76.848 F54000
;TYPE:External perimeter
G1 F2100
G1 X18.061 Y76.849 E.00035
G1 X17.75 Y76.817 E.0098
G1 X17.446 Y76.723 E.00998
G1 X17.091 Y76.523 E.01278
G1 X16.857 Y76.313 E.00986
G1 X16.668 Y76.064 E.0098
G1 X16.529 Y75.784 E.0098
G1 X16.445 Y75.483 E.0098
G1 X16.419 Y75.172 E.00979
G1 X16.445 Y74.897 E.00866
G1 X16.542 Y74.563 E.01091
G1 X16.687 Y74.286 E.0098
G1 X16.881 Y74.041 E.0098
G1 X17.118 Y73.837 E.0098
G1 X17.388 Y73.681 E.00978
G1 X17.689 Y73.578 E.00997
G1 X18.094 Y73.531 E.01278
G1 X18.407 Y73.563 E.00987
G1 X18.706 Y73.654 E.0098
G1 X19.101 Y73.89 E.01443
G1 X19.435 Y74.236 E.01508
G1 X19.628 Y74.596 E.01281
G1 X19.712 Y74.896 E.00977
G1 X19.738 Y75.208 E.00982
G1 X19.705 Y75.518 E.00977
G1 X19.615 Y75.817 E.00979
G1 X19.47 Y76.094 E.0098
G1 X19.27 Y76.344 E.01004
G1 X18.953 Y76.6 E.01278
G1 X18.673 Y76.739 E.0098
G1 X18.372 Y76.823 E.0098
G1 X18.132 Y76.843 E.00755
G1 X17.734 Y76.8 F54000
G1 E-3.5 F1500
G1 X33.585 Y77.782 F54000
G1 E3.5 F1500
;TYPE:Perimeter
G1 F2100
G1 X33.488 Y77.826 E.00334
;WIDTH:0.431595
G1 X32.979 Y77.955 E.01697
G1 X32.454 Y77.975 E.01698
;WIDTH:0.423202
G1 X31.934 Y77.904 E.0166
G1 X31.401 Y77.715 E.01788
;WIDTH:0.419999
G1 X30.841 Y77.371 E.02061
G1 X30.463 Y77.006 E.01648
G1 X30.16 Y76.578 E.01644
G1 X29.943 Y76.099 E.01649
G1 X29.819 Y75.59 E.01643
G1 X29.793 Y75.065 E.01648
G1 X29.866 Y74.546 E.01643
G1 X29.943 Y74.28 E.00868
G1 X30.16 Y73.802 E.01646
G1 X30.465 Y73.371 E.01656
G1 X30.889 Y72.98 E.01808
G1 X31.188 Y72.773 E.0114
G1 X31.65 Y72.56 E.01595
G1 X32.178 Y72.431 E.01704
G1 X32.7 Y72.404 E.01639
G1 X33.222 Y72.477 E.01653
G1 X33.72 Y72.646 E.01649
G1 X34.176 Y72.905 E.01644
G1 X34.576 Y73.245 E.01646
G1 X34.926 Y73.69 E.01775
G1 X35.214 Y74.28 E.02059
G1 X35.338 Y74.79 E.01646
G1 X35.364 Y75.314 E.01645
G1 X35.291 Y75.834 E.01646
G1 X35.103 Y76.368 E.01775
G1 X34.759 Y76.928 E.02061
G1 X34.395 Y77.306 E.01645
G1 X33.966 Y77.608 E.01645
G1 X33.64 Y77.757 E.01124
G1 X33.309 Y77.482 F54000
G1 F2100
G1 X32.943 Y77.574 E.01183
G1 X32.49 Y77.6 E.01423
G1 X32.04 Y77.541 E.01423
G1 X31.582 Y77.384 E.01518
G1 X31.09 Y77.088 E.018
G1 X30.761 Y76.775 E.01424
G1 X30.496 Y76.407 E.01422
G1 X30.305 Y75.994 E.01427
G1 X30.195 Y75.554 E.01422
G1 X30.168 Y75.101 E.01423
G1 X30.228 Y74.651 E.01423
G1 X30.305 Y74.385 E.00868
G1 X30.528 Y73.916 E.01628
G1 X30.906 Y73.455 E.01869
G1 X31.302 Y73.141 E.01585
G1 X31.761 Y72.92 E.01597
G1 X32.214 Y72.806 E.01465
G1 X32.665 Y72.78 E.01416
G1 X33.117 Y72.839 E.01429
G1 X33.548 Y72.982 E.01424
G1 X33.945 Y73.203 E.01425
G1 X34.293 Y73.494 E.01422
G1 X34.596 Y73.871 E.01517
G1 X34.852 Y74.385 E.018
G1 X34.962 Y74.825 E.01422
G1 X34.989 Y75.279 E.01426
G1 X34.929 Y75.729 E.01423
G1 X34.773 Y76.186 E.01514
G1 X34.476 Y76.678 E.01802
G1 X34.164 Y77.008 E.01424
G1 X33.795 Y77.272 E.01423
G1 X33.383 Y77.464 E.01425
G1 X33.368 Y77.467 E.00048
G1 X32.956 Y77.186 F54000
G1 F2100
G1 X32.908 Y77.199 E.00156
G1 X32.525 Y77.225 E.01204
G1 X32.145 Y77.179 E.012
G1 X31.764 Y77.054 E.01257
G1 X31.34 Y76.805 E.01542
G1 X31.059 Y76.544 E.01202
G1 X30.832 Y76.235 E.01202
G1 X30.667 Y75.889 E.01202
G1 X30.57 Y75.519 E.01199
G1 X30.544 Y75.136 E.01204
G1 X30.59 Y74.756 E.012
G1 X30.667 Y74.49 E.00868
G1 X30.89 Y74.054 E.01535
G1 X31.147 Y73.745 E.0126
G1 X31.531 Y73.445 E.01528
G1 X31.879 Y73.279 E.01209
G1 X32.249 Y73.181 E.012
G1 X32.629 Y73.155 E.01194
G1 X33.012 Y73.201 E.01209
G1 X33.377 Y73.318 E.01202
G1 X33.714 Y73.501 E.01202
G1 X34.01 Y73.743 E.01199
G1 X34.265 Y74.053 E.01259
G1 X34.49 Y74.49 E.01541
G1 X34.587 Y74.861 E.01202
G1 X34.613 Y75.243 E.01201
G1 X34.567 Y75.623 E.012
G1 X34.442 Y76.005 E.0126
G1 X34.193 Y76.429 E.01542
G1 X33.933 Y76.71 E.012
G1 X33.624 Y76.936 E.012
G1 X33.278 Y77.101 E.01202
G1 X33.014 Y77.171 E.00856
G1 X32.585 Y76.847 F54000
;TYPE:External perimeter
G1 F2100
G1 X32.561 Y76.849 E.00076
G1 X32.25 Y76.817 E.0098
G1 X31.946 Y76.723 E.00998
G1 X31.589 Y76.522 E.01285
G1 X31.357 Y76.313 E.00979
G1 X31.168 Y76.064 E.0098
G1 X31.029 Y75.784 E.0098
G1 X30.945 Y75.484 E.00977
G1 X30.919 Y75.172 E.00982
G1 X30.952 Y74.861 E.00981
G1 X31.029 Y74.596 E.00865
G1 X31.187 Y74.286 E.01091
G1 X31.387 Y74.036 E.01004
G1 X31.702 Y73.781 E.01271
G1 X31.984 Y73.641 E.00987
G1 X32.285 Y73.557 E.0098
G1 X32.594 Y73.531 E.00972
G1 X32.907 Y73.563 E.00987
G1 X33.206 Y73.654 E.0098
G1 X33.483 Y73.799 E.0098
G1 X33.727 Y73.993 E.00977
G1 X33.935 Y74.235 E.01001
G1 X34.128 Y74.595 E.01281
G1 X34.212 Y74.897 E.00983
G1 X34.238 Y75.208 E.00979
G1 X34.205 Y75.518 E.00977
G1 X34.112 Y75.823 E.01
G1 X33.911 Y76.18 E.01285
G1 X33.701 Y76.412 E.00981
G1 X33.453 Y76.6 E.00976
G1 X33.173 Y76.739 E.0098
G1 X32.872 Y76.823 E.0098
G1 X32.645 Y76.842 E.00714
G1 X32.247 Y76.804 F54000
G1 E-3.5 F1500
G1 X29.242 Y58.051 F54000
G1 E3.5 F1500
;TYPE:Perimeter
;WIDTH:0.530517
G1 F2100
G1 X29.19 Y58.078 E.00238
;WIDTH:0.573279
G1 X29.104 Y58.122 E.00426
