; File Parsed By Flow Comp Script
; Script Ver. V0.7.1
; Flow Model Ver. V0.2.1
; Logger Ver. V0.0.1
; Flow Comp Model Points:
; (0, 0)
; (0.2, 0.4444)
; (0.4, 0.6145)
; (0.6, 0.7059)
; (0.8, 0.7619)
; (1.5, 0.8571)
; (2, 0.8889)
; (3, 0.9231)
; (5, 0.952)
; (10, 1)

; generated by PrusaSlicer 2.9.2 on 2025-04-20 at 23:30:27 UTC

; 

; external perimeters extrusion width = 0.45mm
; perimeters extrusion width = 0.45mm
; infill extrusion width = 0.45mm
; solid infill extrusion width = 0.45mm
; top infill extrusion width = 0.40mm
; support material extrusion width = 0.35mm
; first layer extrusion width = 0.42mm

; external perimeters extrusion width = 0.45mm
; perimeters extrusion width = 0.45mm
; infill extrusion width = 0.45mm
; solid infill extrusion width = 0.45mm
; top infill extrusion width = 0.40mm
; support material extrusion width = 0.35mm
; first layer extrusion width = 0.42mm

;TYPE:Custom
G90 ; use absolute coordinates
M83 ; extruder relative mode
CALCULATE_PA BOWDEN_LENGTH=34.0 MATERIAL=PLA LAYER_HEIGHT=0.2 NOZZLE_SIZE=0.4 PRINT_SPEED=120 FILAMENT_DIAMETER=1.75 LINE_WIDTH=0.45 ; auto pressure advance
M104 S210 ; set temporary nozzle temp to prevent oozing during homing
M140 S58 ; set final bed temp
G4 S30 ; allow partial nozzle warmup
G28 ; home all axis
G1 Z50 F240
G1 X2.0 Y10 F3000
M104 S208 ; set final nozzle temp
M190 S58 ; wait for bed temp to stabilize
M109 S208 ; wait for nozzle temp to stabilize
G1 Z0.28 F240
G92 E0
G1 X2.0 Y140 E10 F1500 ; prime the nozzle
G1 X2.3 Y140 F5000
G92 E0
G1 X2.3 Y10 E10 F1200 ; prime the nozzle
G92 E0
G21 ; set units to millimeters
G90 ; use absolute coordinates
M83 ; use relative distances for extrusion
; Filament gcode
M107
;LAYER_CHANGE
;Z:0.2
;HEIGHT:0.2
G1 E-3.5 F1500
G1 Z.2 F54000
G1 X12.076 Y12.038
G1 Z.2
G1 E3.5 F1500
M204 S3500
;TYPE:Skirt/Brim
;WIDTH:0.42
G1 F1800
G1 X16.1 Y8 E.17874
G1 X17.524 Y6.817 E.05805
G1 X18.455 Y6.204 E.03495
G1 X19.467 Y5.663 E.03598
G1 X20.493 Y5.227 E.03495
G1 X21.585 Y4.876 E.03596
G1 X22.673 Y4.631 E.03497
G1 X24.618 Y4.429 E.06131
G1 X63.209 Y4.472 E1.20999
G1 X64.314 Y4.617 E.03494
G1 X65.435 Y4.868 E.03602
G1 X66.496 Y5.209 E.03494
G1 X67.553 Y5.657 E.036
G1 X68.536 Y6.182 E.03494
G1 X69.495 Y6.813 E.03599
G1 X70.368 Y7.507 E.03497
G1 X79.623 Y16.778 E.41074
G1 X80.91 Y18.425 E.06554
G1 X81.479 Y19.378 E.0348
G1 X81.974 Y20.406 E.03577
G1 X82.364 Y21.445 E.0348
G1 X82.668 Y22.546 E.03581
G1 X82.866 Y23.638 E.0348
G1 X82.993 Y25.329 E.05317
G1 X82.968 Y41.384 E.50339
G1 X82.866 Y42.521 E.03579
G1 X82.668 Y43.613 E.0348
G1 X82.364 Y44.713 E.03578
G1 X81.974 Y45.752 E.0348
G1 X81.479 Y46.781 E.0358
G1 X80.91 Y47.733 E.03477
G1 X79.707 Y49.294 E.06179
G1 X71.435 Y57.951 E.37543
G1 X34.73 Y93.998 E1.61304
G1 X33.862 Y94.692 E.03485
G1 X32.908 Y95.323 E.03586
G1 X31.929 Y95.851 E.03488
G1 X30.878 Y96.302 E.03586
G1 X29.821 Y96.646 E.03485
G1 X28.705 Y96.901 E.03589
G1 X27.604 Y97.05 E.03484
G1 X26.461 Y97.102 E.03588
G1 X25.35 Y97.052 E.03487
G1 X24.216 Y96.898 E.03588
G1 X23.132 Y96.65 E.03487
G1 X22.045 Y96.295 E.03585
G1 X21.023 Y95.857 E.03486
G1 X20.016 Y95.314 E.03587
G1 X19.089 Y94.701 E.03485
G1 X17.454 Y93.285 E.06782
G1 X6.265 Y80.783 E.52606
G1 X5.613 Y79.886 E.03477
G1 X5.026 Y78.905 E.03584
G1 X4.545 Y77.905 E.03479
G1 X4.143 Y76.836 E.03581
G1 X3.848 Y75.766 E.0348
G1 X3.644 Y74.642 E.03582
G1 X3.544 Y73.537 E.03479
G1 X3.544 Y72.394 E.03584
G1 X4.056 Y24.639 E1.49741
G1 X4.359 Y22.478 E.06842
G1 X4.654 Y21.408 E.0348
G1 X5.056 Y20.339 E.03581
G1 X5.537 Y19.34 E.03476
G1 X6.122 Y18.359 E.03581
G1 X6.775 Y17.462 E.03479
G1 X7.526 Y16.602 E.0358
G1 X12.033 Y12.08 E.20018
G1 E-3.5 F1500
G1 X70.634 Y34.489 F54000
G1 E3.5 F1500
;TYPE:Support material
G1 F1800
G1 X71.291 Y34.519 E.02062
G1 X72.404 Y34.773 E.03579
G1 X73.454 Y35.221 E.03579
G1 X74.407 Y35.85 E.0358
G1 X75.232 Y36.639 E.03579
G1 X75.903 Y37.563 E.0358
G1 X76.399 Y38.592 E.03582
G1 X76.703 Y39.692 E.03578
G1 X76.805 Y40.829 E.03579
G1 X76.703 Y41.966 E.03579
G1 X76.399 Y43.067 E.03581
G1 X75.903 Y44.096 E.03582
G1 X75.232 Y45.019 E.03578
G1 X74.407 Y45.808 E.03579
G1 X73.454 Y46.437 E.0358
G1 X72.404 Y46.886 E.03581
G1 X71.291 Y47.14 E.03579
G1 X70.151 Y47.191 E.03578
G1 X69.02 Y47.038 E.03578
G1 X67.842 Y46.655 E.03884
G1 X68.119 Y47.223 E.01981
G1 X68.428 Y48.326 E.03592
G1 X68.534 Y49.466 E.0359
G1 X68.434 Y50.608 E.03594
G1 X68.131 Y51.714 E.03596
G1 X67.635 Y52.748 E.03596
G1 X66.961 Y53.676 E.03596
G1 X66.131 Y54.468 E.03597
G1 X65.173 Y55.099 E.03597
G1 X64.118 Y55.547 E.03594
G1 X62.999 Y55.799 E.03596
G1 X61.854 Y55.846 E.03593
G1 X60.72 Y55.687 E.0359
G1 X59.633 Y55.328 E.03589
G1 X58.629 Y54.781 E.03585
G1 X57.739 Y54.063 E.03585
G1 X56.993 Y53.199 E.03579
G1 X56.414 Y52.217 E.03574
G1 X56.02 Y51.148 E.03572
G1 X55.822 Y50.026 E.03572
G1 X55.828 Y48.889 E.03565
G1 X56.035 Y47.772 E.03562
G1 X56.437 Y46.71 E.0356
G1 X56.917 Y45.911 E.02923
G1 X66.492 Y45.911 E.30022
G1 X66.747 Y45.656 E.01131
G1 X66.747 Y35.66 E.31342
G1 X67.934 Y34.974 E.04299
G1 X69.02 Y34.621 E.0358
G1 X70.151 Y34.468 E.03578
G1 X70.578 Y34.487 E.0134
G1 X76.192 Y43.105 F54000
G1 F1800
G1 X76.192 Y39.118 E.12501
G1 X75.773 Y38.075 E.03524
G1 X75.773 Y43.584 E.17273
G1 X75.354 Y44.274 E.02531
G1 X75.354 Y37.384 E.21603
G1 X74.935 Y36.825 E.0219
G1 X74.935 Y44.834 E.25112
G1 X74.516 Y45.234 E.01816
G1 X74.516 Y36.424 E.27623
G1 X74.097 Y36.052 E.01757
G1 X74.097 Y45.606 E.29956
G1 X73.678 Y45.883 E.01575
G1 X73.678 Y35.776 E.3169
G1 X73.259 Y35.507 E.01561
G1 X73.259 Y46.151 E.33374
G1 X72.84 Y46.33 E.01429
G1 X72.84 Y35.328 E.34496
G1 X72.421 Y35.149 E.01429
G1 X72.421 Y46.509 E.35618
G1 X72.002 Y46.629 E.01367
G1 X72.002 Y35.029 E.36371
G1 X71.583 Y34.933 E.01348
G1 X71.583 Y46.725 E.36973
G1 X71.164 Y46.806 E.01338
G1 X71.164 Y34.853 E.37478
G1 X70.745 Y34.834 E.01315
G1 X70.745 Y46.825 E.37597
G1 X70.326 Y46.843 E.01315
G1 X70.326 Y34.815 E.37713
G1 X69.907 Y34.843 E.01317
G1 X69.907 Y46.815 E.37537
G1 X69.488 Y46.759 E.01325
G1 X69.488 Y34.9 E.37183
G1 X69.069 Y34.962 E.01328
G1 X69.069 Y46.697 E.36794
G1 X68.65 Y46.561 E.01381
G1 X68.65 Y35.098 E.35941
G1 X68.232 Y35.234 E.01378
G1 X68.232 Y46.425 E.35089
G1 X67.813 Y46.289 E.01381
G1 X67.813 Y35.424 E.34066
G1 X67.394 Y35.65 E.01493
G1 X67.394 Y52.466 E.52725
G1 X67.342 Y52.573 E.00373
G1 X66.975 Y53.079 E.0196
G1 X66.975 Y45.908 E.22484
G1 X66.556 Y46.25 E.01696
G1 X66.556 Y53.594 E.23027
G1 X66.137 Y53.994 E.01816
G1 X66.137 Y46.25 E.24281
G1 X65.718 Y46.25 E.01314
G1 X65.718 Y54.334 E.25347
G1 X65.299 Y54.61 E.01573
G1 X65.299 Y46.25 E.26212
G1 X64.88 Y46.25 E.01314
G1 X64.88 Y54.855 E.2698
G1 X64.461 Y55.033 E.01427
G1 X64.461 Y46.25 E.27538
G1 X64.042 Y46.25 E.01314
G1 X64.042 Y55.211 E.28097
G1 X63.623 Y55.311 E.01351
G1 X63.623 Y46.25 E.2841
G1 X63.204 Y46.25 E.01314
G1 X63.204 Y55.405 E.28705
G1 X62.785 Y55.468 E.01329
G1 X62.785 Y46.25 E.28902
G1 X62.366 Y46.25 E.01314
G1 X62.366 Y55.485 E.28956
G1 X61.947 Y55.503 E.01315
G1 X61.947 Y46.25 E.29012
G1 X61.528 Y46.25 E.01314
G1 X61.528 Y55.458 E.28871
G1 X61.109 Y55.399 E.01327
G1 X61.109 Y46.25 E.28686
G1 X60.69 Y46.25 E.01314
G1 X60.69 Y55.32 E.28438
G1 X60.271 Y55.182 E.01383
G1 X60.271 Y46.25 E.28006
G1 X59.852 Y46.25 E.01314
G1 X59.852 Y55.043 E.2757
G1 X59.433 Y54.833 E.0147
G1 X59.433 Y46.25 E.26911
G1 X59.014 Y46.25 E.01314
G1 X59.014 Y54.604 E.26193
G1 X58.595 Y54.318 E.01591
G1 X58.595 Y46.25 E.25297
G1 X58.176 Y46.25 E.01314
G1 X58.176 Y53.98 E.24237
G1 X57.757 Y53.565 E.01849
G1 X57.757 Y46.25 E.22936
G1 X57.338 Y46.25 E.01314
G1 X57.338 Y53.079 E.21412
G1 X56.919 Y52.405 E.02488
G1 X56.919 Y46.567 E.18305
G1 X56.5 Y47.503 E.03215
G1 X56.5 Y51.96 E.13975
G1 X67.813 Y51.986 F54000
G1 F1800
G1 X67.813 Y46.981 E.15693
G1 E-3.5 F1500
G1 X62.376 Y10.633 F54000
G1 E3.5 F1500
G1 F1800
G1 X62.96 Y10.655 E.01832
G1 X64.081 Y10.907 E.03603
G1 X65.137 Y11.354 E.03595
G1 X66.096 Y11.985 E.03599
G1 X66.927 Y12.777 E.03599
G1 X67.602 Y13.705 E.03598
G1 X68.099 Y14.74 E.036
G1 X68.403 Y15.846 E.03596
G1 X68.503 Y16.989 E.03597
G1 X68.396 Y18.13 E.03593
G1 X68.028 Y19.443 E.04275
G1 X69.02 Y19.121 E.0327
G1 X70.151 Y18.968 E.03578
G1 X71.291 Y19.019 E.03578
G1 X72.404 Y19.273 E.03579
G1 X73.454 Y19.721 E.03579
G1 X74.407 Y20.35 E.0358
G1 X75.232 Y21.139 E.03579
G1 X75.903 Y22.063 E.0358
G1 X76.399 Y23.092 E.03582
G1 X76.703 Y24.192 E.03578
G1 X76.805 Y25.329 E.03579
G1 X76.703 Y26.466 E.03579
G1 X76.399 Y27.567 E.03581
G1 X75.903 Y28.596 E.03582
G1 X75.232 Y29.519 E.03578
G1 X74.407 Y30.308 E.03579
G1 X73.454 Y30.937 E.0358
G1 X72.404 Y31.386 E.03581
G1 X71.291 Y31.64 E.03579
G1 X70.151 Y31.691 E.03578
G1 X69.02 Y31.538 E.03578
G1 X67.934 Y31.185 E.0358
G1 X66.747 Y30.499 E.04299
G1 X66.747 Y20.796 E.30423
G1 X66.492 Y20.541 E.01131
G1 X56.885 Y20.541 E.30122
G1 X56.406 Y19.743 E.02918
G1 X56.005 Y18.684 E.0355
G1 X55.798 Y17.568 E.03559
G1 X55.791 Y16.432 E.03562
G1 X55.988 Y15.312 E.03566
G1 X56.381 Y14.244 E.03568
G1 X56.959 Y13.261 E.03575
G1 X57.704 Y12.396 E.03579
G1 X58.592 Y11.678 E.03581
G1 X59.596 Y11.13 E.03586
G1 X60.682 Y10.769 E.03588
G1 X61.819 Y10.609 E.036
G1 X62.319 Y10.63 E.01569
G1 E-3.5 F1500
G1 X76.192 Y27.605 F54000
G1 E3.5 F1500
G1 F1800
G1 X76.192 Y23.618 E.12501
G1 X75.773 Y22.575 E.03524
G1 X75.773 Y28.084 E.17273
G1 X75.354 Y28.774 E.02531
G1 X75.354 Y21.884 E.21603
G1 X74.935 Y21.325 E.0219
G1 X74.935 Y29.334 E.25112
G1 X74.516 Y29.734 E.01816
G1 X74.516 Y20.924 E.27623
G1 X74.097 Y20.552 E.01757
G1 X74.097 Y30.106 E.29956
G1 X73.678 Y30.383 E.01575
G1 X73.678 Y20.276 E.3169
G1 X73.259 Y20.007 E.01561
G1 X73.259 Y30.651 E.33374
G1 X72.84 Y30.83 E.01429
G1 X72.84 Y19.828 E.34496
G1 X72.421 Y19.649 E.01429
G1 X72.421 Y31.009 E.35618
G1 X72.002 Y31.129 E.01367
G1 X72.002 Y19.529 E.36371
G1 X71.583 Y19.434 E.01347
G1 X71.583 Y31.225 E.3697
G1 X71.164 Y31.306 E.01338
G1 X71.164 Y19.353 E.37478
G1 X70.745 Y19.334 E.01315
G1 X70.745 Y31.325 E.37597
G1 X70.326 Y31.343 E.01315
G1 X70.326 Y19.315 E.37713
G1 X69.907 Y19.343 E.01317
G1 X69.907 Y31.315 E.37537
G1 X69.488 Y31.259 E.01325
G1 X69.488 Y19.4 E.37183
G1 X69.069 Y19.462 E.01328
G1 X69.069 Y31.197 E.36794
G1 X68.65 Y31.061 E.01381
G1 X68.65 Y19.598 E.35941
G1 X68.232 Y19.734 E.01378
G1 X68.232 Y30.925 E.35089
G1 X67.813 Y30.734 E.01444
G1 X67.813 Y19.87 E.34063
G1 X67.531 Y19.962 E.0093
G1 X67.813 Y18.956 E.03276
G1 X67.813 Y14.978 E.12473
G1 X67.394 Y14.055 E.03178
G1 X67.394 Y30.509 E.5159
G1 X67.086 Y30.336 E.01108
G1 X67.086 Y20.655 E.30354
G1 X66.975 Y20.544 E.00492
G1 X66.975 Y13.419 E.2234
G1 X66.556 Y12.892 E.02111
G1 X66.556 Y20.202 E.2292
G1 X66.137 Y20.202 E.01314
G1 X66.137 Y12.492 E.24174
G1 X65.718 Y12.142 E.01712
G1 X65.718 Y20.202 E.25272
G1 X65.299 Y20.202 E.01314
G1 X65.299 Y11.866 E.26137
G1 X64.88 Y11.614 E.01533
G1 X64.88 Y20.202 E.26927
G1 X64.461 Y20.202 E.01314
G1 X64.461 Y11.436 E.27485
G1 X64.042 Y11.259 E.01426
G1 X64.042 Y20.202 E.2804
G1 X63.623 Y20.202 E.01314
G1 X63.623 Y11.152 E.28376
G1 X63.204 Y11.058 E.01346
G1 X63.204 Y20.202 E.2867
G1 X62.785 Y20.202 E.01314
G1 X62.785 Y10.988 E.2889
G1 X62.366 Y10.972 E.01315
G1 X62.366 Y20.202 E.2894
G1 X61.947 Y20.202 E.01314
G1 X61.947 Y10.954 E.28996
G1 X61.528 Y10.993 E.01319
G1 X61.528 Y20.202 E.28874
G1 X61.109 Y20.202 E.01314
G1 X61.109 Y11.052 E.28689
G1 X60.69 Y11.124 E.01333
G1 X60.69 Y20.202 E.28463
G1 X60.271 Y20.202 E.01314
G1 X60.271 Y11.263 E.28028
G1 X59.852 Y11.402 E.01384
G1 X59.852 Y20.202 E.27592
G1 X59.433 Y20.202 E.01314
G1 X59.433 Y11.605 E.26955
G1 X59.014 Y11.834 E.01497
G1 X59.014 Y20.202 E.26237
G1 X58.595 Y20.202 E.01314
G1 X58.595 Y12.112 E.25366
G1 X58.176 Y12.451 E.0169
G1 X58.176 Y20.202 E.24303
G1 X57.757 Y20.202 E.01314
G1 X57.757 Y12.854 E.23039
G1 X57.338 Y13.34 E.02012
G1 X57.338 Y20.202 E.21515
G1 X57.077 Y20.202 E.00818
G1 X56.919 Y19.939 E.00962
G1 X56.919 Y13.998 E.18628
G1 X56.5 Y14.902 E.03124
G1 X56.5 Y19.512 E.14454
G1 E-3.5 F1500
G1 X25.207 Y10.647 F54000
G1 E3.5 F1500
G1 F1800
G1 X25.76 Y10.674 E.01736
G1 X26.877 Y10.935 E.03597
G1 X27.927 Y11.391 E.03589
G1 X28.877 Y12.027 E.03585
G1 X29.698 Y12.821 E.03581
G1 X30.362 Y13.749 E.03578
G1 X30.85 Y14.779 E.03574
G1 X31.146 Y15.879 E.03572
G1 X31.241 Y17.012 E.03565
G1 X31.134 Y18.143 E.03562
G1 X30.827 Y19.236 E.0356
G1 X30.333 Y20.255 E.03551
G1 X30.125 Y20.541 E.01109
G1 X20.532 Y20.541 E.30078
G1 X20.277 Y20.796 E.01131
G1 X20.277 Y30.441 E.30241
G1 X19.605 Y30.884 E.02524
G1 X18.555 Y31.333 E.03581
G1 X17.442 Y31.587 E.03579
G1 X16.301 Y31.638 E.03581
G1 X15.17 Y31.485 E.03578
G1 X14.084 Y31.132 E.0358
G1 X13.079 Y30.591 E.03579
G1 X12.186 Y29.88 E.03579
G1 X11.435 Y29.02 E.0358
G1 X10.849 Y28.04 E.0358
G1 X10.448 Y26.971 E.0358
G1 X10.244 Y25.848 E.03579
G1 X10.244 Y24.706 E.03581
G1 X10.448 Y23.583 E.03579
G1 X10.849 Y22.514 E.0358
G1 X11.435 Y21.534 E.0358
G1 X12.186 Y20.674 E.0358
G1 X13.079 Y19.962 E.03581
G1 X14.084 Y19.421 E.03579
G1 X15.17 Y19.068 E.0358
G1 X16.301 Y18.915 E.03578
G1 X17.442 Y18.966 E.03581
G1 X18.555 Y19.22 E.03579
G1 X19.017 Y19.418 E.01576
G1 X18.744 Y18.7 E.02408
G1 X18.535 Y17.574 E.03591
G1 X18.531 Y16.428 E.03593
G1 X18.733 Y15.299 E.03596
G1 X19.135 Y14.224 E.03599
G1 X19.723 Y13.238 E.036
G1 X20.478 Y12.374 E.03598
G1 X21.376 Y11.66 E.03597
G1 X22.388 Y11.118 E.03599
G1 X23.48 Y10.767 E.03596
G1 X24.619 Y10.617 E.03602
G1 X25.151 Y10.644 E.0167
G1 X30.524 Y19.473 F54000
G1 F1800
G1 X30.524 Y14.883 E.14392
G1 X30.105 Y13.998 E.0307
G1 X30.105 Y19.948 E.18656
G1 X29.952 Y20.202 E.0093
G1 X29.686 Y20.202 E.00834
G1 X29.686 Y13.387 E.21368
G1 X29.267 Y12.876 E.02072
G1 X29.267 Y20.202 E.2297
G1 X28.848 Y20.202 E.01314
G1 X28.848 Y12.471 E.2424
G1 X28.429 Y12.135 E.01684
G1 X28.429 Y20.202 E.25294
G1 X28.01 Y20.202 E.01314
G1 X28.01 Y11.855 E.26171
G1 X27.591 Y11.615 E.01514
G1 X27.591 Y20.202 E.26924
G1 X27.172 Y20.202 E.01314
G1 X27.172 Y11.433 E.27495
G1 X26.753 Y11.254 E.01429
G1 X26.753 Y20.202 E.28056
G1 X26.334 Y20.202 E.01314
G1 X26.334 Y11.156 E.28363
G1 X25.915 Y11.058 E.01349
G1 X25.915 Y20.202 E.2867
G1 X25.496 Y20.202 E.01314
G1 X25.496 Y11.001 E.28849
G1 X25.077 Y10.98 E.01315
G1 X25.077 Y20.202 E.28915
G1 X24.658 Y20.202 E.01314
G1 X24.633 Y10.958 E.28984
G1 X24.239 Y11.01 E.01246
G1 X24.239 Y20.202 E.28821
G1 X23.82 Y20.202 E.01314
G1 X23.82 Y11.065 E.28648
G1 X23.401 Y11.149 E.0134
G1 X23.401 Y20.202 E.28385
G1 X22.982 Y20.202 E.01314
G1 X22.982 Y11.284 E.27962
G1 X22.563 Y11.419 E.0138
G1 X22.563 Y20.202 E.27538
G1 X22.144 Y20.202 E.01314
G1 X22.144 Y11.634 E.26864
G1 X21.725 Y11.858 E.0149
G1 X21.725 Y20.202 E.26162
G1 X21.306 Y20.202 E.01314
G1 X21.306 Y12.15 E.25246
G1 X20.887 Y12.483 E.01678
G1 X20.887 Y20.202 E.24202
G1 X20.468 Y20.202 E.01314
G1 X20.468 Y12.902 E.22889
G1 X20.049 Y13.381 E.01995
G1 X20.049 Y20.544 E.22459
G1 X19.938 Y20.655 E.00492
G1 X19.938 Y30.258 E.3011
G1 X19.63 Y30.461 E.01157
G1 X19.63 Y14.056 E.51437
G1 X19.211 Y14.99 E.0321
G1 X19.211 Y18.975 E.12495
G1 X19.618 Y20.044 E.03586
G1 X19.211 Y19.87 E.01388
G1 X19.211 Y30.683 E.33903
G1 X18.792 Y30.862 E.01429
G1 X18.792 Y19.691 E.35026
G1 X18.449 Y19.544 E.0117
G1 X18.373 Y19.527 E.00244
G1 X18.373 Y31.026 E.36054
G1 X17.954 Y31.122 E.01348
G1 X17.954 Y19.431 E.36656
G1 X17.535 Y19.336 E.01347
G1 X17.535 Y31.218 E.37255
G1 X17.116 Y31.262 E.01321
G1 X17.116 Y19.291 E.37534
G1 X16.697 Y19.273 E.01315
G1 X16.697 Y31.281 E.3765
G1 X16.278 Y31.293 E.01314
G1 X16.278 Y19.261 E.37725
G1 X15.859 Y19.317 E.01325
G1 X15.859 Y31.236 E.37371
G1 X15.44 Y31.179 E.01326
G1 X15.44 Y19.374 E.37014
G1 X15.021 Y19.473 E.0135
G1 X15.021 Y31.08 E.36393
G1 X14.602 Y30.944 E.01381
G1 X14.602 Y19.609 E.3554
G1 X14.183 Y19.753 E.01389
G1 X14.183 Y30.8 E.34637
G1 X13.765 Y30.575 E.01488
G1 X13.765 Y19.978 E.33226
G1 X13.346 Y20.204 E.01493
G1 X13.346 Y30.35 E.31812
G1 X12.927 Y30.036 E.01642
G1 X12.927 Y20.517 E.29846
G1 X12.508 Y20.852 E.01682
G1 X12.508 Y29.702 E.27749
G1 X12.089 Y29.252 E.01928
G1 X12.089 Y21.301 E.2493
G1 X11.67 Y21.803 E.0205
G1 X11.67 Y28.751 E.21785
G1 X11.251 Y28.05 E.02561
