; File Parsed By Flow Comp Script
; Script Ver. V0.7.1
; Flow Model Ver. V0.2.1
; Logger Ver. V0.0.1
; Flow Comp Model Points:
; (0, 0)
; (0.2, 0.4444)
; (0.4, 0.6145)
; (0.6, 0.7059)
; (0.8, 0.7619)
; (1.5, 0.8571)
; (2, 0.8889)
; (3, 0.9231)
; (5, 0.952)
; (10, 1)

; generated by PrusaSlicer 2.9.2 on 2025-04-19 at 20:38:16 UTC

; 

; external perimeters extrusion width = 0.45mm
; perimeters extrusion width = 0.45mm
; infill extrusion width = 0.45mm
; solid infill extrusion width = 0.45mm
; top infill extrusion width = 0.40mm
; support material extrusion width = 0.35mm
; first layer extrusion width = 0.42mm

;TYPE:Custom
G90 ; use absolute coordinates
M83 ; extruder relative mode
CALCULATE_PA BOWDEN_LENGTH=34.0 MATERIAL=PLA LAYER_HEIGHT=0.2 NOZZLE_SIZE=0.4 PRINT_SPEED=120 FILAMENT_DIAMETER=1.75 LINE_WIDTH=0.45 ; auto pressure advance
M104 S210 ; set temporary nozzle temp to prevent oozing during homing
M140 S58 ; set final bed temp
G4 S30 ; allow partial nozzle warmup
G28 ; home all axis
G1 Z50 F240
G1 X2.0 Y10 F3000
M104 S208 ; set final nozzle temp
M190 S58 ; wait for bed temp to stabilize
M109 S208 ; wait for nozzle temp to stabilize
G1 Z0.28 F240
G92 E0
G1 X2.0 Y140 E10 F1500 ; prime the nozzle
G1 X2.3 Y140 F5000
G92 E0
G1 X2.3 Y10 E10 F1200 ; prime the nozzle
G92 E0
G21 ; set units to millimeters
G90 ; use absolute coordinates
M83 ; use relative distances for extrusion
; Filament gcode
M107
;LAYER_CHANGE
;Z:0.2
;HEIGHT:0.2
G1 E-3.5 F1500
G1 Z.2 F54000
G1 X32.603 Y107.906
G1 Z.2
G1 E3.5 F1500
M204 S3500
;TYPE:Skirt/Brim
;WIDTH:0.42
G1 F1800
G1 X33.686 Y107.659 E.03483
G1 X34.833 Y107.504 E.03629
G1 X35.944 Y107.455 E.03487
G1 X37.097 Y107.507 E.03619
G1 X38.198 Y107.657 E.03484
G1 X39.325 Y107.915 E.03625
G1 X40.381 Y108.259 E.03482
G1 X41.444 Y108.714 E.03625
G1 X42.421 Y109.241 E.03481
G1 X43.386 Y109.879 E.03627
G1 X44.252 Y110.571 E.03476
G1 X45.349 Y111.637 E.04796
G1 X52.736 Y119.616 E.34093
G1 X53.926 Y121.486 E.0695
G1 X54.383 Y123.82 E.07457
G1 X54.383 Y140.82 E.53302
G1 X53.986 Y143.001 E.06951
G1 X53.016 Y144.7 E.06134
G1 X46.445 Y152.866 E.32864
G1 X45.095 Y154.24 E.0604
G1 X44.238 Y154.934 E.03458
G1 X43.271 Y155.583 E.03652
G1 X42.302 Y156.115 E.03466
G1 X41.235 Y156.581 E.03651
G1 X40.184 Y156.933 E.03475
G1 X39.052 Y157.201 E.03647
G1 X37.955 Y157.36 E.03476
G1 X36.795 Y157.422 E.03642
G1 X35.689 Y157.383 E.0347
G1 X34.538 Y157.238 E.03637
G1 X33.46 Y157.003 E.03459
G1 X32.357 Y156.657 E.03625
G1 X31.341 Y156.237 E.03447
G1 X29.402 Y155.114 E.07026
G1 X27.67 Y153.648 E.07115
G1 X19.514 Y145.089 E.37069
G1 X18.297 Y143.237 E.06948
G1 X17.806 Y140.82 E.07733
G1 X17.806 Y123.82 E.53302
G1 X18.203 Y121.64 E.06948
G1 X19.378 Y119.699 E.07114
G1 X26.878 Y111.297 E.35313
G1 X27.636 Y110.58 E.03271
G1 X28.54 Y109.859 E.03626
G1 X29.465 Y109.248 E.03476
G1 X30.483 Y108.7 E.03625
G1 X31.504 Y108.264 E.03481
G1 X32.546 Y107.925 E.03436
G1 E-3.5 F1500
G1 X36.094 Y113.657 F54000
G1 E3.5 F1500
;TYPE:Support material
G1 F1800
G1 X36.817 Y113.689 E.02269
G1 X37.944 Y113.947 E.03625
G1 X39.007 Y114.403 E.03627
G1 X39.972 Y115.041 E.03627
G1 X40.808 Y115.841 E.03628
G1 X41.488 Y116.777 E.03627
G1 X41.99 Y117.82 E.03629
G1 X42.298 Y118.936 E.0363
G1 X42.403 Y120.09 E.03633
G1 X42.3 Y121.244 E.03633
G1 X41.993 Y122.362 E.03635
G1 X41.503 Y123.385 E.03557
G1 X37.214 Y123.385 E.13448
G1 X36.96 Y123.64 E.01128
G1 X36.96 Y141.001 E.54434
G1 X37.214 Y141.255 E.01126
G1 X42.229 Y141.255 E.15724
G1 X42.748 Y142.334 E.03754
G1 X43.098 Y143.493 E.03796
G1 X43.283 Y144.914 E.04493
G1 X43.093 Y146.286 E.04343
G1 X42.287 Y148.064 E.06121
G1 X41.624 Y148.987 E.03563
G1 X40.789 Y149.796 E.03645
G1 X39.822 Y150.445 E.03652
G1 X38.755 Y150.911 E.03651
G1 X37.622 Y151.18 E.03651
G1 X36.462 Y151.243 E.03642
G1 X35.311 Y151.098 E.03637
G1 X34.208 Y150.752 E.03625
G1 X33.188 Y150.219 E.03608
G1 X32.34 Y149.564 E.0336
G1 X31.553 Y148.71 E.03641
G1 X30.94 Y147.754 E.03561
G1 X30.364 Y146.199 E.05199
G1 X30.2 Y145.031 E.03698
G1 X30.249 Y143.85 E.03706
G1 X30.533 Y142.611 E.03986
G1 X31.195 Y141.255 E.04731
G1 X34.775 Y141.255 E.11225
G1 X35.03 Y141.001 E.01128
G1 X35.03 Y123.64 E.54434
G1 X34.775 Y123.385 E.01131
G1 X30.424 Y123.385 E.13642
G1 X30.124 Y122.878 E.01847
G1 X29.723 Y121.793 E.03627
G1 X29.521 Y120.654 E.03627
G1 X29.524 Y119.498 E.03625
G1 X29.733 Y118.363 E.03619
G1 X29.944 Y117.802 E.01879
G1 X30.142 Y117.279 E.01753
G1 X30.734 Y116.288 E.03619
G1 X31.495 Y115.418 E.03624
G1 X32.399 Y114.697 E.03626
G1 X33.417 Y114.149 E.03625
G1 X34.516 Y113.792 E.03623
G1 X35.663 Y113.637 E.03629
G1 X36.038 Y113.654 E.01177
G1 E-3.5 F1500
G1 X42.798 Y146.55 F54000
G1 E3.5 F1500
G1 F1800
G1 X42.798 Y143.818 E.08566
G1 X42.379 Y142.351 E.04784
G1 X42.379 Y147.109 E.14918
G1 X41.96 Y147.937 E.0291
G1 X41.96 Y141.595 E.19885
G1 X41.541 Y141.595 E.01314
G1 X41.541 Y148.52 E.21713
G1 X41.122 Y149 E.01998
G1 X41.122 Y141.595 E.23218
G1 X40.703 Y141.595 E.01314
G1 X40.703 Y149.406 E.24491
G1 X40.284 Y149.726 E.01653
G1 X40.284 Y141.595 E.25494
G1 X39.865 Y141.595 E.01314
G1 X39.865 Y150.007 E.26375
G1 X39.446 Y150.239 E.01502
G1 X39.446 Y141.595 E.27103
G1 X39.027 Y141.595 E.01314
G1 X39.027 Y150.422 E.27676
G1 X38.608 Y150.597 E.01424
G1 X38.608 Y141.595 E.28225
G1 X38.189 Y141.595 E.01314
G1 X38.189 Y150.697 E.28539
G1 X37.77 Y150.796 E.0135
G1 X37.77 Y141.595 E.28849
G1 X37.351 Y141.595 E.01314
G1 X37.351 Y150.855 E.29034
G1 X36.932 Y150.878 E.01316
G1 X36.932 Y141.453 E.29551
G1 X36.62 Y141.141 E.01383
G1 X36.62 Y123.5 E.55312
G1 X36.932 Y123.187 E.01386
G1 X36.932 Y114.064 E.28605
G1 X36.514 Y114.015 E.0132
G1 X36.514 Y150.9 E1.1565
G1 X36.095 Y150.855 E.01321
G1 X36.095 Y113.996 E1.15569
G1 X35.676 Y113.977 E.01315
G1 X35.676 Y150.802 E1.15462
G1 X35.257 Y150.725 E.01336
G1 X35.257 Y114.034 E1.15042
G1 X34.838 Y114.091 E.01326
G1 X34.838 Y123.046 E.28078
G1 X34.419 Y123.046 E.01314
G1 X34.419 Y114.18 E.27799
G1 X34 Y114.317 E.01382
G1 X34 Y123.046 E.27369
G1 X33.581 Y123.046 E.01314
G1 X33.581 Y114.453 E.26943
G1 X33.162 Y114.672 E.01482
G1 X33.162 Y123.046 E.26256
G1 X32.743 Y123.046 E.01314
G1 X32.743 Y114.897 E.25551
G1 X32.324 Y115.191 E.01605
G1 X32.324 Y123.046 E.24629
G1 X31.905 Y123.046 E.01314
G1 X31.905 Y115.525 E.23582
G1 X31.486 Y115.944 E.01858
G1 X31.486 Y123.046 E.22268
G1 X31.067 Y123.046 E.01314
G1 X31.067 Y116.423 E.20766
G1 X30.648 Y117.093 E.02478
G1 X30.648 Y123.046 E.18665
G1 X30.432 Y122.732 E.01195
G1 X30.229 Y122.183 E.01835
G1 X30.229 Y117.527 E.14599
G1 X41.96 Y121.842 F54000
G1 F1800
G1 X41.96 Y118.988 E.08949
G1 X41.541 Y117.671 E.04333
G1 X41.541 Y122.52 E.15204
G1 X41.289 Y123.046 E.01829
G1 X41.122 Y123.046 E.00524
G1 X41.122 Y116.852 E.19421
G1 X40.703 Y116.274 E.02238
G1 X40.703 Y123.046 E.21233
G1 X40.284 Y123.046 E.01314
G1 X40.284 Y115.809 E.22691
G1 X39.865 Y115.408 E.01818
G1 X39.865 Y123.046 E.23948
G1 X39.446 Y123.046 E.01314
G1 X39.446 Y115.1 E.24914
G1 X39.027 Y114.823 E.01575
G1 X39.027 Y123.046 E.25783
G1 X38.608 Y123.046 E.01314
G1 X38.608 Y114.601 E.26479
G1 X38.189 Y114.421 E.0143
G1 X38.189 Y123.046 E.27043
G1 X37.77 Y123.046 E.01314
G1 X37.77 Y114.256 E.2756
G1 X37.351 Y114.16 E.01348
G1 X37.351 Y123.216 E.28394
G1 E-3.5 F1500
G1 X34.838 Y150.772 F54000
G1 E3.5 F1500
G1 F1800
G1 X34.838 Y141.595 E.28774
G1 X34.419 Y141.595 E.01314
G1 X34.419 Y150.463 E.27805
G1 X34 Y150.261 E.01458
G1 X34 Y141.595 E.27172
G1 X33.581 Y141.595 E.01314
G1 X33.581 Y150.042 E.26485
G1 X33.162 Y149.77 E.01566
G1 X33.162 Y141.595 E.25632
G1 X32.743 Y141.595 E.01314
G1 X32.743 Y149.446 E.24616
G1 X32.324 Y149.069 E.01767
G1 X32.324 Y141.595 E.23434
G1 X31.905 Y141.595 E.01314
G1 X31.905 Y148.597 E.21954
G1 X31.486 Y148.004 E.02277
G1 X31.486 Y141.595 E.20095
G1 X31.377 Y141.595 E.00342
G1 X31.296 Y141.716 E.00457
G1 X31.067 Y142.239 E.0179
G1 X31.067 Y147.228 E.15643
G1 X30.648 Y145.87 E.04456
G1 X30.648 Y142.843 E.09491
G1 E-3.5 F1500
G1 X44.138 Y139.369 F54000
G1 E3.5 F1500
;TYPE:Perimeter
;WIDTH:0.475822
G1 F1800
G1 X44.062 Y139.398 E.00293
G1 X43.57 Y139.443 E.01778
;WIDTH:0.462984
G1 X43.075 Y139.42 E.01731
G1 X42.604 Y139.275 E.01721
;WIDTH:0.419999
G1 X42.111 Y139.03 E.01726
G1 X41.698 Y138.709 E.0164
G1 X41.496 Y138.495 E.00923
G1 X41.202 Y138.062 E.01641
G1 X40.988 Y137.555 E.01725
G1 X40.895 Y137.073 E.01539
G1 X40.937 Y136.316 E.02377
G1 X41.01 Y136.03 E.00925
G1 X41.218 Y135.55 E.0164
G1 X41.531 Y135.098 E.01724
G1 X42.032 Y134.657 E.02093
G1 X42.464 Y134.421 E.01543
G1 X42.99 Y134.263 E.01722
G1 X43.511 Y134.214 E.01641
G1 X43.805 Y134.232 E.00924
G1 X44.315 Y134.346 E.01639
G1 X44.818 Y134.569 E.01725
G1 X45.346 Y134.978 E.02094
G1 X45.658 Y135.358 E.01542
G1 X45.894 Y135.789 E.01541
G1 X46.052 Y136.316 E.01725
G1 X46.101 Y136.837 E.01641
G1 X46.083 Y137.131 E.00924
G1 X45.969 Y137.641 E.01639
G1 X45.746 Y138.144 E.01725
G1 X45.336 Y138.672 E.02096
G1 X44.957 Y138.984 E.01539
G1 X44.526 Y139.22 E.01541
;WIDTH:0.447911
G1 X44.294 Y139.309 E.00837
;WIDTH:0.475822
G1 X44.194 Y139.348 E.00386
G1 X43.832 Y139.02 F54000
;WIDTH:0.419999
G1 F1800
G1 X43.582 Y139.054 E.00791
G1 X43.162 Y139.031 E.01319
G1 X42.753 Y138.929 E.01322
G1 X42.343 Y138.732 E.01426
G1 X41.929 Y138.412 E.01641
G1 X41.514 Y137.85 E.0219
G1 X41.318 Y137.334 E.01731
G1 X41.268 Y137.014 E.01016
G1 X41.312 Y136.352 E.0208
G1 X41.564 Y135.7 E.02192
G1 X41.902 Y135.252 E.0176
G1 X42.224 Y134.981 E.0132
G1 X42.591 Y134.776 E.01318
G1 X43.026 Y134.638 E.01431
G1 X43.546 Y134.589 E.01638
G1 X44.233 Y134.714 E.02189
G1 X44.737 Y134.962 E.01761
G1 X45.063 Y135.228 E.01319
G1 X45.334 Y135.55 E.0132
G1 X45.539 Y135.917 E.01318
G1 X45.677 Y136.352 E.01431
G1 X45.726 Y136.872 E.01638
G1 X45.601 Y137.559 E.02189
G1 X45.353 Y138.063 E.01761
G1 X45.087 Y138.389 E.01319
G1 X44.765 Y138.66 E.0132
G1 X44.398 Y138.865 E.01318
G1 X43.999 Y138.998 E.01319
G1 X43.892 Y139.012 E.00338
G1 X43.488 Y138.673 F54000
;TYPE:External perimeter
G1 F1800
G1 X43.244 Y138.663 E.00766
G1 X42.903 Y138.583 E.01098
G1 X42.574 Y138.434 E.01132
G1 X42.16 Y138.114 E.01641
G1 X41.826 Y137.638 E.01823
G1 X41.689 Y137.266 E.01243
G1 X41.64 Y136.955 E.00987
G1 X41.688 Y136.387 E.01787
G1 X41.91 Y135.85 E.01822
G1 X42.151 Y135.535 E.01244
G1 X42.416 Y135.306 E.01098
G1 X42.719 Y135.131 E.01097
G1 X43.061 Y135.014 E.01133
G1 X43.582 Y134.964 E.01641
G1 X44.151 Y135.082 E.01822
G1 X44.506 Y135.26 E.01245
G1 X44.78 Y135.477 E.01096
G1 X45.009 Y135.742 E.01098
G1 X45.184 Y136.045 E.01097
G1 X45.301 Y136.387 E.01133
G1 X45.35 Y136.908 E.01641
G1 X45.233 Y137.477 E.01821
G1 X44.991 Y137.914 E.01566
G1 X44.838 Y138.106 E.0077
G1 X44.573 Y138.335 E.01098
G1 X44.27 Y138.51 E.01097
G1 X43.94 Y138.626 E.01097
G1 X43.594 Y138.677 E.01097
G1 X43.548 Y138.675 E.00144
G1 X43.15 Y138.633 F54000
G1 X43.561 Y139.844
;TYPE:Perimeter
;WIDTH:0.462984
G1 F1800
G1 X43.029 Y139.835 E.01858
G1 X42.483 Y139.856 E.01909
;WIDTH:0.419999
G1 X38.359 Y139.856 E.1293
G1 X38.359 Y124.785 E.47254
G1 X47.23 Y124.785 E.27814
G1 X47.23 Y129.22 E.13906
G1 X47.23 Y139.856 E.33348
G1 X44.637 Y139.856 E.0813
;WIDTH:0.447911
G1 X44.366 Y139.842 E.00914
;WIDTH:0.475822
G1 X44.096 Y139.828 E.00973
G1 X43.621 Y139.842 E.01711
G1 X43.172 Y140.233 F54000
;WIDTH:0.419999
G1 F1800
G1 X37.982 Y140.233 E.16273
G1 X37.982 Y124.407 E.49621
G1 X47.607 Y124.407 E.30178
G1 X47.607 Y129.22 E.15091
G1 X47.607 Y140.233 E.3453
G1 X43.232 Y140.233 E.13717
G1 X42.795 Y140.61 F54000
;TYPE:External perimeter
G1 F1800
G1 X37.605 Y140.61 E.16273
G1 X37.605 Y124.03 E.51985
G1 X47.985 Y124.03 E.32546
G1 X47.985 Y129.22 E.16273
G1 X47.985 Y140.61 E.35712
G1 X42.855 Y140.61 E.16085
G1 X42.455 Y140.61 F54000
G1 E-3.5 F1500
G1 X45.129 Y139.743 F54000
G1 E3.5 F1500
;TYPE:Solid infill
;WIDTH:0.421645
G1 F1800
G1 X44.792 Y139.406 E0.00979; Old Flow Value: 0.01501   Length: 0.47658
G1 X45.128 Y139.207 E0.00750; Old Flow Value: 0.0123   Length: 0.39051
G1 X45.495 Y139.573 E0.01097; Old Flow Value: 0.01632   Length: 0.51831
G1 X46.031 Y139.573 E0.01147; Old Flow Value: 0.01688   Length: 0.53600
G1 X45.423 Y138.966 E0.02095; Old Flow Value: 0.02706   Length: 0.85913
G1 X45.693 Y138.7 E0.00721; Old Flow Value: 0.01194   Length: 0.37902
G1 X46.566 Y139.573 E0.03234; Old Flow Value: 0.03888   Length: 1.23461
G1 X46.948 Y139.573 E0.00728; Old Flow Value: 0.01203   Length: 0.38200
G1 X46.948 Y139.419 E0.00176; Old Flow Value: 0.00485   Length: 0.15399
G1 X45.916 Y138.388 E0.03922; Old Flow Value: 0.04594   Length: 1.45877
G1 X45.995 Y138.279 E0.00138; Old Flow Value: 0.00424   Length: 0.13461
G1 X46.112 Y138.048 E0.00423; Old Flow Value: 0.00815   Length: 0.25894
G1 X46.948 Y138.884 E0.03074; Old Flow Value: 0.03723   Length: 1.18228
G1 X46.948 Y138.348 E0.01147; Old Flow Value: 0.01688   Length: 0.53600
G1 X46.255 Y137.656 E0.02456; Old Flow Value: 0.03084   Length: 0.97934
G1 X46.353 Y137.218 E0.00903; Old Flow Value: 0.01413   Length: 0.44883
G1 X46.948 Y137.813 E0.02042; Old Flow Value: 0.0265   Length: 0.84146
G1 X46.948 Y137.277 E0.01148; Old Flow Value: 0.01688   Length: 0.53601
G1 X46.373 Y136.702 E0.01959; Old Flow Value: 0.02561   Length: 0.81317
G1 X46.333 Y136.284 E0.00826; Old Flow Value: 0.01322   Length: 0.41991
G1 X46.288 Y136.082 E0.00297; Old Flow Value: 0.00652   Length: 0.20695
G1 X47.117 Y136.911 E0.03044; Old Flow Value: 0.03692   Length: 1.17238
G1 E-3.5 F1500
G1 X39.237 Y139.743 F54000
G1 E3.5 F1500; Old Flow Value: 3.5   Length: 0.00000
G1 F1800
G1 X38.641 Y139.147 E0.02046; Old Flow Value: 0.02654   Length: 0.84287
G1 X38.641 Y138.612 E0.01145; Old Flow Value: 0.01685   Length: 0.53500
G1 X39.603 Y139.573 E0.03618; Old Flow Value: 0.04282   Length: 1.35977
G1 X40.139 Y139.573 E0.01147; Old Flow Value: 0.01688   Length: 0.53600
G1 X38.641 Y138.076 E0.05965; Old Flow Value: 0.06669   Length: 2.11778
G1 X38.641 Y137.54 E0.01148; Old Flow Value: 0.01688   Length: 0.53601
G1 X40.675 Y139.573 E0.08333; Old Flow Value: 0.09056   Length: 2.87581
G1 X41.21 Y139.573 E0.01145; Old Flow Value: 0.01685   Length: 0.53500
G1 X38.641 Y137.005 E0.10700; Old Flow Value: 0.11439   Length: 3.63240
G1 X38.641 Y136.469 E0.01148; Old Flow Value: 0.01688   Length: 0.53601
G1 X41.746 Y139.573 E0.13074; Old Flow Value: 0.13826   Length: 4.39043
G1 X42.281 Y139.573 E0.01145; Old Flow Value: 0.01685   Length: 0.53500
G1 X38.641 Y135.934 E0.15455; Old Flow Value: 0.16209   Length: 5.14702
G1 X38.641 Y135.398 E0.01148; Old Flow Value: 0.01688   Length: 0.53601
G1 X40.665 Y137.421 E0.08289; Old Flow Value: 0.09012   Length: 2.86167
G1 X40.6 Y136.927 E0.01040; Old Flow Value: 0.01569   Length: 0.49826
G1 X40.609 Y136.83 E0.00074; Old Flow Value: 0.00307   Length: 0.09742
G1 X38.641 Y134.862 E0.08044; Old Flow Value: 0.08765   Length: 2.78318
G1 X38.641 Y134.327 E0.01145; Old Flow Value: 0.01685   Length: 0.53500
G1 X40.651 Y136.337 E0.08229; Old Flow Value: 0.08952   Length: 2.84258
G1 X40.756 Y135.906 E0.00889; Old Flow Value: 0.01397   Length: 0.44361
G1 X38.641 Y133.791 E0.08693; Old Flow Value: 0.09419   Length: 2.99107
G1 X38.641 Y133.256 E0.01145; Old Flow Value: 0.01685   Length: 0.53500
G1 X40.918 Y135.532 E0.09407; Old Flow Value: 0.10138   Length: 3.21946
G1 X41.107 Y135.186 E0.00760; Old Flow Value: 0.01242   Length: 0.39425
G1 X38.641 Y132.72 E0.10246; Old Flow Value: 0.10982   Length: 3.48745
G1 X38.641 Y132.184 E0.01147; Old Flow Value: 0.01688   Length: 0.53600
G1 X41.35 Y134.893 E0.11323; Old Flow Value: 0.12065   Length: 3.83110
G1 X41.46 Y134.762 E0.00213; Old Flow Value: 0.00539   Length: 0.17107
G1 X41.617 Y134.624 E0.00301; Old Flow Value: 0.00658   Length: 0.20903
G1 X38.641 Y131.649 E0.12502; Old Flow Value: 0.13251   Length: 4.20799
G1 X38.641 Y131.113 E0.01147; Old Flow Value: 0.01688   Length: 0.53600
G1 X41.929 Y134.401 E0.13888; Old Flow Value: 0.14643   Length: 4.64993
G1 X42.163 Y134.25 E0.00471; Old Flow Value: 0.00877   Length: 0.27849
G1 X42.271 Y134.207 E0.00104; Old Flow Value: 0.00366   Length: 0.11625
G1 X38.641 Y130.578 E0.15410; Old Flow Value: 0.16164   Length: 5.13289
