; File Parsed By Flow Comp Script
; Script Ver. V0.7.1
; Flow Model Ver. V0.2.1
; Logger Ver. V0.0.1
; Flow Comp Model Points:
; (0, 0)
; (0.2, 0.4444)
; (0.4, 0.6145)
; (0.6, 0.7059)
; (0.8, 0.7619)
; (1.5, 0.8571)
; (2, 0.8889)
; (3, 0.9231)
; (5, 0.952)
; (10, 1)

; generated by PrusaSlicer 2.9.2 on 2025-04-21 at 09:12:46 UTC

; 

; external perimeters extrusion width = 0.45mm
; perimeters extrusion width = 0.45mm
; infill extrusion width = 0.45mm
; solid infill extrusion width = 0.45mm
; top infill extrusion width = 0.40mm
; support material extrusion width = 0.35mm
; first layer extrusion width = 0.42mm

;TYPE:Custom
G90 ; use absolute coordinates
M83 ; extruder relative mode
CALCULATE_PA BOWDEN_LENGTH=34.0 MATERIAL=PLA LAYER_HEIGHT=0.2 NOZZLE_SIZE=0.4 PRINT_SPEED=120 FILAMENT_DIAMETER=1.75 LINE_WIDTH=0.45 ; auto pressure advance
M104 S210 ; set temporary nozzle temp to prevent oozing during homing
M140 S58 ; set final bed temp
G4 S30 ; allow partial nozzle warmup
G28 ; home all axis
G1 Z50 F240
G1 X2.0 Y10 F3000
M104 S208 ; set final nozzle temp
M190 S58 ; wait for bed temp to stabilize
M109 S208 ; wait for nozzle temp to stabilize
G1 Z0.28 F240
G92 E0
G1 X2.0 Y140 E10 F1500 ; prime the nozzle
G1 X2.3 Y140 F5000
G92 E0
G1 X2.3 Y10 E10 F1200 ; prime the nozzle
G92 E0
G21 ; set units to millimeters
G90 ; use absolute coordinates
M83 ; use relative distances for extrusion
; Filament gcode
M107
;LAYER_CHANGE
;Z:0.2
;HEIGHT:0.2
G1 E-3.5 F1500
G1 Z.2 F54000
G1 X40.397 Y114.814
G1 Z.2
G1 E3.5 F1500
M204 S3500
;TYPE:Skirt/Brim
;WIDTH:0.42
G1 F1800
G1 X42.442 Y114.232 E.06667
G1 X96.057 Y105.88 E1.70134
G1 X97.298 Y105.708 E.03928
G1 X98.409 Y105.656 E.03487
G1 X99.552 Y105.704 E.03587
G1 X100.655 Y105.852 E.03489
G1 X101.773 Y106.105 E.03594
G1 X102.832 Y106.448 E.0349
G1 X103.886 Y106.897 E.03592
G1 X104.866 Y107.424 E.03489
G1 X105.823 Y108.055 E.03594
G1 X106.693 Y108.749 E.03489
G1 X107.521 Y109.541 E.03593
G1 X115.933 Y118.347 E.38184
G1 X116.463 Y118.982 E.02593
G1 X117.134 Y119.906 E.0358
G1 X117.703 Y120.858 E.03477
G1 X118.198 Y121.887 E.0358
G1 X118.588 Y122.925 E.03477
G1 X118.892 Y124.026 E.03581
G1 X119.09 Y125.118 E.0348
G1 X119.217 Y126.809 E.05317
G1 X119.217 Y142.028 E.47718
G1 X119.09 Y143.72 E.0532
G1 X118.892 Y144.811 E.03477
G1 X118.588 Y145.912 E.03581
G1 X118.198 Y146.951 E.0348
G1 X117.703 Y147.979 E.03577
G1 X117.134 Y148.932 E.0348
G1 X115.932 Y150.492 E.06175
G1 X107.597 Y159.22 E.3784
G1 X106.564 Y160.215 E.04497
G1 X105.693 Y160.908 E.0349
G1 X104.735 Y161.539 E.03597
G1 X103.752 Y162.065 E.03496
G1 X102.697 Y162.514 E.03595
G1 X101.636 Y162.856 E.03495
G1 X100.517 Y163.107 E.03596
G1 X99.412 Y163.253 E.03495
G1 X98.267 Y163.3 E.03593
G1 X97.154 Y163.245 E.03494
G1 X42.402 Y154.373 E1.7391
G1 X40.398 Y153.798 E.06537
G1 X39.377 Y153.362 E.03481
G1 X38.372 Y152.821 E.03579
G1 X37.446 Y152.21 E.03478
G1 X36.553 Y151.498 E.03581
G1 X35.751 Y150.731 E.03479
G1 X35 Y149.871 E.0358
G1 X34.347 Y148.974 E.03479
G1 X33.762 Y147.994 E.03579
G1 X33.28 Y146.994 E.03481
G1 X32.879 Y145.925 E.0358
G1 X32.584 Y144.855 E.0348
G1 X32.38 Y143.732 E.03579
G1 X32.28 Y142.627 E.03479
G1 X32.28 Y125.985 E.5218
G1 X32.38 Y124.879 E.03482
G1 X32.583 Y123.756 E.03578
G1 X32.879 Y122.687 E.03478
G1 X33.28 Y121.618 E.0358
G1 X33.761 Y120.618 E.03479
G1 X34.347 Y119.638 E.0358
G1 X34.999 Y118.74 E.03479
G1 X35.75 Y117.881 E.03578
G1 X36.552 Y117.114 E.03479
G1 X37.445 Y116.402 E.03581
G1 X38.371 Y115.791 E.03478
G1 X39.376 Y115.25 E.03579
G1 X40.342 Y114.838 E.03293
G1 E-3.5 F1500
G1 X106.858 Y135.688 F54000
G1 E3.5 F1500
;TYPE:Support material
G1 F1800
G1 X107.515 Y135.717 E.02062
G1 X108.628 Y135.971 E.03579
G1 X109.678 Y136.42 E.03581
G1 X110.631 Y137.049 E.0358
G1 X111.456 Y137.838 E.03579
G1 X112.127 Y138.762 E.0358
G1 X112.623 Y139.79 E.03579
G1 X112.926 Y140.891 E.0358
G1 X113.029 Y142.028 E.0358
G1 X112.926 Y143.165 E.0358
G1 X112.623 Y144.266 E.0358
G1 X112.127 Y145.294 E.03579
G1 X111.456 Y146.218 E.0358
G1 X110.631 Y147.007 E.03579
G1 X109.678 Y147.636 E.0358
G1 X108.628 Y148.084 E.03579
G1 X107.515 Y148.338 E.03579
G1 X106.375 Y148.389 E.03578
G1 X105.244 Y148.236 E.03578
G1 X103.949 Y147.815 E.0427
G1 X104.278 Y148.492 E.0236
G1 X104.588 Y149.594 E.03589
G1 X104.694 Y150.735 E.03593
G1 X104.595 Y151.877 E.03594
G1 X104.292 Y152.983 E.03596
G1 X103.795 Y154.018 E.036
G1 X103.122 Y154.946 E.03594
G1 X102.291 Y155.739 E.03602
G1 X101.333 Y156.369 E.03595
G1 X100.277 Y156.818 E.03598
G1 X99.158 Y157.07 E.03596
G1 X98.013 Y157.117 E.03593
G1 X96.878 Y156.958 E.03593
G1 X95.791 Y156.598 E.0359
G1 X94.787 Y156.05 E.03586
G1 X93.897 Y155.332 E.03585
G1 X93.151 Y154.467 E.03581
G1 X92.573 Y153.484 E.03575
G1 X92.179 Y152.415 E.03572
G1 X91.982 Y151.294 E.03569
G1 X91.988 Y150.157 E.03565
G1 X92.196 Y149.04 E.03562
G1 X92.599 Y147.979 E.03559
G1 X93.069 Y147.196 E.02863
G1 X102.716 Y147.196 E.30247
G1 X102.971 Y146.941 E.01131
G1 X102.971 Y136.858 E.31615
G1 X104.158 Y136.172 E.04299
G1 X105.244 Y135.819 E.0358
G1 X106.375 Y135.666 E.03578
G1 X106.802 Y135.685 E.0134
G1 X112.606 Y143.689 F54000
G1 F1800
G1 X112.591 Y140.952 E.08582
G1 X112.187 Y139.667 E.04223
G1 X112.187 Y144.388 E.14802
G1 X111.768 Y145.212 E.02898
G1 X111.768 Y138.844 E.19966
G1 X111.349 Y138.267 E.02236
G1 X111.349 Y145.788 E.23582
G1 X110.93 Y146.251 E.01958
G1 X110.93 Y137.804 E.26485
G1 X110.511 Y137.404 E.01816
G1 X110.511 Y146.652 E.28996
G1 X110.092 Y146.956 E.01623
G1 X110.092 Y137.1 E.30903
G1 X109.673 Y136.823 E.01575
G1 X109.673 Y147.232 E.32637
G1 X109.254 Y147.448 E.01478
G1 X109.254 Y136.608 E.33988
G1 X108.835 Y136.429 E.01429
G1 X108.835 Y147.627 E.35111
G1 X108.416 Y147.785 E.01404
G1 X108.416 Y136.271 E.36101
G1 X107.997 Y136.175 E.01348
G1 X107.997 Y147.88 E.367
G1 X107.578 Y147.976 E.01348
G1 X107.578 Y136.08 E.37299
G1 X107.159 Y136.041 E.01319
G1 X107.159 Y148.015 E.37544
G1 X106.74 Y148.033 E.01315
G1 X106.74 Y136.022 E.3766
G1 X106.321 Y136.016 E.01314
G1 X106.321 Y148.04 E.377
G1 X105.902 Y147.983 E.01326
G1 X105.902 Y136.073 E.37343
G1 X105.483 Y136.129 E.01325
G1 X105.483 Y147.926 E.36989
G1 X105.064 Y147.821 E.01354
G1 X105.064 Y136.235 E.36327
G1 X104.645 Y136.371 E.01381
G1 X104.645 Y147.685 E.35474
G1 X104.226 Y147.549 E.01381
G1 X104.226 Y136.521 E.34578
G1 X103.807 Y136.746 E.01491
G1 X103.807 Y147.591 E.34004
G1 X104.226 Y152.581 F54000
G1 F1800
G1 X104.226 Y149.563 E.09463
G1 X103.807 Y148.3 E.04172
G1 X103.807 Y153.209 E.15392
G1 X103.388 Y154.001 E.02809
G1 X103.388 Y136.972 E.53393
G1 X103.31 Y137.022 E.0029
G1 X103.31 Y147.082 E.31542
G1 X102.969 Y147.423 E.01512
G1 X102.969 Y154.578 E.22434
G1 X102.865 Y154.722 E.00557
G1 X102.55 Y155.022 E.01364
G1 X102.55 Y147.536 E.23472
G1 X102.131 Y147.536 E.01314
G1 X102.131 Y155.422 E.24726
G1 X101.712 Y155.714 E.01601
G1 X101.712 Y147.536 E.25642
G1 X101.293 Y147.536 E.01314
G1 X101.293 Y155.989 E.26504
G1 X100.874 Y156.196 E.01465
G1 X100.874 Y147.536 E.27153
G1 X100.455 Y147.536 E.01314
G1 X100.455 Y156.373 E.27708
G1 X100.036 Y156.524 E.01396
G1 X100.036 Y147.536 E.28181
G1 X99.618 Y147.536 E.01311
G1 X99.618 Y156.618 E.28476
G1 X99.199 Y156.713 E.01347
G1 X99.199 Y147.536 E.28774
G1 X98.78 Y147.536 E.01314
G1 X98.78 Y156.746 E.28877
G1 X98.361 Y156.763 E.01315
G1 X98.361 Y147.536 E.28931
G1 X97.942 Y147.536 E.01314
G1 X97.942 Y156.764 E.28934
G1 X97.523 Y156.705 E.01327
G1 X97.523 Y147.536 E.28749
G1 X97.104 Y147.536 E.01314
G1 X97.104 Y156.647 E.28567
G1 X96.685 Y156.536 E.01359
G1 X96.685 Y147.536 E.28219
G1 X96.266 Y147.536 E.01314
G1 X96.266 Y156.398 E.27786
G1 X95.847 Y156.242 E.01402
G1 X95.847 Y147.536 E.27297
G1 X95.428 Y147.536 E.01314
G1 X95.428 Y156.013 E.26579
G1 X95.009 Y155.785 E.01496
G1 X95.009 Y147.536 E.25864
G1 X94.59 Y147.536 E.01314
G1 X94.59 Y155.455 E.24829
G1 X94.171 Y155.117 E.01688
G1 X94.171 Y147.536 E.2377
G1 X93.752 Y147.536 E.01314
G1 X93.752 Y154.644 E.22287
G1 X93.333 Y154.107 E.02136
G1 X93.333 Y147.536 E.20603
G1 X93.261 Y147.536 E.00226
G1 X92.914 Y148.114 E.02114
G1 X92.914 Y153.395 E.16558
G1 X92.495 Y152.252 E.03817
G1 X92.495 Y148.732 E.11037
G1 E-3.5 F1500
G1 X98.689 Y111.862 F54000
G1 E3.5 F1500
G1 F1800
G1 X99.287 Y111.887 E.01877
G1 X100.405 Y112.141 E.03595
G1 X101.459 Y112.59 E.03592
G1 X102.415 Y113.221 E.03592
G1 X103.243 Y114.013 E.03593
G1 X103.915 Y114.94 E.0359
G1 X104.411 Y115.973 E.03593
G1 X104.713 Y117.077 E.03589
G1 X104.813 Y118.217 E.03588
G1 X104.707 Y119.356 E.03587
G1 X104.399 Y120.457 E.03585
G1 X104.158 Y120.954 E.01732
G1 X105.244 Y120.601 E.0358
G1 X106.375 Y120.448 E.03578
G1 X107.515 Y120.499 E.03578
G1 X108.629 Y120.753 E.03583
G1 X109.678 Y121.202 E.03578
G1 X110.631 Y121.831 E.0358
G1 X111.456 Y122.62 E.03579
G1 X112.127 Y123.543 E.03578
G1 X112.623 Y124.572 E.03582
G1 X112.927 Y125.672 E.03578
G1 X113.029 Y126.809 E.03579
G1 X112.927 Y127.947 E.03582
G1 X112.623 Y129.047 E.03578
G1 X112.127 Y130.076 E.03582
G1 X111.456 Y130.999 E.03578
G1 X110.631 Y131.788 E.03579
G1 X109.678 Y132.417 E.0358
G1 X108.629 Y132.866 E.03578
G1 X107.515 Y133.12 E.03583
G1 X106.375 Y133.171 E.03578
G1 X105.244 Y133.018 E.03578
G1 X104.158 Y132.665 E.0358
G1 X102.971 Y131.979 E.04299
G1 X102.971 Y122.081 E.31034
G1 X102.716 Y121.826 E.01131
G1 X93.226 Y121.826 E.29755
G1 X92.715 Y120.974 E.03115
G1 X92.312 Y119.91 E.03567
G1 X92.105 Y118.791 E.03568
G1 X92.101 Y117.652 E.03571
G1 X92.3 Y116.529 E.03576
G1 X92.697 Y115.459 E.03578
G1 X93.278 Y114.477 E.03578
G1 X94.026 Y113.614 E.03581
G1 X94.917 Y112.898 E.03584
G1 X95.922 Y112.352 E.03586
G1 X97.01 Y111.995 E.0359
G1 X98.145 Y111.838 E.03593
G1 X98.633 Y111.86 E.01532
G1 E-3.5 F1500
G1 X112.606 Y128.471 F54000
G1 E3.5 F1500
G1 F1800
G1 X112.591 Y125.733 E.08585
G1 X112.187 Y124.449 E.0422
G1 X112.187 Y129.17 E.14802
G1 X111.768 Y129.993 E.02896
G1 X111.768 Y123.626 E.19963
G1 X111.349 Y123.049 E.02236
G1 X111.349 Y130.57 E.23582
G1 X110.93 Y131.033 E.01958
G1 X110.93 Y122.586 E.26485
G1 X110.511 Y122.185 E.01818
G1 X110.511 Y131.434 E.29
G1 X110.092 Y131.738 E.01623
G1 X110.092 Y121.881 E.30906
G1 X109.673 Y121.605 E.01573
G1 X109.673 Y132.014 E.32637
G1 X109.254 Y132.229 E.01477
G1 X109.254 Y121.389 E.33988
G1 X108.835 Y121.21 E.01429
G1 X108.835 Y132.409 E.35114
G1 X108.416 Y132.566 E.01403
G1 X108.416 Y121.053 E.36098
G1 X107.997 Y120.957 E.01348
G1 X107.997 Y132.662 E.367
G1 X107.578 Y132.757 E.01347
G1 X107.578 Y120.861 E.37299
G1 X107.159 Y120.823 E.01319
G1 X107.159 Y132.796 E.37541
G1 X106.74 Y132.815 E.01315
G1 X106.74 Y120.804 E.3766
G1 X106.321 Y120.798 E.01314
G1 X106.321 Y132.821 E.37697
G1 X105.902 Y132.765 E.01325
G1 X105.902 Y120.854 E.37346
G1 X105.483 Y120.911 E.01326
G1 X105.483 Y132.708 E.36989
G1 X105.064 Y132.603 E.01354
G1 X105.064 Y121.016 E.3633
G1 X104.645 Y121.152 E.01381
G1 X104.645 Y132.467 E.35477
G1 X104.226 Y132.316 E.01396
G1 X104.226 Y121.11 E.35136
G1 X104.226 Y120.425 F54000
G1 F1800
G1 X104.226 Y116.583 E.12046
G1 X104.092 Y116.092 E.01596
G1 X103.807 Y115.499 E.02063
G1 X103.807 Y132.091 E.52023
G1 X103.388 Y131.865 E.01493
G1 X103.388 Y114.791 E.53534
G1 X102.969 Y114.221 E.02218
G1 X102.969 Y121.6 E.23136
G1 X102.857 Y121.487 E.00499
G1 X102.55 Y121.487 E.00963
G1 X102.55 Y113.82 E.24039
G1 X102.131 Y113.44 E.01774
G1 X102.131 Y121.487 E.25231
G1 X101.712 Y121.487 E.01314
G1 X101.712 Y113.164 E.26096
G1 X101.297 Y112.89 E.01559
G1 X101.293 Y121.487 E.26955
G1 X100.874 Y121.487 E.01314
G1 X100.874 Y112.71 E.2752
G1 X100.455 Y112.531 E.01429
G1 X100.455 Y121.487 E.28081
G1 X100.036 Y121.487 E.01314
G1 X100.036 Y112.405 E.28476
G1 X99.618 Y112.31 E.01344
G1 X99.618 Y121.487 E.28774
G1 X99.199 Y121.487 E.01314
G1 X99.199 Y112.223 E.29047
G1 X98.78 Y112.206 E.01315
G1 X98.78 Y121.487 E.291
G1 X98.361 Y121.487 E.01314
G1 X98.361 Y112.188 E.29156
G1 X97.942 Y112.209 E.01315
G1 X97.942 Y121.487 E.29091
G1 X97.523 Y121.487 E.01314
G1 X97.523 Y112.267 E.28909
G1 X97.104 Y112.325 E.01326
G1 X97.104 Y121.487 E.28727
G1 X96.685 Y121.487 E.01314
G1 X96.685 Y112.459 E.28307
G1 X96.266 Y112.597 E.01383
G1 X96.266 Y121.487 E.27874
G1 X95.847 Y121.487 E.01314
G1 X95.847 Y112.779 E.27303
G1 X95.428 Y113.007 E.01496
G1 X95.428 Y121.487 E.26588
G1 X95.009 Y121.487 E.01314
G1 X95.009 Y113.26 E.25795
G1 X94.59 Y113.596 E.01684
G1 X94.59 Y121.487 E.24742
G1 X94.171 Y121.487 E.01314
G1 X94.171 Y113.965 E.23585
G1 X93.752 Y114.449 E.02007
G1 X93.752 Y121.487 E.22067
G1 X93.418 Y121.487 E.01047
G1 X93.333 Y121.345 E.00519
G1 X93.333 Y115.051 E.19734
G1 X92.914 Y115.85 E.02829
G1 X92.914 Y120.542 E.14711
G1 X92.64 Y119.819 E.02424
G1 X92.495 Y119.033 E.02506
G1 X92.495 Y116.492 E.07967
G1 E-3.5 F1500
G1 X45.183 Y120.223 F54000
G1 E3.5 F1500
G1 F1800
G1 X45.666 Y120.245 E.01516
G1 X46.779 Y120.499 E.03579
G1 X47.829 Y120.948 E.03581
G1 X49.042 Y121.826 E.04695
G1 X48.756 Y121.826 E.00897
G1 X48.501 Y122.081 E.01131
G1 X48.501 Y131.72 E.30222
G1 X47.829 Y132.163 E.02524
G1 X46.779 Y132.612 E.03581
G1 X45.666 Y132.866 E.03579
G1 X44.526 Y132.917 E.03578
G1 X43.394 Y132.764 E.03582
G1 X42.309 Y132.411 E.03577
G1 X41.303 Y131.87 E.03581
G1 X40.411 Y131.159 E.03577
G1 X39.659 Y130.299 E.03582
G1 X39.074 Y129.319 E.03579
G1 X38.672 Y128.25 E.03581
G1 X38.469 Y127.126 E.03581
G1 X38.469 Y125.985 E.03578
G1 X38.673 Y124.861 E.03582
G1 X39.074 Y123.792 E.0358
G1 X39.659 Y122.812 E.03579
G1 X40.411 Y121.952 E.03582
G1 X41.303 Y121.241 E.03577
G1 X42.309 Y120.7 E.03581
G1 X43.394 Y120.347 E.03577
G1 X44.526 Y120.194 E.03582
G1 X45.127 Y120.221 E.01886
G1 X48.083 Y131.792 F54000
G1 F1800
G1 X48.083 Y121.523 E.32198
G1 X47.664 Y121.247 E.01573
G1 X47.664 Y131.864 E.33289
G1 X47.245 Y132.043 E.01429
G1 X47.245 Y121.068 E.34411
G1 X46.826 Y120.889 E.01429
G1 X46.826 Y132.223 E.35537
G1 X46.674 Y132.288 E.00518
G1 X46.407 Y132.349 E.00859
G1 X46.407 Y120.762 E.3633
G1 X45.988 Y120.667 E.01347
G1 X45.988 Y132.444 E.36926
G1 X45.569 Y132.531 E.01342
G1 X45.569 Y120.581 E.37468
G1 X45.15 Y120.562 E.01315
G1 X45.15 Y132.549 E.37584
G1 X44.732 Y132.568 E.01312
G1 X44.732 Y120.543 E.37704
G1 X44.313 Y120.565 E.01316
G1 X44.313 Y132.546 E.37566
G1 X43.894 Y132.489 E.01326
G1 X43.894 Y120.622 E.37208
G1 X43.475 Y120.679 E.01326
G1 X43.475 Y132.432 E.36851
G1 X43.056 Y132.297 E.0138
G1 X43.056 Y120.814 E.36004
G1 X42.637 Y120.95 E.01381
G1 X42.637 Y132.161 E.35151
G1 X42.218 Y131.977 E.01435
G1 X42.218 Y121.134 E.33997
G1 X41.799 Y121.36 E.01493
G1 X41.799 Y131.752 E.32583
G1 X41.38 Y131.497 E.01538
G1 X41.38 Y121.614 E.30987
G1 X40.961 Y121.948 E.0168
G1 X40.961 Y131.163 E.28893
G1 X40.542 Y130.793 E.01753
G1 X40.542 Y122.318 E.26573
G1 X40.123 Y122.798 E.01998
G1 X40.123 Y130.313 E.23563
G1 X39.704 Y129.712 E.02297
G1 X39.704 Y123.399 E.19794
G1 X39.285 Y124.196 E.02823
G1 X39.285 Y128.915 E.14796
G1 X39.001 Y128.159 E.02532
G1 X38.866 Y127.415 E.02371
G1 X38.866 Y124.829 E.08108
G1 E-3.5 F1500
G1 X45.183 Y135.724 F54000
G1 E3.5 F1500
G1 F1800
G1 X45.667 Y135.745 E.01519
G1 X46.78 Y136 E.0358
G1 X47.83 Y136.448 E.03579
G1 X48.501 Y136.892 E.02523
G1 X48.501 Y146.941 E.31508
G1 X48.669 Y147.109 E.00745
G1 X47.829 Y147.663 E.03155
G1 X46.78 Y148.112 E.03578
G1 X45.667 Y148.366 E.03579
G1 X44.526 Y148.417 E.03581
G1 X43.395 Y148.264 E.03578
G1 X42.309 Y147.912 E.03579
G1 X41.304 Y147.371 E.03579
G1 X40.411 Y146.659 E.03581
G1 X39.66 Y145.799 E.0358
G1 X39.074 Y144.819 E.0358
G1 X38.673 Y143.75 E.0358
G1 X38.469 Y142.627 E.03579
G1 X38.469 Y141.485 E.03581
G1 X38.673 Y140.362 E.03579
G1 X39.074 Y139.293 E.0358
G1 X39.66 Y138.312 E.03583
G1 X40.411 Y137.453 E.03578
G1 X41.304 Y136.741 E.03581
G1 X42.309 Y136.2 E.03579
G1 X43.395 Y135.847 E.0358
G1 X44.526 Y135.694 E.03578
G1 X45.127 Y135.721 E.01886
G1 X48.083 Y147.292 F54000
G1 F1800
G1 X48.083 Y137.023 E.32198
G1 X47.664 Y136.747 E.01573
G1 X47.664 Y147.365 E.33292
G1 X47.245 Y147.544 E.01429
G1 X47.245 Y136.568 E.34414
G1 X46.826 Y136.389 E.01429
G1 X46.826 Y147.723 E.35537
G1 X46.674 Y147.788 E.00518
G1 X46.407 Y147.849 E.00859
G1 X46.407 Y136.263 E.36327
G1 X45.988 Y136.167 E.01348
