; File Parsed By Flow Comp Script
; Script Ver. V0.7.1
; Flow Model Ver. V0.2.1
; Logger Ver. V0.0.1
; Flow Comp Model Points:
; (0, 0)
; (0.2, 0.4444)
; (0.4, 0.6145)
; (0.6, 0.7059)
; (0.8, 0.7619)
; (1.5, 0.8571)
; (2, 0.8889)
; (3, 0.9231)
; (5, 0.952)
; (10, 1)

; generated by PrusaSlicer 2.9.2 on 2025-04-19 at 22:12:26 UTC

; 

; external perimeters extrusion width = 0.45mm
; perimeters extrusion width = 0.45mm
; infill extrusion width = 0.45mm
; solid infill extrusion width = 0.45mm
; top infill extrusion width = 0.40mm
; support material extrusion width = 0.35mm
; first layer extrusion width = 0.42mm

;TYPE:Custom
G90 ; use absolute coordinates
M83 ; extruder relative mode
CALCULATE_PA BOWDEN_LENGTH=34.0 MATERIAL=PLA LAYER_HEIGHT=0.2 NOZZLE_SIZE=0.4 PRINT_SPEED=120 FILAMENT_DIAMETER=1.75 LINE_WIDTH=0.45 ; auto pressure advance
M104 S210 ; set temporary nozzle temp to prevent oozing during homing
M140 S58 ; set final bed temp
G4 S30 ; allow partial nozzle warmup
G28 ; home all axis
G1 Z50 F240
G1 X2.0 Y10 F3000
M104 S208 ; set final nozzle temp
M190 S58 ; wait for bed temp to stabilize
M109 S208 ; wait for nozzle temp to stabilize
G1 Z0.28 F240
G92 E0
G1 X2.0 Y140 E10 F1500 ; prime the nozzle
G1 X2.3 Y140 F5000
G92 E0
G1 X2.3 Y10 E10 F1200 ; prime the nozzle
G92 E0
G21 ; set units to millimeters
G90 ; use absolute coordinates
M83 ; use relative distances for extrusion
; Filament gcode
M107
;LAYER_CHANGE
;Z:0.2
;HEIGHT:0.2
G1 E-3.5 F1500
G1 Z.2 F54000
G1 X36.294 Y115.163
G1 Z.2
G1 E3.5 F1500
M204 S3500
;TYPE:Skirt/Brim
;WIDTH:0.42
G1 F1800
G1 X38.49 Y114.662 E.07062
G1 X39.64 Y114.558 E.0362
G1 X40.759 Y114.562 E.03509
G1 X42.865 Y114.837 E.06659
G1 X44.925 Y115.469 E.06756
G1 X46.892 Y116.463 E.0691
G1 X47.852 Y117.125 E.03656
G1 X64.644 Y131.521 E.6935
G1 X65.716 Y132.534 E.04624
G1 X66.446 Y133.37 E.0348
G1 X67.118 Y134.295 E.03585
G1 X67.688 Y135.249 E.03484
G1 X68.183 Y136.278 E.0358
G1 X68.573 Y137.318 E.03483
G1 X68.876 Y138.42 E.03583
G1 X69.074 Y139.513 E.03483
G1 X69.175 Y140.651 E.03582
G1 X69.175 Y141.762 E.03483
G1 X69.071 Y142.899 E.0358
G1 X68.872 Y143.992 E.03483
G1 X68.567 Y145.093 E.03582
G1 X68.176 Y146.131 E.03478
G1 X67.679 Y147.16 E.03583
G1 X67.109 Y148.112 E.03479
G1 X66.436 Y149.035 E.03582
G1 X65.705 Y149.87 E.0348
G1 X64.879 Y150.658 E.03579
G1 X64.011 Y151.348 E.03477
G1 X63.058 Y151.976 E.03579
G1 X62.081 Y152.5 E.03476
G1 X60.618 Y153.107 E.04966
G1 X44.395 Y158.687 E.53791
G1 X42.453 Y159.169 E.06274
G1 X40.453 Y159.296 E.06283
G1 X39.213 Y159.173 E.03907
G1 X37.833 Y158.874 E.04427
G1 X19.726 Y152.719 E.59964
G1 X17.787 Y151.774 E.06763
G1 X16.861 Y151.164 E.03477
G1 X15.968 Y150.454 E.03577
G1 X15.165 Y149.689 E.03477
G1 X14.413 Y148.83 E.0358
G1 X13.759 Y147.934 E.03478
G1 X13.172 Y146.955 E.03579
G1 X12.689 Y145.956 E.03479
G1 X12.286 Y144.887 E.03582
G1 X11.989 Y143.817 E.03482
G1 X11.784 Y142.694 E.03579
G1 X11.683 Y141.588 E.03482
G1 X11.681 Y140.445 E.03584
G1 X11.779 Y139.339 E.03481
G1 X11.982 Y138.214 E.03584
G1 X12.277 Y137.143 E.03483
G1 X12.677 Y136.073 E.03582
G1 X13.159 Y135.071 E.03486
G1 X13.744 Y134.09 E.03581
G1 X14.397 Y133.191 E.03484
G1 X15.742 Y131.736 E.06213
G1 X31.704 Y117.81 E.66418
G1 X32.745 Y116.981 E.04173
G1 X34.667 Y115.822 E.07037
G1 X36.238 Y115.186 E.05314
G1 E-3.5 F1500
G1 X56.854 Y134.857 F54000
G1 E3.5 F1500
;TYPE:Support material
G1 F1800
G1 X57.493 Y134.885 E.02005
G1 X58.608 Y135.139 E.03586
G1 X59.659 Y135.587 E.03582
G1 X60.613 Y136.217 E.03585
G1 X61.439 Y137.007 E.03584
G1 X62.111 Y137.932 E.03585
G1 X62.606 Y138.961 E.0358
G1 X62.91 Y140.063 E.03584
G1 X63.011 Y141.201 E.03582
G1 X62.908 Y142.339 E.03583
G1 X62.603 Y143.44 E.03582
G1 X62.106 Y144.469 E.03583
G1 X61.434 Y145.392 E.0358
G1 X60.608 Y146.18 E.03579
G1 X59.655 Y146.807 E.03577
G1 X58.605 Y147.255 E.03579
G1 X57.492 Y147.507 E.03578
G1 X56.353 Y147.558 E.03575
G1 X55.222 Y147.404 E.03579
G1 X54.138 Y147.051 E.03574
G1 X52.963 Y146.373 E.04253
G1 X52.963 Y136.019 E.32464
G1 X54.134 Y135.343 E.04239
G1 X55.22 Y134.989 E.03581
G1 X56.352 Y134.835 E.03582
G1 X56.797 Y134.854 E.01397
G1 X62.633 Y142.695 F54000
G1 F1800
G1 X62.574 Y140.124 E.08063
G1 X62.214 Y138.929 E.03913
G1 X62.214 Y143.464 E.14219
G1 X61.795 Y144.319 E.02985
G1 X61.795 Y138.075 E.19578
G1 X61.376 Y137.498 E.02236
G1 X61.376 Y144.894 E.2319
G1 X60.957 Y145.377 E.02005
G1 X60.957 Y137.016 E.26215
G1 X60.538 Y136.615 E.01818
G1 X60.538 Y145.777 E.28727
G1 X60.119 Y146.095 E.01649
G1 X60.119 Y136.298 E.30718
G1 X59.7 Y136.021 E.01575
G1 X59.7 Y146.371 E.32452
G1 X59.282 Y146.597 E.0149
G1 X59.282 Y135.795 E.33869
G1 X58.863 Y135.616 E.01429
G1 X58.863 Y146.776 E.34991
G1 X58.444 Y146.943 E.01414
G1 X58.444 Y135.449 E.36039
G1 X58.025 Y135.354 E.01347
G1 X58.025 Y147.038 E.36634
G1 X57.606 Y147.134 E.01348
G1 X57.606 Y135.259 E.37233
G1 X57.187 Y135.211 E.01322
G1 X57.187 Y147.181 E.37531
G1 X56.768 Y147.2 E.01315
G1 X56.768 Y135.193 E.37647
G1 X56.349 Y135.178 E.01315
G1 X56.349 Y147.214 E.37738
G1 X55.93 Y147.157 E.01326
G1 X55.93 Y135.235 E.37381
G1 X55.511 Y135.292 E.01326
G1 X55.511 Y147.1 E.37023
G1 X55.092 Y147.004 E.01348
G1 X55.092 Y135.388 E.36421
G1 X54.673 Y135.525 E.01382
G1 X54.673 Y146.868 E.35565
G1 X54.254 Y146.727 E.01386
G1 X54.254 Y135.664 E.34687
G1 X53.835 Y135.89 E.01493
G1 X53.835 Y146.502 E.33273
G1 X53.416 Y146.276 E.01493
G1 X53.416 Y135.924 E.32458
G1 E-3.5 F1500
G1 X40.736 Y120.751 F54000
G1 E3.5 F1500
G1 F1800
G1 X41.82 Y120.937 E.03448
G1 X42.87 Y121.306 E.0349
G1 X43.877 Y121.868 E.03616
G1 X44.79 Y122.633 E.03735
G1 X45.538 Y123.549 E.03708
G1 X46.107 Y124.569 E.03662
G1 X46.493 Y125.666 E.03646
G1 X46.627 Y127.184 E.04778
G1 X46.476 Y128.338 E.03649
G1 X46.138 Y129.437 E.03605
G1 X45.671 Y130.37 E.03271
G1 X41.547 Y130.37 E.12931
G1 X41.293 Y130.625 E.01128
G1 X41.293 Y147.985 E.54431
G1 X41.547 Y148.24 E.01128
G1 X44.689 Y148.24 E.09852
G1 X44.816 Y148.849 E.01951
G1 X44.7 Y150.059 E.03811
G1 X44.24 Y151.171 E.03773
G1 X43.442 Y152.131 E.03914
G1 X42.382 Y152.835 E.0399
G1 X41.065 Y153.138 E.04237
G1 X39.825 Y153.015 E.03907
G1 X38.76 Y152.583 E.03603
G1 X37.926 Y151.951 E.03281
G1 X37.092 Y150.884 E.04246
G1 X36.74 Y149.519 E.0442
G1 X36.852 Y148.24 E.04026
G1 X39.108 Y148.24 E.07074
G1 X39.363 Y147.985 E.01131
G1 X39.363 Y130.625 E.54431
G1 X39.108 Y130.37 E.01131
G1 X34.693 Y130.37 E.13843
G1 X34.412 Y129.827 E.01917
G1 X34.069 Y128.81 E.03365
G1 X33.922 Y128.053 E.02418
G1 X33.862 Y126.852 E.0377
G1 X34.005 Y125.703 E.0363
G1 X34.338 Y124.593 E.03634
G1 X34.859 Y123.546 E.03667
G1 X35.772 Y122.473 E.04417
G1 X36.569 Y121.847 E.03178
G1 X37.134 Y121.516 E.02053
G1 X38.456 Y120.962 E.04494
G1 X39.617 Y120.747 E.03702
G1 X40.68 Y120.751 E.03333
G1 X45.874 Y129.584 F54000
G1 F1800
G1 X45.874 Y124.929 E.14595
G1 X45.455 Y124.097 E.02921
G1 X45.455 Y130.03 E.18603
G1 X45.036 Y130.03 E.01314
G1 X45.036 Y123.471 E.20565
G1 X44.617 Y122.958 E.02077
G1 X44.617 Y130.03 E.22174
G1 X44.198 Y130.03 E.01314
G1 X44.198 Y122.58 E.23359
G1 X43.779 Y122.229 E.01714
G1 X43.779 Y130.03 E.24459
G1 X43.36 Y130.03 E.01314
G1 X43.36 Y121.968 E.25278
G1 X42.941 Y121.735 E.01503
G1 X42.941 Y130.03 E.26008
G1 X42.522 Y130.03 E.01314
G1 X42.522 Y121.544 E.26607
G1 X42.103 Y121.396 E.01393
G1 X42.103 Y130.03 E.27071
G1 X41.684 Y130.03 E.01314
G1 X41.684 Y121.258 E.27504
G1 X41.266 Y121.186 E.0133
G1 X41.266 Y130.172 E.28175
G1 X40.953 Y130.484 E.01386
G1 X40.953 Y148.125 E.55312
G1 X41.266 Y148.438 E.01388
G1 X41.266 Y152.743 E.13498
G1 X40.847 Y152.775 E.01318
G1 X40.847 Y121.114 E.99271
G1 X40.428 Y121.089 E.01316
G1 X40.428 Y152.733 E.99218
G1 X40.009 Y152.692 E.0132
G1 X40.009 Y121.088 E.99092
G1 X39.59 Y121.097 E.01314
G1 X39.59 Y152.553 E.98628
G1 X39.171 Y152.383 E.01418
G1 X39.171 Y148.579 E.11927
G1 X38.752 Y148.579 E.01314
G1 X38.752 Y152.151 E.112
G1 X38.333 Y151.833 E.01649
G1 X38.333 Y148.579 E.10203
G1 X37.914 Y148.579 E.01314
G1 X37.914 Y151.384 E.08795
G1 X37.495 Y150.848 E.02133
G1 X37.495 Y148.409 E.07647
G1 X44.198 Y150.828 F54000
G1 F1800
G1 X44.198 Y148.579 E.07052
G1 X43.779 Y148.579 E.01314
G1 X43.779 Y151.2 E.08218
G1 X43.36 Y151.706 E.0206
G1 X43.36 Y148.579 E.09804
G1 X42.941 Y148.579 E.01314
G1 X42.941 Y152.056 E.10902
G1 X42.522 Y152.334 E.01577
G1 X42.522 Y148.579 E.11774
G1 X42.103 Y148.579 E.01314
G1 X42.103 Y152.551 E.12454
G1 X41.684 Y152.647 E.01348
G1 X41.684 Y148.409 E.13288
G1 E-3.5 F1500
G1 X39.171 Y130.2 F54000
G1 E3.5 F1500
G1 F1800
G1 X39.171 Y121.175 E.28297
G1 X38.752 Y121.252 E.01336
G1 X38.752 Y130.03 E.27523
G1 X38.333 Y130.03 E.01314
G1 X38.333 Y121.37 E.27153
G1 X37.914 Y121.526 E.01402
G1 X37.914 Y130.03 E.26664
G1 X37.495 Y130.03 E.01314
G1 X37.495 Y121.71 E.26087
G1 X37.076 Y121.943 E.01503
G1 X37.076 Y130.03 E.25356
G1 X36.657 Y130.03 E.01314
G1 X36.657 Y122.209 E.24522
G1 X36.238 Y122.539 E.01672
G1 X36.238 Y130.03 E.23488
G1 X35.819 Y130.03 E.01314
G1 X35.819 Y122.919 E.22296
G1 X35.4 Y123.384 E.01963
G1 X35.4 Y130.03 E.20838
G1 X34.981 Y130.03 E.01314
G1 X34.981 Y124.063 E.18709
G1 X34.562 Y125.028 E.03299
G1 X34.562 Y129.744 E.14787
G1 E-3.5 F1500
G1 X24.566 Y134.668 F54000
G1 E3.5 F1500
G1 F1800
G1 X25.074 Y134.691 E.01594
G1 X26.188 Y134.947 E.03584
G1 X27.238 Y135.397 E.03582
G1 X27.893 Y135.83 E.02462
G1 X27.893 Y146.171 E.32423
G1 X27.231 Y146.608 E.02487
G1 X26.183 Y147.056 E.03574
G1 X25.072 Y147.31 E.03573
G1 X23.933 Y147.362 E.03575
G1 X22.803 Y147.21 E.03575
G1 X21.717 Y146.859 E.03579
G1 X20.712 Y146.32 E.03576
G1 X19.819 Y145.61 E.03577
G1 X19.067 Y144.752 E.03577
G1 X18.48 Y143.772 E.03582
G1 X18.077 Y142.704 E.03579
G1 X17.871 Y141.58 E.03583
G1 X17.87 Y140.437 E.03584
G1 X18.072 Y139.313 E.03581
G1 X18.473 Y138.242 E.03586
G1 X19.059 Y137.26 E.03586
G1 X19.811 Y136.399 E.03584
G1 X20.705 Y135.686 E.03585
G1 X21.712 Y135.144 E.03586
G1 X22.799 Y134.791 E.03583
G1 X23.932 Y134.639 E.03584
G1 X24.509 Y134.665 E.01811
G1 X27.439 Y146.267 F54000
G1 F1800
G1 X27.439 Y135.937 E.32389
G1 X27.02 Y135.673 E.01553
G1 X27.02 Y146.329 E.33411
G1 X26.601 Y146.508 E.01429
G1 X26.601 Y135.493 E.34537
G1 X26.182 Y135.313 E.0143
G1 X26.182 Y146.687 E.35662
G1 X26.077 Y146.732 E.00358
G1 X25.763 Y146.804 E.0101
G1 X25.763 Y135.197 E.36393
G1 X25.344 Y135.101 E.01348
G1 X25.344 Y146.9 E.36995
G1 X24.925 Y146.977 E.01336
G1 X24.925 Y135.024 E.37478
G1 X24.506 Y135.005 E.01315
G1 X24.506 Y146.996 E.37597
G1 X24.087 Y147.015 E.01315
G1 X24.087 Y134.985 E.37719
G1 X23.668 Y135.017 E.01318
G1 X23.668 Y146.984 E.37522
G1 X23.249 Y146.928 E.01325
G1 X23.249 Y135.073 E.37171
G1 X22.831 Y135.138 E.01326
G1 X22.831 Y146.863 E.36763
G1 X22.412 Y146.727 E.01381
G1 X22.412 Y135.274 E.3591
G1 X21.993 Y135.41 E.01381
G1 X21.993 Y146.592 E.3506
G1 X21.574 Y146.397 E.01449
G1 X21.574 Y135.604 E.33841
G1 X21.155 Y135.829 E.01491
G1 X21.155 Y146.172 E.3243
G1 X20.736 Y145.905 E.01558
G1 X20.736 Y136.095 E.30759
G1 X20.317 Y136.43 E.01682
G1 X20.317 Y145.572 E.28664
G1 X19.898 Y145.185 E.01788
G1 X19.898 Y136.815 E.26244
G1 X19.479 Y137.295 E.01998
G1 X19.479 Y144.707 E.2324
G1 X19.06 Y144.08 E.02364
G1 X19.06 Y137.921 E.19311
G1 X18.641 Y138.762 E.02946
G1 X18.641 Y143.238 E.14034
G1 X18.405 Y142.613 E.02095
G1 X18.222 Y141.611 E.03194
G1 X18.222 Y139.441 E.06804
G1 E-3.5 F1500
G1 X48.471 Y146.353 F54000
G1 E3.5 F1500
;TYPE:Perimeter
;WIDTH:0.475821
G1 F1800
G1 X48.395 Y146.382 E.00293
G1 X47.903 Y146.427 E.01778
;WIDTH:0.462983
G1 X47.408 Y146.404 E.01731
G1 X46.937 Y146.26 E.0172
;WIDTH:0.419999
G1 X46.444 Y146.014 E.01728
G1 X46.031 Y145.694 E.01638
G1 X45.829 Y145.479 E.00925
G1 X45.535 Y145.046 E.01641
G1 X45.322 Y144.54 E.01721
G1 X45.221 Y143.788 E.02379
G1 X45.239 Y143.494 E.00924
G1 X45.353 Y142.984 E.01639
G1 X45.576 Y142.481 E.01725
G1 X45.986 Y141.953 E.02096
G1 X46.365 Y141.641 E.01539
G1 X46.797 Y141.405 E.01543
G1 X47.323 Y141.247 E.01722
G1 X47.844 Y141.198 E.01641
G1 X48.138 Y141.217 E.00924
G1 X48.648 Y141.331 E.01639
G1 X49.151 Y141.553 E.01724
G1 X49.679 Y141.963 E.02096
G1 X49.991 Y142.342 E.01539
G1 X50.227 Y142.774 E.01543
G1 X50.385 Y143.301 E.01725
G1 X50.434 Y143.821 E.01638
G1 X50.416 Y144.115 E.00924
G1 X50.302 Y144.626 E.01642
G1 X50.079 Y145.128 E.01722
G1 X49.669 Y145.656 E.02096
G1 X49.29 Y145.968 E.01539
G1 X48.859 Y146.204 E.01541
;WIDTH:0.44791
G1 X48.627 Y146.293 E.00837
;WIDTH:0.475821
G1 X48.527 Y146.332 E.00386
G1 X48.165 Y146.005 F54000
;WIDTH:0.419999
G1 F1800
G1 X47.915 Y146.038 E.00791
G1 X47.495 Y146.015 E.01319
G1 X47.086 Y145.914 E.01321
G1 X46.676 Y145.716 E.01428
G1 X46.262 Y145.396 E.01641
G1 X45.847 Y144.834 E.0219
G1 X45.651 Y144.318 E.01731
G1 X45.596 Y143.753 E.0178
G1 X45.721 Y143.066 E.02189
G1 X45.969 Y142.562 E.01761
G1 X46.235 Y142.236 E.01319
G1 X46.557 Y141.966 E.01318
G1 X46.924 Y141.76 E.0132
G1 X47.359 Y141.623 E.0143
G1 X47.879 Y141.573 E.01638
G1 X48.566 Y141.699 E.0219
G1 X49.07 Y141.946 E.0176
G1 X49.396 Y142.212 E.01319
G1 X49.667 Y142.534 E.0132
G1 X49.872 Y142.901 E.01318
G1 X50.01 Y143.336 E.01431
G1 X50.059 Y143.857 E.01641
G1 X49.934 Y144.543 E.02186
G1 X49.686 Y145.047 E.01761
G1 X49.42 Y145.373 E.01319
G1 X49.098 Y145.644 E.0132
G1 X48.731 Y145.849 E.01318
G1 X48.332 Y145.982 E.01319
G1 X48.225 Y145.997 E.00339
G1 X47.821 Y145.657 F54000
;TYPE:External perimeter
G1 F1800
G1 X47.577 Y145.647 E.00766
G1 X47.236 Y145.568 E.01097
G1 X46.907 Y145.418 E.01134
G1 X46.494 Y145.098 E.01638
G1 X46.159 Y144.622 E.01825
G1 X46.021 Y144.238 E.01279
G1 X45.972 Y143.717 E.01641
G1 X46.089 Y143.148 E.01821
G1 X46.267 Y142.794 E.01242
G1 X46.484 Y142.519 E.01098
G1 X46.749 Y142.29 E.01098
G1 X47.052 Y142.115 E.01097
G1 X47.394 Y141.998 E.01133
G1 X47.915 Y141.949 E.01641
G1 X48.484 Y142.067 E.01822
G1 X48.839 Y142.244 E.01244
G1 X49.113 Y142.462 E.01098
G1 X49.342 Y142.726 E.01096
G1 X49.517 Y143.029 E.01097
G1 X49.634 Y143.371 E.01133
G1 X49.683 Y143.892 E.01641
G1 X49.566 Y144.461 E.01821
G1 X49.324 Y144.898 E.01566
G1 X49.171 Y145.09 E.0077
G1 X48.906 Y145.319 E.01098
G1 X48.603 Y145.495 E.01099
G1 X48.273 Y145.61 E.01096
G1 X47.927 Y145.661 E.01097
G1 X47.881 Y145.66 E.00144
G1 X47.483 Y145.618 F54000
G1 X47.894 Y146.828
;TYPE:Perimeter
;WIDTH:0.462983
G1 F1800
G1 X47.362 Y146.819 E.01858
G1 X46.816 Y146.841 E.01909
;WIDTH:0.419999
G1 X42.692 Y146.841 E.1293
G1 X42.692 Y131.769 E.47257
G1 X51.563 Y131.769 E.27814
G1 X51.563 Y136.205 E.13909
G1 X51.563 Y146.841 E.33348
G1 X48.97 Y146.841 E.0813
;WIDTH:0.44791
G1 X48.699 Y146.827 E.00914
;WIDTH:0.475821
G1 X48.429 Y146.813 E.00973
G1 X47.954 Y146.827 E.01711
G1 X47.505 Y147.218 F54000
;WIDTH:0.419999
G1 F1800
G1 X42.315 Y147.218 E.16273
G1 X42.315 Y131.392 E.49621
G1 X51.94 Y131.392 E.30178
G1 X51.94 Y136.205 E.15091
G1 X51.94 Y147.218 E.3453
G1 X47.565 Y147.218 E.13717
G1 X47.128 Y147.595 F54000
;TYPE:External perimeter
G1 F1800
G1 X41.938 Y147.595 E.16273
G1 X41.938 Y131.015 E.51985
G1 X52.318 Y131.015 E.32546
G1 X52.318 Y136.205 E.16273
G1 X52.318 Y147.595 E.35712
G1 X47.188 Y147.595 E.16085
G1 X46.788 Y147.595 F54000
G1 E-3.5 F1500
G1 X49.462 Y146.727 F54000
G1 E3.5 F1500
;TYPE:Solid infill
;WIDTH:0.421645
G1 F1800
G1 X49.125 Y146.39 E0.00979; Old Flow Value: 0.01501   Length: 0.47660
G1 X49.461 Y146.191 E0.00750; Old Flow Value: 0.0123   Length: 0.39051
G1 X49.828 Y146.558 E0.01098; Old Flow Value: 0.01634   Length: 0.51902
G1 X50.364 Y146.558 E0.01147; Old Flow Value: 0.01688   Length: 0.53600
G1 X49.756 Y145.95 E0.02097; Old Flow Value: 0.02708   Length: 0.85984
G1 X50.026 Y145.684 E0.00721; Old Flow Value: 0.01194   Length: 0.37901
G1 X50.899 Y146.558 E0.03236; Old Flow Value: 0.0389   Length: 1.23531
G1 X51.281 Y146.558 E0.00728; Old Flow Value: 0.01203   Length: 0.38200
G1 X51.281 Y146.404 E0.00176; Old Flow Value: 0.00485   Length: 0.15399
G1 X50.249 Y145.372 E0.03924; Old Flow Value: 0.04596   Length: 1.45948
G1 X50.328 Y145.263 E0.00138; Old Flow Value: 0.00424   Length: 0.13461
G1 X50.445 Y145.032 E0.00423; Old Flow Value: 0.00815   Length: 0.25894
G1 X51.281 Y145.868 E0.03074; Old Flow Value: 0.03723   Length: 1.18228
