; File Parsed By Flow Comp Script
; Script Ver. V0.7.1
; Flow Model Ver. V0.2.1
; Logger Ver. V0.0.1
; Flow Comp Model Points:
; (0, 0)
; (0.2, 0.4444)
; (0.4, 0.6145)
; (0.6, 0.7059)
; (0.8, 0.7619)
; (1.5, 0.8571)
; (2, 0.8889)
; (3, 0.9231)
; (5, 0.952)
; (10, 1)

; generated by PrusaSlicer 2.9.2 on 2025-04-19 at 18:02:33 UTC

; 

; external perimeters extrusion width = 0.45mm
; perimeters extrusion width = 0.45mm
; infill extrusion width = 0.45mm
; solid infill extrusion width = 0.45mm
; top infill extrusion width = 0.40mm
; support material extrusion width = 0.35mm
; first layer extrusion width = 0.42mm

;TYPE:Custom
G90 ; use absolute coordinates
M83 ; extruder relative mode
CALCULATE_PA BOWDEN_LENGTH=34.0 MATERIAL=PLA LAYER_HEIGHT=0.2 NOZZLE_SIZE=0.4 PRINT_SPEED=120 FILAMENT_DIAMETER=1.75 LINE_WIDTH=0.45 ; auto pressure advance
M104 S210 ; set temporary nozzle temp to prevent oozing during homing
M140 S58 ; set final bed temp
G4 S30 ; allow partial nozzle warmup
G28 ; home all axis
G1 Z50 F240
G1 X2.0 Y10 F3000
M104 S208 ; set final nozzle temp
M190 S58 ; wait for bed temp to stabilize
M109 S208 ; wait for nozzle temp to stabilize
G1 Z0.28 F240
G92 E0
G1 X2.0 Y140 E10 F1500 ; prime the nozzle
G1 X2.3 Y140 F5000
G92 E0
G1 X2.3 Y10 E10 F1200 ; prime the nozzle
G92 E0
G21 ; set units to millimeters
G90 ; use absolute coordinates
M83 ; use relative distances for extrusion
; Filament gcode
M107
;LAYER_CHANGE
;Z:0.2
;HEIGHT:0.2
G1 E-3.5 F1500
G1 Z.2 F54000
G1 X18.904 Y50.268
G1 Z.2
G1 E3.5 F1500
M204 S3500
;TYPE:Skirt/Brim
;WIDTH:0.42
G1 F1800
G1 X19.99 Y49.916 E.03579
G1 X21.072 Y49.669 E.0348
G1 X27.444 Y48.923 E.20115
G1 X52.177 Y48.946 E.77549
G1 X57.168 Y49.377 E.15707
G1 X59.141 Y49.767 E.06306
G1 X60.196 Y50.11 E.03478
G1 X61.26 Y50.564 E.03627
G1 X62.237 Y51.09 E.03479
G1 X63.202 Y51.727 E.03625
G1 X64.07 Y52.419 E.03481
G1 X64.906 Y53.219 E.03628
G1 X65.636 Y54.054 E.03478
G1 X66.316 Y54.99 E.03627
G1 X66.885 Y55.943 E.0348
G1 X67.387 Y56.985 E.03626
G1 X67.777 Y58.024 E.0348
G1 X68.085 Y59.139 E.03627
G1 X68.283 Y60.231 E.0348
G1 X68.387 Y61.383 E.03627
G1 X68.387 Y62.493 E.0348
G1 X68.283 Y63.645 E.03627
G1 X68.085 Y64.736 E.03477
G1 X67.777 Y65.852 E.0363
G1 X67.387 Y66.891 E.0348
G1 X66.885 Y67.933 E.03626
G1 X66.316 Y68.885 E.03477
G1 X65.636 Y69.821 E.03627
G1 X64.906 Y70.657 E.0348
G1 X47.919 Y85.904 E.7157
G1 X46.236 Y87.094 E.06463
G1 X45.259 Y87.62 E.03479
G1 X44.193 Y88.076 E.03635
G1 X43.138 Y88.419 E.03478
G1 X42.008 Y88.676 E.03634
G1 X40.908 Y88.825 E.0348
G1 X39.751 Y88.877 E.03631
G1 X38.642 Y88.828 E.03481
G1 X37.494 Y88.672 E.03633
G1 X36.412 Y88.425 E.0348
G1 X35.31 Y88.067 E.03633
G1 X34.29 Y87.631 E.03478
G1 X33.269 Y87.082 E.03635
G1 X32.343 Y86.471 E.03478
G1 X31.226 Y85.571 E.04498
G1 X14.849 Y71.274 E.68163
G1 X13.507 Y69.824 E.06195
G1 X12.855 Y68.926 E.03479
G1 X12.269 Y67.946 E.0358
G1 X11.788 Y66.947 E.03476
G1 X11.387 Y65.878 E.0358
G1 X11.092 Y64.808 E.0348
G1 X10.888 Y63.685 E.03579
G1 X10.788 Y62.58 E.03479
G1 X10.788 Y61.438 E.03581
G1 X10.888 Y60.333 E.03479
G1 X11.092 Y59.21 E.03579
G1 X11.387 Y58.14 E.0348
G1 X11.788 Y57.072 E.03577
G1 X12.27 Y56.072 E.03481
G1 X12.855 Y55.092 E.03579
G1 X13.507 Y54.195 E.03477
G1 X14.258 Y53.335 E.0358
G1 X15.06 Y52.568 E.03479
G1 X15.953 Y51.856 E.03581
G1 X16.879 Y51.245 E.03478
G1 X17.884 Y50.704 E.03579
G1 X18.849 Y50.292 E.0329
G1 E-3.5 F1500
G1 X45.313 Y72.921 F54000
G1 E3.5 F1500
;TYPE:Support material
G1 F1800
G1 X45.816 Y73.965 E.03634
G1 X46.124 Y75.082 E.03633
G1 X46.228 Y76.237 E.03636
G1 X46.124 Y77.391 E.03633
G1 X45.816 Y78.508 E.03633
G1 X45.313 Y79.553 E.03636
G1 X44.632 Y80.49 E.03632
G1 X43.794 Y81.291 E.03635
G1 X42.827 Y81.93 E.03634
G1 X41.761 Y82.385 E.03634
G1 X40.631 Y82.643 E.03634
G1 X39.473 Y82.695 E.03634
G1 X38.325 Y82.54 E.03632
G1 X37.222 Y82.181 E.03637
G1 X36.202 Y81.632 E.03632
G1 X35.295 Y80.91 E.03635
G1 X34.533 Y80.037 E.03633
G1 X33.938 Y79.042 E.03635
G1 X33.769 Y78.589 E.01516
G1 X33.531 Y77.957 E.02117
G1 X33.324 Y76.816 E.03636
G1 X33.324 Y75.657 E.03634
G1 X33.531 Y74.517 E.03633
G1 X33.938 Y73.432 E.03633
G1 X34.467 Y72.547 E.03233
G1 X45.041 Y72.547 E.33154
G1 X45.28 Y72.875 E.01272
G1 X45.829 Y77.822 F54000
G1 F1800
G1 X45.789 Y75.143 E.08401
G1 X45.41 Y73.905 E.04059
G1 X45.41 Y78.568 E.14621
G1 X44.991 Y79.418 E.02971
G1 X44.991 Y73.056 E.19948
G1 X44.868 Y72.886 E.00658
G1 X44.572 Y72.886 E.00928
G1 X44.572 Y79.995 E.2229
G1 X44.153 Y80.478 E.02005
G1 X44.153 Y72.886 E.23804
G1 X43.734 Y72.886 E.01314
G1 X43.734 Y80.879 E.25061
G1 X43.315 Y81.2 E.01655
G1 X43.315 Y72.886 E.26068
G1 X42.896 Y72.886 E.01314
G1 X42.896 Y81.477 E.26936
G1 X42.665 Y81.63 E.00869
G1 X42.477 Y81.71 E.00641
G1 X42.477 Y72.886 E.27667
G1 X42.058 Y72.886 E.01314
G1 X42.058 Y81.889 E.28228
G1 X41.639 Y82.065 E.01425
G1 X41.639 Y72.886 E.2878
G1 X41.22 Y72.886 E.01314
G1 X41.22 Y82.16 E.29078
G1 X40.801 Y82.256 E.01348
G1 X40.801 Y72.886 E.29379
G1 X40.382 Y72.886 E.01314
G1 X40.382 Y82.315 E.29564
G1 X39.963 Y82.333 E.01315
G1 X39.963 Y72.886 E.2962
G1 X39.544 Y72.886 E.01314
G1 X39.544 Y82.352 E.2968
G1 X39.125 Y82.306 E.01322
G1 X39.125 Y72.886 E.29536
G1 X38.706 Y72.886 E.01314
G1 X38.706 Y82.249 E.29357
G1 X38.287 Y82.171 E.01336
G1 X38.287 Y72.886 E.29112
G1 X37.868 Y72.886 E.01314
G1 X37.868 Y82.034 E.28683
G1 X37.45 Y81.898 E.01378
G1 X37.45 Y72.886 E.28256
G1 X37.031 Y72.886 E.01314
G1 X37.031 Y81.693 E.27614
G1 X36.612 Y81.467 E.01493
G1 X36.612 Y72.886 E.26905
G1 X36.193 Y72.886 E.01314
G1 X36.193 Y81.191 E.2604
G1 X35.774 Y80.857 E.0168
G1 X35.774 Y72.886 E.24993
G1 X35.355 Y72.886 E.01314
G1 X35.355 Y80.461 E.23751
G1 X34.936 Y79.982 E.01995
G1 X34.936 Y72.886 E.22249
G1 X34.66 Y72.886 E.00865
G1 X34.517 Y73.126 E.00876
G1 X34.517 Y79.348 E.19509
G1 X34.098 Y78.5 E.02966
G1 X34.098 Y73.973 E.14194
G1 X33.86 Y74.608 E.02126
G1 X33.679 Y75.605 E.03177
G1 X33.679 Y77.819 E.06942
G1 E-3.5 F1500
G1 X23.516 Y55.67 F54000
G1 E3.5 F1500
G1 F1800
G1 X24.174 Y55.699 E.02065
G1 X25.287 Y55.953 E.03579
G1 X26.337 Y56.402 E.03581
G1 X27.009 Y56.846 E.02525
G1 X27.009 Y67.173 E.3238
G1 X26.337 Y67.617 E.02525
G1 X25.287 Y68.066 E.03581
G1 X24.174 Y68.32 E.03579
G1 X23.034 Y68.371 E.03578
G1 X21.902 Y68.218 E.03582
G1 X20.816 Y67.865 E.0358
G1 X19.811 Y67.324 E.03579
G1 X18.918 Y66.612 E.03581
G1 X18.167 Y65.752 E.0358
G1 X17.582 Y64.772 E.03579
G1 X17.181 Y63.703 E.0358
G1 X16.977 Y62.58 E.03579
G1 X16.977 Y61.438 E.03581
G1 X17.181 Y60.315 E.03579
G1 X17.582 Y59.246 E.0358
G1 X18.168 Y58.266 E.0358
G1 X18.919 Y57.407 E.03578
G1 X19.811 Y56.695 E.03579
G1 X20.817 Y56.154 E.03581
G1 X21.902 Y55.801 E.03577
G1 X23.034 Y55.648 E.03582
G1 X23.459 Y55.667 E.01334
G1 X26.556 Y67.269 F54000
G1 F1800
G1 X26.556 Y56.953 E.32345
G1 X26.137 Y56.686 E.01558
G1 X26.137 Y67.334 E.33386
G1 X25.718 Y67.513 E.01429
G1 X25.718 Y56.506 E.34512
G1 X25.299 Y56.327 E.01429
G1 X25.299 Y67.692 E.35634
G1 X25.182 Y67.742 E.00399
G1 X24.88 Y67.811 E.00971
G1 X24.88 Y56.208 E.3638
G1 X24.461 Y56.113 E.01347
G1 X24.461 Y67.906 E.36976
G1 X24.042 Y67.986 E.01337
G1 X24.042 Y56.033 E.37478
G1 X23.623 Y56.014 E.01315
G1 X23.623 Y68.005 E.37597
G1 X23.204 Y68.024 E.01315
G1 X23.204 Y55.995 E.37716
G1 X22.785 Y56.024 E.01317
G1 X22.785 Y67.995 E.37534
G1 X22.366 Y67.938 E.01326
G1 X22.366 Y56.081 E.37177
G1 X21.947 Y56.143 E.01328
G1 X21.947 Y67.876 E.36788
G1 X21.528 Y67.74 E.01381
G1 X21.528 Y56.28 E.35932
G1 X21.109 Y56.416 E.01381
G1 X21.109 Y67.604 E.35079
G1 X20.69 Y67.412 E.01445
G1 X20.69 Y56.607 E.33878
G1 X20.271 Y56.833 E.01493
G1 X20.271 Y67.186 E.32461
G1 X19.852 Y66.923 E.01551
G1 X19.852 Y57.096 E.30812
G1 X19.434 Y57.43 E.01678
G1 X19.434 Y66.589 E.28717
G1 X19.015 Y66.206 E.0178
G1 X19.015 Y57.813 E.26316
G1 X18.596 Y58.292 E.01995
G1 X18.596 Y65.727 E.23312
G1 X18.177 Y65.106 E.02349
G1 X18.177 Y58.913 E.19418
G1 X17.758 Y59.744 E.02918
G1 X17.758 Y64.275 E.14207
G1 X17.509 Y63.613 E.02218
G1 X17.339 Y62.673 E.02995
G1 X17.339 Y60.396 E.07139
G1 E-3.5 F1500
G1 X56.153 Y55.521 F54000
G1 E3.5 F1500
G1 F1800
G1 X56.636 Y55.543 E.01516
G1 X57.764 Y55.8 E.03627
G1 X58.828 Y56.255 E.03628
G1 X59.793 Y56.892 E.03625
G1 X60.629 Y57.692 E.03628
G1 X61.309 Y58.628 E.03627
G1 X61.811 Y59.67 E.03626
G1 X62.119 Y60.785 E.03627
G1 X62.223 Y61.938 E.0363
G1 X62.119 Y63.09 E.03627
G1 X61.811 Y64.205 E.03627
G1 X61.309 Y65.248 E.03629
G1 X60.629 Y66.184 E.03627
G1 X60.28 Y66.518 E.01515
G1 X59.793 Y66.983 E.02111
G1 X58.828 Y67.621 E.03627
G1 X57.764 Y68.075 E.03627
G1 X56.636 Y68.333 E.03628
G1 X55.48 Y68.385 E.03628
G1 X54.333 Y68.229 E.03629
G1 X53.233 Y67.872 E.03626
G1 X52.079 Y67.216 E.04162
G1 X52.079 Y56.659 E.33101
G1 X53.233 Y56.004 E.0416
G1 X54.333 Y55.646 E.03627
G1 X55.48 Y55.491 E.03629
G1 X56.096 Y55.518 E.01933
G1 X61.75 Y63.79 F54000
G1 F1800
G1 X61.75 Y60.724 E.09613
G1 X61.331 Y59.455 E.0419
G1 X61.331 Y64.42 E.15567
G1 X60.912 Y65.217 E.02823
G1 X60.912 Y58.658 E.20565
G1 X60.493 Y58.082 E.02233
G1 X60.493 Y65.794 E.2418
G1 X60.074 Y66.245 E.0193
G1 X60.074 Y57.631 E.27009
G1 X59.655 Y57.23 E.01818
G1 X59.655 Y66.646 E.29523
G1 X59.236 Y66.944 E.01612
G1 X59.236 Y56.931 E.31395
G1 X58.817 Y56.655 E.01573
G1 X58.817 Y67.221 E.33129
G1 X58.398 Y67.435 E.01475
G1 X58.398 Y56.44 E.34474
G1 X57.979 Y56.261 E.01429
G1 X57.979 Y67.614 E.35597
G1 X57.56 Y67.774 E.01406
G1 X57.56 Y56.102 E.36597
G1 X57.141 Y56.006 E.01348
G1 X57.141 Y67.869 E.37196
G1 X56.722 Y67.965 E.01348
G1 X56.722 Y55.911 E.37794
G1 X56.303 Y55.867 E.01321
G1 X56.303 Y68.008 E.38067
G1 X55.885 Y68.027 E.01312
G1 X55.885 Y55.849 E.38183
G1 X55.466 Y55.835 E.01314
G1 X55.466 Y68.04 E.38268
G1 X55.047 Y67.984 E.01325
G1 X55.047 Y55.892 E.37914
G1 X54.628 Y55.949 E.01326
G1 X54.628 Y67.927 E.37556
G1 X54.209 Y67.832 E.01347
G1 X54.209 Y56.043 E.36964
G1 X53.79 Y56.18 E.01382
G1 X53.79 Y67.696 E.36108
G1 X53.371 Y67.56 E.01381
G1 X53.367 Y56.317 E.35252
G1 X52.952 Y56.54 E.01477
G1 X52.952 Y67.335 E.33847
G1 X52.533 Y67.11 E.01491
G1 X52.533 Y56.573 E.33038
G1 E-3.5 F1500
G1 X45.237 Y60.876 F54000
G1 E3.5 F1500
;TYPE:Perimeter
;WIDTH:0.419999
G1 F1800
G1 X45.064 Y60.688 E.00801
G1 X44.779 Y60.207 E.01753
G1 X44.67 Y59.933 E.00925
G1 X44.556 Y59.422 E.01642
G1 X44.544 Y58.873 E.01722
G1 X44.689 Y58.221 E.02094
G1 X44.814 Y57.932 E.00987
G1 X45.19 Y57.38 E.02094
G1 X45.599 Y57.012 E.01725
G1 X46.049 Y56.746 E.01639
;WIDTH:0.448223
G1 X46.831 Y56.51 E.02753
;WIDTH:0.449131
G1 X47.384 Y56.497 E.01868
G1 X47.868 Y56.598 E.0167
;WIDTH:0.428971
G1 X48.48 Y56.867 E.02146
;WIDTH:0.419999
G1 X48.876 Y57.157 E.01539
G1 X49.244 Y57.567 E.01727
G1 X49.51 Y58.017 E.01639
G1 X49.619 Y58.291 E.00925
G1 X49.733 Y58.801 E.01639
G1 X49.745 Y59.351 E.01725
G1 X49.654 Y59.834 E.01541
G1 X49.389 Y60.447 E.02094
G1 X49.099 Y60.844 E.01541
G1 X48.69 Y61.211 E.01723
G1 X48.24 Y61.477 E.01639
G1 X47.965 Y61.586 E.00928
G1 X47.455 Y61.7 E.01639
G1 X46.905 Y61.712 E.01725
G1 X46.422 Y61.622 E.0154
G1 X45.809 Y61.356 E.02095
G1 X45.412 Y61.066 E.01541
G1 X45.278 Y60.92 E.00621
G1 X45.361 Y60.451 F54000
G1 F1800
G1 X45.103 Y60.015 E.01588
G1 X44.924 Y59.34 E.0219
G1 X44.934 Y58.779 E.01759
G1 X45.036 Y58.371 E.01319
G1 X45.161 Y58.082 E.00987
G1 X45.456 Y57.646 E.01651
G1 X45.791 Y57.337 E.01429
G1 X46.241 Y57.071 E.01639
G1 X46.916 Y56.892 E.0219
G1 X47.477 Y56.901 E.01759
G1 X47.886 Y57.003 E.01322
G1 X48.268 Y57.179 E.01319
G1 X48.61 Y57.424 E.01319
G1 X48.919 Y57.758 E.01427
G1 X49.185 Y58.209 E.01642
G1 X49.365 Y58.883 E.02187
G1 X49.36 Y59.419 E.01681
G1 X49.253 Y59.853 E.01402
G1 X49.077 Y60.235 E.01319
G1 X48.832 Y60.577 E.01319
G1 X48.498 Y60.887 E.01429
G1 X48.048 Y61.153 E.01639
G1 X47.373 Y61.332 E.0219
G1 X46.834 Y61.327 E.0169
G1 X46.403 Y61.221 E.01392
G1 X46.021 Y61.044 E.0132
G1 X45.679 Y60.8 E.01317
G1 X45.399 Y60.497 E.01294
G1 X45.515 Y59.971 F54000
;TYPE:External perimeter
G1 F1800
G1 X45.426 Y59.82 E.0055
G1 X45.292 Y59.258 E.01812
G1 X45.302 Y58.861 E.01245
G1 X45.382 Y58.52 E.01098
G1 X45.507 Y58.232 E.00984
G1 X45.723 Y57.913 E.01208
G1 X45.983 Y57.662 E.01133
G1 X46.433 Y57.395 E.01641
G1 X46.998 Y57.26 E.01821
G1 X47.395 Y57.269 E.01245
G1 X47.736 Y57.349 E.01098
G1 X48.056 Y57.491 E.01098
G1 X48.343 Y57.691 E.01097
G1 X48.595 Y57.95 E.01133
G1 X48.861 Y58.401 E.01642
G1 X48.997 Y58.966 E.01822
G1 X48.987 Y59.362 E.01242
G1 X48.907 Y59.703 E.01098
G1 X48.765 Y60.023 E.01098
G1 X48.566 Y60.311 E.01098
G1 X48.306 Y60.562 E.01133
G1 X47.856 Y60.828 E.01639
G1 X47.291 Y60.964 E.01822
G1 X46.894 Y60.954 E.01245
G1 X46.553 Y60.875 E.01097
G1 X46.233 Y60.733 E.01098
G1 X45.946 Y60.533 E.01097
G1 X45.694 Y60.273 E.01135
G1 X45.546 Y60.022 E.00914
G1 X45.395 Y59.652 F54000
G1 E-3.5 F1500
G1 X29.602 Y59.577 F54000
G1 E3.5 F1500
;TYPE:Perimeter
G1 F1800
G1 X29.538 Y59.095 E.01525
G1 X29.556 Y58.801 E.00924
G1 X29.67 Y58.291 E.01639
G1 X29.893 Y57.788 E.01725
G1 X30.303 Y57.26 E.02096
G1 X30.682 Y56.948 E.01539
G1 X31.113 Y56.712 E.01541
;WIDTH:0.447909
G1 X31.345 Y56.623 E.00837
;WIDTH:0.475818
G1 X31.577 Y56.534 E.00894
G1 X32.069 Y56.489 E.01778
;WIDTH:0.462984
G1 X32.564 Y56.512 E.01731
G1 X33.035 Y56.657 E.01721
;WIDTH:0.419999
G1 X33.528 Y56.902 E.01726
G1 X33.941 Y57.223 E.0164
G1 X34.142 Y57.438 E.00923
G1 X34.437 Y57.87 E.0164
G1 X34.65 Y58.377 E.01724
G1 X34.751 Y59.128 E.02376
G1 X34.733 Y59.422 E.00924
G1 X34.619 Y59.933 E.01642
G1 X34.396 Y60.435 E.01722
G1 X34.051 Y60.9 E.01815
G1 X33.607 Y61.276 E.01824
G1 X33.175 Y61.511 E.01542
G1 X32.708 Y61.662 E.01539
G1 X32.22 Y61.722 E.01542
G1 X31.729 Y61.69 E.01543
G1 X31.253 Y61.567 E.01541
G1 X30.761 Y61.321 E.01725
G1 X30.348 Y61.001 E.01638
G1 X30.146 Y60.786 E.00925
G1 X29.852 Y60.354 E.01638
G1 X29.638 Y59.847 E.01725
G1 X29.61 Y59.637 E.00664
G1 X29.933 Y59.262 F54000
G1 F1800
G1 X29.913 Y59.06 E.00636
G1 X30.038 Y58.373 E.02189
G1 X30.286 Y57.87 E.01758
G1 X30.552 Y57.543 E.01322
G1 X30.874 Y57.273 E.01318
G1 X31.241 Y57.067 E.0132
G1 X31.64 Y56.934 E.01319
G1 X32.057 Y56.878 E.01319
G1 X32.477 Y56.901 E.01319
G1 X32.886 Y57.003 E.01322
G1 X33.296 Y57.2 E.01426
G1 X33.71 Y57.521 E.01643
G1 X34.125 Y58.082 E.02188
G1 X34.296 Y58.504 E.01428
G1 X34.376 Y59.164 E.02085
G1 X34.251 Y59.85 E.02186
G1 X34.034 Y60.309 E.01592
G1 X33.737 Y60.68 E.0149
G1 X33.415 Y60.951 E.0132
G1 X33.048 Y61.156 E.01318
G1 X32.649 Y61.289 E.01319
G1 X32.232 Y61.345 E.01319
G1 X31.812 Y61.322 E.01319
G1 X31.403 Y61.221 E.01321
G1 X30.992 Y61.023 E.0143
G1 X30.579 Y60.703 E.01638
G1 X30.164 Y60.142 E.02188
G1 X29.968 Y59.625 E.01734
G1 X29.939 Y59.322 E.00954
G1 X30.304 Y58.951 F54000
;TYPE:External perimeter
G1 F1800
G1 X30.406 Y58.455 E.01588
G1 X30.648 Y58.019 E.01564
G1 X30.801 Y57.826 E.00772
G1 X31.066 Y57.597 E.01098
G1 X31.369 Y57.422 E.01097
G1 X31.699 Y57.307 E.01096
G1 X32.045 Y57.255 E.01097
G1 X32.395 Y57.269 E.01098
G1 X32.736 Y57.349 E.01098
G1 X33.065 Y57.498 E.01132
G1 X33.478 Y57.819 E.0164
G1 X33.813 Y58.294 E.01822
G1 X33.951 Y58.678 E.01279
G1 X34 Y59.199 E.01641
G1 X33.883 Y59.768 E.01821
G1 X33.705 Y60.123 E.01245
G1 X33.488 Y60.397 E.01096
G1 X33.223 Y60.626 E.01098
G1 X32.92 Y60.802 E.01099
G1 X32.59 Y60.917 E.01096
G1 X32.243 Y60.968 E.011
G1 X31.894 Y60.954 E.01095
G1 X31.553 Y60.875 E.01097
G1 X31.224 Y60.726 E.01132
G1 X30.81 Y60.405 E.01643
G1 X30.476 Y59.93 E.01821
G1 X30.338 Y59.545 E.01282
G1 X30.289 Y59.025 E.01638
G1 X30.292 Y59.01 E.00048
G1 X30.373 Y58.618 F54000
G1 E-3.5 F1500
G1 X28.409 Y68.372 F54000
G1 E3.5 F1500
;TYPE:Perimeter
G1 F1800
G1 X28.409 Y56.076 E.38553
G1 X31.002 Y56.076 E.0813
;WIDTH:0.447909
G1 X31.273 Y56.09 E.00914
;WIDTH:0.475818
G1 X31.543 Y56.104 E.00973
G1 X32.076 Y56.088 E.01919
;WIDTH:0.462984
G1 X32.61 Y56.097 E.01865
G1 X33.156 Y56.076 E.01909
;WIDTH:0.419999
G1 X46.261 Y56.076 E.4109
;WIDTH:0.44419
G1 X47.076 Y56.088 E.0272
;WIDTH:0.462987
G1 X47.61 Y56.097 E.01865
G1 X48.156 Y56.076 E.01909
;WIDTH:0.419999
G1 X50.68 Y56.076 E.07914
G1 X50.68 Y56.925 E.02662
G1 X50.68 Y71.148 E.44595
G1 X28.409 Y71.148 E.69829
G1 X28.409 Y68.432 E.08516
