; File Parsed By Flow Comp Script
; Script Ver. V0.7.1
; Flow Model Ver. V0.2.1
; Logger Ver. V0.0.1
; Flow Comp Model Points:
; (0, 0)
; (0.2, 0.4444)
; (0.4, 0.6145)
; (0.6, 0.7059)
; (0.8, 0.7619)
; (1.5, 0.8571)
; (2, 0.8889)
; (3, 0.9231)
; (5, 0.952)
; (10, 1)

; generated by PrusaSlicer 2.9.2 on 2025-04-20 at 01:58:15 UTC

; 

; external perimeters extrusion width = 0.45mm
; perimeters extrusion width = 0.45mm
; infill extrusion width = 0.45mm
; solid infill extrusion width = 0.45mm
; top infill extrusion width = 0.40mm
; support material extrusion width = 0.35mm
; first layer extrusion width = 0.42mm

; external perimeters extrusion width = 0.45mm
; perimeters extrusion width = 0.45mm
; infill extrusion width = 0.45mm
; solid infill extrusion width = 0.45mm
; top infill extrusion width = 0.40mm
; support material extrusion width = 0.35mm
; first layer extrusion width = 0.42mm

; external perimeters extrusion width = 0.45mm
; perimeters extrusion width = 0.45mm
; infill extrusion width = 0.45mm
; solid infill extrusion width = 0.45mm
; top infill extrusion width = 0.40mm
; support material extrusion width = 0.35mm
; first layer extrusion width = 0.42mm

; external perimeters extrusion width = 0.45mm
; perimeters extrusion width = 0.45mm
; infill extrusion width = 0.45mm
; solid infill extrusion width = 0.45mm
; top infill extrusion width = 0.40mm
; support material extrusion width = 0.35mm
; first layer extrusion width = 0.42mm

; external perimeters extrusion width = 0.45mm
; perimeters extrusion width = 0.45mm
; infill extrusion width = 0.45mm
; solid infill extrusion width = 0.45mm
; top infill extrusion width = 0.40mm
; support material extrusion width = 0.35mm
; first layer extrusion width = 0.42mm

; external perimeters extrusion width = 0.45mm
; perimeters extrusion width = 0.45mm
; infill extrusion width = 0.45mm
; solid infill extrusion width = 0.45mm
; top infill extrusion width = 0.40mm
; support material extrusion width = 0.35mm
; first layer extrusion width = 0.42mm

; external perimeters extrusion width = 0.45mm
; perimeters extrusion width = 0.45mm
; infill extrusion width = 0.45mm
; solid infill extrusion width = 0.45mm
; top infill extrusion width = 0.40mm
; support material extrusion width = 0.35mm
; first layer extrusion width = 0.42mm

; external perimeters extrusion width = 0.45mm
; perimeters extrusion width = 0.45mm
; infill extrusion width = 0.45mm
; solid infill extrusion width = 0.45mm
; top infill extrusion width = 0.40mm
; support material extrusion width = 0.35mm
; first layer extrusion width = 0.42mm

;TYPE:Custom
G90 ; use absolute coordinates
M83 ; extruder relative mode
CALCULATE_PA BOWDEN_LENGTH=34.0 MATERIAL=PLA LAYER_HEIGHT=0.2 NOZZLE_SIZE=0.4 PRINT_SPEED=120 FILAMENT_DIAMETER=1.75 LINE_WIDTH=0.45 ; auto pressure advance
M104 S210 ; set temporary nozzle temp to prevent oozing during homing
M140 S58 ; set final bed temp
G4 S30 ; allow partial nozzle warmup
G28 ; home all axis
G1 Z50 F240
G1 X2.0 Y10 F3000
M104 S208 ; set final nozzle temp
M190 S58 ; wait for bed temp to stabilize
M109 S208 ; wait for nozzle temp to stabilize
G1 Z0.28 F240
G92 E0
G1 X2.0 Y140 E10 F1500 ; prime the nozzle
G1 X2.3 Y140 F5000
G92 E0
G1 X2.3 Y10 E10 F1200 ; prime the nozzle
G92 E0
G21 ; set units to millimeters
G90 ; use absolute coordinates
M83 ; use relative distances for extrusion
; Filament gcode
M107
;LAYER_CHANGE
;Z:0.2
;HEIGHT:0.2
G1 E-3.5 F1500
G1 Z.2 F54000
G1 X15.472 Y16.053
G1 Z.2
G1 E3.5 F1500
M204 S3500
;TYPE:Skirt/Brim
;WIDTH:0.42
G1 F1800
G1 X17.208 Y14.676 E.06948
G1 X20.124 Y13.946 E.09425
G1 X40.151 Y13.946 E.62793
G1 X149.582 Y14.428 E3.43117
G1 X151.761 Y14.834 E.0695
G1 X153.656 Y15.982 E.06947
G1 X155.026 Y17.724 E.06949
G1 X155.743 Y20.599 E.0929
G1 X156.049 Y150.026 E4.0581
G1 X155.653 Y152.206 E.06947
G1 X154.513 Y154.106 E.06947
G1 X152.777 Y155.484 E.06949
G1 X149.861 Y156.214 E.09425
G1 X20.104 Y156.16 E4.06844
G1 X17.924 Y155.763 E.06948
G1 X16.024 Y154.622 E.06949
G1 X14.648 Y152.886 E.06946
G1 X13.919 Y149.972 E.09418
G1 X13.935 Y20.134 E4.07098
G1 X14.332 Y17.954 E.06948
G1 X15.441 Y16.105 E.0676
G1 E-3.5 F1500
G1 X140.615 Y149.061 F54000
G1 E3.5 F1500
;TYPE:Perimeter
;WIDTH:0.419999
G1 F1800
G1 X130.825 Y149.061 E.30696
G1 X130.825 Y130.99 E.5666
G1 X148.897 Y130.99 E.56663
G1 X148.897 Y140.026 E.28332
G1 X148.897 Y149.061 E.28329
G1 X140.675 Y149.061 E.25779
G1 X140.238 Y149.438 F54000
G1 F1800
G1 X130.448 Y149.438 E.30696
G1 X130.448 Y130.613 E.59024
G1 X149.274 Y130.613 E.59028
G1 X149.274 Y140.026 E.29514
G1 X149.274 Y149.438 E.29511
G1 X140.298 Y149.438 E.28144
G1 X139.861 Y149.816 F54000
;TYPE:External perimeter
G1 F1800
G1 X130.071 Y149.816 E.30696
G1 X130.071 Y130.236 E.61392
G1 X149.651 Y130.236 E.61392
G1 X149.651 Y140.026 E.30696
G1 X149.651 Y149.816 E.30696
G1 X139.921 Y149.816 E.30508
G1 X139.521 Y149.816 F54000
G1 E-3.5 F1500
G1 X130.938 Y148.185 F54000
G1 E3.5 F1500
;TYPE:Solid infill
;WIDTH:0.420391
G1 F1800
G1 X131.531 Y148.779 E0.02029; Old Flow Value: 0.02634   Length: 0.83934
G1 X132.065 Y148.779 E0.01138; Old Flow Value: 0.01676   Length: 0.53400
G1 X131.108 Y147.821 E0.03588; Old Flow Value: 0.0425   Length: 1.35412
G1 X131.108 Y147.287 E0.01138; Old Flow Value: 0.01676   Length: 0.53400
G1 X132.599 Y148.779 E0.05919; Old Flow Value: 0.0662   Length: 2.10930
G1 X133.133 Y148.779 E0.01138; Old Flow Value: 0.01676   Length: 0.53400
G1 X131.108 Y146.753 E0.08270; Old Flow Value: 0.08991   Length: 2.86449
G1 X131.108 Y146.22 E0.01135; Old Flow Value: 0.01673   Length: 0.53300
G1 X133.667 Y148.779 E0.10623; Old Flow Value: 0.11359   Length: 3.61898
G1 X134.201 Y148.779 E0.01138; Old Flow Value: 0.01676   Length: 0.53400
G1 X131.108 Y145.686 E0.12980; Old Flow Value: 0.13729   Length: 4.37417
G1 X131.108 Y145.152 E0.01138; Old Flow Value: 0.01676   Length: 0.53401
G1 X134.734 Y148.779 E0.15345; Old Flow Value: 0.16097   Length: 5.12865
G1 X135.268 Y148.779 E0.01138; Old Flow Value: 0.01676   Length: 0.53401
G1 X131.108 Y144.618 E0.17743; Old Flow Value: 0.18468   Length: 5.88385
G1 X131.108 Y144.084 E0.01138; Old Flow Value: 0.01676   Length: 0.53400
G1 X135.802 Y148.779 E0.20173; Old Flow Value: 0.20838   Length: 6.63903
G1 X136.336 Y148.779 E0.01138; Old Flow Value: 0.01676   Length: 0.53400
G1 X131.108 Y143.55 E0.22636; Old Flow Value: 0.23208   Length: 7.39422
G1 X131.108 Y143.017 E0.01135; Old Flow Value: 0.01673   Length: 0.53300
G1 X136.87 Y148.779 E0.25130; Old Flow Value: 0.25576   Length: 8.14870
G1 X137.403 Y148.779 E0.01135; Old Flow Value: 0.01673   Length: 0.53300
G1 X131.108 Y142.483 E0.27656; Old Flow Value: 0.27944   Length: 8.90318
G1 X131.108 Y141.949 E0.01138; Old Flow Value: 0.01676   Length: 0.53400
G1 X137.937 Y148.779 E0.30218; Old Flow Value: 0.30315   Length: 9.65837
G1 X138.471 Y148.779 E0.01138; Old Flow Value: 0.01676   Length: 0.53400
G1 X131.108 Y141.415 E.32685; Old Flow Value: 0.32685   Length: 10.41356
G1 X131.108 Y140.881 E0.01138; Old Flow Value: 0.01676   Length: 0.53400
G1 X139.005 Y148.779 E.35055; Old Flow Value: 0.35055   Length: 11.16876
G1 X139.539 Y148.779 E0.01138; Old Flow Value: 0.01676   Length: 0.53400
G1 X131.108 Y140.348 E.37423; Old Flow Value: 0.37423   Length: 11.92323
G1 X131.108 Y139.814 E0.01138; Old Flow Value: 0.01676   Length: 0.53401
G1 X140.073 Y148.779 E.39794; Old Flow Value: 0.39794   Length: 12.67843
G1 X140.606 Y148.779 E0.01135; Old Flow Value: 0.01673   Length: 0.53300
G1 X131.108 Y139.28 E.42162; Old Flow Value: 0.42162   Length: 13.43291
G1 X131.108 Y138.746 E0.01138; Old Flow Value: 0.01676   Length: 0.53400
G1 X141.14 Y148.779 E.44532; Old Flow Value: 0.44532   Length: 14.18810
G1 X141.674 Y148.779 E0.01138; Old Flow Value: 0.01676   Length: 0.53400
G1 X131.108 Y138.212 E.46902; Old Flow Value: 0.46902   Length: 14.94328
G1 X131.108 Y137.678 E0.01138; Old Flow Value: 0.01676   Length: 0.53401
G1 X142.208 Y148.779 E.49273; Old Flow Value: 0.49273   Length: 15.69848
G1 X142.742 Y148.779 E0.01138; Old Flow Value: 0.01676   Length: 0.53401
G1 X131.108 Y137.145 E.51641; Old Flow Value: 0.51641   Length: 16.45296
G1 X131.108 Y136.611 E0.01138; Old Flow Value: 0.01676   Length: 0.53401
G1 X143.276 Y148.779 E.54011; Old Flow Value: 0.54011   Length: 17.20816
G1 X143.809 Y148.779 E0.01135; Old Flow Value: 0.01673   Length: 0.53300
G1 X131.108 Y136.077 E.56379; Old Flow Value: 0.56379   Length: 17.96264
G1 X131.108 Y135.543 E0.01138; Old Flow Value: 0.01676   Length: 0.53400
G1 X144.343 Y148.779 E.58749; Old Flow Value: 0.58749   Length: 18.71783
G1 X144.877 Y148.779 E0.01138; Old Flow Value: 0.01676   Length: 0.53400
G1 X131.108 Y135.009 E.6112; Old Flow Value: 0.6112   Length: 19.47301
G1 X131.108 Y134.475 E0.01138; Old Flow Value: 0.01676   Length: 0.53400
G1 X145.411 Y148.779 E.6349; Old Flow Value: 0.6349   Length: 20.22820
G1 X145.945 Y148.779 E0.01138; Old Flow Value: 0.01676   Length: 0.53401
G1 X131.108 Y133.942 E.65858; Old Flow Value: 0.65858   Length: 20.98269
G1 X131.108 Y133.408 E0.01138; Old Flow Value: 0.01676   Length: 0.53400
G1 X146.479 Y148.779 E.68228; Old Flow Value: 0.68228   Length: 21.73788
G1 X147.012 Y148.779 E0.01135; Old Flow Value: 0.01673   Length: 0.53299
G1 X131.108 Y132.874 E.70596; Old Flow Value: 0.70596   Length: 22.49236
G1 X131.108 Y132.34 E0.01138; Old Flow Value: 0.01676   Length: 0.53400
G1 X147.546 Y148.779 E.72967; Old Flow Value: 0.72967   Length: 23.24756
G1 X148.08 Y148.779 E0.01138; Old Flow Value: 0.01676   Length: 0.53400
G1 X131.108 Y131.806 E.75337; Old Flow Value: 0.75337   Length: 24.00274
G1 X131.108 Y131.273 E0.01135; Old Flow Value: 0.01673   Length: 0.53300
G1 X148.614 Y148.779 E.77705; Old Flow Value: 0.77705   Length: 24.75723
G1 X148.614 Y148.245 E0.01138; Old Flow Value: 0.01676   Length: 0.53401
G1 X131.642 Y131.272 E.75337; Old Flow Value: 0.75337   Length: 24.00273
G1 X132.175 Y131.272 E0.01135; Old Flow Value: 0.01673   Length: 0.53300
G1 X148.614 Y147.711 E.72969; Old Flow Value: 0.72969   Length: 23.24825
G1 X148.614 Y147.177 E0.01138; Old Flow Value: 0.01676   Length: 0.53400
G1 X132.709 Y131.272 E.70599; Old Flow Value: 0.70599   Length: 22.49306
G1 X133.243 Y131.272 E0.01138; Old Flow Value: 0.01676   Length: 0.53400
G1 X148.614 Y146.643 E.68228; Old Flow Value: 0.68228   Length: 21.73788
G1 X148.614 Y146.109 E0.01138; Old Flow Value: 0.01676   Length: 0.53401
G1 X133.777 Y131.272 E.65858; Old Flow Value: 0.65858   Length: 20.98268
G1 X134.311 Y131.272 E0.01138; Old Flow Value: 0.01676   Length: 0.53401
G1 X148.614 Y145.576 E.6349; Old Flow Value: 0.6349   Length: 20.22820
G1 X148.614 Y145.042 E0.01138; Old Flow Value: 0.01676   Length: 0.53400
G1 X134.845 Y131.272 E.6112; Old Flow Value: 0.6112   Length: 19.47301
G1 X135.378 Y131.272 E0.01135; Old Flow Value: 0.01673   Length: 0.53300
G1 X148.614 Y144.508 E.58752; Old Flow Value: 0.58752   Length: 18.71852
G1 X148.614 Y143.974 E0.01138; Old Flow Value: 0.01676   Length: 0.53400
G1 X135.912 Y131.272 E.56381; Old Flow Value: 0.56381   Length: 17.96334
G1 X136.446 Y131.272 E0.01138; Old Flow Value: 0.01676   Length: 0.53400
G1 X148.614 Y143.44 E.54011; Old Flow Value: 0.54011   Length: 17.20815
G1 X148.614 Y142.907 E0.01135; Old Flow Value: 0.01673   Length: 0.53300
G1 X136.98 Y131.272 E.51643; Old Flow Value: 0.51643   Length: 16.45366
G1 X137.514 Y131.272 E0.01138; Old Flow Value: 0.01676   Length: 0.53401
G1 X148.614 Y142.373 E.49273; Old Flow Value: 0.49273   Length: 15.69847
G1 X148.614 Y141.839 E0.01138; Old Flow Value: 0.01676   Length: 0.53400
G1 X138.047 Y131.272 E.46904; Old Flow Value: 0.46904   Length: 14.94400
G1 X138.581 Y131.272 E0.01138; Old Flow Value: 0.01676   Length: 0.53400
G1 X148.614 Y141.305 E.44534; Old Flow Value: 0.44534   Length: 14.18880
G1 X148.614 Y140.771 E0.01138; Old Flow Value: 0.01676   Length: 0.53400
G1 X139.115 Y131.272 E.42164; Old Flow Value: 0.42164   Length: 13.43360
G1 X139.649 Y131.272 E0.01138; Old Flow Value: 0.01676   Length: 0.53400
G1 X148.614 Y140.237 E.39794; Old Flow Value: 0.39794   Length: 12.67842
G1 X148.614 Y139.704 E0.01135; Old Flow Value: 0.01673   Length: 0.53300
G1 X140.183 Y131.272 E.37425; Old Flow Value: 0.37425   Length: 11.92394
G1 X140.717 Y131.272 E0.01138; Old Flow Value: 0.01676   Length: 0.53400
G1 X148.614 Y139.17 E.35055; Old Flow Value: 0.35055   Length: 11.16875
G1 X148.614 Y138.636 E0.01138; Old Flow Value: 0.01676   Length: 0.53400
G1 X141.25 Y131.272 E.32687; Old Flow Value: 0.32687   Length: 10.41427
G1 X141.784 Y131.272 E0.01138; Old Flow Value: 0.01676   Length: 0.53400
G1 X148.614 Y138.102 E0.30220; Old Flow Value: 0.30317   Length: 9.65908
G1 X148.614 Y137.568 E0.01138; Old Flow Value: 0.01676   Length: 0.53401
G1 X142.318 Y131.272 E0.27658; Old Flow Value: 0.27946   Length: 8.90389
G1 X142.852 Y131.272 E0.01138; Old Flow Value: 0.01676   Length: 0.53401
G1 X148.614 Y137.034 E0.25130; Old Flow Value: 0.25576   Length: 8.14869
G1 X148.614 Y136.501 E0.01135; Old Flow Value: 0.01673   Length: 0.53299
G1 X143.386 Y131.272 E0.22636; Old Flow Value: 0.23208   Length: 7.39422
G1 X143.92 Y131.272 E0.01138; Old Flow Value: 0.01676   Length: 0.53400
G1 X148.614 Y135.967 E0.20173; Old Flow Value: 0.20838   Length: 6.63902
G1 X148.614 Y135.433 E0.01138; Old Flow Value: 0.01676   Length: 0.53400
G1 X144.453 Y131.272 E0.17745; Old Flow Value: 0.1847   Length: 5.88454
G1 X144.987 Y131.272 E0.01138; Old Flow Value: 0.01676   Length: 0.53400
G1 X148.614 Y134.899 E0.15347; Old Flow Value: 0.16099   Length: 5.12935
G1 X148.614 Y134.365 E0.01138; Old Flow Value: 0.01676   Length: 0.53400
G1 X145.521 Y131.272 E0.12980; Old Flow Value: 0.13729   Length: 4.37417
G1 X146.055 Y131.272 E0.01138; Old Flow Value: 0.01676   Length: 0.53400
G1 X148.614 Y133.832 E0.10625; Old Flow Value: 0.11361   Length: 3.61968
G1 X148.614 Y133.298 E0.01138; Old Flow Value: 0.01676   Length: 0.53400
G1 X146.589 Y131.272 E0.08270; Old Flow Value: 0.08991   Length: 2.86449
G1 X147.122 Y131.272 E0.01135; Old Flow Value: 0.01673   Length: 0.53299
G1 X148.614 Y132.764 E0.05922; Old Flow Value: 0.06623   Length: 2.11001
G1 X148.614 Y132.23 E0.01138; Old Flow Value: 0.01676   Length: 0.53401
G1 X147.656 Y131.272 E0.03590; Old Flow Value: 0.04252   Length: 1.35481
G1 X148.19 Y131.272 E0.01138; Old Flow Value: 0.01676   Length: 0.53400
G1 X148.784 Y131.866 E0.02032; Old Flow Value: 0.02637   Length: 0.84003
G1 E-3.5 F1500
G1 X140.309 Y39.652 F54000
G1 E3.5 F1500; Old Flow Value: 3.5   Length: 0.00000
;TYPE:Perimeter
;WIDTH:0.419999
G1 F1800
G1 X130.519 Y39.652 E.30696
G1 X130.519 Y21.58 E.56663
G1 X148.591 Y21.58 E.56663
G1 X148.591 Y30.616 E.28332
G1 X148.591 Y39.652 E.28332
G1 X140.369 Y39.652 E.25779
G1 X139.932 Y40.029 F54000
G1 F1800
G1 X130.142 Y40.029 E.30696
G1 X130.142 Y21.203 E.59028
G1 X148.968 Y21.203 E.59028
G1 X148.968 Y30.616 E.29514
G1 X148.968 Y40.029 E.29514
G1 X139.992 Y40.029 E.28144
G1 X139.555 Y40.406 F54000
;TYPE:External perimeter
G1 F1800
G1 X129.765 Y40.406 E.30696
G1 X129.765 Y20.826 E.61392
G1 X149.345 Y20.826 E.61392
G1 X149.345 Y30.616 E.30696
G1 X149.345 Y40.406 E.30696
G1 X139.615 Y40.406 E.30508
G1 X139.215 Y40.406 F54000
G1 E-3.5 F1500
G1 X130.632 Y38.776 F54000
G1 E3.5 F1500
;TYPE:Solid infill
;WIDTH:0.420391
G1 F1800
G1 X131.225 Y39.369 E0.02027; Old Flow Value: 0.02632   Length: 0.83863
G1 X131.759 Y39.369 E0.01138; Old Flow Value: 0.01676   Length: 0.53400
G1 X130.802 Y38.412 E0.03586; Old Flow Value: 0.04248   Length: 1.35340
G1 X130.802 Y37.878 E0.01138; Old Flow Value: 0.01676   Length: 0.53400
G1 X132.293 Y39.369 E0.05917; Old Flow Value: 0.06618   Length: 2.10859
G1 X132.827 Y39.369 E0.01138; Old Flow Value: 0.01676   Length: 0.53400
G1 X130.802 Y37.344 E0.08268; Old Flow Value: 0.08989   Length: 2.86378
G1 X130.802 Y36.81 E0.01138; Old Flow Value: 0.01676   Length: 0.53400
G1 X133.361 Y39.369 E0.10623; Old Flow Value: 0.11359   Length: 3.61896
G1 X133.895 Y39.369 E0.01138; Old Flow Value: 0.01676   Length: 0.53401
