; generated by PrusaSlicer 2.6.0+MacOS-arm64 on 2023-07-25 at 17:56:49 UTC

; 

; external perimeters extrusion width = 0.42mm
; perimeters extrusion width = 0.44mm
; infill extrusion width = 0.44mm
; solid infill extrusion width = 0.44mm
; top infill extrusion width = 0.40mm
; support material extrusion width = 0.36mm
; first layer extrusion width = 0.42mm

M201 X3500 Y3500 Z150 E5000 ; sets maximum accelerations, mm/sec^2
M203 X500 Y500 Z10 E60 ; sets maximum feedrates, mm / sec
M204 S3500 T1000 ; sets acceleration (S) and retract acceleration (R), mm/sec^2
M205 X8.00 Y8.00 Z0.40 E5.00 ; sets the jerk limits, mm/sec
M205 S0 T0 ; sets the minimum extruding and travel feed rate, mm/sec
;TYPE:Custom
G90 ; use absolute coordinates
M83 ; extruder relative mode
M104 S150 ; set temporary nozzle temp to prevent oozing during homing
M140 S60 ; set final bed temp
G4 S30 ; allow partial nozzle warmup
G28 ; home all axis
G1 Z50 F240
G1 X2.0 Y10 F3000
M104 S205 ; set final nozzle temp
M190 S60 ; wait for bed temp to stabilize
M109 S205 ; wait for nozzle temp to stabilize
G1 Z0.28 F240
G92 E0
G1 X2.0 Y140 E10 F1500 ; prime the nozzle
G1 X2.3 Y140 F5000
G92 E0
G1 X2.3 Y10 E10 F1200 ; prime the nozzle
G92 E0
G21 ; set units to millimeters
G90 ; use absolute coordinates
M83 ; use relative distances for extrusion
; Filament gcode
M107
;LAYER_CHANGE
;Z:0.2
;HEIGHT:0.2
;BEFORE_LAYER_CHANGE
G92 E0
;0.2


G1 E-3.5 F4800
G1 Z.2 F54000
;AFTER_LAYER_CHANGE
;0.2
G1 X14.839 Y48.118
G1 E3.5 F2400
M204 S3500
;TYPE:Skirt/Brim
;WIDTH:0.42
G1 F1200
G1 X16.816 Y47.68 E.06349
G1 X17.644 Y47.614 E.02604
G1 X38.256 Y47.63 E.64627
G1 X40.153 Y47.941 E.06027
G1 X41.702 Y48.513 E.05177
G1 X43.3 Y49.505 E.05897
G1 X44.587 Y50.675 E.05454
G1 X45.385 Y51.698 E.04068
G1 X49.212 Y57.918 E.22898
G1 X49.527 Y58.598 E.0235
G1 X49.997 Y60.065 E.0483
G1 X50.202 Y61.958 E.0597
G1 X49.995 Y63.852 E.05974
G1 X46.607 Y78.061 E.458
G1 X45.977 Y79.68 E.05447
G1 X45.259 Y80.869 E.04355
G1 X44.515 Y81.775 E.03676
G1 X43.454 Y82.762 E.04544
G1 X42.497 Y83.423 E.03647
G1 X41.64 Y83.885 E.03053
G1 X35.246 Y86.157 E.21276
G1 X34.111 Y86.471 E.03692
G1 X33.671 Y86.519 E.01388
G1 X32.135 Y86.564 E.04818
G1 X21.36 Y85.884 E.33851
G1 X15.525 Y84.352 E.18915
G1 X14.844 Y84.088 E.0229
G1 X13.686 Y83.489 E.04088
G1 X12.969 Y82.992 E.02735
G1 X11.346 Y81.52 E.0687
G1 X10.685 Y80.698 E.03307
G1 X9.898 Y79.326 E.04959
G1 X9.523 Y78.34 E.03308
G1 X9.123 Y76.087 E.07175
G1 X8.611 Y56.777 E.60566
G1 X8.702 Y55.588 E.03739
G1 X8.994 Y54.217 E.04395
G1 X9.614 Y52.677 E.05205
G1 X10.325 Y51.497 E.0432
G1 X11.671 Y50 E.06312
G1 X12.544 Y49.307 E.03495
G1 X13.437 Y48.741 E.03315
G1 X14.784 Y48.142 E.04622
G1 E-2.45 F4800
;WIPE_START
G1 F43200
G1 X16.816 Y47.68 E-.21996
G1 X17.644 Y47.614 E-.08768
G1 X24.677 Y47.619 E-.74236
;WIPE_END
G1 X15.638 Y51.754 F54000
G1 E3.5 F2400
G1 F1200
G1 X17.651 Y51.278 E.06486
G1 X37.943 Y51.281 E.63624
G1 X39.26 Y51.516 E.04195
G1 X40.042 Y51.787 E.02595
G1 X41.721 Y52.983 E.06463
G1 X42.419 Y53.868 E.03534
G1 X42.924 Y54.86 E.0349
G1 X43.277 Y56.407 E.04975
G1 X43.306 Y75.714 E.60536
G1 X42.889 Y77.601 E.06059
G1 X41.854 Y79.263 E.06139
G1 X41.022 Y80.002 E.03489
G1 X40.046 Y80.59 E.03573
G1 X38.064 Y81.099 E.06416
G1 X18.082 Y81.099 E.62652
G1 X16.973 Y80.927 E.03519
G1 X15.923 Y80.532 E.03517
G1 X14.204 Y79.176 E.06865
G1 X13.256 Y77.766 E.05327
G1 X12.815 Y76.135 E.05298
G1 X12.794 Y72.554 E.11228
G1 X13.15 Y71.221 E.04326
G1 X14.047 Y69.605 E.05795
G1 X14.191 Y69.302 E.01052
G1 X14.673 Y67.965 E.04456
G1 X14.849 Y67.257 E.02287
G1 X14.917 Y66.867 E.01241
G1 X15.011 Y65.811 E.03324
G1 X14.989 Y64.962 E.02663
G1 X14.857 Y63.827 E.03583
G1 X14.47 Y62.413 E.04597
G1 X13.473 Y60.385 E.07086
G1 X12.808 Y59.287 E.04025
G1 X12.352 Y57.839 E.0476
G1 X12.292 Y57.009 E.02609
G1 X12.603 Y54.968 E.06473
G1 X13.143 Y53.886 E.03792
G1 X13.905 Y52.928 E.03838
G1 X15.586 Y51.781 E.06381
G1 X15.797 Y52.093 F54000
G1 F1200
G1 X17.672 Y51.655 E.06037
G1 X37.926 Y51.658 E.63505
G1 X39.178 Y51.884 E.03989
G1 X39.892 Y52.133 E.02371
G1 X41.479 Y53.273 E.06127
G1 X42.11 Y54.085 E.03224
G1 X42.577 Y55.008 E.03243
G1 X42.905 Y56.469 E.04695
G1 X42.929 Y75.694 E.60279
G1 X42.528 Y77.487 E.05761
G1 X41.584 Y78.998 E.05586
G1 X40.784 Y79.709 E.03356
G1 X39.876 Y80.252 E.03317
G1 X38.04 Y80.722 E.05942
G1 X18.097 Y80.722 E.6253
G1 X17.051 Y80.558 E.0332
G1 X16.085 Y80.19 E.03241
G1 X14.462 Y78.9 E.065
G1 X13.587 Y77.584 E.04955
G1 X13.186 Y76.062 E.04935
G1 X13.171 Y72.578 E.10924
G1 X13.508 Y71.343 E.04014
G1 X14.382 Y69.779 E.05618
G1 X14.54 Y69.448 E.0115
G1 X15.035 Y68.075 E.04576
G1 X15.219 Y67.335 E.02391
G1 X15.291 Y66.916 E.01333
G1 X15.388 Y65.823 E.0344
G1 X15.366 Y64.935 E.02785
G1 X15.228 Y63.755 E.03725
G1 X14.824 Y62.279 E.04798
G1 X13.804 Y60.202 E.07255
G1 X13.161 Y59.151 E.03863
G1 X12.719 Y57.747 E.04615
G1 X12.669 Y57.004 E.02335
G1 X12.953 Y55.11 E.06005
G1 X13.471 Y54.073 E.03635
G1 X14.181 Y53.187 E.0356
G1 X15.747 Y52.126 E.05931
G1 X15.921 Y52.449 F54000
G1 F1200
G1 X17.694 Y52.032 E.05711
G1 X37.909 Y52.036 E.63383
G1 X39.095 Y52.252 E.0378
G1 X39.741 Y52.48 E.02148
G1 X41.198 Y53.526 E.05624
G1 X41.801 Y54.301 E.03079
G1 X42.229 Y55.156 E.02998
G1 X42.532 Y56.53 E.04412
G1 X42.552 Y75.674 E.60025
G1 X42.19 Y77.317 E.05275
G1 X41.312 Y78.736 E.05232
G1 X40.575 Y79.394 E.03098
G1 X39.706 Y79.914 E.03175
G1 X38.017 Y80.345 E.05465
G1 X18.111 Y80.345 E.62414
G1 X17.167 Y80.198 E.02996
G1 X16.247 Y79.848 E.03086
G1 X14.722 Y78.625 E.06129
G1 X13.92 Y77.404 E.0458
G1 X13.557 Y75.992 E.04571
G1 X13.548 Y72.604 E.10623
G1 X13.865 Y71.467 E.03701
G1 X14.717 Y69.953 E.05447
G1 X14.888 Y69.593 E.0125
G1 X15.396 Y68.184 E.04696
G1 X15.588 Y67.412 E.02494
G1 X15.665 Y66.965 E.01422
G1 X15.766 Y65.835 E.03557
G1 X15.742 Y64.909 E.02904
G1 X15.6 Y63.683 E.0387
G1 X15.178 Y62.145 E.05001
G1 X14.134 Y60.019 E.07426
G1 X13.514 Y59.015 E.037
G1 X13.085 Y57.657 E.04465
G1 X13.047 Y57.002 E.02057
G1 X13.305 Y55.25 E.05553
G1 X13.778 Y54.293 E.03347
G1 X14.458 Y53.444 E.03411
G1 X15.871 Y52.483 E.05358
G1 X16.082 Y52.795 F54000
G1 F1200
G1 X17.715 Y52.409 E.05261
G1 X37.891 Y52.413 E.6326
G1 X39.011 Y52.62 E.03571
G1 X39.588 Y52.826 E.01921
G1 X40.953 Y53.814 E.05283
G1 X41.49 Y54.515 E.02769
G1 X41.881 Y55.302 E.02755
G1 X42.159 Y56.59 E.04131
G1 X42.175 Y75.654 E.59774
G1 X41.852 Y77.148 E.04793
G1 X41.04 Y78.474 E.04875
G1 X40.338 Y79.101 E.02951
G1 X39.538 Y79.576 E.02917
G1 X37.993 Y79.967 E.04997
G1 X18.126 Y79.967 E.62292
G1 X17.245 Y79.829 E.02796
G1 X16.411 Y79.508 E.02802
G1 X14.983 Y78.351 E.05763
G1 X14.254 Y77.226 E.04203
G1 X13.929 Y75.924 E.04208
G1 X13.925 Y72.63 E.10328
G1 X14.221 Y71.592 E.03384
G1 X15.052 Y70.127 E.05281
G1 X15.237 Y69.738 E.01351
G1 X15.757 Y68.294 E.04812
G1 X15.957 Y67.49 E.02598
G1 X16.039 Y67.014 E.01514
G1 X16.143 Y65.847 E.03674
G1 X16.119 Y64.882 E.03027
G1 X15.971 Y63.611 E.04012
G1 X15.533 Y62.011 E.05201
G1 X14.464 Y59.835 E.07602
G1 X13.866 Y58.878 E.03538
G1 X13.453 Y57.567 E.0431
G1 X13.424 Y57.002 E.01774
G1 X13.656 Y55.39 E.05106
G1 X14.107 Y54.479 E.03187
G1 X14.733 Y53.704 E.03124
G1 X16.032 Y52.829 E.04911
G1 X16.241 Y53.142 F54000
G1 F1200
G1 X16.282 Y53.115 E.00154
G1 X17.736 Y52.786 E.04674
G1 X37.873 Y52.79 E.63138
G1 X38.926 Y52.988 E.03359
G1 X39.435 Y53.171 E.01696
G1 X40.671 Y54.066 E.04785
G1 X41.179 Y54.729 E.02619
G1 X41.532 Y55.447 E.02509
G1 X41.786 Y56.648 E.03849
G1 X41.797 Y75.634 E.59529
G1 X41.49 Y77.036 E.045
G1 X40.767 Y78.212 E.04328
G1 X40.129 Y78.786 E.02691
G1 X39.369 Y79.238 E.02773
G1 X37.97 Y79.59 E.04523
G1 X18.141 Y79.59 E.62172
G1 X17.326 Y79.46 E.02588
G1 X16.577 Y79.168 E.02521
G1 X15.246 Y78.079 E.05392
G1 X14.589 Y77.051 E.03825
G1 X14.301 Y75.858 E.03848
G1 X14.302 Y72.658 E.10033
G1 X14.576 Y71.72 E.03064
G1 X15.386 Y70.302 E.0512
G1 X15.585 Y69.884 E.01452
G1 X16.118 Y68.404 E.04932
G1 X16.326 Y67.568 E.02701
G1 X16.413 Y67.063 E.01607
G1 X16.521 Y65.859 E.0379
G1 X16.495 Y64.855 E.03149
G1 X16.342 Y63.539 E.04154
G1 X15.887 Y61.877 E.05403
G1 X14.793 Y59.65 E.0778
G1 X14.218 Y58.741 E.03372
G1 X13.82 Y57.479 E.04149
G1 X13.801 Y57.004 E.01491
G1 X14.008 Y55.528 E.04673
G1 X14.414 Y54.699 E.02894
G1 X15.008 Y53.963 E.02965
G1 X16.191 Y53.175 E.04457
G1 X16.394 Y53.479 F54000
G1 F1200
G1 X17.757 Y53.163 E.04387
G1 X37.855 Y53.167 E.63016
G1 X38.84 Y53.355 E.03144
G1 X39.28 Y53.516 E.01469
G1 X40.425 Y54.353 E.04447
G1 X40.866 Y54.94 E.02302
G1 X41.182 Y55.59 E.02266
G1 X41.413 Y56.706 E.03573
G1 X41.42 Y75.614 E.59285
G1 X41.151 Y76.868 E.04021
G1 X40.494 Y77.95 E.03969
G1 X39.891 Y78.493 E.02544
G1 X39.201 Y78.899 E.0251
G1 X37.947 Y79.213 E.04053
G1 X18.157 Y79.213 E.6205
G1 X17.407 Y79.091 E.02382
G1 X16.744 Y78.828 E.02236
G1 X15.51 Y77.809 E.05018
G1 X14.926 Y76.878 E.03446
G1 X14.673 Y75.794 E.0349
G1 X14.679 Y72.687 E.09742
G1 X14.93 Y71.851 E.02737
G1 X15.72 Y70.478 E.04967
G1 X15.934 Y70.029 E.0156
G1 X16.48 Y68.513 E.05052
G1 X16.696 Y67.645 E.02805
G1 X16.788 Y67.112 E.01696
G1 X16.898 Y65.871 E.03906
G1 X16.872 Y64.829 E.03268
G1 X16.713 Y63.467 E.04299
G1 X16.241 Y61.742 E.05607
G1 X15.122 Y59.464 E.07958
G1 X14.569 Y58.602 E.03211
G1 X14.196 Y57.436 E.03838
G1 X14.178 Y57.037 E.01252
G1 X14.361 Y55.666 E.04337
G1 X14.743 Y54.884 E.02729
G1 X15.282 Y54.223 E.02674
G1 X16.344 Y53.512 E.04007
G1 X16.552 Y53.826 F54000
G1 F1200
G1 X17.777 Y53.54 E.03944
G1 X37.837 Y53.544 E.62897
G1 X38.752 Y53.722 E.02923
G1 X39.124 Y53.86 E.01244
G1 X40.176 Y54.638 E.04102
G1 X40.551 Y55.148 E.01985
G1 X40.832 Y55.731 E.02029
G1 X41.04 Y56.761 E.03295
G1 X41.043 Y75.595 E.59053
G1 X40.811 Y76.702 E.03546
G1 X40.219 Y77.691 E.03614
G1 X39.683 Y78.178 E.02271
G1 X39.034 Y78.56 E.02361
G1 X37.924 Y78.836 E.03586
G1 X18.173 Y78.836 E.61928
G1 X17.49 Y78.723 E.02171
G1 X16.913 Y78.49 E.01951
G1 X15.776 Y77.54 E.04646
G1 X15.264 Y76.708 E.03063
G1 X15.045 Y75.733 E.03133
G1 X15.056 Y72.718 E.09453
G1 X15.284 Y71.984 E.0241
G1 X16.054 Y70.654 E.04819
G1 X16.282 Y70.174 E.01666
G1 X16.841 Y68.623 E.05169
G1 X17.065 Y67.723 E.02908
G1 X17.162 Y67.161 E.01788
G1 X17.276 Y65.883 E.04023
G1 X17.249 Y64.802 E.0339
G1 X17.085 Y63.395 E.04441
G1 X16.595 Y61.608 E.0581
G1 X15.45 Y59.277 E.08143
G1 X14.92 Y58.461 E.03051
G1 X14.571 Y57.39 E.03532
G1 X14.554 Y57.066 E.01017
G1 X14.714 Y55.801 E.03998
G1 X15.049 Y55.105 E.02422
G1 X15.556 Y54.484 E.02514
G1 X16.502 Y53.859 E.03555
G1 X16.696 Y54.168 F54000
G1 F1200
G1 X17.799 Y53.917 E.03547
G1 X37.818 Y53.921 E.62768
G1 X38.662 Y54.089 E.02698
G1 X38.966 Y54.203 E.01018
G1 X39.889 Y54.884 E.03596
G1 X40.236 Y55.356 E.01837
G1 X40.481 Y55.871 E.01788
G1 X40.666 Y56.815 E.03016
G1 X40.666 Y75.575 E.58821
G1 X40.449 Y76.592 E.03261
G1 X39.945 Y77.43 E.03066
G1 X39.444 Y77.885 E.02122
G1 X38.868 Y78.22 E.02089
G1 X37.901 Y78.459 E.03123
G1 X18.189 Y78.459 E.61806
G1 X17.575 Y78.355 E.01953
G1 X17.085 Y78.153 E.01662
G1 X16.044 Y77.273 E.04274
G1 X15.603 Y76.542 E.02677
G1 X15.418 Y75.676 E.02777
G1 X15.433 Y72.748 E.09181
G1 X15.62 Y72.155 E.0195
G1 X16.388 Y70.83 E.04802
G1 X16.631 Y70.319 E.01774
G1 X17.202 Y68.733 E.05285
G1 X17.434 Y67.801 E.03011
G1 X17.536 Y67.209 E.01884
G1 X17.653 Y65.895 E.04136
G1 X17.625 Y64.776 E.0351
G1 X17.456 Y63.323 E.04586
G1 X16.95 Y61.474 E.06011
G1 X15.779 Y59.091 E.08325
G1 X15.249 Y58.276 E.03048
G1 X14.945 Y57.343 E.03077
G1 X14.93 Y57.092 E.00788
G1 X15.067 Y55.936 E.0365
G1 X15.379 Y55.29 E.02249
G1 X15.829 Y54.746 E.02214
G1 X16.646 Y54.201 E.03079
G1 X16.853 Y54.516 F54000
G1 F1200
G1 X17.818 Y54.294 E.03105
G1 X37.798 Y54.298 E.62646
G1 X38.571 Y54.455 E.02473
G1 X38.806 Y54.546 E.0079
G1 X39.604 Y55.132 E.03104
G1 X39.904 Y55.536 E.01578
G1 X40.13 Y56.011 E.01649
G1 X40.289 Y56.833 E.02625
G1 X40.289 Y75.557 E.58708
G1 X40.109 Y76.428 E.02789
G1 X39.669 Y77.172 E.0271
G1 X39.237 Y77.57 E.01842
G1 X38.702 Y77.88 E.01939
G1 X37.879 Y78.082 E.02657
G1 X18.206 Y78.082 E.61683
G1 X17.662 Y77.987 E.01731
G1 X17.259 Y77.818 E.0137
G1 X16.315 Y77.008 E.039
G1 X15.945 Y76.38 E.02285
G1 X15.792 Y75.621 E.02428
G1 X15.81 Y72.78 E.08908
G1 X15.956 Y72.327 E.01492
G1 X16.722 Y71.005 E.04791
G1 X16.979 Y70.465 E.01875
G1 X17.563 Y68.843 E.05405
G1 X17.803 Y67.878 E.03118
G1 X17.91 Y67.258 E.01973
G1 X18.031 Y65.907 E.04253
G1 X18.002 Y64.749 E.03632
G1 X17.827 Y63.251 E.04729
G1 X17.304 Y61.34 E.06212
G1 X16.107 Y58.904 E.0851
G1 X15.579 Y58.091 E.0304
G1 X15.32 Y57.293 E.02631
G1 X15.307 Y57.115 E.0056
G1 X15.422 Y56.067 E.03306
G1 X15.685 Y55.512 E.01926
G1 X16.101 Y55.009 E.02047
G1 X16.802 Y54.549 E.02629
G1 X17.006 Y54.865 F54000
G1 F1200
G1 X17.047 Y54.839 E.00152
G1 X17.837 Y54.671 E.02532
G1 X37.779 Y54.675 E.62527
G1 X38.476 Y54.82 E.02232
G1 X38.645 Y54.887 E.0057
G1 X39.318 Y55.38 E.02616
G1 X39.589 Y55.745 E.01425
G1 X39.778 Y56.149 E.01398
G1 X39.912 Y56.851 E.02241
G1 X39.912 Y75.539 E.58595
G1 X39.766 Y76.268 E.02331
G1 X39.392 Y76.915 E.02343
G1 X38.997 Y77.278 E.01682
G1 X38.539 Y77.54 E.01654
G1 X37.857 Y77.705 E.022
G1 X18.223 Y77.705 E.61561
G1 X17.751 Y77.62 E.01504
G1 X17.437 Y77.484 E.01073
G1 X16.587 Y76.746 E.03529
G1 X16.289 Y76.223 E.01887
G1 X16.166 Y75.57 E.02083
G1 X16.186 Y72.814 E.08641
G1 X16.291 Y72.501 E.01035
G1 X17.056 Y71.181 E.04784
G1 X17.328 Y70.61 E.01983
G1 X17.925 Y68.952 E.05525
G1 X18.173 Y67.956 E.03218
G1 X18.285 Y67.307 E.02065
G1 X18.408 Y65.919 E.04369
G1 X18.378 Y64.722 E.03754
G1 X18.198 Y63.179 E.04871
G1 X17.658 Y61.206 E.06414
G1 X16.436 Y58.718 E.08691
G1 X15.909 Y57.907 E.03033
G1 X15.693 Y57.238 E.02204
G1 X15.684 Y57.133 E.0033
G1 X15.777 Y56.198 E.02946
G1 X16.015 Y55.696 E.01742
G1 X16.37 Y55.274 E.01729
G1 X16.955 Y54.898 E.0218
G1 X17.155 Y55.216 F54000
G1 F1200
G1 X17.216 Y55.177 E.00227
G1 X17.855 Y55.048 E.02044
G1 X37.758 Y55.052 E.62404
G1 X38.379 Y55.185 E.01991
G1 X38.479 Y55.226 E.00339
G1 X39.035 Y55.63 E.02155
G1 X39.256 Y55.923 E.01151
G1 X39.426 Y56.286 E.01257
G1 X39.535 Y56.868 E.01857
G1 X39.535 Y75.519 E.58479
G1 X39.403 Y76.161 E.02055
G1 X39.113 Y76.659 E.01807
G1 X38.79 Y76.962 E.01389
G1 X38.376 Y77.199 E.01496
G1 X37.835 Y77.328 E.01744
G1 X18.241 Y77.328 E.61436
G1 X17.844 Y77.254 E.01266
G1 X17.619 Y77.153 E.00773
G1 X16.86 Y76.484 E.03172
G1 X16.654 Y76.122 E.01306
G1 X16.54 Y75.518 E.01927
G1 X16.554 Y72.901 E.08206
G1 X16.628 Y72.671 E.00758
G1 X17.39 Y71.357 E.04763
G1 X17.676 Y70.755 E.0209
G1 X18.286 Y69.062 E.05642
G1 X18.542 Y68.034 E.03322
G1 X18.659 Y67.356 E.02157
G1 X18.786 Y65.931 E.04486
G1 X18.755 Y64.696 E.03873
G1 X18.57 Y63.107 E.05016
G1 X18.012 Y61.072 E.06616
G1 X16.764 Y58.531 E.08876
G1 X16.239 Y57.723 E.03021
G1 X16.065 Y57.176 E.018
G1 X16.134 Y56.324 E.0268
G1 X16.32 Y55.918 E.014
G1 X16.639 Y55.54 E.01551
G1 X17.104 Y55.248 E.01722
G1 X17.301 Y55.556 F54000
G1 F1200
G1 X17.875 Y55.426 E.01845
G1 X37.737 Y55.429 E.62276
G1 X38.308 Y55.562 E.01838
G1 X38.752 Y55.881 E.01714
G1 X38.942 Y56.133 E.0099
G1 X39.073 Y56.42 E.00989
G1 X39.158 Y56.885 E.01482
G1 X39.158 Y75.502 E.58372
G1 X39.059 Y76.004 E.01604
G1 X38.834 Y76.404 E.01439
G1 X38.55 Y76.67 E.0122
G1 X38.216 Y76.856 E.01199
G1 X37.813 Y76.951 E.01298
G1 X18.26 Y76.951 E.61307
G1 X17.942 Y76.889 E.01016
G1 X17.807 Y76.825 E.00468
G1 X17.135 Y76.224 E.02827
G1 X17.018 Y76.019 E.0074
G1 X16.917 Y75.5 E.01658
G1 X16.923 Y72.983 E.07892
G1 X16.966 Y72.84 E.00468
G1 X17.724 Y71.533 E.04737
G1 X18.024 Y70.9 E.02196
G1 X18.647 Y69.172 E.05759
G1 X18.911 Y68.111 E.03428
G1 X19.033 Y67.405 E.02246
G1 X19.163 Y65.943 E.04602
G1 X19.131 Y64.669 E.03996
G1 X18.941 Y63.035 E.05158
G1 X18.366 Y60.938 E.06818
G1 X17.093 Y58.345 E.09057
G1 X16.57 Y57.541 E.03007
G1 X16.441 Y57.118 E.01387
G1 X16.491 Y56.45 E.021
G1 X16.651 Y56.101 E.01204
G1 X16.905 Y55.808 E.01216
G1 X17.25 Y55.589 E.01281
G1 X17.447 Y55.908 F54000
G1 F1200
G1 X17.493 Y55.879 E.0017
G1 X17.891 Y55.803 E.0127
G1 X37.715 Y55.806 E.62157
G1 X38.138 Y55.903 E.01361
G1 X38.474 Y56.137 E.01284
G1 X38.609 Y56.31 E.00688
G1 X38.72 Y56.554 E.0084
G1 X38.781 Y56.9 E.01102
G1 X38.781 Y75.482 E.58263
