; generated by PrusaSlicer 2.6.0+MacOS-arm64 on 2023-07-25 at 17:18:31 UTC

; 

; external perimeters extrusion width = 0.42mm
; perimeters extrusion width = 0.44mm
; infill extrusion width = 0.44mm
; solid infill extrusion width = 0.44mm
; top infill extrusion width = 0.40mm
; support material extrusion width = 0.36mm
; first layer extrusion width = 0.42mm

M201 X3500 Y3500 Z150 E5000 ; sets maximum accelerations, mm/sec^2
M203 X500 Y500 Z10 E60 ; sets maximum feedrates, mm / sec
M204 S3500 T1000 ; sets acceleration (S) and retract acceleration (R), mm/sec^2
M205 X8.00 Y8.00 Z0.40 E5.00 ; sets the jerk limits, mm/sec
M205 S0 T0 ; sets the minimum extruding and travel feed rate, mm/sec
;TYPE:Custom
G90 ; use absolute coordinates
M83 ; extruder relative mode
M104 S150 ; set temporary nozzle temp to prevent oozing during homing
M140 S60 ; set final bed temp
G4 S30 ; allow partial nozzle warmup
G28 ; home all axis
G1 Z50 F240
G1 X2.0 Y10 F3000
M104 S205 ; set final nozzle temp
M190 S60 ; wait for bed temp to stabilize
M109 S205 ; wait for nozzle temp to stabilize
G1 Z0.28 F240
G92 E0
G1 X2.0 Y140 E10 F1500 ; prime the nozzle
G1 X2.3 Y140 F5000
G92 E0
G1 X2.3 Y10 E10 F1200 ; prime the nozzle
G92 E0
G21 ; set units to millimeters
G90 ; use absolute coordinates
M83 ; use relative distances for extrusion
; Filament gcode
M107
;LAYER_CHANGE
;Z:0.2
;HEIGHT:0.2
;BEFORE_LAYER_CHANGE
G92 E0
;0.2


G1 E-3.5 F4800
G1 Z.2 F54000
;AFTER_LAYER_CHANGE
;0.2
G1 X18.349 Y37.291
G1 E3.5 F2400
M204 S3500
;TYPE:Skirt/Brim
;WIDTH:0.42
G1 F1200
G1 X19.084 Y36.929 E.02569
G1 X19.766 Y36.704 E.02252
G1 X21.523 Y36.4 E.05591
G1 X42.941 Y36.379 E.67155
G1 X43.798 Y36.489 E.02709
G1 X45.165 Y36.846 E.0443
G1 X46.036 Y37.21 E.0296
G1 X47.479 Y38.118 E.05346
G1 X48.488 Y39.021 E.04246
G1 X49.372 Y40.111 E.044
G1 X50.118 Y41.377 E.04607
G1 X50.581 Y42.576 E.0403
G1 X50.843 Y43.724 E.03692
G1 X50.944 Y44.712 E.03114
G1 X51.052 Y55.129 E.32664
G1 X51.045 Y58.891 E.11796
G1 X50.853 Y63.92 E.1578
G1 X50.42 Y65.39 E.04805
G1 X49.272 Y67.416 E.07301
G1 X48.234 Y68.543 E.04804
G1 X46.095 Y69.93 E.07993
G1 X33.324 Y75.535 E.43729
G1 X31.259 Y76.16 E.06765
G1 X29.759 Y76.327 E.04732
G1 X28.27 Y76.237 E.04677
G1 X27.606 Y76.123 E.02112
G1 X26.168 Y75.715 E.04687
G1 X24.516 Y74.897 E.0578
G1 X12.291 Y66.916 E.45776
G1 X10.774 Y65.607 E.06282
G1 X9.657 Y64.139 E.05784
G1 X9.017 Y62.86 E.04484
G1 X8.626 Y61.722 E.03773
G1 X8.379 Y60.511 E.03875
G1 X8.301 Y59.556 E.03004
G1 X8.377 Y58.058 E.04703
G1 X8.545 Y57.15 E.02895
G1 X8.856 Y56.095 E.03449
G1 X14.014 Y41.875 E.47428
G1 X14.378 Y41.089 E.02716
G1 X15.083 Y39.928 E.04259
G1 X15.595 Y39.293 E.02558
G1 X16.469 Y38.446 E.03816
G1 X17.73 Y37.596 E.04768
G1 X18.295 Y37.318 E.01974
G1 E-2.45 F4800
;WIPE_START
G1 F43200
G1 X19.084 Y36.929 E-.09286
G1 X19.766 Y36.704 E-.07581
G1 X21.523 Y36.4 E-.18822
G1 X28.089 Y36.394 E-.69311
;WIPE_END
G1 X20.03 Y40.519 F54000
G1 E3.5 F2400
G1 F1200
G1 X21.754 Y40.064 E.05591
G1 X42.76 Y40.067 E.65863
G1 X43.74 Y40.259 E.03131
G1 X44.696 Y40.662 E.03253
G1 X45.888 Y41.62 E.04795
G1 X46.971 Y43.309 E.06291
G1 X47.169 Y43.994 E.02236
G1 X47.268 Y44.713 E.02276
G1 X47.291 Y53.71 E.2821
G1 X47.317 Y54.435 E.02275
G1 X47.388 Y55.152 E.02259
G1 X47.383 Y58.794 E.11419
G1 X47.284 Y60.359 E.04917
G1 X47.268 Y62.672 E.07252
G1 X46.878 Y64.193 E.04923
G1 X46.47 Y64.92 E.02614
G1 X45.944 Y65.577 E.02639
G1 X44.574 Y66.571 E.05307
G1 X42.897 Y67.083 E.05498
G1 X40.53 Y67.13 E.07423
G1 X39.433 Y67.222 E.03452
G1 X34.752 Y67.219 E.14677
G1 X33.679 Y67.126 E.03377
G1 X32.887 Y67.121 E.02483
G1 X30.602 Y67.13 E.07165
G1 X29.578 Y67.224 E.03224
G1 X24.916 Y67.236 E.14617
G1 X23.775 Y67.147 E.03588
G1 X21.129 Y67.063 E.08301
G1 X19.704 Y66.56 E.04738
G1 X18.515 Y65.692 E.04616
G1 X17.528 Y64.32 E.05299
G1 X17.086 Y62.677 E.05335
G1 X17.045 Y60.393 E.07162
G1 X16.952 Y59.311 E.03405
G1 X16.952 Y55.169 E.12987
G1 X17.049 Y53.678 E.04685
G1 X17.052 Y44.767 E.2794
G1 X17.475 Y43.094 E.05411
G1 X17.963 Y42.23 E.03111
G1 X18.579 Y41.489 E.03021
G1 X19.98 Y40.552 E.05285
G1 X20.188 Y40.866 F54000
G1 F1200
G1 X21.778 Y40.441 E.0516
G1 X42.741 Y40.445 E.65728
G1 X43.646 Y40.625 E.02893
G1 X44.523 Y40.998 E.02988
G1 X45.626 Y41.893 E.04454
G1 X46.617 Y43.44 E.0576
G1 X46.803 Y44.085 E.02105
G1 X46.893 Y44.751 E.02107
G1 X46.914 Y53.717 E.28112
G1 X46.941 Y54.461 E.02334
G1 X47.011 Y55.162 E.02209
G1 X47.006 Y58.788 E.11369
G1 X46.907 Y60.346 E.04895
G1 X46.891 Y62.647 E.07215
G1 X46.537 Y64.03 E.04476
G1 X46.149 Y64.722 E.02488
G1 X45.667 Y65.32 E.02408
G1 X44.38 Y66.246 E.04971
G1 X42.814 Y66.714 E.05125
G1 X40.511 Y66.754 E.07222
G1 X39.426 Y66.845 E.03414
G1 X34.761 Y66.842 E.14627
G1 X33.697 Y66.749 E.03349
G1 X32.887 Y66.744 E.0254
G1 X30.583 Y66.753 E.07224
G1 X29.569 Y66.847 E.03193
G1 X24.923 Y66.859 E.14567
G1 X23.796 Y66.77 E.03545
G1 X21.171 Y66.688 E.08235
G1 X19.858 Y66.215 E.04376
G1 X18.764 Y65.407 E.04264
G1 X17.856 Y64.13 E.04913
G1 X17.457 Y62.605 E.04942
G1 X17.422 Y60.374 E.06996
G1 X17.33 Y59.302 E.03374
G1 X17.329 Y55.175 E.1294
G1 X17.426 Y53.69 E.04666
G1 X17.429 Y44.791 E.27902
G1 X17.817 Y43.257 E.04961
G1 X18.264 Y42.457 E.02873
G1 X18.851 Y41.752 E.02876
G1 X20.138 Y40.899 E.04841
G1 X20.339 Y41.207 F54000
G1 F1200
G1 X21.803 Y40.818 E.0475
G1 X42.722 Y40.822 E.6559
G1 X43.552 Y40.99 E.02655
G1 X44.349 Y41.334 E.02722
G1 X45.364 Y42.166 E.04115
G1 X46.262 Y43.571 E.05228
G1 X46.437 Y44.176 E.01975
G1 X46.517 Y44.788 E.01935
G1 X46.537 Y53.724 E.28018
G1 X46.565 Y54.487 E.02394
G1 X46.634 Y55.171 E.02156
G1 X46.629 Y58.781 E.11319
G1 X46.53 Y60.332 E.04873
G1 X46.514 Y62.621 E.07177
G1 X46.195 Y63.868 E.04036
G1 X45.845 Y64.498 E.0226
G1 X45.389 Y65.063 E.02277
G1 X44.188 Y65.92 E.04626
G1 X42.734 Y66.345 E.0475
G1 X40.493 Y66.377 E.07027
G1 X39.418 Y66.468 E.03383
G1 X34.769 Y66.465 E.14577
G1 X33.715 Y66.372 E.03318
G1 X32.887 Y66.366 E.02596
G1 X30.565 Y66.376 E.07281
G1 X29.559 Y66.47 E.03168
G1 X24.93 Y66.481 E.14514
G1 X23.817 Y66.393 E.03501
G1 X21.214 Y66.312 E.08165
G1 X20.015 Y65.871 E.04006
G1 X19.014 Y65.124 E.03916
G1 X18.185 Y63.943 E.04524
G1 X17.828 Y62.534 E.04557
G1 X17.799 Y60.356 E.0683
G1 X17.707 Y59.294 E.03342
G1 X17.706 Y55.181 E.12896
G1 X17.803 Y53.702 E.04647
G1 X17.806 Y44.814 E.27868
G1 X18.158 Y43.419 E.04511
G1 X18.584 Y42.657 E.02737
G1 X19.122 Y42.015 E.02626
G1 X20.289 Y41.24 E.04392
G1 X20.496 Y41.555 F54000
G1 F1200
G1 X21.827 Y41.195 E.04323
G1 X42.702 Y41.199 E.65452
G1 X43.455 Y41.355 E.02411
G1 X44.173 Y41.668 E.02456
G1 X45.1 Y42.437 E.03776
G1 X45.908 Y43.703 E.04709
G1 X46.065 Y44.24 E.01754
G1 X46.142 Y44.825 E.0185
G1 X46.16 Y53.732 E.27927
G1 X46.188 Y54.513 E.0245
G1 X46.257 Y55.18 E.02102
G1 X46.252 Y58.775 E.11272
G1 X46.153 Y60.319 E.04851
G1 X46.137 Y62.596 E.0714
G1 X45.854 Y63.706 E.03592
G1 X45.524 Y64.3 E.02131
G1 X45.114 Y64.804 E.02037
G1 X43.997 Y65.593 E.04288
G1 X42.656 Y65.975 E.04372
G1 X40.475 Y66 E.06839
G1 X39.41 Y66.091 E.03351
G1 X34.778 Y66.088 E.14523
G1 X33.733 Y65.995 E.03289
G1 X32.888 Y65.989 E.0265
G1 X30.546 Y65.999 E.07343
G1 X29.549 Y66.093 E.0314
G1 X24.936 Y66.104 E.14464
G1 X23.838 Y66.017 E.03453
G1 X21.258 Y65.936 E.08093
G1 X20.174 Y65.529 E.0363
G1 X19.266 Y64.842 E.0357
G1 X18.515 Y63.758 E.04135
G1 X18.199 Y62.467 E.04167
G1 X18.176 Y60.337 E.06679
G1 X18.084 Y59.286 E.03308
G1 X18.083 Y55.188 E.12849
G1 X18.18 Y53.715 E.04628
G1 X18.183 Y44.837 E.27836
G1 X18.499 Y43.58 E.04064
G1 X18.885 Y42.885 E.02493
G1 X19.393 Y42.279 E.02479
G1 X20.445 Y41.588 E.03946
G1 X20.647 Y41.895 F54000
G1 F1200
G1 X21.852 Y41.572 E.03912
G1 X42.682 Y41.576 E.65311
G1 X43.356 Y41.72 E.02161
G1 X43.996 Y42.002 E.02193
G1 X44.835 Y42.707 E.03436
G1 X45.553 Y43.834 E.0419
G1 X45.699 Y44.331 E.01624
G1 X45.766 Y44.86 E.01672
G1 X45.783 Y53.739 E.2784
G1 X45.812 Y54.54 E.02513
G1 X45.88 Y55.19 E.02049
G1 X45.875 Y58.768 E.11219
G1 X45.776 Y60.306 E.04832
G1 X45.761 Y62.57 E.07099
G1 X45.512 Y63.546 E.03158
G1 X45.22 Y64.076 E.01897
G1 X44.838 Y64.546 E.01899
G1 X43.809 Y65.265 E.03936
G1 X42.58 Y65.605 E.03998
G1 X40.458 Y65.623 E.06654
G1 X39.402 Y65.714 E.03323
G1 X34.786 Y65.711 E.14473
G1 X33.751 Y65.618 E.03258
G1 X32.888 Y65.612 E.02706
G1 X30.528 Y65.622 E.074
G1 X29.54 Y65.716 E.03112
G1 X24.943 Y65.727 E.14414
G1 X23.859 Y65.64 E.0341
G1 X21.302 Y65.56 E.08021
G1 X20.336 Y65.187 E.03247
G1 X19.52 Y64.562 E.03223
G1 X18.847 Y63.575 E.03746
G1 X18.571 Y62.402 E.03778
G1 X18.552 Y60.319 E.06531
G1 X18.461 Y59.277 E.0328
G1 X18.46 Y55.194 E.12802
G1 X18.557 Y53.727 E.0461
G1 X18.56 Y44.861 E.27799
G1 X18.842 Y43.74 E.03624
G1 X19.186 Y43.113 E.02242
G1 X19.665 Y42.542 E.02337
G1 X20.597 Y41.928 E.03499
G1 X20.802 Y42.244 F54000
G1 F1200
G1 X21.877 Y41.949 E.03495
G1 X42.661 Y41.953 E.65167
G1 X43.255 Y42.084 E.01907
G1 X43.816 Y42.335 E.01927
G1 X44.569 Y42.975 E.03099
G1 X45.199 Y43.965 E.03679
G1 X45.332 Y44.422 E.01492
G1 X45.39 Y44.895 E.01494
G1 X45.406 Y53.746 E.27752
G1 X45.435 Y54.567 E.02576
G1 X45.503 Y55.2 E.01996
G1 X45.498 Y58.762 E.11168
G1 X45.399 Y60.292 E.04807
G1 X45.384 Y62.545 E.07064
G1 X45.169 Y63.387 E.02725
G1 X44.916 Y63.852 E.0166
G1 X44.563 Y64.287 E.01756
G1 X43.622 Y64.937 E.03586
G1 X42.553 Y65.228 E.03474
G1 X40.44 Y65.246 E.06625
G1 X39.394 Y65.336 E.03292
G1 X34.795 Y65.334 E.1442
G1 X33.769 Y65.241 E.0323
G1 X32.889 Y65.235 E.02759
G1 X30.509 Y65.245 E.07462
G1 X29.53 Y65.339 E.03084
G1 X24.95 Y65.35 E.1436
G1 X23.879 Y65.264 E.03369
G1 X21.405 Y65.196 E.0776
G1 X20.543 Y64.871 E.02888
G1 X19.775 Y64.282 E.03035
G1 X19.18 Y63.395 E.03349
G1 X18.948 Y62.379 E.03268
G1 X18.929 Y60.301 E.06516
G1 X18.838 Y59.269 E.03248
G1 X18.837 Y55.202 E.12752
G1 X18.922 Y54.11 E.03434
G1 X18.934 Y53.73 E.01192
G1 X18.937 Y44.884 E.27736
G1 X19.184 Y43.901 E.03178
G1 X19.508 Y43.311 E.0211
G1 X19.934 Y42.807 E.02069
G1 X20.751 Y42.277 E.03053
G1 X20.954 Y42.594 F54000
G1 F1200
G1 X21.003 Y42.562 E.00183
G1 X21.9 Y42.326 E.02908
G1 X42.64 Y42.33 E.65029
G1 X43.119 Y42.436 E.01538
G1 X43.636 Y42.667 E.01775
G1 X44.301 Y43.242 E.02756
G1 X44.844 Y44.097 E.03176
G1 X44.966 Y44.512 E.01356
G1 X45.015 Y44.927 E.0131
G1 X45.029 Y53.753 E.27673
G1 X45.059 Y54.594 E.02639
G1 X45.126 Y55.21 E.01943
G1 X45.12 Y58.755 E.11115
G1 X45.022 Y60.279 E.04788
G1 X45.007 Y62.519 E.07024
G1 X44.827 Y63.227 E.02291
G1 X44.594 Y63.655 E.01528
G1 X44.288 Y64.027 E.0151
G1 X43.489 Y64.582 E.0305
G1 X42.524 Y64.851 E.03141
G1 X40.422 Y64.869 E.06591
G1 X39.386 Y64.959 E.03261
G1 X34.804 Y64.957 E.14367
G1 X33.788 Y64.864 E.03199
G1 X32.889 Y64.858 E.02819
G1 X30.501 Y64.868 E.07487
G1 X30.157 Y64.887 E.0108
G1 X29.516 Y64.962 E.02024
G1 X24.957 Y64.973 E.14294
G1 X23.898 Y64.887 E.03331
G1 X21.507 Y64.832 E.07499
G1 X20.704 Y64.528 E.02692
G1 X20.03 Y64.003 E.02679
G1 X19.539 Y63.275 E.02753
G1 X19.325 Y62.354 E.02965
G1 X19.306 Y60.282 E.06497
G1 X19.215 Y59.261 E.03214
G1 X19.215 Y55.21 E.12702
G1 X19.299 Y54.131 E.03393
G1 X19.311 Y53.736 E.01239
G1 X19.314 Y44.907 E.27683
G1 X19.527 Y44.059 E.02741
G1 X19.808 Y43.54 E.0185
G1 X20.203 Y43.073 E.01918
G1 X20.903 Y42.626 E.02604
G1 X21.102 Y42.945 F54000
G1 F1200
G1 X21.178 Y42.897 E.00282
G1 X21.924 Y42.703 E.02417
G1 X42.618 Y42.707 E.64885
G1 X43.014 Y42.798 E.01274
G1 X43.453 Y42.998 E.01513
G1 X44.032 Y43.506 E.02415
G1 X44.491 Y44.23 E.02688
G1 X44.593 Y44.573 E.01122
G1 X44.639 Y44.961 E.01225
G1 X44.652 Y53.76 E.27589
G1 X44.683 Y54.622 E.02704
G1 X44.749 Y55.22 E.01886
G1 X44.743 Y58.749 E.11065
G1 X44.645 Y60.265 E.04763
G1 X44.63 Y62.494 E.06989
G1 X44.484 Y63.068 E.01857
G1 X44.272 Y63.458 E.01392
G1 X44.016 Y63.765 E.01253
G1 X43.303 Y64.253 E.02709
G1 X42.497 Y64.474 E.0262
G1 X40.403 Y64.492 E.06566
G1 X39.378 Y64.582 E.03226
G1 X34.813 Y64.58 E.14313
G1 X33.806 Y64.487 E.03171
G1 X32.89 Y64.481 E.02872
G1 X30.489 Y64.491 E.07528
G1 X30.124 Y64.511 E.01146
G1 X29.504 Y64.585 E.01958
G1 X24.964 Y64.596 E.14235
G1 X23.917 Y64.51 E.03294
G1 X21.606 Y64.466 E.07247
G1 X20.912 Y64.212 E.02317
G1 X20.287 Y63.725 E.02484
G1 X19.873 Y63.098 E.02356
G1 X19.702 Y62.332 E.02461
G1 X19.683 Y60.263 E.06487
G1 X19.592 Y59.252 E.03183
G1 X19.592 Y55.217 E.12651
G1 X19.675 Y54.152 E.03349
G1 X19.688 Y53.742 E.01286
G1 X19.692 Y44.93 E.27629
G1 X19.87 Y44.218 E.02301
G1 X20.13 Y43.737 E.01714
G1 X20.47 Y43.341 E.01636
G1 X21.052 Y42.977 E.02152
G1 X21.247 Y43.297 F54000
G1 F1200
G1 X21.35 Y43.234 E.00379
G1 X21.948 Y43.081 E.01935
G1 X42.594 Y43.084 E.64734
G1 X42.906 Y43.16 E.01007
G1 X43.268 Y43.328 E.01251
G1 X43.76 Y43.769 E.02072
G1 X44.137 Y44.363 E.02206
G1 X44.227 Y44.664 E.00985
G1 X44.263 Y44.991 E.01031
G1 X44.275 Y53.767 E.27517
G1 X44.307 Y54.65 E.0277
G1 X44.372 Y55.23 E.0183
G1 X44.366 Y58.742 E.11012
G1 X44.268 Y60.252 E.04744
G1 X44.253 Y62.469 E.06951
G1 X44.141 Y62.908 E.01421
G1 X43.95 Y63.26 E.01256
G1 X43.745 Y63.501 E.00992
G1 X43.169 Y63.899 E.02195
G1 X42.468 Y64.098 E.02285
G1 X40.385 Y64.115 E.06531
G1 X39.369 Y64.205 E.03198
G1 X34.822 Y64.203 E.14257
G1 X33.825 Y64.11 E.0314
G1 X32.89 Y64.104 E.02932
G1 X30.478 Y64.114 E.07563
G1 X30.09 Y64.136 E.01219
G1 X29.492 Y64.208 E.01889
G1 X24.972 Y64.219 E.14172
G1 X23.935 Y64.133 E.03263
G1 X21.706 Y64.101 E.0699
G1 X21.071 Y63.869 E.0212
G1 X20.548 Y63.452 E.02097
G1 X20.21 Y62.925 E.01963
G1 X20.079 Y62.31 E.01972
G1 X20.06 Y60.244 E.06478
G1 X19.969 Y59.243 E.03152
G1 X19.969 Y55.224 E.12601
G1 X20.052 Y54.173 E.03306
G1 X20.066 Y53.749 E.0133
G1 X20.069 Y44.954 E.27576
G1 X20.213 Y44.374 E.01874
G1 X20.43 Y43.966 E.01449
G1 X20.736 Y43.609 E.01474
G1 X21.196 Y43.328 E.0169
G1 X21.388 Y43.65 F54000
G1 F1200
G1 X21.518 Y43.573 E.00474
G1 X21.971 Y43.458 E.01465
G1 X42.571 Y43.461 E.6459
G1 X42.763 Y43.509 E.00621
G1 X43.082 Y43.657 E.01103
G1 X43.486 Y44.029 E.01722
G1 X43.783 Y44.496 E.01735
G1 X43.86 Y44.754 E.00844
G1 X43.887 Y45.019 E.00835
G1 X43.898 Y53.774 E.27451
G1 X43.93 Y54.678 E.02836
G1 X43.995 Y55.24 E.01774
G1 X43.989 Y58.735 E.10958
G1 X43.891 Y60.238 E.04723
G1 X43.876 Y62.444 E.06917
G1 X43.798 Y62.752 E.00996
G1 X43.645 Y63.038 E.01017
G1 X43.504 Y63.211 E.007
G1 X43.031 Y63.547 E.01819
G1 X42.438 Y63.721 E.01938
G1 X40.366 Y63.738 E.06497
G1 X39.361 Y63.828 E.03164
G1 X34.835 Y63.825 E.14191
G1 X34.255 Y63.759 E.0183
G1 X33.835 Y63.733 E.01319
G1 X32.891 Y63.727 E.0296
G1 X30.466 Y63.737 E.07603
G1 X30.056 Y63.76 E.01288
G1 X29.48 Y63.831 E.0182
G1 X24.979 Y63.842 E.14113
G1 X23.952 Y63.756 E.03231
G1 X21.799 Y63.735 E.06751
G1 X21.28 Y63.554 E.01723
G1 X20.81 Y63.178 E.01887
G1 X20.55 Y62.758 E.01549
G1 X20.452 Y62.257 E.01601
G1 X20.437 Y60.226 E.06368
G1 X20.346 Y59.235 E.0312
G1 X20.346 Y55.232 E.12551
G1 X20.429 Y54.194 E.03265
G1 X20.443 Y53.755 E.01377
G1 X20.446 Y44.977 E.27523
G1 X20.557 Y44.531 E.01441
G1 X20.753 Y44.164 E.01305
G1 X20.999 Y43.881 E.01176
G1 X21.336 Y43.681 E.01229
G1 X21.523 Y44.004 F54000
G1 F1200
G1 X21.682 Y43.913 E.00574
G1 X21.994 Y43.835 E.01008
G1 X42.508 Y43.833 E.6432
G1 X42.623 Y43.86 E.0037
G1 X42.894 Y43.985 E.00936
G1 X43.209 Y44.285 E.01364
G1 X43.429 Y44.629 E.0128
G1 X43.493 Y44.843 E.007
G1 X43.51 Y45.042 E.00626
G1 X43.521 Y53.781 E.27401
G1 X43.554 Y54.707 E.02905
G1 X43.618 Y55.251 E.01717
G1 X43.612 Y58.729 E.10905
G1 X43.514 Y60.224 E.04698
G1 X43.499 Y62.418 E.06879
G1 X43.454 Y62.595 E.00573
G1 X43.323 Y62.842 E.00877
G1 X43.234 Y62.947 E.00432
G1 X42.842 Y63.219 E.01496
G1 X42.409 Y63.344 E.01413
G1 X40.348 Y63.361 E.06462
G1 X39.353 Y63.451 E.03132
G1 X34.846 Y63.448 E.14131
G1 X34.288 Y63.383 E.01761
G1 X33.848 Y63.356 E.01382
G1 X32.891 Y63.35 E.03001
G1 X30.455 Y63.36 E.07638
G1 X30.022 Y63.384 E.0136
G1 X29.467 Y63.454 E.01754
G1 X24.986 Y63.465 E.1405
G1 X23.97 Y63.379 E.03197
G1 X21.837 Y63.358 E.06688
G1 X21.444 Y63.213 E.01313
G1 X21.078 Y62.911 E.01488
G1 X20.893 Y62.599 E.01137
G1 X20.826 Y62.211 E.01235
G1 X20.814 Y60.216 E.06255
G1 X20.787 Y59.777 E.01379
G1 X20.723 Y59.222 E.01752
G1 X20.723 Y55.24 E.12485
G1 X20.805 Y54.215 E.03224
G1 X20.82 Y53.761 E.01424
G1 X20.823 Y45 E.2747
