; generated by PrusaSlicer 2.6.0+MacOS-arm64 on 2023-07-26 at 05:22:29 UTC

; 

; external perimeters extrusion width = 0.42mm
; perimeters extrusion width = 0.44mm
; infill extrusion width = 0.44mm
; solid infill extrusion width = 0.44mm
; top infill extrusion width = 0.40mm
; support material extrusion width = 0.36mm
; first layer extrusion width = 0.42mm

M201 X3500 Y3500 Z150 E5000 ; sets maximum accelerations, mm/sec^2
M203 X500 Y500 Z10 E60 ; sets maximum feedrates, mm / sec
M204 S3500 T1000 ; sets acceleration (S) and retract acceleration (R), mm/sec^2
M205 X8.00 Y8.00 Z0.40 E5.00 ; sets the jerk limits, mm/sec
M205 S0 T0 ; sets the minimum extruding and travel feed rate, mm/sec
;TYPE:Custom
G90 ; use absolute coordinates
M83 ; extruder relative mode
M104 S150 ; set temporary nozzle temp to prevent oozing during homing
M140 S60 ; set final bed temp
G4 S30 ; allow partial nozzle warmup
G28 ; home all axis
G1 Z50 F240
G1 X2.0 Y10 F3000
M104 S205 ; set final nozzle temp
M190 S60 ; wait for bed temp to stabilize
M109 S205 ; wait for nozzle temp to stabilize
G1 Z0.28 F240
G92 E0
G1 X2.0 Y140 E10 F1500 ; prime the nozzle
G1 X2.3 Y140 F5000
G92 E0
G1 X2.3 Y10 E10 F1200 ; prime the nozzle
G92 E0
G21 ; set units to millimeters
G90 ; use absolute coordinates
M83 ; use relative distances for extrusion
; Filament gcode
M107
;LAYER_CHANGE
;Z:0.2
;HEIGHT:0.2
;BEFORE_LAYER_CHANGE
G92 E0
;0.2


G1 E-3.5 F4800
G1 Z.2 F54000
;AFTER_LAYER_CHANGE
;0.2
G1 X23.367 Y35.204
G1 E3.5 F2400
M204 S3500
;TYPE:Skirt/Brim
;WIDTH:0.42
G1 F1200
G1 X23.455 Y35.145 E.00332
G1 X24.919 Y34.491 E.05027
G1 X26.998 Y34.027 E.06679
G1 X27.864 Y33.96 E.02723
G1 X48.513 Y33.978 E.64744
G1 X50.446 Y34.294 E.06141
G1 X51.153 Y34.509 E.02317
G1 X52.718 Y35.236 E.05411
G1 X54.168 Y36.257 E.0556
G1 X55.099 Y37.16 E.04067
G1 X56.266 Y38.769 E.06232
G1 X56.872 Y40.028 E.04381
G1 X57.35 Y41.596 E.0514
G1 X57.566 Y43.416 E.05747
G1 X57.546 Y57.861 E.45291
G1 X57.215 Y59.783 E.06115
G1 X56.773 Y61.067 E.04258
G1 X56.069 Y62.39 E.04699
G1 X55.348 Y63.38 E.0384
G1 X53.897 Y64.792 E.06348
G1 X52.896 Y65.481 E.0381
G1 X51.817 Y66.062 E.03842
G1 X45.63 Y68.228 E.20553
G1 X44.444 Y68.553 E.03856
G1 X43.958 Y68.605 E.01533
G1 X32.044 Y68.72 E.37357
G1 X31.107 Y68.611 E.02958
G1 X29.508 Y68.191 E.05184
G1 X25.097 Y66.248 E.15113
G1 X23.733 Y65.55 E.04804
G1 X22.936 Y64.997 E.03042
G1 X21.313 Y63.525 E.0687
G1 X20.578 Y62.611 E.03677
G1 X19.791 Y61.239 E.04959
G1 X19.374 Y60.143 E.03677
G1 X18.968 Y57.852 E.07295
G1 X18.446 Y43.895 E.43792
G1 X18.546 Y42.282 E.05067
G1 X18.646 Y41.662 E.01969
G1 X19.05 Y40.254 E.04593
G1 X19.78 Y38.706 E.05366
G1 X20.606 Y37.526 E.04516
G1 X21.289 Y36.779 E.03174
G1 X22.159 Y36.006 E.03649
G1 X23.317 Y35.237 E.04359
G1 X23.525 Y35.552 F54000
G1 F1200
G1 X23.657 Y35.464 E.00497
G1 X25.059 Y34.841 E.0481
G1 X27.036 Y34.403 E.06349
G1 X27.864 Y34.337 E.02604
G1 X48.476 Y34.353 E.64627
G1 X50.373 Y34.664 E.06027
G1 X51.009 Y34.857 E.02084
G1 X52.508 Y35.549 E.05177
G1 X53.914 Y36.536 E.05386
G1 X54.807 Y37.398 E.03892
G1 X55.945 Y38.968 E.0608
G1 X56.529 Y40.184 E.0423
G1 X56.978 Y41.658 E.04831
G1 X57.189 Y43.416 E.05552
G1 X57.171 Y57.821 E.45166
G1 X56.846 Y59.705 E.05994
G1 X56.421 Y60.933 E.04074
G1 X55.742 Y62.202 E.04513
G1 X55.05 Y63.149 E.03678
G1 X53.674 Y64.488 E.0602
G1 X52.717 Y65.149 E.03647
G1 X51.639 Y65.73 E.0384
G1 X45.508 Y67.871 E.20362
G1 X44.382 Y68.181 E.03662
G1 X43.943 Y68.228 E.01384
G1 X31.663 Y68.324 E.38504
G1 X29.463 Y67.766 E.07116
G1 X25.064 Y65.814 E.1509
G1 X23.906 Y65.215 E.04088
G1 X23.189 Y64.717 E.02737
G1 X21.566 Y63.246 E.06868
G1 X20.905 Y62.424 E.03307
G1 X20.118 Y61.052 E.04959
G1 X19.743 Y60.066 E.03308
G1 X19.343 Y57.813 E.07175
G1 X18.823 Y43.882 E.4371
G1 X18.922 Y42.311 E.04936
G1 X19.396 Y40.405 E.06158
G1 X20.097 Y38.911 E.05174
G1 X20.885 Y37.78 E.04322
G1 X21.567 Y37.033 E.03171
G1 X22.402 Y36.295 E.03494
G1 X23.475 Y35.585 E.04034
G1 E-2.45 F4800
;WIPE_START
G1 F43200
G1 X23.657 Y35.464 E-.02307
G1 X25.059 Y34.841 E-.16194
G1 X27.036 Y34.403 E-.21374
G1 X27.864 Y34.337 E-.08768
G1 X33.203 Y34.341 E-.56357
;WIPE_END
G1 X25.467 Y38.74 F54000
G1 E3.5 F2400
G1 F1200
G1 X25.961 Y38.429 E.0183
G1 X27.886 Y38 E.06184
G1 X48.163 Y38.004 E.63577
G1 X49.48 Y38.239 E.04195
G1 X50.261 Y38.509 E.02591
G1 X51.934 Y39.698 E.06435
G1 X52.634 Y40.584 E.0354
G1 X53.143 Y41.58 E.03507
G1 X53.493 Y43.087 E.04851
G1 X53.526 Y57.477 E.45119
G1 X52.906 Y59.803 E.07548
G1 X52.33 Y60.677 E.03282
G1 X51.591 Y61.453 E.0336
G1 X50.188 Y62.345 E.05213
G1 X48.537 Y62.779 E.05352
G1 X40.401 Y62.824 E.2551
G1 X28.302 Y62.824 E.37936
G1 X27.193 Y62.653 E.03518
G1 X26.135 Y62.254 E.03545
G1 X24.352 Y60.822 E.0717
G1 X23.453 Y59.441 E.05167
G1 X23.034 Y57.852 E.05152
G1 X23.014 Y54.276 E.11212
G1 X23.409 Y52.855 E.04624
G1 X24.269 Y51.328 E.05495
G1 X24.417 Y51.016 E.01083
G1 X24.859 Y49.762 E.04169
G1 X24.687 Y49.131 E.02051
G1 X23.667 Y47.054 E.07255
G1 X22.933 Y45.803 E.04548
G1 X22.497 Y43.639 E.06921
G1 X22.787 Y41.815 E.05791
G1 X23.409 Y40.537 E.04456
G1 X24.338 Y39.453 E.04476
G1 X25.417 Y38.772 E.04001
G1 X25.615 Y39.089 F54000
G1 F1200
G1 X26.132 Y38.766 E.01911
G1 X27.906 Y38.378 E.05694
G1 X48.146 Y38.381 E.63461
G1 X49.398 Y38.607 E.03989
G1 X50.111 Y38.856 E.02368
G1 X51.655 Y39.953 E.05939
G1 X52.327 Y40.802 E.03395
G1 X52.796 Y41.729 E.03257
G1 X53.12 Y43.15 E.0457
G1 X53.149 Y57.453 E.44846
G1 X52.575 Y59.621 E.07032
G1 X52.025 Y60.455 E.03132
G1 X51.335 Y61.175 E.03127
G1 X50.012 Y62.01 E.04905
G1 X48.512 Y62.402 E.04861
G1 X40.4 Y62.447 E.25435
G1 X28.317 Y62.447 E.37885
G1 X27.271 Y62.283 E.0332
G1 X26.298 Y61.913 E.03264
G1 X24.613 Y60.548 E.06799
G1 X23.787 Y59.263 E.0479
G1 X23.405 Y57.781 E.04799
G1 X23.391 Y54.301 E.10911
G1 X23.765 Y52.981 E.04302
G1 X24.603 Y51.503 E.05327
G1 X24.766 Y51.16 E.01191
G1 X25.253 Y49.776 E.046
G1 X25.042 Y48.997 E.02531
G1 X23.999 Y46.875 E.07414
G1 X23.274 Y45.639 E.04493
G1 X22.874 Y43.663 E.06321
G1 X23.139 Y41.955 E.05419
G1 X23.737 Y40.725 E.04288
G1 X24.604 Y39.722 E.04157
G1 X25.564 Y39.121 E.03551
G1 X25.761 Y39.439 F54000
G1 F1200
G1 X26.303 Y39.104 E.01998
G1 X27.926 Y38.755 E.05205
G1 X48.129 Y38.758 E.63345
G1 X49.315 Y38.975 E.0378
G1 X49.96 Y39.202 E.02144
G1 X51.413 Y40.243 E.05604
G1 X52.017 Y41.019 E.03083
G1 X52.448 Y41.877 E.03011
G1 X52.748 Y43.212 E.0429
G1 X52.772 Y57.429 E.44576
G1 X52.242 Y59.441 E.06524
G1 X51.74 Y60.207 E.02872
G1 X51.079 Y60.898 E.02998
G1 X49.887 Y61.653 E.04424
G1 X48.485 Y62.025 E.04548
G1 X40.399 Y62.07 E.25353
G1 X28.331 Y62.07 E.37838
G1 X27.387 Y61.924 E.02995
G1 X26.461 Y61.571 E.03107
G1 X24.876 Y60.276 E.06417
G1 X24.122 Y59.088 E.04412
G1 X23.776 Y57.712 E.04449
G1 X23.768 Y54.328 E.1061
G1 X24.121 Y53.108 E.03982
G1 X24.938 Y51.677 E.05167
G1 X25.115 Y51.304 E.01295
G1 X25.648 Y49.791 E.0503
G1 X25.396 Y48.863 E.03015
G1 X24.331 Y46.694 E.07576
G1 X23.636 Y45.53 E.04251
G1 X23.252 Y43.685 E.05909
G1 X23.491 Y42.092 E.05051
G1 X24.039 Y40.952 E.03966
G1 X24.871 Y39.99 E.03988
G1 X25.71 Y39.471 E.03093
G1 X25.904 Y39.783 F54000
G1 F1200
G1 X26.415 Y39.465 E.01887
G1 X27.946 Y39.132 E.04913
G1 X48.111 Y39.135 E.63226
G1 X49.231 Y39.343 E.03572
G1 X49.808 Y39.548 E.0192
G1 X51.132 Y40.496 E.05106
G1 X51.708 Y41.235 E.02938
G1 X52.1 Y42.024 E.02762
G1 X52.375 Y43.273 E.0401
G1 X52.395 Y57.406 E.44313
G1 X51.91 Y59.26 E.06009
G1 X51.435 Y59.985 E.02718
G1 X50.824 Y60.62 E.02763
G1 X49.711 Y61.319 E.04121
G1 X48.46 Y61.648 E.04056
G1 X40.399 Y61.693 E.25275
G1 X28.346 Y61.693 E.37791
G1 X27.466 Y61.555 E.02793
G1 X26.625 Y61.231 E.02826
G1 X25.14 Y60.005 E.06038
G1 X24.458 Y58.915 E.04031
G1 X24.148 Y57.645 E.04099
G1 X24.145 Y54.355 E.10316
G1 X24.476 Y53.237 E.03656
G1 X25.272 Y51.853 E.05006
G1 X25.463 Y51.449 E.01401
G1 X25.972 Y50.034 E.04715
G1 X26.034 Y49.775 E.00835
G1 X25.751 Y48.73 E.03395
G1 X24.662 Y46.514 E.07742
G1 X23.976 Y45.364 E.04199
G1 X23.63 Y43.705 E.05314
G1 X23.843 Y42.229 E.04676
G1 X24.368 Y41.139 E.03793
G1 X25.136 Y40.26 E.0366
G1 X25.853 Y39.814 E.02648
G1 X26.048 Y40.132 F54000
G1 F1200
G1 X26.584 Y39.804 E.0197
G1 X27.966 Y39.509 E.04431
G1 X48.093 Y39.512 E.63107
G1 X49.146 Y39.711 E.0336
G1 X49.655 Y39.894 E.01696
G1 X50.888 Y40.785 E.0477
G1 X51.397 Y41.449 E.02623
G1 X51.751 Y42.169 E.02516
G1 X52.002 Y43.332 E.0373
G1 X52.018 Y57.382 E.44053
G1 X51.578 Y59.079 E.05497
G1 X51.129 Y59.763 E.02565
G1 X50.569 Y60.341 E.02523
G1 X49.585 Y60.962 E.03648
G1 X48.433 Y61.271 E.0374
G1 X40.398 Y61.316 E.25194
G1 X28.361 Y61.316 E.37741
G1 X27.546 Y61.186 E.02588
G1 X26.792 Y60.891 E.02539
G1 X25.406 Y59.736 E.05657
G1 X24.796 Y58.744 E.03651
G1 X24.52 Y57.581 E.03748
G1 X24.522 Y54.384 E.10024
G1 X24.83 Y53.368 E.03329
G1 X25.606 Y52.029 E.04852
G1 X25.812 Y51.594 E.01509
G1 X26.334 Y50.142 E.04838
G1 X26.423 Y49.769 E.01202
G1 X26.105 Y48.596 E.03811
G1 X24.994 Y46.334 E.07902
G1 X24.316 Y45.197 E.04151
G1 X24.008 Y43.724 E.04718
G1 X24.197 Y42.363 E.04308
G1 X24.669 Y41.367 E.03456
G1 X25.401 Y40.53 E.03486
G1 X25.997 Y40.164 E.02193
G1 X26.19 Y40.483 F54000
G1 F1200
G1 X26.751 Y40.143 E.02057
G1 X27.984 Y39.886 E.03949
G1 X48.075 Y39.889 E.62994
G1 X49.06 Y40.078 E.03145
G1 X49.5 Y40.239 E.01469
G1 X50.642 Y41.072 E.04432
G1 X51.084 Y41.66 E.02306
G1 X51.402 Y42.312 E.02274
G1 X51.629 Y43.391 E.03457
G1 X51.64 Y57.359 E.43796
G1 X51.244 Y58.9 E.04989
G1 X50.846 Y59.514 E.02294
G1 X50.314 Y60.062 E.02395
G1 X49.41 Y60.627 E.03342
G1 X48.407 Y60.894 E.03254
G1 X40.398 Y60.939 E.25112
G1 X28.377 Y60.939 E.37691
G1 X27.627 Y60.817 E.02382
G1 X26.96 Y60.552 E.0225
G1 X25.673 Y59.469 E.05274
G1 X25.135 Y58.576 E.03269
G1 X24.892 Y57.518 E.03404
G1 X24.899 Y54.413 E.09736
G1 X25.167 Y53.538 E.02869
G1 X25.94 Y52.204 E.04834
G1 X26.161 Y51.739 E.01614
G1 X26.696 Y50.25 E.04961
G1 X26.813 Y49.763 E.0157
G1 X26.46 Y48.462 E.04227
G1 X25.326 Y46.154 E.08063
G1 X24.656 Y45.031 E.041
G1 X24.386 Y43.742 E.04129
G1 X24.55 Y42.498 E.03934
G1 X24.998 Y41.553 E.03279
G1 X25.663 Y40.802 E.03145
G1 X26.139 Y40.514 E.01744
G1 X26.329 Y40.828 F54000
G1 F1200
G1 X26.86 Y40.505 E.01949
G1 X28.004 Y40.263 E.03666
G1 X48.057 Y40.267 E.62875
G1 X48.972 Y40.445 E.02923
G1 X49.344 Y40.583 E.01244
G1 X50.357 Y41.321 E.0393
G1 X50.771 Y41.872 E.02161
G1 X51.052 Y42.454 E.02026
G1 X51.256 Y43.447 E.03179
G1 X51.263 Y57.336 E.43548
G1 X50.911 Y58.721 E.04481
G1 X50.54 Y59.293 E.02138
G1 X50.061 Y59.782 E.02146
G1 X49.283 Y60.271 E.02881
G1 X48.38 Y60.517 E.02934
G1 X40.396 Y60.562 E.25034
G1 X28.393 Y60.562 E.37635
G1 X27.71 Y60.448 E.02171
G1 X27.13 Y60.214 E.01961
G1 X25.943 Y59.203 E.04889
G1 X25.475 Y58.412 E.02882
G1 X25.265 Y57.458 E.03063
G1 X25.276 Y54.443 E.09453
G1 X25.504 Y53.709 E.0241
G1 X26.274 Y52.38 E.04816
G1 X26.509 Y51.884 E.01721
G1 X27.058 Y50.358 E.05085
G1 X27.202 Y49.757 E.01938
G1 X26.814 Y48.328 E.04643
G1 X25.657 Y45.974 E.08224
G1 X24.996 Y44.865 E.04048
G1 X24.764 Y43.757 E.03549
G1 X24.905 Y42.629 E.03564
G1 X25.299 Y41.782 E.02929
G1 X25.927 Y41.073 E.0297
G1 X26.278 Y40.859 E.01289
G1 X26.469 Y41.178 F54000
G1 F1200
G1 X27.025 Y40.846 E.0203
G1 X28.023 Y40.64 E.03195
G1 X48.038 Y40.644 E.62756
G1 X48.882 Y40.812 E.02698
G1 X49.186 Y40.926 E.01018
G1 X50.109 Y41.607 E.03596
G1 X50.456 Y42.079 E.01837
G1 X50.701 Y42.594 E.01788
G1 X50.883 Y43.503 E.02907
G1 X50.886 Y57.313 E.433
G1 X50.578 Y58.542 E.03973
G1 X50.234 Y59.071 E.01978
G1 X49.809 Y59.5 E.01893
G1 X49.108 Y59.936 E.02588
G1 X48.354 Y60.14 E.02449
G1 X40.395 Y60.185 E.24955
G1 X28.409 Y60.185 E.37581
G1 X27.795 Y60.08 E.01953
G1 X27.302 Y59.878 E.0167
G1 X26.214 Y58.939 E.04506
G1 X25.818 Y58.251 E.02489
G1 X25.638 Y57.401 E.02724
G1 X25.653 Y54.474 E.09178
G1 X25.84 Y53.881 E.0195
G1 X26.608 Y52.556 E.04802
G1 X26.858 Y52.029 E.01829
G1 X27.42 Y50.466 E.05208
G1 X27.591 Y49.751 E.02305
G1 X27.169 Y48.195 E.05055
G1 X25.989 Y45.794 E.08388
G1 X25.336 Y44.699 E.03997
G1 X25.142 Y43.77 E.02976
G1 X25.26 Y42.76 E.03188
G1 X25.629 Y41.967 E.02742
G1 X26.187 Y41.347 E.02615
G1 X26.418 Y41.209 E.00844
G1 X26.605 Y41.529 F54000
G1 F1200
G1 X27.188 Y41.187 E.02119
G1 X28.041 Y41.017 E.02727
G1 X48.018 Y41.021 E.62636
G1 X48.791 Y41.178 E.02473
G1 X49.026 Y41.269 E.0079
G1 X49.824 Y41.855 E.03104
G1 X50.124 Y42.258 E.01575
G1 X50.35 Y42.734 E.01652
G1 X50.509 Y43.556 E.02625
G1 X50.509 Y57.29 E.43062
G1 X50.243 Y58.365 E.03472
G1 X49.952 Y58.82 E.01693
G1 X49.557 Y59.219 E.0176
G1 X48.935 Y59.6 E.02287
G1 X48.327 Y59.763 E.01974
G1 X40.393 Y59.808 E.24877
G1 X28.426 Y59.808 E.37522
G1 X27.882 Y59.713 E.01731
G1 X27.478 Y59.543 E.01374
G1 X26.488 Y58.678 E.04122
G1 X26.162 Y58.095 E.02094
G1 X26.012 Y57.347 E.02392
G1 X26.03 Y54.506 E.08908
G1 X26.176 Y54.053 E.01492
G1 X26.942 Y52.731 E.04791
G1 X27.206 Y52.174 E.01933
G1 X27.781 Y50.574 E.05331
G1 X27.98 Y49.746 E.0267
G1 X27.523 Y48.061 E.05474
G1 X26.321 Y45.614 E.08548
G1 X25.677 Y44.534 E.03943
G1 X25.517 Y43.727 E.0258
G1 X25.616 Y42.888 E.02649
G1 X25.929 Y42.197 E.02378
G1 X26.448 Y41.621 E.02431
G1 X26.553 Y41.559 E.00382
G1 X26.737 Y41.88 F54000
G1 F1200
G1 X27.347 Y41.531 E.02204
G1 X28.058 Y41.394 E.0227
G1 X47.999 Y41.398 E.62524
G1 X48.697 Y41.543 E.02235
G1 X48.865 Y41.61 E.00567
G1 X49.538 Y42.103 E.02616
G1 X49.809 Y42.467 E.01423
G1 X49.998 Y42.871 E.01398
G1 X50.132 Y43.574 E.02244
G1 X50.132 Y57.268 E.42937
G1 X49.909 Y58.189 E.02971
G1 X49.646 Y58.599 E.01527
G1 X49.308 Y58.934 E.01492
G1 X48.764 Y59.263 E.01993
G1 X48.301 Y59.386 E.01502
G1 X40.391 Y59.431 E.24802
G1 X28.443 Y59.431 E.37462
G1 X27.971 Y59.346 E.01504
G1 X27.656 Y59.21 E.01076
G1 X26.764 Y58.419 E.03738
G1 X26.508 Y57.944 E.01692
G1 X26.386 Y57.296 E.02067
G1 X26.406 Y54.54 E.08641
G1 X26.512 Y54.227 E.01036
G1 X27.276 Y52.907 E.04782
G1 X27.555 Y52.319 E.02041
G1 X28.143 Y50.682 E.05454
G1 X28.369 Y49.74 E.03037
G1 X27.877 Y47.927 E.0589
G1 X26.652 Y45.434 E.08709
G1 X26.018 Y44.371 E.03881
G1 X25.893 Y43.687 E.0218
G1 X25.971 Y43.017 E.02115
G1 X26.26 Y42.382 E.02188
G1 X26.689 Y41.915 E.01988
G1 X26.958 Y42.179 F54000
G1 F1200
G1 X27.45 Y41.894 E.01783
G1 X28.077 Y41.771 E.02003
G1 X47.978 Y41.775 E.62398
G1 X48.599 Y41.908 E.01991
G1 X48.699 Y41.949 E.00339
G1 X49.255 Y42.353 E.02155
G1 X49.476 Y42.646 E.01151
G1 X49.646 Y43.009 E.01257
G1 X49.755 Y43.591 E.01857
G1 X49.755 Y57.247 E.42817
G1 X49.572 Y58.016 E.02478
G1 X49.364 Y58.347 E.01226
G1 X49.06 Y58.65 E.01346
G1 X48.595 Y58.925 E.01694
G1 X48.276 Y59.009 E.01034
G1 X40.39 Y59.054 E.24726
G1 X28.461 Y59.054 E.37403
G1 X28.064 Y58.98 E.01266
G1 X27.839 Y58.879 E.00773
G1 X27.041 Y58.162 E.03364
G1 X26.874 Y57.847 E.01118
G1 X26.76 Y57.244 E.01924
G1 X26.774 Y54.627 E.08206
G1 X26.848 Y54.397 E.00758
G1 X27.61 Y53.083 E.04763
G1 X27.903 Y52.464 E.02147
G1 X28.505 Y50.79 E.05578
G1 X28.758 Y49.734 E.03405
G1 X28.232 Y47.794 E.06302
G1 X26.983 Y45.252 E.0888
G1 X26.381 Y44.264 E.03628
G1 X26.271 Y43.701 E.01799
G1 X26.342 Y43.092 E.01922
G1 X26.587 Y42.571 E.01805
G1 X26.917 Y42.222 E.01506
G1 X27.186 Y42.485 F54000
G1 F1200
G1 X27.606 Y42.239 E.01526
G1 X28.093 Y42.148 E.01553
G1 X47.957 Y42.152 E.62282
G1 X48.528 Y42.285 E.01838
G1 X48.972 Y42.603 E.01712
G1 X49.162 Y42.856 E.00992
G1 X49.293 Y43.143 E.00989
G1 X49.378 Y43.607 E.01479
G1 X49.378 Y57.226 E.42701
G1 X49.236 Y57.842 E.01982
G1 X49.057 Y58.127 E.01055
G1 X48.815 Y58.362 E.01058
G1 X48.429 Y58.586 E.01399
G1 X48.25 Y58.632 E.00579
G1 X40.388 Y58.677 E.24651
G1 X28.48 Y58.677 E.37337
G1 X28.162 Y58.615 E.01016
G1 X28.028 Y58.551 E.00466
G1 X27.321 Y57.907 E.02999
G1 X27.239 Y57.748 E.00561
G1 X27.137 Y57.226 E.01668
G1 X27.143 Y54.708 E.07895
G1 X27.186 Y54.566 E.00465
G1 X27.944 Y53.259 E.04737
G1 X28.252 Y52.609 E.02255
G1 X28.867 Y50.898 E.05701
G1 X29.147 Y49.728 E.03772
G1 X28.586 Y47.66 E.06718
G1 X27.313 Y45.068 E.09054
G1 X26.742 Y44.151 E.03387
G1 X26.649 Y43.713 E.01404
G1 X26.713 Y43.17 E.01714
G1 X26.91 Y42.767 E.01406
G1 X27.144 Y42.528 E.01049
G1 X27.414 Y42.783 F54000
G1 F1200
G1 X27.712 Y42.602 E.01093
G1 X28.112 Y42.525 E.01277
