; generated by PrusaSlicer 2.6.0+MacOS-arm64 on 2023-07-25 at 22:45:06 UTC

; 

; external perimeters extrusion width = 0.42mm
; perimeters extrusion width = 0.44mm
; infill extrusion width = 0.44mm
; solid infill extrusion width = 0.44mm
; top infill extrusion width = 0.40mm
; support material extrusion width = 0.36mm
; first layer extrusion width = 0.42mm

M201 X3500 Y3500 Z150 E5000 ; sets maximum accelerations, mm/sec^2
M203 X500 Y500 Z10 E60 ; sets maximum feedrates, mm / sec
M204 S3500 T1000 ; sets acceleration (S) and retract acceleration (R), mm/sec^2
M205 X8.00 Y8.00 Z0.40 E5.00 ; sets the jerk limits, mm/sec
M205 S0 T0 ; sets the minimum extruding and travel feed rate, mm/sec
;TYPE:Custom
G90 ; use absolute coordinates
M83 ; extruder relative mode
M104 S150 ; set temporary nozzle temp to prevent oozing during homing
M140 S60 ; set final bed temp
G4 S30 ; allow partial nozzle warmup
G28 ; home all axis
G1 Z50 F240
G1 X2.0 Y10 F3000
M104 S205 ; set final nozzle temp
M190 S60 ; wait for bed temp to stabilize
M109 S205 ; wait for nozzle temp to stabilize
G1 Z0.28 F240
G92 E0
G1 X2.0 Y140 E10 F1500 ; prime the nozzle
G1 X2.3 Y140 F5000
G92 E0
G1 X2.3 Y10 E10 F1200 ; prime the nozzle
G92 E0
G21 ; set units to millimeters
G90 ; use absolute coordinates
M83 ; use relative distances for extrusion
; Filament gcode
M107
;LAYER_CHANGE
;Z:0.2
;HEIGHT:0.2
;BEFORE_LAYER_CHANGE
G92 E0
;0.2


G1 E-3.5 F4800
G1 Z.2 F54000
;AFTER_LAYER_CHANGE
;0.2
G1 X22.184 Y31.831
G1 E3.5 F2400
M204 S3500
;TYPE:Skirt/Brim
;WIDTH:0.42
G1 F1200
G1 X23.078 Y31.265 E.03318
G1 X24.48 Y30.642 E.0481
G1 X26.456 Y30.204 E.06346
G1 X27.285 Y30.138 E.02607
G1 X47.897 Y30.155 E.64628
G1 X49.793 Y30.466 E.06024
G1 X51.343 Y31.037 E.05179
G1 X52.941 Y32.029 E.05897
G1 X54.227 Y33.2 E.05453
G1 X55.026 Y34.222 E.04067
G1 X58.916 Y40.552 E.23295
G1 X59.231 Y41.233 E.02353
G1 X59.699 Y42.685 E.04783
G1 X59.908 Y44.604 E.06052
G1 X59.648 Y46.707 E.06644
G1 X56.21 Y58.733 E.39217
G1 X55.618 Y60.207 E.0498
G1 X54.9 Y61.397 E.04358
G1 X54.156 Y62.302 E.03673
G1 X53.095 Y63.289 E.04544
G1 X52.138 Y63.951 E.03649
G1 X51.059 Y64.531 E.03841
G1 X50.305 Y64.827 E.0254
G1 X49.045 Y65.152 E.0408
G1 X43.803 Y66.356 E.16864
G1 X43.021 Y66.446 E.02468
G1 X31.151 Y66.415 E.37218
G1 X25.183 Y64.884 E.19318
G1 X24.484 Y64.615 E.02348
G1 X23.327 Y64.017 E.04084
G1 X22.61 Y63.519 E.02737
G1 X20.987 Y62.047 E.0687
G1 X20.326 Y61.225 E.03307
G1 X19.539 Y59.853 E.04959
G1 X19.164 Y58.867 E.03308
G1 X18.764 Y56.614 E.07175
G1 X18.251 Y39.301 E.54308
G1 X18.342 Y38.112 E.03739
G1 X18.635 Y36.741 E.04396
G1 X19.254 Y35.201 E.05204
G1 X19.966 Y34.021 E.04321
G1 X21.312 Y32.524 E.06312
G1 X22.137 Y31.869 E.03303
G1 E-2.45 F4800
;WIPE_START
G1 F43200
G1 X23.078 Y31.265 E-.11803
G1 X24.48 Y30.642 E-.16194
G1 X26.456 Y30.204 E-.21364
G1 X27.285 Y30.138 E-.08778
G1 X31.724 Y30.142 E-.46861
;WIPE_END
G1 X24.303 Y34.937 F54000
G1 E3.5 F2400
G1 F1200
G1 X25.207 Y34.299 E.03469
G1 X25.616 Y34.151 E.01364
G1 X27.293 Y33.802 E.05371
G1 X47.584 Y33.806 E.63621
G1 X48.901 Y34.04 E.04194
G1 X49.684 Y34.311 E.02598
G1 X51.369 Y35.515 E.06493
G1 X52.086 Y36.434 E.03655
G1 X52.567 Y37.391 E.03358
G1 X52.922 Y38.974 E.05087
G1 X52.946 Y56.277 E.54252
G1 X52.456 Y58.309 E.06554
G1 X51.676 Y59.57 E.04649
G1 X50.829 Y60.403 E.03725
G1 X49.713 Y61.101 E.04127
G1 X48.211 Y61.545 E.04911
G1 X39.823 Y61.626 E.26301
G1 X27.564 Y61.613 E.38437
G1 X26.529 Y61.431 E.03295
G1 X25.56 Y61.057 E.03257
G1 X23.844 Y59.703 E.06854
G1 X22.896 Y58.293 E.05327
G1 X22.456 Y56.662 E.05297
G1 X22.434 Y53.081 E.11228
G1 X22.791 Y51.748 E.04327
G1 X23.688 Y50.133 E.05792
G1 X23.832 Y49.83 E.01052
G1 X24.313 Y48.494 E.04452
G1 X24.492 Y47.774 E.02326
G1 X24.557 Y47.394 E.01209
G1 X24.584 Y47.088 E.00963
G1 X24.502 Y46.369 E.02269
G1 X24.118 Y44.956 E.04591
G1 X23.082 Y42.844 E.07376
G1 X22.349 Y41.591 E.04552
G1 X21.925 Y39.712 E.0604
G1 X22.132 Y37.864 E.05831
G1 X22.661 Y36.612 E.04262
G1 X23.489 Y35.512 E.04317
G1 X24.254 Y34.972 E.02936
G1 X24.467 Y35.274 F54000
G1 F1200
G1 X25.361 Y34.644 E.03429
G1 X25.708 Y34.517 E.01159
G1 X27.313 Y34.179 E.05143
G1 X47.567 Y34.183 E.63505
G1 X48.819 Y34.408 E.03988
G1 X49.533 Y34.658 E.02372
G1 X51.126 Y35.804 E.06153
G1 X51.775 Y36.649 E.03341
G1 X52.22 Y37.538 E.03117
G1 X52.549 Y39.034 E.04803
G1 X52.569 Y56.254 E.53992
G1 X52.097 Y58.19 E.06248
G1 X51.396 Y59.318 E.04164
G1 X50.611 Y60.094 E.03461
G1 X49.535 Y60.767 E.03979
G1 X48.131 Y61.176 E.04585
G1 X39.82 Y61.249 E.2606
G1 X27.612 Y61.239 E.38277
G1 X26.647 Y61.073 E.0307
G1 X25.723 Y60.716 E.03106
G1 X24.103 Y59.427 E.06491
G1 X23.228 Y58.111 E.04955
G1 X22.827 Y56.59 E.04932
G1 X22.811 Y53.105 E.10927
G1 X23.148 Y51.87 E.04014
G1 X24.023 Y50.306 E.05619
G1 X24.18 Y49.975 E.01149
G1 X24.675 Y48.603 E.04573
G1 X24.861 Y47.852 E.02426
G1 X24.931 Y47.443 E.01301
G1 X24.963 Y47.083 E.01133
G1 X24.874 Y46.297 E.0248
G1 X24.473 Y44.823 E.0479
G1 X23.414 Y42.666 E.07534
G1 X22.689 Y41.426 E.04504
G1 X22.303 Y39.721 E.05481
G1 X22.49 Y37.985 E.05475
G1 X22.999 Y36.781 E.04099
G1 X23.772 Y35.764 E.04005
G1 X24.418 Y35.308 E.02479
G1 X24.63 Y35.611 F54000
G1 F1200
G1 X25.516 Y34.989 E.03394
G1 X25.801 Y34.882 E.00955
G1 X27.333 Y34.556 E.04911
G1 X47.549 Y34.56 E.63386
G1 X48.736 Y34.777 E.03783
G1 X49.382 Y35.004 E.02147
G1 X50.844 Y36.056 E.05647
G1 X51.465 Y36.864 E.03195
G1 X51.871 Y37.684 E.02869
G1 X52.177 Y39.094 E.04524
G1 X52.192 Y56.231 E.53732
G1 X51.738 Y58.07 E.05939
G1 X51.114 Y59.066 E.03685
G1 X50.392 Y59.786 E.03197
G1 X49.358 Y60.433 E.03824
G1 X48.053 Y60.806 E.04256
G1 X39.818 Y60.872 E.25821
G1 X27.66 Y60.864 E.38121
G1 X26.73 Y60.704 E.02959
G1 X25.887 Y60.376 E.02836
G1 X24.363 Y59.152 E.06129
G1 X23.56 Y57.931 E.04582
G1 X23.198 Y56.519 E.0457
G1 X23.188 Y53.131 E.10623
G1 X23.505 Y51.994 E.03701
G1 X24.358 Y50.48 E.05449
G1 X24.529 Y50.12 E.0125
G1 X25.036 Y48.713 E.04689
G1 X25.23 Y47.93 E.02529
G1 X25.306 Y47.492 E.01394
G1 X25.342 Y47.079 E.013
G1 X25.245 Y46.226 E.02692
G1 X24.827 Y44.689 E.04994
G1 X23.747 Y42.487 E.0769
G1 X23.029 Y41.26 E.04457
G1 X22.682 Y39.729 E.04922
G1 X22.849 Y38.104 E.05122
G1 X23.314 Y36.99 E.03785
G1 X24.054 Y36.015 E.03838
G1 X24.581 Y35.645 E.02019
G1 X24.793 Y35.948 F54000
G1 F1200
G1 X25.673 Y35.333 E.03366
G1 X25.895 Y35.248 E.00745
G1 X27.353 Y34.933 E.04677
G1 X47.532 Y34.937 E.6327
G1 X48.652 Y35.144 E.03571
G1 X49.23 Y35.35 E.01924
G1 X50.599 Y36.344 E.05305
G1 X51.153 Y37.076 E.02878
G1 X51.522 Y37.829 E.02629
G1 X51.804 Y39.153 E.04244
G1 X51.815 Y56.208 E.53475
G1 X51.38 Y57.949 E.05627
G1 X50.832 Y58.815 E.03213
G1 X50.174 Y59.478 E.02929
G1 X49.182 Y60.098 E.03668
G1 X47.976 Y60.436 E.03927
G1 X39.816 Y60.495 E.25586
G1 X27.707 Y60.49 E.37967
G1 X26.848 Y60.346 E.02731
G1 X26.052 Y60.035 E.0268
G1 X24.624 Y58.878 E.05763
G1 X23.894 Y57.753 E.04205
G1 X23.569 Y56.451 E.04208
G1 X23.565 Y53.158 E.10325
G1 X23.861 Y52.12 E.03384
G1 X24.692 Y50.655 E.05281
G1 X24.877 Y50.265 E.01353
G1 X25.397 Y48.822 E.04809
G1 X25.599 Y48.007 E.02633
G1 X25.68 Y47.54 E.01486
G1 X25.721 Y47.074 E.01467
G1 X25.616 Y46.155 E.029
G1 X25.182 Y44.555 E.05198
G1 X24.079 Y42.309 E.07846
G1 X23.369 Y41.095 E.0441
G1 X23.06 Y39.735 E.04373
G1 X23.208 Y38.223 E.04763
G1 X23.652 Y37.158 E.03618
G1 X24.335 Y36.268 E.03518
G1 X24.744 Y35.982 E.01565
G1 X24.955 Y36.285 F54000
G1 F1200
G1 X25.831 Y35.675 E.03347
G1 X25.991 Y35.613 E.00538
G1 X27.374 Y35.31 E.04439
G1 X47.514 Y35.314 E.63148
G1 X48.567 Y35.512 E.03359
G1 X49.076 Y35.696 E.01697
G1 X50.352 Y36.631 E.0496
G1 X50.839 Y37.286 E.02559
G1 X51.173 Y37.972 E.02392
G1 X51.431 Y39.211 E.03968
G1 X51.438 Y56.185 E.53221
G1 X51.022 Y57.826 E.05308
G1 X50.549 Y58.565 E.02751
G1 X49.954 Y59.171 E.02663
G1 X49.006 Y59.764 E.03506
G1 X47.901 Y60.066 E.03592
G1 X39.816 Y60.118 E.2535
G1 X27.752 Y60.115 E.37826
G1 X26.966 Y59.987 E.02497
G1 X26.217 Y59.695 E.02521
G1 X24.886 Y58.606 E.05392
G1 X24.229 Y57.578 E.03825
G1 X23.941 Y56.385 E.03848
G1 X23.942 Y53.185 E.10033
G1 X24.216 Y52.248 E.03061
G1 X25.026 Y50.83 E.0512
G1 X25.226 Y50.411 E.01456
G1 X25.758 Y48.932 E.04928
G1 X25.969 Y48.085 E.02737
G1 X26.054 Y47.589 E.01578
G1 X26.1 Y47.069 E.01637
G1 X25.988 Y46.083 E.03111
G1 X25.536 Y44.422 E.05397
G1 X24.412 Y42.13 E.08004
G1 X23.709 Y40.929 E.04363
G1 X23.438 Y39.739 E.03827
G1 X23.568 Y38.339 E.04408
G1 X23.967 Y37.367 E.03294
G1 X24.617 Y36.521 E.03345
G1 X24.905 Y36.32 E.01101
G1 X25.115 Y36.624 F54000
G1 F1200
G1 X25.993 Y36.016 E.03349
G1 X26.09 Y35.977 E.00328
G1 X27.395 Y35.687 E.04192
G1 X47.496 Y35.691 E.63025
G1 X48.48 Y35.879 E.03141
G1 X48.92 Y36.04 E.01469
G1 X50.104 Y36.916 E.04618
G1 X50.523 Y37.493 E.02236
G1 X50.822 Y38.114 E.02161
G1 X51.057 Y39.267 E.03689
G1 X51.061 Y56.161 E.5297
G1 X50.665 Y57.702 E.04989
G1 X50.266 Y58.316 E.02296
G1 X49.735 Y58.863 E.0239
G1 X48.83 Y59.429 E.03347
G1 X47.828 Y59.696 E.03251
G1 X39.814 Y59.741 E.25128
G1 X27.797 Y59.741 E.37678
G1 X27.048 Y59.618 E.0238
G1 X26.384 Y59.356 E.02238
G1 X25.151 Y58.336 E.05017
G1 X24.566 Y57.405 E.03448
G1 X24.313 Y56.322 E.03487
G1 X24.319 Y53.214 E.09745
G1 X24.571 Y52.378 E.02738
G1 X25.361 Y51.005 E.04967
G1 X25.574 Y50.556 E.01558
G1 X26.12 Y49.042 E.05046
G1 X26.338 Y48.162 E.02843
G1 X26.428 Y47.638 E.01667
G1 X26.479 Y47.064 E.01807
G1 X26.359 Y46.012 E.0332
G1 X25.89 Y44.288 E.05602
G1 X24.744 Y41.952 E.08158
G1 X24.049 Y40.765 E.04313
G1 X23.812 Y39.687 E.03461
G1 X23.927 Y38.457 E.03873
G1 X24.306 Y37.535 E.03126
G1 X24.896 Y36.775 E.03017
G1 X25.066 Y36.658 E.00647
G1 X25.275 Y36.962 F54000
G1 F1200
G1 X26.193 Y36.34 E.03477
G1 X27.416 Y36.064 E.03931
G1 X47.477 Y36.068 E.629
G1 X48.392 Y36.246 E.02923
G1 X48.764 Y36.384 E.01244
G1 X49.817 Y37.162 E.04105
G1 X50.191 Y37.672 E.01983
G1 X50.472 Y38.255 E.02029
G1 X50.684 Y39.322 E.03411
G1 X50.684 Y56.137 E.52722
G1 X50.332 Y57.522 E.04481
G1 X49.96 Y58.094 E.02139
G1 X49.481 Y58.584 E.02148
G1 X48.704 Y59.073 E.02879
G1 X47.8 Y59.319 E.02938
G1 X39.812 Y59.363 E.25046
G1 X27.813 Y59.363 E.37622
G1 X27.131 Y59.25 E.02168
G1 X26.554 Y59.017 E.01951
G1 X25.417 Y58.067 E.04646
G1 X24.904 Y57.235 E.03065
G1 X24.686 Y56.261 E.03129
G1 X24.696 Y53.245 E.09457
G1 X24.924 Y52.511 E.0241
G1 X25.694 Y51.181 E.04819
G1 X25.923 Y50.701 E.01668
G1 X26.481 Y49.151 E.05165
G1 X26.707 Y48.24 E.02943
G1 X26.803 Y47.687 E.0176
G1 X26.858 Y47.06 E.01973
G1 X26.731 Y45.941 E.03531
G1 X26.245 Y44.154 E.05807
G1 X25.077 Y41.773 E.08315
G1 X24.391 Y40.601 E.04258
G1 X24.187 Y39.638 E.03086
G1 X24.287 Y38.572 E.03357
G1 X24.62 Y37.745 E.02795
G1 X25.176 Y37.03 E.0284
G1 X25.225 Y36.996 E.00187
G1 X25.452 Y37.288 F54000
G1 F1200
G1 X26.328 Y36.696 E.03315
G1 X27.437 Y36.441 E.03568
G1 X47.458 Y36.445 E.62774
G1 X48.303 Y36.613 E.02701
G1 X48.606 Y36.728 E.01016
G1 X49.53 Y37.408 E.03597
G1 X49.877 Y37.881 E.01839
G1 X50.121 Y38.395 E.01784
G1 X50.307 Y39.34 E.0302
G1 X50.307 Y56.114 E.52594
G1 X49.998 Y57.343 E.03973
G1 X49.655 Y57.872 E.01977
G1 X49.229 Y58.302 E.01898
G1 X48.528 Y58.738 E.02588
G1 X47.774 Y58.942 E.02449
G1 X39.811 Y58.986 E.24968
G1 X27.829 Y58.986 E.37569
G1 X27.215 Y58.882 E.01953
G1 X26.725 Y58.681 E.01661
G1 X25.685 Y57.8 E.04274
G1 X25.244 Y57.069 E.02677
G1 X25.059 Y56.203 E.02777
G1 X25.073 Y53.276 E.09178
G1 X25.261 Y52.682 E.01954
G1 X26.028 Y51.357 E.048
G1 X26.271 Y50.846 E.01774
G1 X26.842 Y49.261 E.05282
G1 X27.077 Y48.317 E.0305
G1 X27.177 Y47.736 E.01848
G1 X27.237 Y47.055 E.02143
G1 X27.102 Y45.87 E.0374
G1 X26.599 Y44.021 E.06008
G1 X25.409 Y41.594 E.08475
G1 X24.732 Y40.439 E.04198
G1 X24.562 Y39.592 E.02709
G1 X24.647 Y38.687 E.0285
G1 X24.959 Y37.912 E.02619
G1 X25.415 Y37.335 E.02306
G1 X25.711 Y37.568 F54000
G1 F1200
G1 X26.507 Y37.03 E.03012
G1 X27.457 Y36.819 E.03051
G1 X47.439 Y36.822 E.62652
G1 X48.211 Y36.979 E.0247
G1 X48.447 Y37.07 E.00793
G1 X49.244 Y37.656 E.03102
G1 X49.544 Y38.06 E.01578
G1 X49.77 Y38.535 E.01649
G1 X49.93 Y39.358 E.02629
G1 X49.93 Y56.092 E.52468
G1 X49.664 Y57.167 E.03472
G1 X49.373 Y57.621 E.01691
G1 X48.978 Y58.02 E.0176
G1 X48.355 Y58.402 E.02291
G1 X47.748 Y58.565 E.01971
G1 X39.809 Y58.609 E.24893
G1 X27.846 Y58.609 E.37509
G1 X27.302 Y58.514 E.01731
G1 X26.9 Y58.345 E.01367
G1 X25.955 Y57.535 E.03902
G1 X25.586 Y56.907 E.02284
G1 X25.432 Y56.148 E.02428
G1 X25.45 Y53.308 E.08905
G1 X25.597 Y52.855 E.01493
G1 X26.362 Y51.533 E.04789
G1 X26.62 Y50.992 E.01879
G1 X27.204 Y49.37 E.05405
G1 X27.446 Y48.395 E.0315
G1 X27.551 Y47.785 E.01941
G1 X27.616 Y47.05 E.02314
G1 X27.473 Y45.798 E.03951
G1 X26.954 Y43.887 E.06209
G1 X25.741 Y41.416 E.08631
G1 X25.075 Y40.277 E.04137
G1 X24.938 Y39.549 E.02323
G1 X25.008 Y38.799 E.02362
G1 X25.273 Y38.123 E.02277
G1 X25.674 Y37.616 E.02027
G1 X25.966 Y37.852 F54000
G1 F1200
G1 X26.003 Y37.807 E.00183
G1 X26.682 Y37.366 E.02539
G1 X27.476 Y37.196 E.02546
G1 X47.419 Y37.199 E.6253
G1 X48.117 Y37.345 E.02236
G1 X48.285 Y37.411 E.00566
G1 X48.959 Y37.904 E.02618
G1 X49.23 Y38.269 E.01425
G1 X49.419 Y38.673 E.01398
G1 X49.553 Y39.375 E.02241
G1 X49.553 Y56.07 E.52346
G1 X49.329 Y56.99 E.02969
G1 X49.066 Y57.4 E.01527
G1 X48.729 Y57.736 E.01492
G1 X48.184 Y58.065 E.01996
G1 X47.722 Y58.188 E.01499
G1 X39.809 Y58.232 E.24811
G1 X27.863 Y58.232 E.37456
G1 X27.392 Y58.147 E.01501
G1 X27.078 Y58.011 E.01073
G1 X26.228 Y57.273 E.03529
G1 X25.93 Y56.75 E.01887
G1 X25.806 Y56.098 E.02081
G1 X25.827 Y53.342 E.08641
G1 X25.932 Y53.028 E.01038
G1 X26.696 Y51.708 E.04782
G1 X26.968 Y51.137 E.01983
G1 X27.565 Y49.48 E.05522
G1 X27.815 Y48.472 E.03256
G1 X27.925 Y47.834 E.0203
G1 X27.995 Y47.045 E.02484
G1 X27.845 Y45.727 E.04159
G1 X27.308 Y43.753 E.06414
G1 X26.073 Y41.235 E.08793
G1 X25.439 Y40.174 E.03875
G1 X25.313 Y39.507 E.02128
G1 X25.38 Y38.866 E.02021
G1 X25.612 Y38.291 E.01944
G1 X25.929 Y37.898 E.01583
G1 X26.222 Y38.135 F54000
G1 F1200
G1 X26.278 Y38.066 E.00279
G1 X26.797 Y37.726 E.01945
G1 X27.497 Y37.573 E.02247
G1 X47.399 Y37.576 E.62401
G1 X48.02 Y37.709 E.01991
G1 X48.12 Y37.751 E.0034
G1 X48.676 Y38.154 E.02153
G1 X48.897 Y38.447 E.01151
G1 X49.067 Y38.811 E.0126
G1 X49.175 Y39.392 E.01853
G1 X49.175 Y56.048 E.52224
G1 X48.993 Y56.817 E.02478
G1 X48.785 Y57.149 E.01228
G1 X48.48 Y57.452 E.01348
G1 X48.015 Y57.727 E.01694
G1 X47.696 Y57.811 E.01034
G1 X39.808 Y57.855 E.24733
G1 X27.881 Y57.855 E.37396
G1 X27.485 Y57.781 E.01263
G1 X27.26 Y57.68 E.00773
G1 X26.501 Y57.011 E.03172
G1 X26.294 Y56.649 E.01307
G1 X26.18 Y56.045 E.01927
G1 X26.195 Y53.429 E.08202
G1 X26.269 Y53.199 E.00758
G1 X27.03 Y51.884 E.04764
G1 X27.316 Y51.282 E.0209
G1 X27.926 Y49.59 E.05639
G1 X28.184 Y48.55 E.0336
G1 X28.299 Y47.882 E.02125
G1 X28.374 Y47.041 E.02647
G1 X28.216 Y45.656 E.04371
G1 X27.663 Y43.619 E.06618
G1 X26.403 Y41.053 E.08963
G1 X25.802 Y40.066 E.03623
G1 X25.691 Y39.513 E.01768
G1 X25.741 Y38.976 E.01691
G1 X25.924 Y38.504 E.01587
G1 X26.185 Y38.182 E.013
G1 X26.473 Y38.421 F54000
G1 F1200
G1 X26.547 Y38.331 E.00365
G1 X26.968 Y38.063 E.01565
G1 X27.515 Y37.95 E.01751
G1 X47.377 Y37.953 E.62276
G1 X47.948 Y38.086 E.01838
G1 X48.392 Y38.405 E.01714
G1 X48.583 Y38.657 E.00991
G1 X48.714 Y38.944 E.00989
G1 X48.798 Y39.409 E.01482
G1 X48.798 Y56.027 E.52105
G1 X48.656 Y56.644 E.01985
G1 X48.478 Y56.928 E.01051
G1 X48.236 Y57.164 E.0106
G1 X47.85 Y57.387 E.01398
G1 X47.671 Y57.434 E.0058
G1 X39.807 Y57.478 E.24657
G1 X27.9 Y57.478 E.37334
G1 X27.582 Y57.416 E.01016
G1 X27.447 Y57.353 E.00467
G1 X26.775 Y56.751 E.02829
G1 X26.658 Y56.546 E.0074
G1 X26.557 Y56.027 E.01658
G1 X26.564 Y53.51 E.07892
G1 X26.607 Y53.368 E.00465
G1 X27.364 Y52.06 E.04738
G1 X27.665 Y51.428 E.02195
G1 X28.288 Y49.699 E.05762
G1 X28.554 Y48.627 E.03463
G1 X28.674 Y47.931 E.02214
G1 X28.753 Y47.036 E.02817
G1 X28.587 Y45.585 E.04579
G1 X28.017 Y43.486 E.0682
G1 X26.733 Y40.869 E.0914
G1 X26.163 Y39.953 E.03383
G1 X26.069 Y39.518 E.01395
G1 X26.114 Y39.04 E.01505
G1 X26.261 Y38.675 E.01234
G1 X26.434 Y38.467 E.00848
G1 X26.716 Y38.711 F54000
G1 F1200
G1 X26.811 Y38.602 E.00453
G1 X27.134 Y38.404 E.01188
