; generated by PrusaSlicer 2.6.0+MacOS-arm64 on 2023-07-25 at 16:25:09 UTC

; 

; external perimeters extrusion width = 0.42mm
; perimeters extrusion width = 0.44mm
; infill extrusion width = 0.44mm
; solid infill extrusion width = 0.44mm
; top infill extrusion width = 0.40mm
; first layer extrusion width = 0.42mm

M201 X3500 Y3500 Z150 E5000 ; sets maximum accelerations, mm/sec^2
M203 X500 Y500 Z10 E60 ; sets maximum feedrates, mm / sec
M204 S3500 T1000 ; sets acceleration (S) and retract acceleration (R), mm/sec^2
M205 X8.00 Y8.00 Z0.40 E5.00 ; sets the jerk limits, mm/sec
M205 S0 T0 ; sets the minimum extruding and travel feed rate, mm/sec
;TYPE:Custom
G90 ; use absolute coordinates
M83 ; extruder relative mode
M104 S150 ; set temporary nozzle temp to prevent oozing during homing
M140 S60 ; set final bed temp
G4 S30 ; allow partial nozzle warmup
G28 ; home all axis
G1 Z50 F240
G1 X2.0 Y10 F3000
M104 S205 ; set final nozzle temp
M190 S60 ; wait for bed temp to stabilize
M109 S205 ; wait for nozzle temp to stabilize
G1 Z0.28 F240
G92 E0
G1 X2.0 Y140 E10 F1500 ; prime the nozzle
G1 X2.3 Y140 F5000
G92 E0
G1 X2.3 Y10 E10 F1200 ; prime the nozzle
G92 E0
G21 ; set units to millimeters
G90 ; use absolute coordinates
M83 ; use relative distances for extrusion
; Filament gcode
M107
;LAYER_CHANGE
;Z:0.2
;HEIGHT:0.2
;BEFORE_LAYER_CHANGE
G92 E0
;0.2


G1 E-3.5 F4800
G1 Z.2 F54000
;AFTER_LAYER_CHANGE
;0.2
G1 X19.831 Y15.126
G1 E3.5 F2400
M204 S3500
;TYPE:Skirt/Brim
;WIDTH:0.42
G1 F1200
G1 X22.76 Y12.197 E.12988
G1 X24.158 Y11.356 E.05115
G1 X25.148 Y11.208 E.03139
G1 X50.491 Y11.208 E.79461
G1 X51.969 Y11.548 E.04755
G1 X57.606 Y14.292 E.19657
G1 X58.27 Y14.717 E.02472
G1 X59.547 Y15.797 E.05244
G1 X60.054 Y16.358 E.02371
G1 X61.139 Y17.993 E.06153
G1 X61.799 Y19.68 E.0568
G1 X62.098 Y21.547 E.05928
G1 X62.136 Y29.14 E.23808
G1 X61.929 Y30.859 E.05429
G1 X55.292 Y51.398 E.67677
G1 X54.682 Y53.003 E.05384
G1 X54.103 Y53.981 E.03564
G1 X52.884 Y55.418 E.05908
G1 X52.147 Y56.065 E.03075
G1 X50.59 Y57.075 E.05819
G1 X49.488 Y57.538 E.03748
G1 X47.494 Y57.983 E.06406
G1 X46.7 Y58.063 E.02502
G1 X41.229 Y57.968 E.17157
G1 X39.744 Y57.596 E.048
G1 X37.344 Y56.363 E.0846
G1 X36.332 Y55.568 E.04035
G1 X35.022 Y54.053 E.0628
G1 X21.052 Y33.286 E.78475
G1 X20.718 Y32.588 E.02426
G1 X19.017 Y27.528 E.16738
G1 X18.842 Y26.456 E.03406
G1 X18.842 Y17.514 E.28037
G1 X19.236 Y15.931 E.05115
G1 X19.796 Y15.174 E.02952
G1 E-2.45 F4800
;WIPE_START
G1 F43200
G1 X22.76 Y12.197 E-.44343
G1 X24.158 Y11.356 E-.17221
G1 X25.148 Y11.208 E-.10566
G1 X28.262 Y11.208 E-.3287
;WIPE_END
G1 X23.181 Y17.173 F54000
G1 E3.5 F2400
G1 F1200
G1 X23.455 Y16.709 E.0169
G1 X24.659 Y15.585 E.05164
G1 X25.484 Y15.171 E.02894
G1 X26.568 Y14.89 E.03511
G1 X36.549 Y14.879 E.31295
G1 X37.604 Y15.108 E.03385
G1 X38.497 Y15.534 E.03102
G1 X39.315 Y16.245 E.03398
G1 X39.998 Y15.633 E.02875
G1 X40.988 Y15.126 E.03487
G1 X42.017 Y14.888 E.03312
G1 X48.869 Y14.875 E.21484
G1 X49.659 Y14.998 E.02507
G1 X51.134 Y15.697 E.05118
G1 X52.087 Y16.593 E.04101
G1 X52.249 Y16.812 E.00854
G1 X53.419 Y16.825 E.03669
G1 X54.464 Y16.995 E.0332
G1 X55.661 Y17.461 E.04027
G1 X56.833 Y18.308 E.04534
G1 X57.676 Y19.346 E.04193
G1 X58.233 Y20.585 E.04259
G1 X58.456 Y21.983 E.04439
G1 X58.481 Y28.32 E.19869
G1 X58.379 Y29.927 E.05049
G1 X58.071 Y30.959 E.03377
G1 X57.704 Y31.729 E.02674
G1 X56.394 Y33.215 E.06211
G1 X54.984 Y34.013 E.0508
G1 X53.581 Y34.335 E.04513
G1 X51.932 Y34.334 E.0517
G1 X51.909 Y49.35 E.47082
G1 X51.599 Y50.799 E.04646
G1 X50.904 Y52.077 E.04561
G1 X50.044 Y52.977 E.03903
G1 X49.074 Y53.644 E.03691
G1 X48.081 Y54.086 E.03408
G1 X46.63 Y54.309 E.04603
G1 X46.266 Y54.278 E.01145
G1 X41.767 Y54.259 E.14106
G1 X40.845 Y54.012 E.02993
G1 X40.264 Y53.71 E.02053
G1 X39.702 Y53.452 E.01939
G1 X38.637 Y52.623 E.04232
G1 X37.856 Y51.56 E.04136
G1 X37.318 Y50.235 E.04484
G1 X37.14 Y49.266 E.03089
G1 X37.14 Y48.919 E.01088
G1 X31.122 Y38.163 E.38644
G1 X28.942 Y34.328 E.13831
G1 X28.004 Y34.256 E.0295
G1 X26.686 Y33.779 E.04395
G1 X25.262 Y32.797 E.05424
G1 X24.478 Y31.851 E.03852
G1 X23.988 Y30.851 E.03492
G1 X23.625 Y29.308 E.0497
G1 X23.629 Y27.433 E.05879
G1 X23.368 Y27.15 E.01207
G1 X22.941 Y26.45 E.02571
G1 X22.52 Y25.004 E.04722
G1 X22.518 Y18.982 E.18882
G1 X22.848 Y17.739 E.04032
G1 X23.151 Y17.225 E.01871
G1 X23.474 Y17.413 F54000
G1 F1200
G1 X23.734 Y16.964 E.01627
G1 X24.854 Y15.908 E.04826
G1 X25.598 Y15.53 E.02617
G1 X26.639 Y15.261 E.03371
G1 X36.529 Y15.256 E.31009
G1 X37.461 Y15.458 E.0299
G1 X38.31 Y15.863 E.02949
G1 X39.319 Y16.754 E.04221
G1 X40.193 Y15.957 E.03709
G1 X41.139 Y15.472 E.03333
G1 X42.079 Y15.261 E.03021
G1 X48.829 Y15.25 E.21164
G1 X49.524 Y15.351 E.02202
G1 X50.944 Y16.025 E.04928
G1 X51.813 Y16.852 E.03761
G1 X52.051 Y17.187 E.01288
G1 X53.4 Y17.202 E.0423
G1 X54.383 Y17.363 E.03123
G1 X55.5 Y17.803 E.03764
G1 X56.59 Y18.597 E.04228
G1 X57.367 Y19.563 E.03887
G1 X57.865 Y20.67 E.03806
G1 X58.079 Y21.999 E.04221
G1 X58.104 Y28.315 E.19804
G1 X58.004 Y29.881 E.0492
G1 X57.714 Y30.835 E.03126
G1 X57.375 Y31.543 E.02461
G1 X56.179 Y32.903 E.05679
G1 X54.871 Y33.652 E.04726
G1 X53.559 Y33.958 E.04224
G1 X51.555 Y33.957 E.06283
G1 X51.532 Y49.33 E.48201
G1 X51.255 Y50.643 E.04207
G1 X50.585 Y51.875 E.04397
G1 X49.814 Y52.677 E.03488
G1 X48.902 Y53.308 E.03477
G1 X47.997 Y53.718 E.03115
G1 X46.639 Y53.931 E.0431
G1 X46.283 Y53.901 E.0112
G1 X41.839 Y53.888 E.13934
G1 X41 Y53.667 E.0272
G1 X40.428 Y53.37 E.02021
G1 X39.913 Y53.139 E.0177
G1 X38.925 Y52.378 E.0391
G1 X38.174 Y51.356 E.03977
G1 X37.685 Y50.148 E.04086
G1 X37.514 Y49.217 E.02968
G1 X37.519 Y48.824 E.01232
G1 X31.451 Y37.977 E.3897
G1 X29.17 Y33.965 E.1447
G1 X28.105 Y33.892 E.03347
G1 X26.879 Y33.454 E.04082
G1 X25.497 Y32.502 E.05262
G1 X24.806 Y31.664 E.03406
G1 X24.351 Y30.743 E.03221
G1 X23.998 Y29.243 E.04832
G1 X24.007 Y27.282 E.06149
G1 X23.679 Y26.936 E.01495
G1 X23.276 Y26.276 E.02425
G1 X22.89 Y24.925 E.04405
G1 X22.889 Y19.053 E.18411
G1 X23.187 Y17.905 E.03719
G1 X23.443 Y17.464 E.01599
G1 X23.767 Y17.65 F54000
G1 F1200
G1 X24.015 Y17.218 E.01562
G1 X25.052 Y16.231 E.04489
G1 X25.714 Y15.89 E.02335
G1 X26.711 Y15.632 E.03229
G1 X36.471 Y15.629 E.30602
G1 X37.319 Y15.808 E.02717
G1 X38.123 Y16.191 E.02792
G1 X39.094 Y17.06 E.04086
G1 X39.32 Y17.376 E.01218
G1 X39.542 Y17.063 E.01203
G1 X40.388 Y16.28 E.03614
G1 X41.288 Y15.819 E.03171
G1 X42.139 Y15.633 E.02731
G1 X48.793 Y15.626 E.20863
G1 X49.39 Y15.705 E.01888
G1 X50.754 Y16.352 E.04733
G1 X51.536 Y17.109 E.03413
G1 X51.852 Y17.562 E.01732
G1 X53.381 Y17.579 E.04794
G1 X54.301 Y17.732 E.02924
G1 X55.338 Y18.144 E.03499
G1 X56.346 Y18.886 E.03924
G1 X57.057 Y19.779 E.03579
G1 X57.497 Y20.755 E.03357
G1 X57.702 Y22.015 E.04003
G1 X57.727 Y28.31 E.19738
G1 X57.629 Y29.834 E.04788
G1 X57.358 Y30.709 E.02872
G1 X57.047 Y31.356 E.02251
G1 X55.963 Y32.593 E.05157
G1 X54.757 Y33.292 E.04371
G1 X53.537 Y33.581 E.03931
G1 X51.179 Y33.58 E.07393
G1 X51.155 Y49.309 E.49317
G1 X50.892 Y50.536 E.03935
G1 X50.267 Y51.67 E.0406
G1 X49.584 Y52.378 E.03084
G1 X48.728 Y52.973 E.03269
G1 X47.911 Y53.35 E.02821
G1 X46.647 Y53.553 E.04014
G1 X46.299 Y53.524 E.01095
G1 X41.91 Y53.517 E.13761
G1 X41.155 Y53.323 E.02444
G1 X40.59 Y53.03 E.01996
G1 X40.124 Y52.825 E.01596
G1 X39.176 Y52.096 E.0375
G1 X38.493 Y51.154 E.03648
G1 X38.053 Y50.061 E.03694
G1 X37.889 Y49.168 E.02847
G1 X37.899 Y48.731 E.01371
G1 X31.779 Y37.792 E.39301
G1 X29.396 Y33.6 E.15119
G1 X28.205 Y33.527 E.03741
G1 X27.072 Y33.129 E.03765
G1 X25.733 Y32.207 E.05097
G1 X25.133 Y31.476 E.02965
G1 X24.712 Y30.635 E.02949
G1 X24.37 Y29.179 E.04689
G1 X24.386 Y27.13 E.06425
G1 X23.99 Y26.721 E.01785
G1 X23.612 Y26.102 E.02274
G1 X23.26 Y24.849 E.04081
G1 X23.26 Y19.123 E.17953
G1 X23.527 Y18.069 E.03409
G1 X23.738 Y17.702 E.01327
G1 X24.059 Y17.886 F54000
G1 F1200
G1 X24.296 Y17.47 E.01501
G1 X25.251 Y16.552 E.04153
G1 X25.83 Y16.249 E.02049
G1 X26.782 Y16.003 E.03083
G1 X36.451 Y16.006 E.30316
G1 X37.217 Y16.172 E.02457
G1 X37.934 Y16.518 E.02496
G1 X38.819 Y17.32 E.03745
G1 X39.322 Y18.089 E.02881
G1 X39.819 Y17.319 E.02874
G1 X40.584 Y16.603 E.03285
G1 X41.437 Y16.167 E.03004
G1 X42.197 Y16.006 E.02436
G1 X48.78 Y16.003 E.20641
G1 X49.31 Y16.075 E.01677
G1 X50.514 Y16.644 E.04175
G1 X51.259 Y17.366 E.03253
G1 X51.651 Y17.937 E.02172
G1 X53.362 Y17.956 E.05365
G1 X54.219 Y18.1 E.02725
G1 X55.136 Y18.463 E.03092
G1 X56.068 Y19.142 E.03615
G1 X56.724 Y19.959 E.03285
G1 X57.129 Y20.842 E.03046
G1 X57.325 Y22.032 E.03781
G1 X57.349 Y28.306 E.19672
G1 X57.262 Y29.745 E.0452
G1 X57.003 Y30.584 E.02753
G1 X56.719 Y31.169 E.02039
G1 X55.747 Y32.282 E.04633
G1 X54.593 Y32.951 E.04182
G1 X53.474 Y33.209 E.03601
G1 X50.802 Y33.201 E.08378
G1 X50.782 Y49.252 E.50327
G1 X50.547 Y50.381 E.03616
G1 X49.977 Y51.428 E.03738
G1 X49.353 Y52.08 E.0283
G1 X48.527 Y52.654 E.03154
G1 X47.778 Y52.996 E.02582
G1 X46.615 Y53.177 E.0369
G1 X46.319 Y53.146 E.00933
G1 X41.981 Y53.146 E.13601
G1 X41.271 Y52.963 E.02299
G1 X40.755 Y52.69 E.0183
G1 X40.297 Y52.49 E.01567
G1 X39.43 Y51.816 E.03443
G1 X38.813 Y50.954 E.03324
G1 X38.41 Y49.94 E.03421
G1 X38.264 Y49.123 E.02602
G1 X38.28 Y48.64 E.01515
G1 X32.108 Y37.607 E.39638
G1 X29.622 Y33.234 E.15772
G1 X28.302 Y33.162 E.04145
G1 X27.263 Y32.803 E.03447
G1 X26.006 Y31.945 E.04772
G1 X25.46 Y31.286 E.02683
G1 X25.074 Y30.525 E.02675
G1 X24.747 Y29.159 E.04404
G1 X24.764 Y26.975 E.06848
G1 X24.3 Y26.505 E.02071
G1 X23.947 Y25.927 E.02124
G1 X23.637 Y24.823 E.03595
G1 X23.637 Y19.147 E.17797
G1 X23.886 Y18.188 E.03107
G1 X24.029 Y17.938 E.00903
G1 X24.351 Y18.125 F54000
G1 F1200
G1 X24.608 Y17.683 E.01603
G1 X25.451 Y16.872 E.03668
G1 X25.949 Y16.608 E.01767
G1 X26.807 Y16.38 E.02784
G1 X36.43 Y16.383 E.30172
G1 X37.112 Y16.535 E.02191
G1 X37.742 Y16.844 E.022
G1 X38.545 Y17.58 E.03415
G1 X38.966 Y18.238 E.02449
G1 X39.181 Y18.932 E.02278
G1 X39.46 Y18.932 E.00875
G1 X39.67 Y18.249 E.0224
G1 X40.097 Y17.575 E.02502
G1 X40.781 Y16.927 E.02954
G1 X41.585 Y16.515 E.02833
G1 X42.252 Y16.38 E.02134
G1 X48.767 Y16.38 E.20427
G1 X49.23 Y16.444 E.01466
G1 X50.274 Y16.937 E.0362
G1 X50.983 Y17.623 E.03093
G1 X51.288 Y18.076 E.01712
G1 X51.386 Y18.312 E.00801
G1 X53.316 Y18.33 E.06052
G1 X54.101 Y18.459 E.02494
G1 X54.936 Y18.784 E.02809
G1 X55.792 Y19.4 E.03307
G1 X56.393 Y20.14 E.02989
G1 X56.762 Y20.93 E.02734
G1 X56.948 Y22.049 E.03557
G1 X56.972 Y28.302 E.19606
G1 X56.895 Y29.656 E.04252
G1 X56.646 Y30.46 E.02639
G1 X56.417 Y30.941 E.0167
G1 X55.484 Y32.01 E.04449
G1 X54.431 Y32.609 E.03798
G1 X53.454 Y32.832 E.03142
G1 X50.426 Y32.823 E.09494
G1 X50.408 Y49.197 E.5134
G1 X50.202 Y50.228 E.03297
G1 X49.686 Y51.187 E.03415
G1 X49.122 Y51.781 E.02568
G1 X48.325 Y52.335 E.03043
G1 X47.692 Y52.628 E.02187
G1 X46.629 Y52.799 E.03376
G1 X46.338 Y52.769 E.00917
G1 X42.052 Y52.775 E.13438
G1 X41.388 Y52.604 E.0215
G1 X40.921 Y52.351 E.01665
G1 X40.471 Y52.154 E.0154
G1 X39.685 Y51.537 E.03133
G1 X39.135 Y50.757 E.02992
G1 X38.769 Y49.821 E.03151
G1 X38.639 Y49.079 E.02362
G1 X38.662 Y48.55 E.0166
G1 X32.436 Y37.422 E.39981
G1 X29.847 Y32.867 E.16428
G1 X28.397 Y32.796 E.04552
G1 X27.453 Y32.476 E.03125
G1 X26.277 Y31.682 E.04449
G1 X25.785 Y31.094 E.02404
G1 X25.435 Y30.413 E.02401
G1 X25.124 Y29.138 E.04115
G1 X25.142 Y26.819 E.07271
G1 X24.609 Y26.288 E.02359
G1 X24.283 Y25.753 E.01964
G1 X24.014 Y24.797 E.03114
G1 X24.014 Y19.172 E.17637
G1 X24.243 Y18.311 E.02793
G1 X24.321 Y18.177 E.00486
G1 X24.642 Y18.363 F54000
G1 F1200
G1 X24.89 Y17.935 E.01551
G1 X25.655 Y17.19 E.03348
G1 X26.07 Y16.965 E.0148
G1 X26.833 Y16.757 E.0248
G1 X36.409 Y16.76 E.30025
G1 X36.97 Y16.884 E.01801
G1 X37.51 Y17.143 E.01878
G1 X38.242 Y17.805 E.03095
G1 X38.634 Y18.418 E.02281
G1 X38.831 Y19.084 E.02178
G1 X38.848 Y23.912 E.15138
G1 X39.107 Y24.258 E.01355
G1 X39.375 Y24.911 E.02213
G1 X39.438 Y25.304 E.01248
G1 X39.418 Y25.957 E.02048
G1 X39.447 Y26.521 E.01771
G1 X39.396 Y26.947 E.01345
G1 X39.924 Y26.947 E.01656
G1 X39.934 Y25.984 E.0302
G1 X39.903 Y25.433 E.0173
G1 X39.922 Y25.27 E.00515
G1 X39.792 Y24.772 E.01614
G1 X39.807 Y19.092 E.17809
G1 X40.004 Y18.425 E.02181
G1 X40.376 Y17.83 E.022
G1 X40.98 Y17.248 E.0263
G1 X41.689 Y16.878 E.02508
G1 X42.272 Y16.757 E.01867
G1 X48.753 Y16.757 E.20321
G1 X49.149 Y16.813 E.01254
G1 X50.034 Y17.23 E.03067
G1 X50.705 Y17.879 E.02927
G1 X50.96 Y18.263 E.01445
G1 X51.119 Y18.687 E.0142
G1 X53.271 Y18.705 E.06748
G1 X53.986 Y18.819 E.0227
G1 X54.738 Y19.106 E.02524
G1 X55.517 Y19.66 E.02997
G1 X56.063 Y20.324 E.02695
G1 X56.394 Y21.019 E.02414
G1 X56.571 Y22.066 E.03329
G1 X56.595 Y28.288 E.19509
G1 X56.528 Y29.567 E.04016
G1 X56.29 Y30.335 E.02521
G1 X56.089 Y30.754 E.01457
G1 X55.223 Y31.737 E.04108
G1 X54.319 Y32.248 E.03256
G1 X53.433 Y32.454 E.02852
G1 X50.049 Y32.445 E.1061
G1 X50.034 Y49.144 E.52359
G1 X49.855 Y50.078 E.02982
G1 X49.393 Y50.948 E.03089
G1 X48.89 Y51.483 E.02302
G1 X48.122 Y52.017 E.02933
G1 X47.604 Y52.261 E.01795
G1 X46.641 Y52.421 E.03061
G1 X46.357 Y52.392 E.00895
G1 X42.119 Y52.404 E.13288
G1 X41.546 Y52.261 E.01852
G1 X41.087 Y52.012 E.01637
G1 X40.645 Y51.819 E.01512
G1 X39.943 Y51.26 E.02814
G1 X39.459 Y50.561 E.02666
G1 X39.127 Y49.704 E.02882
G1 X39.014 Y49.038 E.02118
G1 X39.045 Y48.462 E.01809
G1 X32.765 Y37.237 E.40329
G1 X30.072 Y32.5 E.17085
G1 X28.442 Y32.421 E.05117
G1 X27.641 Y32.149 E.02652
G1 X26.549 Y31.419 E.04118
G1 X26.087 Y30.868 E.02255
G1 X25.795 Y30.301 E.02
G1 X25.502 Y29.117 E.03824
G1 X25.52 Y26.663 E.07695
G1 X24.893 Y26.038 E.02776
G1 X24.619 Y25.582 E.01668
G1 X24.391 Y24.771 E.02641
G1 X24.391 Y19.198 E.17474
G1 X24.612 Y18.415 E.02551
G1 X24.956 Y18.562 F54000
G1 F1200
G1 X25.201 Y18.149 E.01506
G1 X25.86 Y17.507 E.02885
G1 X26.196 Y17.322 E.01203
G1 X26.859 Y17.134 E.02161
G1 X36.388 Y17.138 E.29878
G1 X36.832 Y17.235 E.01425
G1 X37.279 Y17.443 E.01546
G1 X37.97 Y18.068 E.02921
G1 X38.282 Y18.555 E.01813
G1 X38.454 Y19.114 E.01834
G1 X38.471 Y24.043 E.15455
G1 X38.77 Y24.428 E.01528
G1 X39.007 Y24.997 E.01933
G1 X39.06 Y25.312 E.01002
G1 X39.041 Y25.961 E.02036
G1 X39.069 Y26.522 E.01761
G1 X39.018 Y26.905 E.01211
G1 X38.868 Y27.324 E.01395
G1 X40.459 Y27.324 E.04988
G1 X40.293 Y26.648 E.02183
G1 X40.312 Y25.981 E.02092
G1 X40.281 Y25.432 E.01724
G1 X40.307 Y25.246 E.00589
G1 X40.169 Y24.746 E.01626
G1 X40.177 Y19.173 E.17474
G1 X40.358 Y18.557 E.02013
G1 X40.656 Y18.083 E.01756
G1 X41.183 Y17.567 E.02313
G1 X41.795 Y17.241 E.02174
G1 X42.293 Y17.134 E.01597
G1 X48.739 Y17.134 E.20211
G1 X49.066 Y17.182 E.01036
G1 X49.796 Y17.523 E.02526
G1 X50.403 Y18.106 E.02639
G1 X50.633 Y18.452 E.01303
G1 X50.851 Y19.062 E.02031
G1 X53.228 Y19.08 E.07453
G1 X53.873 Y19.179 E.02046
G1 X54.542 Y19.429 E.02239
G1 X55.244 Y19.921 E.02688
G1 X55.735 Y20.511 E.02407
G1 X56.028 Y21.111 E.02094
G1 X56.194 Y22.083 E.03092
G1 X56.219 Y28.275 E.19415
G1 X56.161 Y29.478 E.03776
G1 X55.934 Y30.209 E.024
G1 X55.762 Y30.565 E.0124
G1 X54.963 Y31.462 E.03766
G1 X54.206 Y31.888 E.02724
G1 X53.411 Y32.077 E.02562
G1 X49.672 Y32.067 E.11723
G1 X49.661 Y49.094 E.53387
G1 X49.507 Y49.93 E.02665
G1 X49.099 Y50.711 E.02763
G1 X48.658 Y51.185 E.0203
G1 X47.921 Y51.698 E.02816
G1 X47.468 Y51.908 E.01566
G1 X46.654 Y52.044 E.02588
G1 X46.375 Y52.015 E.00879
G1 X42.188 Y52.032 E.13128
G1 X41.663 Y51.901 E.01697
G1 X41.255 Y51.674 E.01464
G1 X40.82 Y51.484 E.01488
G1 X40.201 Y50.985 E.02493
G1 X39.803 Y50.405 E.02206
G1 X39.486 Y49.586 E.02754
G1 X39.39 Y48.999 E.01865
G1 X39.429 Y48.376 E.01957
G1 X33.093 Y37.051 E.40688
G1 X30.297 Y32.133 E.17738
G1 X28.487 Y32.046 E.05682
G1 X27.829 Y31.821 E.0218
G1 X26.82 Y31.155 E.03791
G1 X26.39 Y30.642 E.02099
G1 X26.155 Y30.187 E.01606
G1 X25.879 Y29.095 E.03532
G1 X25.899 Y26.508 E.08112
G1 X25.177 Y25.789 E.03195
G1 X24.957 Y25.413 E.01366
G1 X24.768 Y24.745 E.02177
G1 X24.768 Y19.225 E.17308
G1 X24.939 Y18.62 E.01971
G1 X25.3 Y18.726 F54000
G1 F1200
G1 X25.483 Y18.4 E.01172
G1 X26.07 Y17.822 E.02583
G1 X26.325 Y17.676 E.00921
G1 X26.887 Y17.511 E.01836
