; generated by PrusaSlicer 2.6.0+MacOS-arm64 on 2023-07-25 at 18:41:40 UTC

; 

; external perimeters extrusion width = 0.42mm
; perimeters extrusion width = 0.44mm
; infill extrusion width = 0.44mm
; solid infill extrusion width = 0.44mm
; top infill extrusion width = 0.40mm
; support material extrusion width = 0.36mm
; first layer extrusion width = 0.42mm

M201 X3500 Y3500 Z150 E5000 ; sets maximum accelerations, mm/sec^2
M203 X500 Y500 Z10 E60 ; sets maximum feedrates, mm / sec
M204 S3500 T1000 ; sets acceleration (S) and retract acceleration (R), mm/sec^2
M205 X8.00 Y8.00 Z0.40 E5.00 ; sets the jerk limits, mm/sec
M205 S0 T0 ; sets the minimum extruding and travel feed rate, mm/sec
;TYPE:Custom
G90 ; use absolute coordinates
M83 ; extruder relative mode
M104 S150 ; set temporary nozzle temp to prevent oozing during homing
M140 S60 ; set final bed temp
G4 S30 ; allow partial nozzle warmup
G28 ; home all axis
G1 Z50 F240
G1 X2.0 Y10 F3000
M104 S205 ; set final nozzle temp
M190 S60 ; wait for bed temp to stabilize
M109 S205 ; wait for nozzle temp to stabilize
G1 Z0.28 F240
G92 E0
G1 X2.0 Y140 E10 F1500 ; prime the nozzle
G1 X2.3 Y140 F5000
G92 E0
G1 X2.3 Y10 E10 F1200 ; prime the nozzle
G92 E0
G21 ; set units to millimeters
G90 ; use absolute coordinates
M83 ; use relative distances for extrusion
; Filament gcode
M107
;LAYER_CHANGE
;Z:0.2
;HEIGHT:0.2
;BEFORE_LAYER_CHANGE
G92 E0
;0.2


G1 E-3.5 F4800
G1 Z.2 F54000
;AFTER_LAYER_CHANGE
;0.2
G1 X26.562 Y27.055
G1 E3.5 F2400
M204 S3500
;TYPE:Skirt/Brim
;WIDTH:0.42
G1 F1200
G1 X28.487 Y25.84 E.07137
G1 X29.901 Y25.342 E.047
G1 X31.413 Y25.172 E.04771
G1 X52.746 Y24.861 E.66895
G1 X54.175 Y25.156 E.04575
G1 X57.411 Y26.608 E.11121
G1 X59.007 Y28.098 E.06846
G1 X60.036 Y30.026 E.06852
G1 X60.297 Y30.664 E.02161
G1 X60.674 Y31.945 E.04187
G1 X60.81 Y32.828 E.02801
G1 X60.933 Y47.918 E.47315
G1 X60.826 Y51.449 E.11076
G1 X60.731 Y52.148 E.02212
G1 X60.446 Y53.312 E.03757
G1 X60.164 Y54.064 E.02518
G1 X59.419 Y55.415 E.04837
G1 X58.628 Y56.428 E.0403
G1 X57.708 Y57.348 E.04079
G1 X57.132 Y57.81 E.02315
G1 X46.7 Y64.388 E.38668
G1 X45.333 Y64.957 E.04643
G1 X43.61 Y65.351 E.05542
G1 X41.828 Y65.434 E.05593
G1 X40.359 Y65.25 E.04642
G1 X38.363 Y64.645 E.06539
G1 X37.052 Y63.956 E.04644
G1 X27.466 Y57.945 E.35477
G1 X21.596 Y53.724 E.22669
G1 X20.448 Y52.791 E.04638
G1 X19.285 Y51.463 E.05535
G1 X18.242 Y49.64 E.06585
G1 X17.739 Y48.266 E.04588
G1 X17.459 Y46.813 E.0464
G1 X17.416 Y44.729 E.06536
G1 X17.738 Y42.958 E.05644
G1 X18.428 Y41.167 E.06018
G1 X24.65 Y29.493 E.41477
G1 X25.504 Y28.116 E.0508
G1 X26.52 Y27.098 E.0451
G1 E-2.45 F4800
;WIPE_START
G1 F43200
G1 X28.487 Y25.84 E-.24646
G1 X29.901 Y25.342 E-.15824
G1 X31.413 Y25.172 E-.16061
G1 X36.004 Y25.105 E-.48469
;WIPE_END
G1 X28.63 Y30.224 F54000
G1 E3.5 F2400
G1 F1200
G1 X30.25 Y29.131 E.06127
G1 X31.024 Y28.909 E.02525
G1 X31.869 Y28.817 E.02665
G1 X52.813 Y28.818 E.65668
G1 X54.349 Y29.234 E.0499
G1 X55.07 Y29.652 E.02613
G1 X55.696 Y30.162 E.02532
G1 X56.708 Y31.631 E.05593
G1 X57.171 Y33.34 E.05552
G1 X57.177 Y42.235 E.2789
G1 X57.274 Y43.748 E.04754
G1 X57.27 Y47.869 E.12921
G1 X57.179 Y48.987 E.03517
G1 X57.152 Y51.209 E.06967
G1 X56.697 Y52.792 E.05164
G1 X55.749 Y54.132 E.05147
G1 X54.439 Y55.096 E.051
G1 X52.866 Y55.558 E.0514
G1 X50.858 Y55.594 E.06297
G1 X49.817 Y55.692 E.03278
G1 X44.687 Y55.699 E.16085
G1 X43.578 Y55.609 E.03489
G1 X41.377 Y55.59 E.06901
G1 X40.594 Y55.604 E.02455
G1 X39.468 Y55.684 E.03539
G1 X34.359 Y55.667 E.16019
G1 X33.31 Y55.568 E.03304
G1 X31.161 Y55.481 E.06744
G1 X30.414 Y55.256 E.02446
G1 X29.696 Y54.919 E.02487
G1 X28.51 Y53.937 E.04828
G1 X27.643 Y52.626 E.04928
G1 X27.242 Y51.14 E.04826
G1 X27.231 Y49.45 E.05299
G1 X27.162 Y48.626 E.02593
G1 X27.135 Y47.896 E.0229
G1 X27.135 Y45.47 E.07607
G1 X27.108 Y43.586 E.05908
G1 X27.206 Y41.963 E.05098
G1 X27.217 Y33.372 E.26936
G1 X27.595 Y31.79 E.051
G1 X28.021 Y30.976 E.02881
G1 X28.581 Y30.258 E.02855
G1 X28.856 Y30.515 F54000
G1 F1200
G1 X30.383 Y29.485 E.05775
G1 X31.112 Y29.277 E.02377
G1 X31.899 Y29.193 E.02482
G1 X52.788 Y29.195 E.65496
G1 X54.182 Y29.573 E.04529
G1 X54.843 Y29.954 E.02392
G1 X55.438 Y30.438 E.02405
G1 X56.353 Y31.762 E.05046
G1 X56.794 Y33.366 E.05216
G1 X56.8 Y42.247 E.27846
G1 X56.897 Y43.754 E.04735
G1 X56.893 Y47.861 E.12877
G1 X56.802 Y48.969 E.03486
G1 X56.775 Y51.178 E.06927
G1 X56.344 Y52.654 E.04821
G1 X55.461 Y53.887 E.04755
G1 X54.244 Y54.771 E.04716
G1 X52.834 Y55.181 E.04604
G1 X50.837 Y55.217 E.06262
G1 X49.807 Y55.315 E.03244
G1 X44.694 Y55.322 E.16031
G1 X43.595 Y55.232 E.03457
G1 X41.375 Y55.213 E.06961
G1 X40.577 Y55.227 E.02502
G1 X39.462 Y55.307 E.03505
G1 X34.369 Y55.29 E.15969
G1 X33.334 Y55.192 E.0326
G1 X31.247 Y55.113 E.06548
G1 X30.536 Y54.899 E.02328
G1 X29.879 Y54.589 E.02278
G1 X28.773 Y53.666 E.04517
G1 X27.976 Y52.446 E.04569
G1 X27.613 Y51.068 E.04468
G1 X27.608 Y49.434 E.05123
G1 X27.538 Y48.599 E.02627
G1 X27.512 Y47.892 E.02218
G1 X27.512 Y45.467 E.07603
G1 X27.485 Y43.588 E.05892
G1 X27.583 Y41.975 E.05067
G1 X27.594 Y33.394 E.26905
G1 X27.94 Y31.943 E.04677
G1 X28.33 Y31.194 E.02648
G1 X28.819 Y30.563 E.02503
G1 X29.116 Y30.795 F54000
G1 F1200
G1 X30.515 Y29.839 E.05313
G1 X31.199 Y29.644 E.0223
G1 X31.927 Y29.569 E.02295
G1 X52.763 Y29.572 E.6533
G1 X54.015 Y29.912 E.04068
G1 X54.642 Y30.273 E.02268
G1 X55.177 Y30.712 E.0217
G1 X56.023 Y31.949 E.04699
G1 X56.417 Y33.391 E.04687
G1 X56.423 Y42.26 E.27808
G1 X56.52 Y43.76 E.04713
G1 X56.516 Y47.853 E.12833
G1 X56.425 Y48.951 E.03455
G1 X56.398 Y51.149 E.06892
G1 X56.019 Y52.461 E.04282
G1 X55.172 Y53.643 E.04559
G1 X54.106 Y54.419 E.04134
G1 X52.801 Y54.805 E.04267
G1 X50.815 Y54.84 E.06228
G1 X49.798 Y54.938 E.03204
G1 X44.702 Y54.945 E.15978
G1 X43.612 Y54.855 E.03429
G1 X41.373 Y54.835 E.07021
G1 X40.56 Y54.851 E.0255
G1 X39.457 Y54.929 E.03467
G1 X34.379 Y54.913 E.15922
G1 X33.359 Y54.815 E.03213
G1 X31.331 Y54.745 E.06362
G1 X30.684 Y54.552 E.02117
G1 X30.063 Y54.258 E.02154
G1 X29.038 Y53.395 E.04201
G1 X28.332 Y52.319 E.04035
G1 X27.99 Y51.042 E.04145
G1 X27.985 Y49.418 E.05092
G1 X27.914 Y48.572 E.02662
G1 X27.889 Y47.889 E.02143
G1 X27.889 Y45.465 E.076
G1 X27.862 Y43.589 E.05883
G1 X27.96 Y41.987 E.05032
G1 X27.971 Y33.416 E.26874
G1 X28.286 Y32.096 E.04255
G1 X28.656 Y31.383 E.02519
G1 X29.079 Y30.842 E.02153
G1 X29.376 Y31.074 F54000
G1 F1200
G1 X29.413 Y31.026 E.0019
G1 X30.647 Y30.194 E.04666
G1 X31.286 Y30.011 E.02084
G1 X31.955 Y29.945 E.02108
G1 X52.738 Y29.949 E.65164
G1 X53.849 Y30.251 E.0361
G1 X54.415 Y30.575 E.02045
G1 X54.918 Y30.987 E.02039
G1 X55.669 Y32.08 E.04158
G1 X56.04 Y33.418 E.04353
G1 X56.046 Y42.272 E.27761
G1 X56.143 Y43.766 E.04694
G1 X56.139 Y47.845 E.12789
G1 X56.048 Y48.933 E.03423
G1 X56.022 Y51.118 E.06851
G1 X55.667 Y52.322 E.03936
G1 X54.886 Y53.396 E.04164
G1 X53.913 Y54.093 E.03753
G1 X52.77 Y54.428 E.03735
G1 X50.794 Y54.463 E.06197
G1 X49.788 Y54.561 E.03169
G1 X44.709 Y54.568 E.15925
G1 X43.629 Y54.478 E.03398
G1 X41.371 Y54.458 E.0708
G1 X40.543 Y54.474 E.02597
G1 X39.451 Y54.552 E.03433
G1 X34.389 Y54.536 E.15872
G1 X33.383 Y54.439 E.03169
G1 X31.415 Y54.377 E.06174
G1 X30.806 Y54.195 E.01993
G1 X30.247 Y53.929 E.01941
G1 X29.303 Y53.127 E.03884
G1 X28.665 Y52.14 E.03685
G1 X28.367 Y51.017 E.03643
G1 X28.362 Y49.402 E.05064
G1 X28.29 Y48.545 E.02697
G1 X28.266 Y47.885 E.02071
G1 X28.266 Y45.462 E.07597
G1 X28.239 Y43.591 E.05867
G1 X28.337 Y41.999 E.05001
G1 X28.348 Y33.439 E.26839
G1 X28.631 Y32.248 E.03838
G1 X28.965 Y31.601 E.02283
G1 X29.339 Y31.121 E.01908
G1 X29.637 Y31.353 F54000
G1 F1200
G1 X29.692 Y31.282 E.00282
G1 X30.781 Y30.547 E.04119
G1 X31.341 Y30.384 E.01829
G1 X31.965 Y30.322 E.01966
G1 X52.713 Y30.326 E.65054
G1 X53.684 Y30.591 E.03156
G1 X54.189 Y30.877 E.0182
G1 X54.657 Y31.261 E.01898
G1 X55.339 Y32.266 E.03808
G1 X55.663 Y33.443 E.03828
G1 X55.669 Y42.284 E.2772
G1 X55.766 Y43.772 E.04675
G1 X55.761 Y47.836 E.12742
G1 X55.671 Y48.915 E.03395
G1 X55.645 Y51.086 E.06808
G1 X55.315 Y52.181 E.03586
G1 X54.6 Y53.148 E.03771
G1 X53.774 Y53.741 E.03188
G1 X52.737 Y54.051 E.03394
G1 X50.772 Y54.087 E.06162
G1 X49.779 Y54.184 E.03128
G1 X44.717 Y54.191 E.15872
G1 X43.647 Y54.101 E.03367
G1 X41.369 Y54.081 E.07143
G1 X40.525 Y54.097 E.02647
G1 X39.445 Y54.175 E.03395
G1 X34.399 Y54.159 E.15821
G1 X33.406 Y54.062 E.03128
G1 X31.498 Y54.008 E.05985
G1 X30.954 Y53.848 E.01778
G1 X30.433 Y53.599 E.01811
G1 X29.57 Y52.858 E.03566
G1 X29.021 Y52.012 E.03162
G1 X28.744 Y50.99 E.0332
G1 X28.739 Y49.385 E.05032
G1 X28.667 Y48.518 E.02728
G1 X28.643 Y47.882 E.01996
G1 X28.643 Y45.459 E.07597
G1 X28.616 Y43.593 E.05851
G1 X28.714 Y42.01 E.04973
G1 X28.725 Y33.461 E.26805
G1 X28.978 Y32.399 E.03423
G1 X29.273 Y31.819 E.0204
G1 X29.6 Y31.401 E.01664
G1 X29.895 Y31.634 F54000
G1 F1200
G1 X29.97 Y31.539 E.0038
G1 X30.914 Y30.901 E.03572
G1 X31.429 Y30.752 E.01681
G1 X31.973 Y30.699 E.01714
G1 X52.687 Y30.703 E.64947
G1 X53.518 Y30.931 E.02702
G1 X53.988 Y31.197 E.01693
G1 X54.395 Y31.533 E.01655
G1 X55.008 Y32.449 E.03456
G1 X55.286 Y33.468 E.03312
G1 X55.292 Y42.297 E.27683
G1 X55.389 Y43.778 E.04654
G1 X55.384 Y47.828 E.12699
G1 X55.294 Y48.896 E.03361
G1 X55.268 Y51.054 E.06767
G1 X54.965 Y52.038 E.03228
G1 X54.318 Y52.896 E.03369
G1 X53.583 Y53.415 E.02821
G1 X52.705 Y53.675 E.02871
G1 X50.75 Y53.71 E.06131
G1 X49.769 Y53.807 E.03091
G1 X44.724 Y53.814 E.15818
G1 X43.664 Y53.724 E.03336
G1 X41.368 Y53.704 E.07199
G1 X40.508 Y53.72 E.02697
G1 X39.439 Y53.798 E.03361
G1 X34.409 Y53.782 E.15771
G1 X33.429 Y53.685 E.03088
G1 X31.579 Y53.639 E.05802
G1 X31.102 Y53.501 E.01557
G1 X30.618 Y53.27 E.01682
G1 X29.838 Y52.592 E.0324
G1 X29.355 Y51.835 E.02816
G1 X29.121 Y50.965 E.02825
G1 X29.116 Y49.369 E.05004
G1 X29.043 Y48.491 E.02762
G1 X29.021 Y47.878 E.01923
G1 X29.02 Y45.456 E.07594
G1 X28.993 Y43.595 E.05836
G1 X29.091 Y42.022 E.04942
G1 X29.102 Y33.484 E.2677
G1 X29.324 Y32.55 E.0301
G1 X29.601 Y32.007 E.01911
G1 X29.858 Y31.681 E.01302
G1 X30.154 Y31.914 F54000
G1 F1200
G1 X30.248 Y31.795 E.00475
G1 X31.048 Y31.255 E.03026
G1 X31.517 Y31.119 E.01531
G1 X31.981 Y31.076 E.01461
G1 X52.662 Y31.08 E.64844
G1 X53.355 Y31.271 E.02254
G1 X53.761 Y31.498 E.01458
G1 X54.134 Y31.807 E.01519
G1 X54.654 Y32.58 E.02921
G1 X54.909 Y33.495 E.02978
G1 X54.915 Y42.309 E.27636
G1 X55.012 Y43.783 E.04632
G1 X55.007 Y47.82 E.12658
G1 X54.917 Y48.878 E.03329
G1 X54.891 Y51.021 E.0672
G1 X54.616 Y51.891 E.02861
G1 X54.038 Y52.642 E.02971
G1 X53.395 Y53.087 E.02452
G1 X52.673 Y53.298 E.02358
G1 X50.739 Y53.333 E.06065
G1 X50.399 Y53.353 E.01068
G1 X49.755 Y53.43 E.02034
G1 X44.732 Y53.437 E.15749
G1 X43.682 Y53.347 E.03304
G1 X41.366 Y53.327 E.07262
G1 X40.491 Y53.343 E.02744
G1 X39.433 Y53.421 E.03326
G1 X34.423 Y53.405 E.15709
G1 X33.784 Y53.329 E.02018
G1 X33.44 Y53.308 E.01081
G1 X31.658 Y53.27 E.05589
G1 X31.25 Y53.153 E.01331
G1 X30.805 Y52.941 E.01546
G1 X30.108 Y52.327 E.02912
G1 X29.711 Y51.706 E.02311
G1 X29.498 Y50.938 E.02499
G1 X29.493 Y49.352 E.04973
G1 X29.419 Y48.464 E.02794
G1 X29.398 Y47.875 E.01848
G1 X29.398 Y45.454 E.07591
G1 X29.37 Y43.596 E.05826
G1 X29.468 Y42.034 E.04907
G1 X29.479 Y33.506 E.26739
G1 X29.671 Y32.699 E.02601
G1 X29.909 Y32.225 E.01663
G1 X30.117 Y31.961 E.01054
G1 X30.41 Y32.196 F54000
G1 F1200
G1 X30.524 Y32.053 E.00573
G1 X31.184 Y31.608 E.02496
G1 X31.571 Y31.492 E.01267
G1 X31.99 Y31.453 E.01319
G1 X52.636 Y31.457 E.64734
G1 X53.19 Y31.611 E.01803
G1 X53.561 Y31.819 E.01334
G1 X53.87 Y32.077 E.01262
G1 X54.322 Y32.762 E.02573
G1 X54.532 Y33.52 E.02466
G1 X54.538 Y42.322 E.27598
G1 X54.635 Y43.789 E.0461
G1 X54.63 Y47.811 E.12611
G1 X54.54 Y48.86 E.03301
G1 X54.515 Y50.987 E.0667
G1 X54.269 Y51.741 E.02487
G1 X53.762 Y52.384 E.02567
G1 X53.211 Y52.757 E.02086
G1 X52.597 Y52.929 E.01999
G1 X50.726 Y52.956 E.05867
G1 X50.365 Y52.977 E.01134
G1 X49.743 Y53.053 E.01965
G1 X44.74 Y53.059 E.15687
G1 X43.7 Y52.97 E.03273
G1 X41.364 Y52.95 E.07325
G1 X40.473 Y52.966 E.02794
G1 X39.427 Y53.044 E.03289
G1 X34.435 Y53.027 E.15652
G1 X33.818 Y52.953 E.01948
G1 X33.454 Y52.932 E.01143
G1 X31.736 Y52.9 E.05388
G1 X31.397 Y52.805 E.01104
G1 X30.992 Y52.613 E.01405
G1 X30.379 Y52.064 E.0258
G1 X30.065 Y51.575 E.01822
G1 X29.875 Y50.91 E.02168
G1 X29.87 Y49.346 E.04904
G1 X29.853 Y48.976 E.01161
G1 X29.795 Y48.441 E.01687
G1 X29.775 Y47.872 E.01785
G1 X29.775 Y45.451 E.07591
G1 X29.748 Y43.598 E.05811
G1 X29.845 Y42.047 E.04873
G1 X29.856 Y33.528 E.26711
G1 X30.017 Y32.849 E.02188
G1 X30.237 Y32.412 E.01534
G1 X30.373 Y32.243 E.0068
G1 X30.663 Y32.479 F54000
G1 F1200
G1 X30.798 Y32.313 E.00671
G1 X31.322 Y31.96 E.01981
G1 X31.627 Y31.866 E.01001
G1 X31.999 Y31.83 E.01172
G1 X52.61 Y31.835 E.64624
G1 X53.025 Y31.951 E.01351
G1 X53.361 Y32.138 E.01206
G1 X53.605 Y32.347 E.01007
G1 X53.968 Y32.895 E.02061
G1 X54.155 Y33.547 E.02127
G1 X54.161 Y42.335 E.27554
G1 X54.258 Y43.795 E.04588
G1 X54.253 Y47.803 E.12567
G1 X54.164 Y48.841 E.03267
G1 X54.138 Y50.952 E.06619
G1 X53.924 Y51.586 E.02098
G1 X53.489 Y52.123 E.02167
G1 X53.031 Y52.424 E.01718
G1 X52.525 Y52.558 E.01641
G1 X50.713 Y52.579 E.05682
G1 X50.331 Y52.601 E.012
G1 X49.731 Y52.676 E.01896
G1 X44.747 Y52.682 E.15627
G1 X43.718 Y52.593 E.03238
G1 X41.362 Y52.573 E.07387
G1 X40.456 Y52.59 E.02841
G1 X39.421 Y52.667 E.03254
G1 X34.448 Y52.65 E.15593
G1 X33.852 Y52.577 E.01883
G1 X33.468 Y52.555 E.01206
G1 X31.81 Y52.529 E.05199
G1 X31.543 Y52.457 E.00867
G1 X31.18 Y52.284 E.01261
G1 X30.651 Y51.802 E.02244
G1 X30.419 Y51.441 E.01345
G1 X30.252 Y50.881 E.01832
G1 X30.247 Y49.337 E.04841
G1 X30.229 Y48.946 E.01227
G1 X30.172 Y48.42 E.01659
G1 X30.152 Y47.868 E.01732
G1 X30.152 Y45.448 E.07588
G1 X30.125 Y43.6 E.05795
G1 X30.222 Y42.059 E.04841
G1 X30.233 Y33.551 E.26676
G1 X30.364 Y32.999 E.01779
G1 X30.564 Y32.601 E.01397
G1 X30.625 Y32.526 E.00303
G1 X30.912 Y32.765 F54000
G1 F1200
G1 X31.07 Y32.576 E.00772
G1 X31.463 Y32.31 E.01488
G1 X31.685 Y32.239 E.00731
G1 X32.009 Y32.207 E.01021
G1 X52.583 Y32.212 E.64508
G1 X52.86 Y32.291 E.00903
G1 X53.159 Y32.457 E.01072
G1 X53.336 Y32.612 E.00738
G1 X53.636 Y33.075 E.0173
G1 X53.778 Y33.573 E.01624
G1 X53.784 Y42.347 E.2751
G1 X53.881 Y43.801 E.04569
G1 X53.876 Y47.794 E.1252
G1 X53.787 Y48.822 E.03235
G1 X53.761 Y50.915 E.06563
G1 X53.581 Y51.426 E.01699
G1 X53.221 Y51.856 E.01758
G1 X52.857 Y52.089 E.01355
G1 X52.458 Y52.186 E.01287
G1 X50.7 Y52.202 E.05512
G1 X50.296 Y52.226 E.01269
G1 X49.719 Y52.298 E.01823
G1 X44.755 Y52.305 E.15564
G1 X43.736 Y52.216 E.03207
G1 X41.36 Y52.196 E.0745
G1 X40.438 Y52.213 E.02891
G1 X39.414 Y52.29 E.0322
G1 X34.461 Y52.273 E.1553
G1 X33.887 Y52.201 E.01814
G1 X33.481 Y52.178 E.01275
G1 X31.881 Y52.159 E.05017
G1 X31.688 Y52.109 E.00625
G1 X31.369 Y51.957 E.01108
G1 X30.926 Y51.543 E.01901
G1 X30.77 Y51.303 E.00898
G1 X30.629 Y50.85 E.01488
G1 X30.624 Y49.327 E.04775
G1 X30.605 Y48.917 E.01287
G1 X30.548 Y48.4 E.01631
G1 X30.529 Y47.865 E.01679
G1 X30.529 Y45.445 E.07588
G1 X30.502 Y43.602 E.05779
G1 X30.599 Y42.071 E.0481
G1 X30.61 Y33.573 E.26645
G1 X30.711 Y33.148 E.0137
G1 X30.879 Y32.815 E.01169
G1 X31.216 Y32.984 F54000
G1 F1200
G1 X31.337 Y32.842 E.00585
G1 X31.61 Y32.658 E.01032
G1 X31.746 Y32.612 E.0045
G1 X32.018 Y32.584 E.00857
G1 X52.555 Y32.589 E.64392
G1 X52.694 Y32.63 E.00454
G1 X52.955 Y32.776 E.00938
G1 X53.063 Y32.873 E.00455
G1 X53.302 Y33.252 E.01405
G1 X53.401 Y33.6 E.01134
G1 X53.407 Y42.352 E.27441
G1 X53.423 Y42.799 E.01402
G1 X53.503 Y43.81 E.0318
G1 X53.499 Y47.786 E.12466
G1 X53.41 Y48.805 E.03207
G1 X53.394 Y50.827 E.0634
G1 X53.267 Y51.214 E.01277
G1 X52.953 Y51.589 E.01534
G1 X52.691 Y51.749 E.00963
G1 X52.398 Y51.814 E.00941
G1 X50.688 Y51.825 E.05362
G1 X50.26 Y51.85 E.01344
G1 X49.706 Y51.921 E.01751
G1 X44.763 Y51.928 E.15498
G1 X43.754 Y51.84 E.03176
G1 X41.358 Y51.819 E.07513
G1 X40.42 Y51.836 E.02942
G1 X39.408 Y51.913 E.03182
G1 X34.474 Y51.896 E.1547
G1 X33.922 Y51.826 E.01745
G1 X33.493 Y51.801 E.01347
G1 X31.947 Y51.787 E.04848
G1 X31.83 Y51.759 E.00377
