; generated by PrusaSlicer 2.6.0+MacOS-arm64 on 2023-07-25 at 22:52:58 UTC

; 

; external perimeters extrusion width = 0.42mm
; perimeters extrusion width = 0.44mm
; infill extrusion width = 0.44mm
; solid infill extrusion width = 0.44mm
; top infill extrusion width = 0.40mm
; support material extrusion width = 0.36mm
; first layer extrusion width = 0.42mm

M201 X3500 Y3500 Z150 E5000 ; sets maximum accelerations, mm/sec^2
M203 X500 Y500 Z10 E60 ; sets maximum feedrates, mm / sec
M204 S3500 T1000 ; sets acceleration (S) and retract acceleration (R), mm/sec^2
M205 X8.00 Y8.00 Z0.40 E5.00 ; sets the jerk limits, mm/sec
M205 S0 T0 ; sets the minimum extruding and travel feed rate, mm/sec
;TYPE:Custom
G90 ; use absolute coordinates
M83 ; extruder relative mode
M104 S150 ; set temporary nozzle temp to prevent oozing during homing
M140 S60 ; set final bed temp
G4 S30 ; allow partial nozzle warmup
G28 ; home all axis
G1 Z50 F240
G1 X2.0 Y10 F3000
M104 S205 ; set final nozzle temp
M190 S60 ; wait for bed temp to stabilize
M109 S205 ; wait for nozzle temp to stabilize
G1 Z0.28 F240
G92 E0
G1 X2.0 Y140 E10 F1500 ; prime the nozzle
G1 X2.3 Y140 F5000
G92 E0
G1 X2.3 Y10 E10 F1200 ; prime the nozzle
G92 E0
G21 ; set units to millimeters
G90 ; use absolute coordinates
M83 ; use relative distances for extrusion
; Filament gcode
M107
;LAYER_CHANGE
;Z:0.2
;HEIGHT:0.2
;BEFORE_LAYER_CHANGE
G92 E0
;0.2


G1 E-3.5 F4800
G1 Z.2 F54000
;AFTER_LAYER_CHANGE
;0.2
G1 X13.722 Y31.229
G1 E3.5 F2400
M204 S3500
;TYPE:Skirt/Brim
;WIDTH:0.42
G1 F1200
G1 X15.147 Y30.799 E.04667
G1 X16.897 Y30.598 E.05523
G1 X20.497 Y30.592 E.11288
G1 X22.382 Y30.628 E.05911
G1 X24.447 Y31.025 E.06593
G1 X25.627 Y31.546 E.04044
G1 X27.275 Y32.694 E.06297
G1 X27.929 Y33.29 E.02774
G1 X50.751 Y60.387 E1.1108
G1 X51.335 Y61.389 E.03636
G1 X51.958 Y63.071 E.05624
G1 X52.136 Y63.77 E.02262
G1 X54.261 Y78.814 E.47638
G1 X54.262 Y79.728 E.02866
G1 X54.054 Y81.212 E.04698
G1 X52.09 Y90.143 E.28672
G1 X51.18 Y91.806 E.05944
G1 X48.251 Y94.735 E.12988
G1 X46.853 Y95.575 E.05114
G1 X45.863 Y95.724 E.03139
G1 X37.621 Y95.724 E.25842
G1 X35.55 Y95.014 E.06864
G1 X12.381 Y77.021 E.91978
G1 X9.141 Y73.828 E.14263
G1 X8.298 Y72.432 E.05113
G1 X8.148 Y71.451 E.03112
G1 X8.014 Y39.351 E1.00648
G1 X8.143 Y38.177 E.03703
G1 X8.456 Y36.896 E.04135
G1 X9.037 Y35.476 E.04811
G1 X10.159 Y33.773 E.06394
G1 X10.76 Y33.124 E.02773
G1 X11.889 Y32.204 E.04566
G1 X12.439 Y31.855 E.02042
G1 X13.668 Y31.255 E.04288
G1 E-2.45 F4800
;WIPE_START
G1 F43200
G1 X15.147 Y30.799 E-.16337
G1 X16.897 Y30.598 E-.18594
G1 X20.497 Y30.592 E-.38
G1 X22.382 Y30.628 E-.19901
G1 X23.514 Y30.846 E-.12168
;WIPE_END
G1 X15.282 Y34.584 F54000
G1 E3.5 F2400
G1 F1200
G1 X15.402 Y34.526 E.00418
G1 X16.943 Y34.261 E.04903
G1 X21.918 Y34.266 E.15599
G1 X23.774 Y34.764 E.06025
G1 X24.455 Y35.194 E.02525
G1 X25.109 Y35.763 E.02718
G1 X25.937 Y36.942 E.04517
G1 X26.114 Y37.347 E.01386
G1 X47.589 Y62.346 E1.03333
G1 X48.11 Y63.24 E.03244
G1 X48.506 Y64.781 E.04989
G1 X48.506 Y87.856 E.7235
G1 X48.204 Y89.092 E.03989
G1 X47.627 Y90.133 E.03732
G1 X46.718 Y91.068 E.04089
G1 X45.614 Y91.731 E.04038
G1 X44.284 Y92.061 E.04297
G1 X38.708 Y91.989 E.17485
G1 X37.53 Y91.574 E.03916
G1 X36.661 Y90.982 E.03297
G1 X35.868 Y90.148 E.03608
G1 X35.278 Y89.093 E.0379
G1 X34.984 Y87.848 E.04011
G1 X34.979 Y85.894 E.06127
G1 X34.837 Y85.723 E.00697
G1 X34.398 Y84.945 E.02801
G1 X33.979 Y83.379 E.05083
G1 X33.979 Y75.652 E.24227
G1 X34.24 Y74.4 E.0401
G1 X34.378 Y74.067 E.0113
G1 X15.984 Y74.058 E.57673
G1 X14.803 Y73.781 E.03803
G1 X13.709 Y73.172 E.03926
G1 X12.767 Y72.242 E.0415
G1 X12.119 Y71.138 E.04014
G1 X11.806 Y69.878 E.04071
G1 X11.742 Y50.535 E.60649
G1 X11.696 Y45.206 E.16709
G1 X11.797 Y38.58 E.20778
G1 X12.264 Y37.25 E.0442
G1 X13.072 Y36.044 E.04552
G1 X14.145 Y35.135 E.04409
G1 X15.228 Y34.61 E.03774
G1 X15.392 Y34.95 F54000
G1 F1200
G1 X15.542 Y34.877 E.00523
G1 X16.958 Y34.639 E.04502
G1 X21.893 Y34.643 E.15473
G1 X23.597 Y35.098 E.0553
G1 X24.218 Y35.488 E.02299
G1 X24.843 Y36.032 E.02598
G1 X25.616 Y37.141 E.04239
G1 X25.789 Y37.548 E.01387
G1 X47.292 Y62.58 E1.03468
G1 X47.752 Y63.361 E.02842
G1 X48.128 Y64.806 E.04682
G1 X48.128 Y87.833 E.722
G1 X47.844 Y88.975 E.0369
G1 X47.311 Y89.926 E.03418
G1 X46.467 Y90.785 E.03776
G1 X45.445 Y91.392 E.03727
G1 X44.264 Y91.684 E.03814
G1 X38.744 Y91.612 E.17309
G1 X37.721 Y91.248 E.03405
G1 X36.918 Y90.706 E.03038
G1 X36.184 Y89.941 E.03324
G1 X35.638 Y88.978 E.03471
G1 X35.361 Y87.824 E.03721
G1 X35.355 Y85.75 E.06503
G1 X35.154 Y85.518 E.00962
G1 X34.756 Y84.822 E.02514
G1 X34.356 Y83.353 E.04774
G1 X34.356 Y75.672 E.24083
G1 X34.603 Y74.506 E.03737
G1 X34.994 Y73.69 E.02837
G1 X16.046 Y73.686 E.5941
G1 X14.961 Y73.437 E.0349
G1 X13.954 Y72.884 E.03602
G1 X13.078 Y72.027 E.03842
G1 X12.478 Y71.018 E.03681
G1 X12.183 Y69.854 E.03765
G1 X12.119 Y50.533 E.6058
G1 X12.073 Y45.205 E.16706
G1 X12.163 Y38.674 E.20479
G1 X12.592 Y37.438 E.04102
G1 X13.338 Y36.313 E.04232
G1 X14.332 Y35.464 E.04099
G1 X15.338 Y34.976 E.03506
G1 X15.501 Y35.315 F54000
G1 F1200
G1 X15.68 Y35.229 E.00623
G1 X16.973 Y35.016 E.04109
G1 X21.869 Y35.02 E.15351
G1 X23.422 Y35.433 E.05039
G1 X23.982 Y35.783 E.02071
G1 X24.578 Y36.301 E.02476
G1 X25.294 Y37.338 E.03951
G1 X25.463 Y37.747 E.01388
G1 X46.995 Y62.812 E1.03606
G1 X47.413 Y63.529 E.02602
G1 X47.751 Y64.83 E.04215
G1 X47.751 Y87.809 E.72049
G1 X47.485 Y88.858 E.03393
G1 X47.023 Y89.681 E.02959
G1 X46.251 Y90.476 E.03475
G1 X45.325 Y91.034 E.0339
G1 X44.244 Y91.307 E.03496
G1 X38.781 Y91.235 E.1713
G1 X37.912 Y90.922 E.02896
G1 X37.174 Y90.429 E.02783
G1 X36.498 Y89.732 E.03044
G1 X35.998 Y88.863 E.03144
G1 X35.733 Y87.758 E.03563
G1 X35.733 Y85.605 E.06751
G1 X35.469 Y85.309 E.01244
G1 X35.112 Y84.697 E.02221
G1 X34.733 Y83.327 E.04457
G1 X34.733 Y75.692 E.23939
G1 X34.967 Y74.609 E.03474
G1 X35.354 Y73.818 E.02761
G1 X35.775 Y73.313 E.02061
G1 X16.108 Y73.313 E.61664
G1 X15.116 Y73.093 E.03186
G1 X14.197 Y72.594 E.03279
G1 X13.387 Y71.81 E.03535
G1 X12.835 Y70.896 E.03348
G1 X12.56 Y69.828 E.03458
G1 X12.496 Y50.531 E.60505
G1 X12.45 Y45.204 E.16703
G1 X12.53 Y38.767 E.20184
G1 X12.921 Y37.624 E.03788
G1 X13.603 Y36.582 E.03905
G1 X14.558 Y35.767 E.03936
G1 X15.447 Y35.341 E.03091
G1 X15.607 Y35.68 F54000
G1 F1200
G1 X15.816 Y35.582 E.00724
G1 X16.988 Y35.393 E.03722
G1 X21.844 Y35.397 E.15226
G1 X23.248 Y35.769 E.04554
G1 X23.746 Y36.078 E.01838
G1 X24.312 Y36.569 E.02349
G1 X24.97 Y37.532 E.03657
G1 X25.136 Y37.945 E.01396
G1 X46.698 Y63.045 E1.03751
G1 X47.056 Y63.651 E.02207
G1 X47.374 Y64.855 E.03905
G1 X47.374 Y87.785 E.71895
G1 X47.127 Y88.739 E.0309
G1 X46.735 Y89.437 E.0251
G1 X46.032 Y90.168 E.0318
G1 X45.202 Y90.676 E.03051
G1 X44.223 Y90.929 E.0317
G1 X38.877 Y90.869 E.16763
G1 X38.1 Y90.594 E.02584
G1 X37.43 Y90.151 E.02518
G1 X36.786 Y89.487 E.029
G1 X36.339 Y88.701 E.02835
G1 X36.11 Y87.736 E.0311
G1 X36.11 Y85.456 E.07149
G1 X35.784 Y85.101 E.01511
G1 X35.45 Y84.528 E.0208
G1 X35.11 Y83.302 E.03989
G1 X35.11 Y75.712 E.23798
G1 X35.316 Y74.754 E.03072
G1 X35.681 Y74.008 E.02604
G1 X36.11 Y73.518 E.02042
G1 X36.11 Y72.936 E.01825
G1 X16.129 Y72.936 E.62649
G1 X15.227 Y72.731 E.029
G1 X14.401 Y72.277 E.02955
G1 X13.696 Y71.593 E.0308
G1 X13.193 Y70.773 E.03016
G1 X12.937 Y69.803 E.03146
G1 X12.873 Y50.528 E.60436
G1 X12.827 Y45.202 E.167
G1 X12.896 Y38.861 E.19883
G1 X13.27 Y37.769 E.03619
G1 X13.902 Y36.814 E.03591
G1 X14.781 Y36.071 E.03609
G1 X15.553 Y35.706 E.02677
G1 X15.712 Y36.046 F54000
G1 F1200
G1 X15.951 Y35.935 E.00826
G1 X17.002 Y35.77 E.03336
G1 X21.82 Y35.774 E.15107
G1 X23.074 Y36.105 E.04066
G1 X23.511 Y36.373 E.01607
G1 X24.045 Y36.837 E.02218
G1 X24.645 Y37.725 E.0336
G1 X24.807 Y38.141 E.014
G1 X46.402 Y63.279 E1.03908
G1 X46.699 Y63.776 E.01815
G1 X46.997 Y64.88 E.03585
G1 X46.997 Y87.759 E.71735
G1 X46.769 Y88.618 E.02787
G1 X46.42 Y89.229 E.02206
G1 X45.779 Y89.888 E.02882
G1 X45.078 Y90.319 E.0258
G1 X44.2 Y90.552 E.02848
G1 X38.971 Y90.503 E.16396
G1 X38.286 Y90.265 E.02274
G1 X37.684 Y89.872 E.02254
G1 X37.101 Y89.278 E.0261
G1 X36.68 Y88.538 E.02669
G1 X36.487 Y87.715 E.0265
G1 X36.487 Y85.306 E.07553
G1 X36.098 Y84.892 E.01781
G1 X35.788 Y84.359 E.01933
G1 X35.487 Y83.276 E.03524
G1 X35.487 Y75.732 E.23654
G1 X35.665 Y74.899 E.02671
G1 X36.008 Y74.198 E.02447
G1 X36.487 Y73.663 E.02252
G1 X36.487 Y72.559 E.03462
G1 X16.151 Y72.559 E.63762
G1 X15.338 Y72.37 E.02617
G1 X14.644 Y71.987 E.02485
G1 X14.002 Y71.372 E.02788
G1 X13.549 Y70.646 E.02683
G1 X13.314 Y69.776 E.02826
G1 X13.25 Y50.526 E.60357
G1 X13.204 Y45.2 E.167
G1 X13.263 Y38.952 E.19591
G1 X13.599 Y37.954 E.03302
G1 X14.167 Y37.084 E.03258
G1 X15.005 Y36.376 E.0344
G1 X15.658 Y36.072 E.02258
G1 X15.814 Y36.412 F54000
G1 F1200
G1 X16.083 Y36.289 E.00927
G1 X17.015 Y36.147 E.02956
G1 X21.795 Y36.151 E.14987
G1 X22.903 Y36.441 E.03591
G1 X23.276 Y36.668 E.01369
G1 X23.778 Y37.105 E.02087
G1 X24.319 Y37.915 E.03054
G1 X24.477 Y38.335 E.01407
G1 X46.105 Y63.512 E1.04068
G1 X46.361 Y63.945 E.01577
G1 X46.62 Y64.905 E.03118
G1 X46.62 Y87.733 E.71576
G1 X46.412 Y88.495 E.02477
G1 X46.132 Y88.984 E.01767
G1 X45.557 Y89.582 E.02601
G1 X44.95 Y89.963 E.02247
G1 X44.176 Y90.175 E.02516
G1 X39.063 Y90.136 E.16032
G1 X38.47 Y89.935 E.01963
G1 X37.938 Y89.592 E.01985
G1 X37.388 Y89.033 E.02459
G1 X37.023 Y88.379 E.02348
G1 X36.864 Y87.693 E.02208
G1 X36.864 Y85.153 E.07964
G1 X36.412 Y84.682 E.02047
G1 X36.126 Y84.19 E.01784
G1 X35.864 Y83.25 E.0306
G1 X35.864 Y75.751 E.23513
G1 X36.014 Y75.043 E.02269
G1 X36.334 Y74.389 E.02283
G1 X36.864 Y73.811 E.02459
G1 X36.864 Y72.182 E.05108
G1 X16.172 Y72.182 E.64878
G1 X15.494 Y72.026 E.02181
G1 X14.886 Y71.697 E.02168
G1 X14.28 Y71.116 E.02632
G1 X13.905 Y70.518 E.02213
G1 X13.691 Y69.749 E.02503
G1 X13.627 Y50.524 E.60279
G1 X13.582 Y45.199 E.16697
G1 X13.631 Y39.041 E.19309
G1 X13.928 Y38.139 E.02978
G1 X14.467 Y37.314 E.0309
G1 X15.226 Y36.682 E.03097
G1 X15.76 Y36.437 E.01842
G1 X15.917 Y36.78 F54000
G1 F1200
G1 X16.215 Y36.643 E.01028
G1 X17.028 Y36.524 E.02576
G1 X21.771 Y36.528 E.14871
G1 X22.733 Y36.779 E.03117
G1 X23.041 Y36.964 E.01127
G1 X23.511 Y37.372 E.01951
G1 X23.991 Y38.102 E.02739
G1 X24.145 Y38.528 E.0142
G1 X45.809 Y63.746 E1.0424
G1 X46.005 Y64.072 E.01193
G1 X46.243 Y64.931 E.02795
G1 X46.243 Y87.707 E.71413
G1 X46.056 Y88.369 E.02157
G1 X45.844 Y88.74 E.0134
G1 X45.301 Y89.304 E.02455
G1 X44.821 Y89.608 E.01781
G1 X44.151 Y89.798 E.02184
G1 X39.155 Y89.769 E.15665
G1 X38.613 Y89.586 E.01794
G1 X38.19 Y89.311 E.01582
G1 X37.704 Y88.825 E.02155
G1 X37.365 Y88.219 E.02177
G1 X37.241 Y87.673 E.01756
G1 X37.241 Y85.002 E.08375
G1 X36.701 Y84.438 E.02448
G1 X36.465 Y84.025 E.01491
G1 X36.241 Y83.224 E.02608
G1 X36.241 Y75.772 E.23365
G1 X36.377 Y75.148 E.02002
G1 X36.658 Y74.584 E.01976
G1 X37.241 Y73.962 E.02673
G1 X37.241 Y71.805 E.06763
G1 X16.193 Y71.805 E.65995
G1 X15.65 Y71.682 E.01746
G1 X15.089 Y71.378 E.02001
G1 X14.559 Y70.862 E.02319
G1 X14.259 Y70.388 E.01759
G1 X14.068 Y69.721 E.02175
G1 X14.004 Y50.522 E.60197
G1 X13.959 Y45.197 E.16697
G1 X13.998 Y39.129 E.19026
G1 X14.26 Y38.321 E.02663
G1 X14.733 Y37.583 E.02748
G1 X15.407 Y37.014 E.02766
G1 X15.862 Y36.805 E.0157
G1 X16.016 Y37.146 F54000
G1 F1200
G1 X16.345 Y36.998 E.01131
G1 X17.04 Y36.901 E.022
G1 X21.747 Y36.905 E.14758
G1 X22.565 Y37.118 E.0265
G1 X22.808 Y37.26 E.00882
G1 X23.243 Y37.639 E.01809
G1 X23.661 Y38.286 E.02415
G1 X23.812 Y38.719 E.01438
G1 X45.512 Y63.979 E1.04413
G1 X45.668 Y64.242 E.00959
G1 X45.866 Y64.957 E.02326
G1 X45.866 Y87.679 E.71243
G1 X45.701 Y88.241 E.01836
G1 X45.555 Y88.496 E.00921
G1 X45.045 Y89.027 E.02308
G1 X44.687 Y89.255 E.01331
G1 X44.124 Y89.421 E.0184
G1 X39.243 Y89.402 E.15304
G1 X38.794 Y89.254 E.01482
G1 X38.442 Y89.029 E.0131
G1 X37.991 Y88.578 E.02
G1 X37.71 Y88.063 E.01839
G1 X37.618 Y87.652 E.01321
G1 X37.618 Y84.85 E.08785
G1 X36.991 Y84.196 E.02841
G1 X36.806 Y83.862 E.01197
G1 X36.618 Y83.198 E.02164
G1 X36.618 Y75.792 E.23221
G1 X36.725 Y75.295 E.01594
G1 X36.982 Y74.778 E.0181
G1 X37.618 Y74.114 E.02883
G1 X37.618 Y71.428 E.08422
G1 X16.213 Y71.428 E.67114
G1 X15.803 Y71.336 E.01317
G1 X15.332 Y71.088 E.01669
G1 X14.838 Y70.606 E.02164
G1 X14.613 Y70.254 E.0131
G1 X14.445 Y69.692 E.01839
G1 X14.381 Y50.52 E.60113
G1 X14.336 Y45.195 E.16697
G1 X14.366 Y39.217 E.18744
G1 X14.61 Y38.461 E.02491
G1 X15.032 Y37.814 E.02422
G1 X15.627 Y37.322 E.02421
G1 X15.961 Y37.171 E.01149
G1 X16.112 Y37.512 F54000
G1 F1200
G1 X16.47 Y37.354 E.01227
G1 X17.052 Y37.278 E.0184
G1 X21.723 Y37.282 E.14646
G1 X22.401 Y37.458 E.02196
G1 X22.575 Y37.557 E.00628
G1 X22.974 Y37.904 E.01658
G1 X23.332 Y38.47 E.021
G1 X23.42 Y38.716 E.00819
G1 X23.451 Y38.877 E.00514
G1 X45.217 Y64.214 E1.04731
G1 X45.313 Y64.372 E.0058
G1 X45.489 Y64.984 E.01997
G1 X45.489 Y87.649 E.71065
G1 X45.348 Y88.106 E.015
G1 X45.244 Y88.283 E.00644
G1 X44.79 Y88.748 E.02038
G1 X44.55 Y88.903 E.00896
G1 X44.095 Y89.043 E.01493
G1 X39.332 Y89.034 E.14934
G1 X38.935 Y88.904 E.0131
G1 X38.694 Y88.749 E.00898
G1 X38.278 Y88.333 E.01845
G1 X38.056 Y87.911 E.01495
G1 X37.995 Y87.633 E.00892
G1 X37.995 Y84.696 E.09209
G1 X37.306 Y83.987 E.031
G1 X37.161 Y83.732 E.0092
G1 X36.995 Y83.17 E.01837
G1 X36.995 Y75.813 E.23067
G1 X37.087 Y75.402 E.01321
G1 X37.304 Y74.977 E.01496
G1 X37.995 Y74.269 E.03102
G1 X37.995 Y71.051 E.1009
G1 X16.233 Y71.051 E.68233
G1 X15.955 Y70.99 E.00892
G1 X15.534 Y70.769 E.01491
G1 X15.118 Y70.354 E.01842
G1 X14.964 Y70.115 E.00891
G1 X14.822 Y69.661 E.01491
G1 X14.758 Y50.517 E.60025
G1 X14.713 Y45.192 E.16697
G1 X14.734 Y39.303 E.18465
G1 X14.943 Y38.641 E.02177
G1 X15.296 Y38.085 E.02065
G1 X15.846 Y37.629 E.0224
G1 X16.057 Y37.537 E.00722
G1 X16.204 Y37.879 F54000
G1 F1200
G1 X16.593 Y37.712 E.01327
G1 X17.062 Y37.655 E.01481
G1 X21.699 Y37.659 E.14539
G1 X22.241 Y37.8 E.01756
G1 X22.344 Y37.856 E.00368
G1 X22.704 Y38.169 E.01496
G1 X22.998 Y38.648 E.01762
G1 X23.058 Y38.821 E.00574
G1 X23.095 Y39.041 E.00699
G1 X44.919 Y64.446 E1.05011
G1 X44.976 Y64.543 E.00353
G1 X45.112 Y65.011 E.01528
G1 X45.112 Y87.617 E.7088
G1 X44.998 Y87.964 E.01145
G1 X44.936 Y88.064 E.00369
G1 X44.536 Y88.469 E.01785
G1 X44.407 Y88.553 E.00483
G1 X44.063 Y88.666 E.01135
G1 X39.421 Y88.666 E.14555
G1 X39.077 Y88.553 E.01135
G1 X38.948 Y88.469 E.00483
G1 X38.567 Y88.089 E.01687
G1 X38.404 Y87.765 E.01137
G1 X38.372 Y87.614 E.00484
G1 X38.372 Y84.541 E.09635
G1 X37.618 Y83.774 E.03372
G1 X37.513 Y83.598 E.00643
G1 X37.372 Y83.14 E.01503
G1 X37.372 Y75.833 E.22911
G1 X37.434 Y75.551 E.00905
G1 X37.626 Y75.175 E.01324
G1 X38.372 Y74.425 E.03317
G1 X38.372 Y70.673 E.11764
G1 X16.252 Y70.673 E.69356
G1 X16.101 Y70.642 E.00483
G1 X15.778 Y70.479 E.01134
G1 X15.398 Y70.1 E.01683
G1 X15.313 Y69.971 E.00484
G1 X15.199 Y69.628 E.01133
G1 X15.136 Y50.515 E.59928
G1 X15.09 Y45.19 E.16697
G1 X15.103 Y39.385 E.18201
G1 X15.275 Y38.821 E.01849
G1 X15.597 Y38.314 E.01883
G1 X16.061 Y37.94 E.01869
G1 X16.149 Y37.903 E.00299
G1 X16.301 Y38.246 F54000
G1 F1200
G1 X16.668 Y38.083 E.01259
G1 X17.074 Y38.032 E.01283
G1 X21.674 Y38.036 E.14423
G1 X22.09 Y38.146 E.01349
G1 X22.401 Y38.396 E.01251
G1 X22.651 Y38.796 E.01479
G1 X22.689 Y38.902 E.00353
G1 X22.741 Y39.208 E.00973
G1 X44.637 Y64.707 E1.05382
G1 X44.735 Y65.039 E.01085
G1 X44.735 Y87.582 E.70682
G1 X44.635 Y87.837 E.00859
G1 X44.255 Y88.208 E.01665
G1 X44.028 Y88.289 E.00756
G1 X39.456 Y88.289 E.14335
G1 X39.202 Y88.19 E.00855
G1 X38.859 Y87.847 E.01521
G1 X38.756 Y87.628 E.00759
G1 X38.749 Y84.385 E.10168
G1 X37.925 Y83.556 E.03665
G1 X37.863 Y83.455 E.00372
G1 X37.749 Y83.109 E.01142
G1 X37.749 Y75.852 E.22754
G1 X37.782 Y75.7 E.00488
G1 X37.948 Y75.374 E.01147
G1 X38.749 Y74.584 E.03527
G1 X38.749 Y70.296 E.13445
G1 X16.269 Y70.296 E.70484
G1 X16.019 Y70.187 E.00855
G1 X15.658 Y69.819 E.01616
G1 X15.576 Y69.592 E.00757
G1 X15.513 Y50.513 E.59821
G1 X15.467 Y45.189 E.16694
G1 X15.473 Y39.464 E.1795
G1 X15.611 Y38.994 E.01536
G1 X15.863 Y38.583 E.01512
G1 X16.246 Y38.27 E.01551
