; generated by PrusaSlicer 2.6.0+MacOS-arm64 on 2023-07-25 at 09:56:55 UTC

; 

; external perimeters extrusion width = 0.42mm
; perimeters extrusion width = 0.44mm
; infill extrusion width = 0.44mm
; solid infill extrusion width = 0.44mm
; top infill extrusion width = 0.40mm
; first layer extrusion width = 0.42mm

M201 X3500 Y3500 Z150 E5000 ; sets maximum accelerations, mm/sec^2
M203 X500 Y500 Z10 E60 ; sets maximum feedrates, mm / sec
M204 S1500 T1000 ; sets acceleration (S) and retract acceleration (R), mm/sec^2
M205 X8.00 Y8.00 Z0.40 E5.00 ; sets the jerk limits, mm/sec
M205 S0 T0 ; sets the minimum extruding and travel feed rate, mm/sec
;TYPE:Custom
G90 ; use absolute coordinates
M83 ; extruder relative mode
M104 S150 ; set temporary nozzle temp to prevent oozing during homing
M140 S60 ; set final bed temp
G4 S30 ; allow partial nozzle warmup
G28 ; home all axis
G1 Z50 F240
G1 X2.0 Y10 F3000
M104 S205 ; set final nozzle temp
M190 S60 ; wait for bed temp to stabilize
M109 S205 ; wait for nozzle temp to stabilize
G1 Z0.28 F240
G92 E0
G1 X2.0 Y140 E10 F1500 ; prime the nozzle
G1 X2.3 Y140 F5000
G92 E0
G1 X2.3 Y10 E10 F1200 ; prime the nozzle
G92 E0
G21 ; set units to millimeters
G90 ; use absolute coordinates
M83 ; use relative distances for extrusion
; Filament gcode
M107
;LAYER_CHANGE
;Z:0.2
;HEIGHT:0.2
;BEFORE_LAYER_CHANGE
G92 E0
;0.2


G1 E-3.5 F4800
G1 Z.2 F54000
;AFTER_LAYER_CHANGE
;0.2
G1 X11.35 Y11.35
G1 E3.5 F2400
M204 S1500
;TYPE:Skirt/Brim
;WIDTH:0.42
G1 F1200
G1 X12.054 Y10.646 E.03122
G1 X13.452 Y9.805 E.05115
G1 X14.442 Y9.657 E.03139
G1 X80.384 Y9.657 E2.06757
G1 X81.967 Y10.051 E.05115
G1 X82.772 Y10.646 E.03139
G1 X85.701 Y13.575 E.12988
G1 X86.542 Y14.973 E.05115
G1 X86.69 Y15.963 E.03139
G1 X86.69 Y43.905 E.8761
G1 X86.296 Y45.488 E.05115
G1 X85.701 Y46.293 E.03139
G1 X82.772 Y49.222 E.12988
G1 X81.374 Y50.063 E.05115
G1 X80.384 Y50.211 E.03139
G1 X14.442 Y50.211 E2.06757
G1 X12.859 Y49.817 E.05115
G1 X12.054 Y49.222 E.03139
G1 X9.125 Y46.293 E.12988
G1 X8.284 Y44.895 E.05115
G1 X8.136 Y43.905 E.03139
G1 X8.136 Y15.963 E.8761
G1 X8.53 Y14.38 E.05115
G1 X9.125 Y13.575 E.03139
G1 X11.308 Y11.392 E.0968
G1 E-2.45 F4800
;WIPE_START
G1 F43200
G1 X12.054 Y10.646 E-.11136
G1 X13.452 Y9.805 E-.17221
G1 X14.442 Y9.657 E-.10566
G1 X20.702 Y9.657 E-.66077
;WIPE_END
G1 X13.565 Y14.323 F54000
G1 E3.5 F2400
G1 F1200
G1 X14.652 Y13.667 E.03981
G1 X16.057 Y13.32 E.04538
G1 X78.8 Y13.324 E1.96726
G1 X79.748 Y13.508 E.03028
G1 X80.656 Y13.899 E.031
G1 X81.875 Y14.922 E.0499
G1 X82.666 Y16.14 E.04554
G1 X83.027 Y17.522 E.04479
G1 X83.027 Y42.344 E.77828
G1 X82.718 Y43.602 E.04062
G1 X82.147 Y44.615 E.03646
G1 X81.262 Y45.545 E.04025
G1 X80.175 Y46.201 E.03981
G1 X78.769 Y46.547 E.0454
G1 X16.003 Y46.547 E1.96798
G1 X14.745 Y46.239 E.04061
G1 X13.732 Y45.667 E.03648
G1 X12.802 Y44.782 E.04025
G1 X12.146 Y43.695 E.03981
G1 X11.8 Y42.29 E.04537
G1 X11.8 Y17.524 E.77652
G1 X12.108 Y16.266 E.04061
G1 X12.68 Y15.252 E.0365
G1 X13.523 Y14.366 E.03835
G1 X13.781 Y14.632 F54000
G1 F1200
G1 X14.822 Y14.004 E.03812
G1 X16.08 Y13.697 E.0406
G1 X78.781 Y13.701 E1.96595
G1 X79.654 Y13.874 E.0279
G1 X80.48 Y14.233 E.02824
G1 X81.61 Y15.192 E.04647
G1 X82.309 Y16.266 E.04018
G1 X82.65 Y17.547 E.04156
G1 X82.65 Y42.32 E.77674
G1 X82.359 Y43.485 E.03765
G1 X81.831 Y44.408 E.03334
G1 X81.045 Y45.235 E.03577
G1 X80.005 Y45.863 E.03809
G1 X78.747 Y46.17 E.0406
G1 X16.027 Y46.17 E1.96654
G1 X14.863 Y45.88 E.03761
G1 X13.939 Y45.352 E.03337
G1 X13.112 Y44.566 E.03577
G1 X12.484 Y43.525 E.03812
G1 X12.177 Y42.267 E.0406
G1 X12.177 Y17.547 E.77508
G1 X12.467 Y16.383 E.03761
G1 X12.995 Y15.459 E.03337
G1 X13.74 Y14.676 E.03389
G1 X14.012 Y14.937 F54000
G1 F1200
G1 X14.99 Y14.343 E.03588
G1 X16.102 Y14.075 E.03586
G1 X78.762 Y14.078 E1.96466
G1 X79.559 Y14.239 E.02549
G1 X80.301 Y14.566 E.02542
G1 X81.343 Y15.459 E.04303
G1 X81.976 Y16.444 E.03671
G1 X82.273 Y17.571 E.03654
G1 X82.273 Y42.296 E.77524
G1 X82.001 Y43.365 E.03459
G1 X81.517 Y44.199 E.03023
G1 X80.791 Y44.955 E.03286
G1 X79.837 Y45.525 E.03484
G1 X78.725 Y45.793 E.03586
G1 X16.051 Y45.793 E1.9651
G1 X14.982 Y45.521 E.03459
G1 X14.148 Y45.037 E.03023
G1 X13.392 Y44.312 E.03284
G1 X12.822 Y43.357 E.03487
G1 X12.554 Y42.245 E.03586
G1 X12.554 Y17.571 E.77364
G1 X12.826 Y16.502 E.03459
G1 X13.31 Y15.669 E.03021
G1 X13.97 Y14.98 E.02992
G1 X14.241 Y15.242 F54000
G1 F1200
G1 X14.288 Y15.193 E.00213
G1 X15.156 Y14.683 E.03157
G1 X16.124 Y14.452 E.0312
G1 X78.742 Y14.455 E1.96334
G1 X79.462 Y14.604 E.02305
G1 X80.121 Y14.899 E.02264
G1 X81.076 Y15.726 E.03961
G1 X81.62 Y16.571 E.03151
G1 X81.895 Y17.597 E.03331
G1 X81.895 Y42.272 E.77367
G1 X81.643 Y43.244 E.03148
G1 X81.204 Y43.987 E.02706
G1 X80.539 Y44.674 E.02998
G1 X79.67 Y45.185 E.03161
G1 X78.703 Y45.416 E.03117
G1 X16.075 Y45.416 E1.96366
G1 X15.103 Y45.163 E.03149
G1 X14.36 Y44.725 E.02704
G1 X13.673 Y44.06 E.02998
G1 X13.162 Y43.191 E.03161
G1 X12.931 Y42.223 E.0312
G1 X12.931 Y17.596 E.77216
G1 X13.184 Y16.624 E.03149
G1 X13.622 Y15.881 E.02704
G1 X14.199 Y15.285 E.02601
G1 X14.468 Y15.548 F54000
G1 F1200
G1 X14.538 Y15.476 E.00315
G1 X15.32 Y15.023 E.02834
G1 X16.145 Y14.829 E.02657
G1 X78.723 Y14.832 E1.96209
G1 X79.327 Y14.957 E.01934
G1 X79.941 Y15.231 E.02108
G1 X80.806 Y15.991 E.0361
G1 X81.285 Y16.747 E.02806
G1 X81.518 Y17.621 E.02836
G1 X81.518 Y42.247 E.77213
G1 X81.286 Y43.12 E.02832
G1 X80.893 Y43.773 E.0239
G1 X80.288 Y44.392 E.02714
G1 X79.506 Y44.845 E.02834
G1 X78.681 Y45.039 E.02657
G1 X16.1 Y45.039 E1.96218
G1 X15.227 Y44.806 E.02833
G1 X14.574 Y44.414 E.02388
G1 X13.955 Y43.809 E.02714
G1 X13.502 Y43.027 E.02834
G1 X13.308 Y42.202 E.02657
G1 X13.308 Y17.621 E.77072
G1 X13.541 Y16.748 E.02833
G1 X13.933 Y16.095 E.02388
G1 X14.426 Y15.591 E.02211
G1 X14.694 Y15.855 F54000
G1 F1200
G1 X14.787 Y15.76 E.00417
G1 X15.482 Y15.365 E.02506
G1 X16.166 Y15.206 E.02202
G1 X78.702 Y15.209 E1.96077
G1 X79.227 Y15.321 E.01683
G1 X79.758 Y15.562 E.01828
G1 X80.535 Y16.255 E.03264
G1 X80.93 Y16.875 E.02305
G1 X81.141 Y17.647 E.02509
G1 X81.141 Y42.221 E.7705
G1 X80.93 Y42.993 E.02509
G1 X80.584 Y43.556 E.02072
G1 X80.039 Y44.107 E.0243
G1 X79.344 Y44.503 E.02508
G1 X78.66 Y44.662 E.02202
G1 X16.126 Y44.662 E1.96071
G1 X15.354 Y44.45 E.0251
G1 X14.791 Y44.104 E.02072
G1 X14.24 Y43.56 E.02428
G1 X13.844 Y42.865 E.02508
G1 X13.685 Y42.181 E.02202
G1 X13.685 Y17.647 E.76925
G1 X13.897 Y16.875 E.0251
G1 X14.243 Y16.311 E.02075
G1 X14.651 Y15.898 E.0182
G1 X14.917 Y16.164 F54000
G1 F1200
G1 X15.035 Y16.046 E.00523
G1 X15.641 Y15.707 E.02177
G1 X16.187 Y15.583 E.01756
G1 X78.681 Y15.586 E1.95946
G1 X79.125 Y15.684 E.01426
G1 X79.573 Y15.891 E.01547
G1 X80.263 Y16.517 E.02921
G1 X80.575 Y17.005 E.01816
G1 X80.764 Y17.674 E.0218
G1 X80.764 Y42.194 E.76881
G1 X80.575 Y42.862 E.02177
G1 X80.277 Y43.336 E.01756
G1 X79.792 Y43.822 E.02153
G1 X79.185 Y44.16 E.02178
G1 X78.639 Y44.285 E.01756
G1 X16.153 Y44.285 E1.9592
G1 X15.485 Y44.095 E.02178
G1 X15.011 Y43.798 E.01754
G1 X14.526 Y43.312 E.02153
G1 X14.187 Y42.706 E.02177
G1 X14.062 Y42.16 E.01756
G1 X14.062 Y17.674 E.76774
G1 X14.252 Y17.005 E.02181
G1 X14.55 Y16.531 E.01756
G1 X14.875 Y16.206 E.01441
G1 X15.141 Y16.473 F54000
G1 F1200
G1 X15.281 Y16.333 E.00621
G1 X15.797 Y16.051 E.01844
G1 X16.208 Y15.96 E.0132
G1 X78.659 Y15.964 E1.95811
G1 X79.019 Y16.047 E.01158
G1 X79.384 Y16.219 E.01265
G1 X79.989 Y16.777 E.02581
G1 X80.221 Y17.139 E.01348
G1 X80.387 Y17.702 E.0184
G1 X80.387 Y42.166 E.76705
G1 X80.221 Y42.729 E.0184
G1 X79.996 Y43.084 E.01318
G1 X79.545 Y43.535 E.02
G1 X79.029 Y43.816 E.01842
G1 X78.619 Y43.908 E.01317
G1 X16.181 Y43.908 E1.9577
G1 X15.618 Y43.742 E.0184
G1 X15.263 Y43.517 E.01318
G1 X14.812 Y43.066 E.02
G1 X14.531 Y42.55 E.01842
G1 X14.439 Y42.14 E.01317
G1 X14.439 Y17.702 E.76624
G1 X14.605 Y17.138 E.01843
G1 X14.831 Y16.784 E.01317
G1 X15.099 Y16.515 E.01191
G1 X15.366 Y16.782 F54000
G1 F1200
G1 X15.527 Y16.62 E.00716
G1 X15.949 Y16.397 E.01497
G1 X16.227 Y16.337 E.00892
G1 X78.637 Y16.341 E1.95682
G1 X78.875 Y16.396 E.00766
G1 X79.195 Y16.547 E.01109
G1 X79.714 Y17.035 E.02234
G1 X79.869 Y17.276 E.00898
G1 X80.01 Y17.731 E.01494
G1 X80.01 Y42.136 E.7652
G1 X79.869 Y42.592 E.01497
G1 X79.715 Y42.831 E.00891
G1 X79.299 Y43.248 E.01847
G1 X78.877 Y43.47 E.01495
G1 X78.599 Y43.531 E.00892
G1 X16.211 Y43.531 E1.95613
G1 X15.755 Y43.39 E.01497
G1 X15.516 Y43.236 E.00891
G1 X15.1 Y42.82 E.01845
G1 X14.877 Y42.398 E.01497
G1 X14.816 Y42.12 E.00892
G1 X14.816 Y17.731 E.7647
G1 X14.957 Y17.276 E.01494
G1 X15.111 Y17.036 E.00894
G1 X15.323 Y16.824 E.0094
G1 X15.59 Y17.091 F54000
G1 F1200
G1 X15.771 Y16.909 E.00805
G1 X16.095 Y16.746 E.01137
G1 X16.246 Y16.714 E.00484
G1 X78.615 Y16.718 E1.95554
G1 X78.732 Y16.745 E.00376
G1 X79.005 Y16.874 E.00947
G1 X79.436 Y17.291 E.0188
G1 X79.52 Y17.419 E.0048
G1 X79.633 Y17.763 E.01135
G1 X79.633 Y42.105 E.76323
G1 X79.52 Y42.449 E.01135
G1 X79.435 Y42.578 E.00484
G1 X79.055 Y42.958 E.01685
G1 X78.732 Y43.122 E.01136
G1 X78.581 Y43.154 E.00484
G1 X16.243 Y43.154 E1.95456
G1 X15.898 Y43.041 E.01138
G1 X15.769 Y42.956 E.00484
G1 X15.389 Y42.576 E.01685
G1 X15.225 Y42.252 E.01139
G1 X15.193 Y42.101 E.00484
G1 X15.193 Y17.763 E.7631
G1 X15.307 Y17.419 E.01136
G1 X15.391 Y17.29 E.00483
G1 X15.547 Y17.133 E.00694
G1 X15.814 Y17.4 F54000
G1 F1200
G1 X16.013 Y17.201 E.00882
G1 X16.263 Y17.091 E.00856
G1 X78.595 Y17.097 E1.95438
G1 X78.813 Y17.201 E.00757
G1 X79.156 Y17.544 E.01521
G1 X79.256 Y17.798 E.00856
G1 X79.256 Y42.069 E.761
G1 X79.174 Y42.297 E.0076
G1 X78.813 Y42.667 E.01621
G1 X78.563 Y42.777 E.00856
G1 X16.278 Y42.777 E1.9529
G1 X16.05 Y42.695 E.0076
G1 X15.68 Y42.334 E.01621
G1 X15.571 Y42.084 E.00855
G1 X15.571 Y17.798 E.76147
G1 X15.652 Y17.571 E.00756
G1 X15.772 Y17.442 E.00552
G1 X16.038 Y17.709 F54000
G1 F1200
G1 X16.25 Y17.497 E.0094
G1 X16.32 Y17.468 E.00238
G1 X78.507 Y17.468 E1.94983
G1 X78.576 Y17.497 E.00235
G1 X78.85 Y17.771 E.01215
G1 X78.879 Y17.84 E.00235
G1 X78.879 Y42.028 E.7584
G1 X78.85 Y42.097 E.00235
G1 X78.576 Y42.371 E.01215
G1 X78.507 Y42.399 E.00233
G1 X16.32 Y42.399 E1.94983
G1 X16.25 Y42.371 E.00236
G1 X15.976 Y42.097 E.01215
G1 X15.948 Y42.028 E.00233
G1 X15.948 Y17.84 E.7584
G1 X15.996 Y17.751 E.00317
G1 X16.325 Y17.956 F54000
G1 F1200
G1 X16.435 Y17.845 E.0049
G1 X78.391 Y17.845 E1.94259
G1 X78.502 Y17.956 E.00492
G1 X78.502 Y41.912 E.75112
G1 X78.391 Y42.022 E.0049
G1 X16.435 Y42.022 E1.94259
G1 X16.325 Y41.912 E.00488
G1 X16.325 Y18.016 E.74924
; printing object Magnet Holder Tolerance Test 10mm v0.1.stl id:0 copy 0
G1 E-2.45 F4800
;WIPE_START
G1 F43200
G1 X16.435 Y17.845 E-.02146
G1 X26.179 Y17.845 E-1.02854
;WIPE_END
G1 X77.349 Y40.87 F54000
G1 E3.5 F2400
;TYPE:Perimeter
;WIDTH:0.419999
G1 F1200
G1 X17.477 Y40.87 E1.87724
G1 X17.477 Y18.998 E.68578
G1 X77.349 Y18.998 E1.87724
G1 X77.349 Y40.81 E.6839
G1 X77.726 Y41.247 F54000
G1 F1200
G1 X17.1 Y41.247 E1.90088
G1 X17.1 Y18.621 E.70942
G1 X77.726 Y18.621 E1.90088
G1 X77.726 Y41.187 E.70754
G1 X78.103 Y41.624 F54000
;TYPE:External perimeter
G1 F1200
G1 X16.723 Y41.624 E1.92452
G1 X16.723 Y18.244 E.73306
G1 X78.103 Y18.244 E1.92452
G1 X78.103 Y41.564 E.73118
G1 X77.706 Y41.575 F54000
G1 E-2.45 F4800
;WIPE_START
G1 F43200
G1 X68.156 Y41.574 E-1.05
;WIPE_END
G1 X76.463 Y19.119 F54000
G1 E3.5 F2400
;TYPE:Solid infill
;WIDTH:0.421297
G1 F1200
G1 X77.059 Y19.714 E.0265
G1 X77.059 Y20.249 E.01683
G1 X76.098 Y19.288 E.04276
G1 X75.563 Y19.288 E.01683
G1 X77.059 Y20.784 E.06656
G1 X77.059 Y21.319 E.01683
G1 X75.028 Y19.288 E.09037
G1 X74.493 Y19.288 E.01683
G1 X77.059 Y21.854 E.11417
G1 X77.059 Y22.39 E.01686
G1 X73.958 Y19.288 E.138
G1 X73.422 Y19.288 E.01686
G1 X77.059 Y22.925 E.16183
G1 X77.059 Y23.46 E.01683
G1 X72.887 Y19.288 E.18563
G1 X72.352 Y19.288 E.01683
G1 X77.059 Y23.995 E.20943
G1 X77.059 Y24.53 E.01683
G1 X71.817 Y19.288 E.23324
G1 X71.282 Y19.288 E.01683
G1 X77.059 Y25.065 E.25704
G1 X77.059 Y25.6 E.01683
G1 X70.747 Y19.288 E.28085
G1 X70.212 Y19.288 E.01683
G1 X77.059 Y26.135 E.30465
G1 X77.059 Y26.67 E.01683
G1 X69.677 Y19.288 E.32846
G1 X69.142 Y19.288 E.01683
G1 X77.059 Y27.205 E.35226
G1 X77.059 Y27.741 E.01686
G1 X68.606 Y19.288 E.37611
G1 X68.071 Y19.288 E.01683
G1 X77.059 Y28.276 E.39991
G1 X77.059 Y28.811 E.01683
G1 X67.536 Y19.288 E.42372
G1 X67.001 Y19.288 E.01683
G1 X77.059 Y29.346 E.44752
G1 X77.059 Y29.881 E.01683
G1 X66.466 Y19.288 E.47133
G1 X65.931 Y19.288 E.01683
G1 X77.059 Y30.416 E.49513
G1 X77.059 Y30.951 E.01683
G1 X65.396 Y19.288 E.51894
G1 X64.861 Y19.288 E.01683
G1 X77.059 Y31.486 E.54274
G1 X77.059 Y32.021 E.01683
G1 X64.326 Y19.288 E.56655
G1 X63.791 Y19.288 E.01683
G1 X77.059 Y32.557 E.59037
G1 X77.059 Y33.092 E.01683
G1 X63.255 Y19.288 E.6142
G1 X62.72 Y19.288 E.01683
G1 X77.059 Y33.627 E.638
G1 X77.059 Y34.162 E.01683
G1 X62.185 Y19.288 E.66181
G1 X61.65 Y19.288 E.01683
G1 X77.059 Y34.697 E.68561
G1 X77.059 Y35.232 E.01683
G1 X61.115 Y19.288 E.70942
G1 X60.58 Y19.288 E.01683
G1 X77.059 Y35.767 E.73322
G1 X77.059 Y36.302 E.01683
G1 X60.045 Y19.288 E.75702
G1 X59.51 Y19.288 E.01683
G1 X77.059 Y36.837 E.78083
G1 X77.059 Y37.373 E.01686
G1 X58.975 Y19.288 E.80466
G1 X58.439 Y19.288 E.01686
G1 X77.059 Y37.908 E.82848
G1 X77.059 Y38.443 E.01683
G1 X57.904 Y19.288 E.85229
G1 X57.369 Y19.288 E.01683
G1 X77.059 Y38.978 E.87609
G1 X77.059 Y39.513 E.01683
G1 X56.834 Y19.288 E.8999
G1 X56.299 Y19.288 E.01683
G1 X77.059 Y40.048 E.9237
G1 X77.059 Y40.579 E.01671
G1 X55.764 Y19.288 E.94742
G1 X55.229 Y19.288 E.01683
G1 X76.52 Y40.579 E.94733
G1 X75.985 Y40.579 E.01683
G1 X54.694 Y19.288 E.94733
G1 X54.159 Y19.288 E.01683
G1 X75.45 Y40.579 E.94733
G1 X74.915 Y40.579 E.01683
G1 X53.624 Y19.288 E.94733
G1 X53.088 Y19.288 E.01686
G1 X74.379 Y40.579 E.94733
G1 X73.844 Y40.579 E.01683
G1 X52.553 Y19.288 E.94733
G1 X52.018 Y19.288 E.01683
G1 X73.309 Y40.579 E.94733
G1 X72.774 Y40.579 E.01683
G1 X51.483 Y19.288 E.94733
G1 X50.948 Y19.288 E.01683
G1 X72.239 Y40.579 E.94733
G1 X71.704 Y40.579 E.01683
G1 X50.413 Y19.288 E.94733
G1 X49.878 Y19.288 E.01683
G1 X71.169 Y40.579 E.94733
G1 X70.634 Y40.579 E.01683
G1 X49.343 Y19.288 E.94733
G1 X48.808 Y19.288 E.01683
G1 X70.099 Y40.579 E.94733
G1 X69.563 Y40.579 E.01686
G1 X48.272 Y19.288 E.94733
G1 X47.737 Y19.288 E.01683
G1 X69.028 Y40.579 E.94733
G1 X68.493 Y40.579 E.01683
G1 X47.202 Y19.288 E.94733
G1 X46.667 Y19.288 E.01683
G1 X67.958 Y40.579 E.94733
G1 X67.423 Y40.579 E.01683
G1 X46.132 Y19.288 E.94733
G1 X45.597 Y19.288 E.01683
G1 X66.888 Y40.579 E.94733
G1 X66.353 Y40.579 E.01683
G1 X45.062 Y19.288 E.94733
G1 X44.527 Y19.288 E.01683
G1 X65.818 Y40.579 E.94733
G1 X65.283 Y40.579 E.01683
G1 X43.992 Y19.288 E.94733
G1 X43.457 Y19.288 E.01683
G1 X64.747 Y40.579 E.9473
G1 X64.212 Y40.579 E.01683
G1 X42.921 Y19.288 E.94733
G1 X42.386 Y19.288 E.01683
G1 X63.677 Y40.579 E.94733
G1 X63.142 Y40.579 E.01683
G1 X41.851 Y19.288 E.94733
G1 X41.316 Y19.288 E.01683
G1 X62.607 Y40.579 E.94733
G1 X62.072 Y40.579 E.01683
G1 X40.781 Y19.288 E.94733
G1 X40.246 Y19.288 E.01683
G1 X61.537 Y40.579 E.94733
G1 X61.002 Y40.579 E.01683
G1 X39.711 Y19.288 E.94733
G1 X39.176 Y19.288 E.01683
G1 X60.467 Y40.579 E.94733
G1 X59.932 Y40.579 E.01683
G1 X38.641 Y19.288 E.94733
G1 X38.105 Y19.288 E.01686
G1 X59.396 Y40.579 E.94733
G1 X58.861 Y40.579 E.01683
G1 X37.57 Y19.288 E.94733
G1 X37.035 Y19.288 E.01683
G1 X58.326 Y40.579 E.94733
G1 X57.791 Y40.579 E.01683
G1 X36.5 Y19.288 E.94733
G1 X35.965 Y19.288 E.01683
G1 X57.256 Y40.579 E.94733
G1 X56.721 Y40.579 E.01683
G1 X35.43 Y19.288 E.94733
G1 X34.895 Y19.288 E.01683
G1 X56.186 Y40.579 E.94733
G1 X55.651 Y40.579 E.01683
G1 X34.36 Y19.288 E.94733
G1 X33.825 Y19.288 E.01683
G1 X55.116 Y40.579 E.94733
G1 X54.58 Y40.579 E.01686
G1 X33.289 Y19.288 E.94733
G1 X32.754 Y19.288 E.01683
G1 X54.045 Y40.579 E.94733
G1 X53.51 Y40.579 E.01683
G1 X32.219 Y19.288 E.94733
G1 X31.684 Y19.288 E.01683
G1 X52.975 Y40.579 E.94733
G1 X52.44 Y40.579 E.01683
G1 X31.149 Y19.288 E.94733
G1 X30.614 Y19.288 E.01683
G1 X51.905 Y40.579 E.94733
G1 X51.37 Y40.579 E.01683
