; generated by PrusaSlicer 2.6.0+MacOS-arm64 on 2023-07-25 at 10:57:21 UTC

; 

; external perimeters extrusion width = 0.42mm
; perimeters extrusion width = 0.44mm
; infill extrusion width = 0.44mm
; solid infill extrusion width = 0.44mm
; top infill extrusion width = 0.40mm
; first layer extrusion width = 0.42mm

M201 X3500 Y3500 Z150 E5000 ; sets maximum accelerations, mm/sec^2
M203 X500 Y500 Z10 E60 ; sets maximum feedrates, mm / sec
M204 S3500 T1000 ; sets acceleration (S) and retract acceleration (R), mm/sec^2
M205 X8.00 Y8.00 Z0.40 E5.00 ; sets the jerk limits, mm/sec
M205 S0 T0 ; sets the minimum extruding and travel feed rate, mm/sec
;TYPE:Custom
G90 ; use absolute coordinates
M83 ; extruder relative mode
M104 S150 ; set temporary nozzle temp to prevent oozing during homing
M140 S60 ; set final bed temp
G4 S30 ; allow partial nozzle warmup
G28 ; home all axis
G1 Z50 F240
G1 X2.0 Y10 F3000
M104 S205 ; set final nozzle temp
M190 S60 ; wait for bed temp to stabilize
M109 S205 ; wait for nozzle temp to stabilize
G1 Z0.28 F240
G92 E0
G1 X2.0 Y140 E10 F1500 ; prime the nozzle
G1 X2.3 Y140 F5000
G92 E0
G1 X2.3 Y10 E10 F1200 ; prime the nozzle
G92 E0
G21 ; set units to millimeters
G90 ; use absolute coordinates
M83 ; use relative distances for extrusion
; Filament gcode
M107
;LAYER_CHANGE
;Z:0.2
;HEIGHT:0.2
;BEFORE_LAYER_CHANGE
G92 E0
;0.2


G1 E-3.5 F4800
G1 Z.2 F54000
;AFTER_LAYER_CHANGE
;0.2
G1 X11.678 Y14.885
G1 E3.5 F2400
M204 S3500
;TYPE:Skirt/Brim
;WIDTH:0.42
G1 F1200
G1 X13.076 Y14.044 E.05115
G1 X14.066 Y13.896 E.03139
G1 X81.008 Y13.896 E2.09892
G1 X82.591 Y14.29 E.05115
G1 X83.396 Y14.885 E.03139
G1 X86.325 Y17.814 E.12988
G1 X87.166 Y19.212 E.05115
G1 X87.314 Y20.202 E.03139
G1 X87.314 Y48.144 E.8761
G1 X86.92 Y49.727 E.05115
G1 X86.325 Y50.532 E.03139
G1 X83.396 Y53.461 E.12988
G1 X81.998 Y54.301 E.05114
G1 X81.008 Y54.45 E.03139
G1 X14.066 Y54.45 E2.09892
G1 X12.483 Y54.056 E.05115
G1 X11.678 Y53.461 E.03139
G1 X8.749 Y50.532 E.12988
G1 X7.908 Y49.134 E.05115
G1 X7.76 Y48.144 E.03139
G1 X7.76 Y20.202 E.8761
G1 X8.154 Y18.618 E.05118
G1 X8.749 Y17.814 E.03136
G1 X11.635 Y14.927 E.12799
G1 E-2.45 F4800
;WIPE_START
G1 F43200
G1 X13.076 Y14.044 E-.17839
G1 X14.066 Y13.896 E-.10566
G1 X21.322 Y13.896 E-.76595
;WIPE_END
G1 X13.657 Y18.278 F54000
G1 E3.5 F2400
G1 F1200
G1 X14.275 Y17.905 E.02263
G1 X15.681 Y17.559 E.0454
G1 X79.423 Y17.563 E1.99859
G1 X80.371 Y17.747 E.03028
G1 X81.28 Y18.138 E.03103
G1 X82.499 Y19.161 E.0499
G1 X83.289 Y20.378 E.04549
G1 X83.65 Y21.761 E.04482
G1 X83.65 Y46.583 E.77828
G1 X83.342 Y47.841 E.04061
G1 X82.77 Y48.854 E.03648
G1 X81.885 Y49.784 E.04025
G1 X80.798 Y50.44 E.03981
G1 X79.393 Y50.786 E.04537
G1 X15.627 Y50.786 E1.99934
G1 X14.369 Y50.478 E.04061
G1 X13.355 Y49.906 E.0365
G1 X12.426 Y49.021 E.04023
G1 X11.77 Y47.934 E.03981
G1 X11.423 Y46.529 E.04538
G1 X11.423 Y21.763 E.77652
G1 X11.732 Y20.505 E.04062
G1 X12.303 Y19.491 E.03649
G1 X13.188 Y18.561 E.04025
G1 X13.606 Y18.309 E.0153
G1 X13.801 Y18.632 F54000
G1 F1200
G1 X14.445 Y18.243 E.02359
G1 X15.703 Y17.936 E.0406
G1 X79.404 Y17.94 E1.9973
G1 X80.278 Y18.113 E.02794
G1 X81.103 Y18.472 E.02821
G1 X82.234 Y19.431 E.04649
G1 X82.933 Y20.505 E.04018
G1 X83.273 Y21.786 E.04156
G1 X83.273 Y46.559 E.77674
G1 X82.983 Y47.723 E.03761
G1 X82.455 Y48.647 E.03337
G1 X81.669 Y49.474 E.03577
G1 X80.628 Y50.102 E.03812
G1 X79.37 Y50.409 E.0406
G1 X15.65 Y50.409 E1.9979
G1 X14.486 Y50.119 E.03761
G1 X13.562 Y49.59 E.03338
G1 X12.735 Y48.805 E.03575
G1 X12.107 Y47.764 E.03812
G1 X11.8 Y46.506 E.0406
G1 X11.8 Y21.786 E.77508
G1 X12.091 Y20.622 E.03762
G1 X12.619 Y19.698 E.03337
G1 X13.405 Y18.871 E.03577
G1 X13.75 Y18.663 E.01263
G1 X13.94 Y18.983 F54000
G1 F1200
G1 X14.613 Y18.582 E.02456
G1 X15.725 Y18.313 E.03587
G1 X79.385 Y18.317 E1.99601
G1 X80.182 Y18.478 E.02549
G1 X80.925 Y18.805 E.02545
G1 X81.967 Y19.698 E.04303
G1 X82.599 Y20.683 E.03669
G1 X82.896 Y21.81 E.03654
G1 X82.896 Y46.535 E.77524
G1 X82.624 Y47.604 E.03459
G1 X82.14 Y48.438 E.03023
G1 X81.415 Y49.194 E.03284
G1 X80.46 Y49.763 E.03486
G1 X79.348 Y50.032 E.03587
G1 X15.674 Y50.032 E1.99645
G1 X14.605 Y49.76 E.03459
G1 X13.772 Y49.276 E.03021
G1 X13.015 Y48.551 E.03286
G1 X12.446 Y47.596 E.03486
G1 X12.177 Y46.484 E.03587
G1 X12.177 Y21.81 E.77364
G1 X12.449 Y20.741 E.03459
G1 X12.933 Y19.908 E.03021
G1 X13.659 Y19.151 E.03289
G1 X13.889 Y19.014 E.00839
G1 X14.077 Y19.334 F54000
G1 F1200
G1 X14.78 Y18.921 E.02556
G1 X15.747 Y18.69 E.03117
G1 X79.365 Y18.694 E1.9947
G1 X80.085 Y18.843 E.02305
G1 X80.745 Y19.138 E.02267
G1 X81.699 Y19.965 E.03959
G1 X82.243 Y20.809 E.03148
G1 X82.519 Y21.836 E.03334
G1 X82.519 Y46.511 E.77367
G1 X82.266 Y47.483 E.03149
G1 X81.828 Y48.226 E.02704
G1 X81.162 Y48.913 E.03
G1 X80.294 Y49.424 E.03158
G1 X79.326 Y49.655 E.0312
G1 X15.699 Y49.655 E1.99498
G1 X14.727 Y49.402 E.03149
G1 X13.984 Y48.964 E.02704
G1 X13.296 Y48.298 E.03002
G1 X12.786 Y47.43 E.03157
G1 X12.555 Y46.462 E.0312
G1 X12.555 Y21.835 E.77216
G1 X12.807 Y20.863 E.03148
G1 X13.246 Y20.119 E.02709
G1 X13.911 Y19.432 E.02998
G1 X14.026 Y19.365 E.00417
G1 X14.212 Y19.686 F54000
G1 F1200
G1 X14.944 Y19.262 E.02652
G1 X15.769 Y19.068 E.02657
G1 X79.346 Y19.071 E1.99341
G1 X79.95 Y19.195 E.01933
G1 X80.565 Y19.47 E.02112
G1 X81.429 Y20.23 E.03608
G1 X81.909 Y20.986 E.02808
G1 X82.142 Y21.86 E.02836
G1 X82.142 Y46.485 E.7721
G1 X81.909 Y47.359 E.02836
G1 X81.517 Y48.012 E.02388
G1 X80.912 Y48.63 E.02712
G1 X80.13 Y49.083 E.02834
G1 X79.305 Y49.278 E.02658
G1 X15.724 Y49.278 E1.99354
G1 X14.851 Y49.045 E.02833
G1 X14.198 Y48.652 E.0239
G1 X13.579 Y48.048 E.02712
G1 X13.126 Y47.266 E.02834
G1 X12.932 Y46.441 E.02657
G1 X12.932 Y21.86 E.77072
G1 X13.164 Y20.987 E.02832
G1 X13.557 Y20.334 E.0239
G1 X14.16 Y19.717 E.02705
G1 X14.411 Y19.999 F54000
G1 F1200
G1 X15.106 Y19.603 E.02508
G1 X15.79 Y19.445 E.02201
G1 X79.326 Y19.448 E1.99213
G1 X79.851 Y19.56 E.01683
G1 X80.382 Y19.801 E.01828
G1 X81.159 Y20.493 E.03262
G1 X81.553 Y21.114 E.02306
G1 X81.765 Y21.886 E.0251
G1 X81.765 Y46.459 E.77047
G1 X81.553 Y47.232 E.02513
G1 X81.207 Y47.795 E.02072
G1 X80.663 Y48.346 E.02428
G1 X79.968 Y48.742 E.02508
G1 X79.284 Y48.901 E.02202
G1 X15.75 Y48.901 E1.99206
G1 X14.978 Y48.689 E.0251
G1 X14.414 Y48.343 E.02075
G1 X13.863 Y47.798 E.0243
G1 X13.468 Y47.104 E.02504
G1 X13.309 Y46.419 E.02205
G1 X13.309 Y21.886 E.76921
G1 X13.52 Y21.114 E.02509
G1 X13.866 Y20.55 E.02075
G1 X14.369 Y20.042 E.02241
G1 X14.635 Y20.308 F54000
G1 F1200
G1 X15.265 Y19.946 E.02278
G1 X15.811 Y19.822 E.01756
G1 X79.305 Y19.825 E1.99081
G1 X79.748 Y19.923 E.01423
G1 X80.196 Y20.13 E.01547
G1 X80.886 Y20.755 E.02919
G1 X81.198 Y21.244 E.01819
G1 X81.388 Y21.913 E.02181
G1 X81.388 Y46.433 E.76881
G1 X81.198 Y47.101 E.02178
G1 X80.9 Y47.575 E.01756
G1 X80.415 Y48.06 E.02151
G1 X79.809 Y48.399 E.02177
G1 X79.263 Y48.524 E.01756
G1 X15.777 Y48.524 E1.99056
G1 X15.108 Y48.334 E.02181
G1 X14.634 Y48.036 E.01756
G1 X14.149 Y47.551 E.02151
G1 X13.81 Y46.945 E.02177
G1 X13.686 Y46.399 E.01756
G1 X13.686 Y21.913 E.76774
G1 X13.875 Y21.244 E.0218
G1 X14.173 Y20.77 E.01756
G1 X14.593 Y20.351 E.0186
G1 X14.859 Y20.617 F54000
G1 F1200
G1 X14.905 Y20.571 E.00204
G1 X15.421 Y20.29 E.01842
G1 X15.831 Y20.199 E.01317
G1 X79.282 Y20.202 E1.98946
G1 X79.642 Y20.285 E.01158
G1 X80.008 Y20.458 E.01269
G1 X80.613 Y21.016 E.02581
G1 X80.845 Y21.377 E.01345
G1 X81.011 Y21.941 E.01843
G1 X81.011 Y46.405 E.76705
G1 X80.845 Y46.968 E.0184
G1 X80.619 Y47.323 E.01319
G1 X80.169 Y47.774 E.01998
G1 X79.653 Y48.055 E.01842
G1 X79.243 Y48.147 E.01317
G1 X15.805 Y48.147 E1.98905
G1 X15.241 Y47.981 E.01843
G1 X14.887 Y47.755 E.01317
G1 X14.436 Y47.304 E.02
G1 X14.154 Y46.789 E.01841
G1 X14.063 Y46.378 E.0132
G1 X14.063 Y21.941 E.7662
G1 X14.229 Y21.377 E.01843
G1 X14.454 Y21.022 E.01318
G1 X14.817 Y20.66 E.01607
G1 X15.084 Y20.926 F54000
G1 F1200
G1 X15.151 Y20.859 E.00297
G1 X15.573 Y20.636 E.01497
G1 X15.851 Y20.576 E.00892
G1 X79.261 Y20.579 E1.98818
G1 X79.499 Y20.635 E.00767
G1 X79.819 Y20.786 E.01109
G1 X80.337 Y21.274 E.02231
G1 X80.493 Y21.515 E.009
G1 X80.634 Y21.97 E.01494
G1 X80.634 Y46.375 E.7652
G1 X80.493 Y46.831 E.01497
G1 X80.339 Y47.07 E.00891
G1 X79.923 Y47.486 E.01845
G1 X79.501 Y47.709 E.01497
G1 X79.223 Y47.77 E.00892
G1 X15.834 Y47.77 E1.98752
G1 X15.379 Y47.629 E.01494
G1 X15.139 Y47.475 E.00894
G1 X14.723 Y47.059 E.01845
G1 X14.5 Y46.637 E.01497
G1 X14.44 Y46.359 E.00892
G1 X14.44 Y21.97 E.7647
G1 X14.581 Y21.515 E.01494
G1 X14.735 Y21.275 E.00894
G1 X15.041 Y20.969 E.01357
G1 X15.308 Y21.235 F54000
G1 F1200
G1 X15.395 Y21.148 E.00386
G1 X15.718 Y20.985 E.01134
G1 X15.869 Y20.953 E.00484
G1 X79.239 Y20.957 E1.98692
G1 X79.356 Y20.984 E.00376
G1 X79.629 Y21.113 E.00947
G1 X80.06 Y21.53 E.0188
G1 X80.144 Y21.658 E.0048
G1 X80.257 Y22.002 E.01135
G1 X80.257 Y46.343 E.76319
G1 X80.144 Y46.688 E.01138
G1 X80.059 Y46.817 E.00484
G1 X79.679 Y47.197 E.01685
G1 X79.355 Y47.361 E.01139
G1 X79.204 Y47.392 E.00483
G1 X15.866 Y47.392 E1.98592
G1 X15.522 Y47.279 E.01135
G1 X15.393 Y47.195 E.00483
G1 X15.012 Y46.815 E.01687
G1 X14.849 Y46.491 E.01137
G1 X14.817 Y46.34 E.00484
G1 X14.817 Y22.002 E.7631
G1 X14.93 Y21.658 E.01135
G1 X15.015 Y21.528 E.00487
G1 X15.265 Y21.278 E.01109
G1 X15.532 Y21.544 F54000
G1 F1200
G1 X15.637 Y21.44 E.00463
G1 X15.887 Y21.33 E.00856
G1 X79.218 Y21.336 E1.9857
G1 X79.437 Y21.44 E.0076
G1 X79.78 Y21.783 E.01521
G1 X79.879 Y22.037 E.00855
G1 X79.879 Y46.308 E.761
G1 X79.798 Y46.536 E.00759
G1 X79.437 Y46.906 E.01621
G1 X79.187 Y47.015 E.00855
G1 X15.901 Y47.015 E1.98429
G1 X15.674 Y46.934 E.00756
G1 X15.304 Y46.573 E.01621
G1 X15.194 Y46.322 E.00859
G1 X15.194 Y22.037 E.76144
G1 X15.276 Y21.81 E.00757
G1 X15.49 Y21.587 E.00969
G1 X15.756 Y21.853 F54000
G1 F1200
G1 X15.874 Y21.736 E.00521
G1 X15.943 Y21.707 E.00235
G1 X79.13 Y21.707 E1.98118
G1 X79.2 Y21.736 E.00238
G1 X79.474 Y22.01 E.01215
G1 X79.502 Y22.079 E.00233
G1 X79.502 Y46.266 E.75837
G1 X79.474 Y46.336 E.00236
G1 X79.2 Y46.61 E.01215
G1 X79.13 Y46.638 E.00236
G1 X15.943 Y46.638 E1.98118
G1 X15.874 Y46.61 E.00233
G1 X15.6 Y46.336 E.01215
G1 X15.571 Y46.266 E.00238
G1 X15.571 Y22.079 E.75837
G1 X15.6 Y22.01 E.00235
G1 X15.714 Y21.896 E.00505
G1 X15.98 Y22.162 F54000
G1 F1200
G1 X16.059 Y22.084 E.00348
G1 X79.015 Y22.084 E1.97394
G1 X79.125 Y22.195 E.0049
G1 X79.125 Y46.151 E.75112
G1 X79.015 Y46.261 E.00488
G1 X16.059 Y46.261 E1.97394
G1 X15.948 Y46.151 E.0049
G1 X15.948 Y22.209 E.75068
; printing object Magnet Holder Tolerance Test 10mm v0.2.stl id:0 copy 0
G1 E-2.45 F4800
;WIPE_START
G1 F43200
G1 X16.059 Y22.084 E-.01765
G1 X25.839 Y22.084 E-1.03235
;WIPE_END
G1 X77.973 Y45.109 F54000
G1 E3.5 F2400
;TYPE:Perimeter
;WIDTH:0.419999
G1 F1200
G1 X17.101 Y45.109 E1.9086
G1 X17.101 Y23.237 E.68578
G1 X77.973 Y23.237 E1.9086
G1 X77.973 Y45.049 E.6839
G1 X78.35 Y45.486 F54000
G1 F1200
G1 X16.724 Y45.486 E1.93224
G1 X16.724 Y22.86 E.70942
G1 X78.35 Y22.86 E1.93224
G1 X78.35 Y45.426 E.70754
G1 X78.727 Y45.863 F54000
;TYPE:External perimeter
G1 F1200
G1 X16.347 Y45.863 E1.95588
G1 X16.347 Y22.483 E.73306
G1 X78.727 Y22.483 E1.95588
G1 X78.727 Y45.803 E.73118
G1 X78.33 Y45.815 F54000
G1 E-2.45 F4800
;WIPE_START
G1 F43200
G1 X68.78 Y45.813 E-1.05
;WIPE_END
G1 X77.088 Y23.357 F54000
G1 E3.5 F2400
;TYPE:Solid infill
;WIDTH:0.420974
G1 F1200
G1 X77.682 Y23.952 E.02643
G1 X77.682 Y24.487 E.01682
G1 X76.723 Y23.527 E.04266
G1 X76.188 Y23.527 E.01682
G1 X77.682 Y25.021 E.06642
G1 X77.682 Y25.556 E.01682
G1 X75.653 Y23.527 E.0902
G1 X75.119 Y23.527 E.01679
G1 X77.682 Y26.091 E.11396
G1 X77.682 Y26.625 E.01679
G1 X74.584 Y23.527 E.13773
G1 X74.049 Y23.527 E.01682
G1 X77.682 Y27.16 E.16151
G1 X77.682 Y27.695 E.01682
G1 X73.515 Y23.527 E.18527
G1 X72.98 Y23.527 E.01682
G1 X77.682 Y28.229 E.20903
G1 X77.682 Y28.764 E.01682
G1 X72.445 Y23.527 E.23282
G1 X71.911 Y23.527 E.01679
G1 X77.682 Y29.299 E.25658
G1 X77.682 Y29.833 E.01679
G1 X71.376 Y23.527 E.28034
G1 X70.842 Y23.527 E.01679
G1 X77.682 Y30.368 E.3041
G1 X77.682 Y30.903 E.01682
G1 X70.307 Y23.527 E.32789
G1 X69.772 Y23.527 E.01682
G1 X77.682 Y31.437 E.35165
G1 X77.682 Y31.972 E.01682
G1 X69.238 Y23.527 E.37541
G1 X68.703 Y23.527 E.01682
G1 X77.682 Y32.507 E.39919
G1 X77.682 Y33.041 E.01679
G1 X68.168 Y23.527 E.42296
G1 X67.634 Y23.527 E.01679
G1 X77.682 Y33.576 E.44672
G1 X77.682 Y34.11 E.01679
G1 X67.099 Y23.527 E.47048
G1 X66.564 Y23.527 E.01682
G1 X77.682 Y34.645 E.49426
G1 X77.682 Y35.18 E.01682
G1 X66.03 Y23.527 E.51803
G1 X65.495 Y23.527 E.01682
G1 X77.682 Y35.714 E.54179
G1 X77.682 Y36.249 E.01682
G1 X64.96 Y23.527 E.56557
G1 X64.426 Y23.527 E.01679
G1 X77.682 Y36.784 E.58933
G1 X77.682 Y37.318 E.01679
G1 X63.891 Y23.527 E.6131
G1 X63.356 Y23.527 E.01682
G1 X77.682 Y37.853 E.63688
G1 X77.682 Y38.388 E.01682
G1 X62.822 Y23.527 E.66064
G1 X62.287 Y23.527 E.01682
G1 X77.682 Y38.922 E.6844
G1 X77.682 Y39.457 E.01682
G1 X61.753 Y23.527 E.70817
G1 X61.218 Y23.527 E.01682
G1 X77.682 Y39.992 E.73195
G1 X77.682 Y40.526 E.01679
G1 X60.683 Y23.527 E.75571
G1 X60.149 Y23.527 E.01679
G1 X77.682 Y41.061 E.77947
G1 X77.682 Y41.596 E.01682
G1 X59.614 Y23.527 E.80326
G1 X59.079 Y23.527 E.01682
G1 X77.682 Y42.13 E.82702
G1 X77.682 Y42.665 E.01682
G1 X58.545 Y23.527 E.85078
G1 X58.01 Y23.527 E.01682
G1 X77.682 Y43.2 E.87457
G1 X77.682 Y43.734 E.01679
G1 X57.475 Y23.527 E.89833
G1 X56.941 Y23.527 E.01679
G1 X77.682 Y44.269 E.92209
G1 X77.682 Y44.803 E.01679
G1 X56.406 Y23.527 E.94585
G1 X55.871 Y23.527 E.01682
G1 X77.162 Y44.818 E.94652
G1 X76.628 Y44.818 E.01679
G1 X55.337 Y23.527 E.94652
G1 X54.802 Y23.527 E.01682
G1 X76.093 Y44.818 E.94652
G1 X75.558 Y44.818 E.01682
G1 X54.267 Y23.527 E.94652
G1 X53.733 Y23.527 E.01679
G1 X75.024 Y44.818 E.94652
G1 X74.489 Y44.818 E.01682
G1 X53.198 Y23.527 E.94652
G1 X52.663 Y23.527 E.01682
G1 X73.954 Y44.818 E.94652
G1 X73.42 Y44.818 E.01679
G1 X52.129 Y23.527 E.94652
G1 X51.594 Y23.527 E.01682
G1 X72.885 Y44.818 E.94652
G1 X72.351 Y44.818 E.01679
G1 X51.06 Y23.527 E.94652
G1 X50.525 Y23.527 E.01682
G1 X71.816 Y44.818 E.94652
G1 X71.281 Y44.818 E.01682
G1 X49.99 Y23.527 E.94652
G1 X49.456 Y23.527 E.01679
G1 X70.747 Y44.818 E.94652
G1 X70.212 Y44.818 E.01682
G1 X48.921 Y23.527 E.94652
G1 X48.386 Y23.527 E.01682
G1 X69.677 Y44.818 E.94652
G1 X69.143 Y44.818 E.01679
G1 X47.852 Y23.527 E.94652
G1 X47.317 Y23.527 E.01682
G1 X68.608 Y44.818 E.94652
G1 X68.073 Y44.818 E.01682
G1 X46.782 Y23.527 E.94652
G1 X46.248 Y23.527 E.01679
G1 X67.539 Y44.818 E.94652
G1 X67.004 Y44.818 E.01682
G1 X45.713 Y23.527 E.94652
G1 X45.178 Y23.527 E.01682
G1 X66.469 Y44.818 E.94652
G1 X65.935 Y44.818 E.01679
G1 X44.644 Y23.527 E.94652
G1 X44.109 Y23.527 E.01682
G1 X65.4 Y44.818 E.94652
G1 X64.865 Y44.818 E.01682
G1 X43.574 Y23.527 E.94652
G1 X43.04 Y23.527 E.01679
G1 X64.331 Y44.818 E.94652
G1 X63.796 Y44.818 E.01682
G1 X42.505 Y23.527 E.94652
G1 X41.97 Y23.527 E.01682
G1 X63.261 Y44.818 E.94652
G1 X62.727 Y44.818 E.01679
G1 X41.436 Y23.527 E.94652
G1 X40.901 Y23.527 E.01682
G1 X62.192 Y44.818 E.94652
G1 X61.658 Y44.818 E.01679
G1 X40.367 Y23.527 E.94652
G1 X39.832 Y23.527 E.01682
G1 X61.123 Y44.818 E.94652
G1 X60.588 Y44.818 E.01682
G1 X39.297 Y23.527 E.94652
G1 X38.763 Y23.527 E.01679
G1 X60.054 Y44.818 E.94652
G1 X59.519 Y44.818 E.01682
G1 X38.228 Y23.527 E.94652
G1 X37.693 Y23.527 E.01682
G1 X58.984 Y44.818 E.94652
G1 X58.45 Y44.818 E.01679
G1 X37.159 Y23.527 E.94652
G1 X36.624 Y23.527 E.01682
G1 X57.915 Y44.818 E.94652
G1 X57.38 Y44.818 E.01682
G1 X36.089 Y23.527 E.94652
G1 X35.555 Y23.527 E.01679
G1 X56.846 Y44.818 E.94652
G1 X56.311 Y44.818 E.01682
G1 X35.02 Y23.527 E.94652
G1 X34.485 Y23.527 E.01682
G1 X55.776 Y44.818 E.94652
G1 X55.242 Y44.818 E.01679
G1 X33.951 Y23.527 E.94652
G1 X33.416 Y23.527 E.01682
G1 X54.707 Y44.818 E.94652
G1 X54.172 Y44.818 E.01682
G1 X32.881 Y23.527 E.94652
G1 X32.347 Y23.527 E.01679
G1 X53.638 Y44.818 E.94652
G1 X53.103 Y44.818 E.01682
G1 X31.812 Y23.527 E.94652
G1 X31.278 Y23.527 E.01679
G1 X52.568 Y44.818 E.9465
G1 X52.034 Y44.818 E.01679
