; generated by PrusaSlicer 2.6.0+MacOS-arm64 on 2023-07-25 at 19:41:30 UTC

; 

; external perimeters extrusion width = 0.42mm
; perimeters extrusion width = 0.44mm
; infill extrusion width = 0.44mm
; solid infill extrusion width = 0.44mm
; top infill extrusion width = 0.40mm
; support material extrusion width = 0.36mm
; first layer extrusion width = 0.42mm

M201 X3500 Y3500 Z150 E5000 ; sets maximum accelerations, mm/sec^2
M203 X500 Y500 Z10 E60 ; sets maximum feedrates, mm / sec
M204 S3500 T1000 ; sets acceleration (S) and retract acceleration (R), mm/sec^2
M205 X8.00 Y8.00 Z0.40 E5.00 ; sets the jerk limits, mm/sec
M205 S0 T0 ; sets the minimum extruding and travel feed rate, mm/sec
;TYPE:Custom
G90 ; use absolute coordinates
M83 ; extruder relative mode
M104 S150 ; set temporary nozzle temp to prevent oozing during homing
M140 S60 ; set final bed temp
G4 S30 ; allow partial nozzle warmup
G28 ; home all axis
G1 Z50 F240
G1 X2.0 Y10 F3000
M104 S205 ; set final nozzle temp
M190 S60 ; wait for bed temp to stabilize
M109 S205 ; wait for nozzle temp to stabilize
G1 Z0.28 F240
G92 E0
G1 X2.0 Y140 E10 F1500 ; prime the nozzle
G1 X2.3 Y140 F5000
G92 E0
G1 X2.3 Y10 E10 F1200 ; prime the nozzle
G92 E0
G21 ; set units to millimeters
G90 ; use absolute coordinates
M83 ; use relative distances for extrusion
; Filament gcode
M107
;LAYER_CHANGE
;Z:0.2
;HEIGHT:0.2
;BEFORE_LAYER_CHANGE
G92 E0
;0.2


G1 E-3.5 F4800
G1 Z.2 F54000
;AFTER_LAYER_CHANGE
;0.2
G1 X20.179 Y18.933
G1 E3.5 F2400
M204 S3500
;TYPE:Skirt/Brim
;WIDTH:0.42
G1 F1200
G1 X21.502 Y17.698 E.05675
G1 X22.291 Y17.16 E.02994
G1 X23.171 Y16.689 E.0313
G1 X24.582 Y16.169 E.04715
G1 X26.109 Y15.884 E.0487
G1 X31.664 Y15.84 E.17418
G1 X33.285 Y16.03 E.05117
G1 X34.994 Y16.575 E.05624
G1 X36.392 Y17.366 E.05036
G1 X37.646 Y18.423 E.05142
G1 X60.661 Y45.647 E1.11774
G1 X61.247 Y46.652 E.03648
G1 X62.019 Y48.861 E.07337
G1 X64.756 Y62.909 E.44875
G1 X64.951 Y64.7 E.05649
G1 X64.796 Y66.263 E.04925
G1 X64.661 Y66.902 E.02048
G1 X61.929 Y75.69 E.28855
G1 X61.092 Y77.076 E.05077
G1 X58.163 Y80.005 E.12988
G1 X56.765 Y80.846 E.05115
G1 X55.775 Y80.994 E.03139
G1 X47.533 Y80.994 E.25842
G1 X45.468 Y80.289 E.06842
G1 X22.169 Y62.289 E.92314
G1 X18.917 Y59.076 E.14334
G1 X18.076 Y57.678 E.05115
G1 X17.928 Y56.688 E.03139
G1 X17.928 Y24.826 E.99901
G1 X18.042 Y23.48 E.04235
G1 X18.368 Y22.122 E.04379
G1 X19.117 Y20.425 E.05816
G1 X20.144 Y18.982 E.05553
G1 E-2.45 F4800
;WIPE_START
G1 F43200
G1 X21.502 Y17.698 E-.19727
G1 X22.291 Y17.16 E-.1008
G1 X23.171 Y16.689 E-.10536
G1 X24.582 Y16.169 E-.15873
G1 X26.109 Y15.884 E-.16397
G1 X29.177 Y15.86 E-.32387
;WIPE_END
G1 X23.006 Y21.268 F54000
G1 E3.5 F2400
G1 F1200
G1 X23.621 Y20.69 E.02646
G1 X24.683 Y20.027 E.03925
G1 X25.695 Y19.665 E.0337
G1 X26.774 Y19.509 E.03418
G1 X31.805 Y19.511 E.15774
G1 X32.898 Y19.716 E.03487
G1 X33.654 Y19.991 E.02522
G1 X35.31 Y21.297 E.06613
G1 X35.878 Y22.182 E.03297
G1 X36.059 Y22.64 E.01544
G1 X57.501 Y47.609 E1.03194
G1 X58.021 Y48.501 E.03237
G1 X58.418 Y50.043 E.04992
G1 X58.418 Y73.127 E.72378
G1 X58.116 Y74.362 E.03986
G1 X57.539 Y75.403 E.03732
G1 X56.63 Y76.338 E.04089
G1 X55.526 Y77.001 E.04038
G1 X54.196 Y77.332 E.04297
G1 X48.62 Y77.259 E.17485
G1 X47.442 Y76.844 E.03916
G1 X46.573 Y76.252 E.03297
G1 X45.78 Y75.419 E.03606
G1 X45.19 Y74.363 E.03793
G1 X44.896 Y73.118 E.04011
G1 X44.891 Y71.163 E.0613
G1 X44.749 Y70.992 E.00697
G1 X44.311 Y70.214 E.02799
G1 X43.891 Y68.648 E.05084
G1 X43.891 Y60.918 E.24237
G1 X44.152 Y59.667 E.04007
G1 X44.292 Y59.33 E.01144
G1 X25.769 Y59.321 E.58078
G1 X24.586 Y59.043 E.0381
G1 X23.49 Y58.431 E.03936
G1 X22.577 Y57.535 E.04011
G1 X21.921 Y56.438 E.04008
G1 X21.591 Y55.122 E.04254
G1 X21.67 Y24.009 E.97553
G1 X21.972 Y22.918 E.03549
G1 X22.499 Y21.916 E.0355
G1 X22.969 Y21.315 E.02392
G1 X23.266 Y21.547 F54000
G1 F1200
G1 X23.865 Y20.978 E.0259
G1 X24.829 Y20.375 E.03565
G1 X25.804 Y20.027 E.03246
G1 X26.813 Y19.885 E.03195
G1 X31.752 Y19.884 E.15486
G1 X32.813 Y20.083 E.03385
G1 X33.496 Y20.334 E.02282
G1 X35.01 Y21.528 E.06046
G1 X35.55 Y22.369 E.03134
G1 X35.731 Y22.836 E.0157
G1 X57.204 Y47.842 E1.03345
G1 X57.663 Y48.622 E.02838
G1 X58.041 Y50.068 E.04686
G1 X58.041 Y73.103 E.72225
G1 X57.756 Y74.246 E.03694
G1 X57.223 Y75.196 E.03415
G1 X56.379 Y76.056 E.03778
G1 X55.357 Y76.662 E.03725
G1 X54.177 Y76.954 E.03811
G1 X48.657 Y76.882 E.17309
G1 X47.633 Y76.518 E.03407
G1 X46.83 Y75.976 E.03038
G1 X46.096 Y75.211 E.03324
G1 X45.55 Y74.249 E.03468
G1 X45.273 Y73.094 E.03724
G1 X45.268 Y71.019 E.06506
G1 X45.066 Y70.787 E.00965
G1 X44.668 Y70.091 E.02514
G1 X44.268 Y68.622 E.04774
G1 X44.268 Y60.938 E.24093
G1 X44.515 Y59.772 E.03737
G1 X44.907 Y58.953 E.02847
G1 X25.832 Y58.949 E.59808
G1 X24.744 Y58.699 E.035
G1 X23.736 Y58.144 E.03608
G1 X22.859 Y57.284 E.03851
G1 X22.259 Y56.271 E.03692
G1 X21.968 Y55.1 E.03783
G1 X22.04 Y24.085 E.97246
G1 X22.33 Y23.039 E.03403
G1 X22.806 Y22.135 E.03203
G1 X23.229 Y21.595 E.02151
G1 X23.525 Y21.825 F54000
G1 F1200
G1 X24.109 Y21.266 E.02535
G1 X24.977 Y20.722 E.03212
G1 X25.876 Y20.397 E.02997
G1 X26.853 Y20.26 E.03093
G1 X31.7 Y20.258 E.15197
G1 X32.727 Y20.451 E.03276
G1 X33.337 Y20.677 E.0204
G1 X34.71 Y21.758 E.05479
G1 X35.221 Y22.555 E.02968
G1 X35.401 Y23.031 E.01596
G1 X56.908 Y48.075 E1.03505
G1 X57.306 Y48.745 E.02443
G1 X57.663 Y50.093 E.04372
G1 X57.663 Y73.079 E.72071
G1 X57.397 Y74.128 E.03393
G1 X56.935 Y74.951 E.02959
G1 X56.163 Y75.746 E.03475
G1 X55.237 Y76.304 E.0339
G1 X54.156 Y76.577 E.03496
G1 X48.693 Y76.506 E.1713
G1 X47.824 Y76.192 E.02897
G1 X47.086 Y75.699 E.02783
G1 X46.41 Y75.002 E.03044
G1 X45.91 Y74.134 E.03141
G1 X45.645 Y73.028 E.03566
G1 X45.645 Y70.874 E.06754
G1 X45.381 Y70.579 E.01241
G1 X45.024 Y69.966 E.02224
G1 X44.645 Y68.596 E.04457
G1 X44.645 Y60.959 E.23945
G1 X44.879 Y59.876 E.03474
G1 X45.266 Y59.085 E.02761
G1 X45.69 Y58.576 E.02077
G1 X25.893 Y58.576 E.62072
G1 X24.9 Y58.355 E.0319
G1 X23.979 Y57.855 E.03286
G1 X23.169 Y57.068 E.03541
G1 X22.618 Y56.15 E.03357
G1 X22.345 Y55.077 E.03471
G1 X22.41 Y24.161 E.96935
G1 X22.688 Y23.159 E.0326
G1 X23.114 Y22.353 E.02858
G1 X23.488 Y21.872 E.0191
G1 X23.785 Y22.102 F54000
G1 F1200
G1 X24.354 Y21.553 E.02479
G1 X25.124 Y21.07 E.0285
G1 X25.985 Y20.759 E.0287
G1 X26.89 Y20.635 E.02864
G1 X31.682 Y20.635 E.15025
G1 X32.64 Y20.818 E.03058
G1 X33.177 Y21.02 E.01799
G1 X34.409 Y21.988 E.04913
G1 X34.892 Y22.741 E.02805
G1 X35.07 Y23.224 E.01614
G1 X56.611 Y48.308 E1.0367
G1 X56.968 Y48.914 E.02205
G1 X57.286 Y50.117 E.03901
G1 X57.286 Y73.055 E.7192
G1 X57.039 Y74.01 E.03093
G1 X56.647 Y74.708 E.0251
G1 X55.945 Y75.438 E.03175
G1 X55.114 Y75.946 E.03054
G1 X54.135 Y76.2 E.03171
G1 X48.789 Y76.14 E.16763
G1 X48.012 Y75.864 E.02585
G1 X47.343 Y75.421 E.02516
G1 X46.698 Y74.757 E.02902
G1 X46.251 Y73.971 E.02835
G1 X46.022 Y73.007 E.03107
G1 X46.022 Y70.725 E.07155
G1 X45.696 Y70.37 E.01511
G1 X45.362 Y69.797 E.0208
G1 X45.022 Y68.571 E.03989
G1 X45.022 Y60.978 E.23807
G1 X45.228 Y60.021 E.03069
G1 X45.592 Y59.275 E.02603
G1 X46.022 Y58.784 E.02046
G1 X46.022 Y58.199 E.01834
G1 X25.915 Y58.199 E.63044
G1 X25.01 Y57.994 E.02909
G1 X24.184 Y57.537 E.0296
G1 X23.478 Y56.851 E.03086
G1 X22.975 Y56.027 E.03027
G1 X22.722 Y55.053 E.03155
G1 X22.78 Y24.238 E.96618
G1 X23.045 Y23.28 E.03117
G1 X23.422 Y22.571 E.02518
G1 X23.748 Y22.149 E.01672
G1 X24.046 Y22.377 F54000
G1 F1200
G1 X24.1 Y22.306 E.0028
G1 X24.598 Y21.841 E.02136
G1 X25.273 Y21.417 E.02499
G1 X26.057 Y21.129 E.02619
G1 X26.904 Y21.012 E.02681
G1 X31.663 Y21.012 E.14922
G1 X32.551 Y21.185 E.02837
G1 X33.015 Y21.362 E.01557
G1 X34.148 Y22.262 E.04537
G1 X34.561 Y22.922 E.02441
G1 X34.738 Y23.416 E.01645
G1 X56.314 Y48.542 E1.03841
G1 X56.611 Y49.038 E.01813
G1 X56.909 Y50.142 E.03585
G1 X56.909 Y73.03 E.71764
G1 X56.681 Y73.888 E.02784
G1 X56.332 Y74.499 E.02206
G1 X55.691 Y75.158 E.02882
G1 X54.99 Y75.589 E.0258
G1 X54.112 Y75.822 E.02848
G1 X48.883 Y75.773 E.16396
G1 X48.198 Y75.535 E.02274
G1 X47.596 Y75.142 E.02254
G1 X47.013 Y74.549 E.02607
G1 X46.593 Y73.809 E.02668
G1 X46.399 Y72.985 E.02654
G1 X46.399 Y70.575 E.07556
G1 X46.01 Y70.161 E.01781
G1 X45.7 Y69.629 E.01931
G1 X45.399 Y68.545 E.03527
G1 X45.399 Y60.998 E.23663
G1 X45.577 Y60.165 E.02671
G1 X45.919 Y59.465 E.02443
G1 X46.399 Y58.929 E.02256
G1 X46.399 Y57.822 E.03471
G1 X25.937 Y57.822 E.64157
G1 X25.122 Y57.632 E.02624
G1 X24.427 Y57.248 E.0249
G1 X23.785 Y56.631 E.02792
G1 X23.332 Y55.902 E.02691
G1 X23.099 Y55.028 E.02836
G1 X23.15 Y24.314 E.96302
G1 X23.403 Y23.401 E.02971
G1 X23.731 Y22.788 E.0218
G1 X24.009 Y22.425 E.01434
G1 X24.308 Y22.652 F54000
G1 F1200
G1 X24.37 Y22.571 E.0032
G1 X24.843 Y22.129 E.0203
G1 X25.423 Y21.763 E.0215
G1 X26.131 Y21.5 E.02368
G1 X26.917 Y21.389 E.02489
G1 X31.645 Y21.389 E.14824
G1 X32.461 Y21.552 E.02609
G1 X32.852 Y21.703 E.01314
G1 X33.846 Y22.49 E.03975
G1 X34.229 Y23.103 E.02266
G1 X34.405 Y23.607 E.01674
G1 X56.017 Y48.775 E1.04014
G1 X56.273 Y49.208 E.01577
G1 X56.532 Y50.167 E.03115
G1 X56.532 Y73.004 E.71604
G1 X56.324 Y73.765 E.02474
G1 X56.044 Y74.255 E.0177
G1 X55.47 Y74.852 E.02597
G1 X54.863 Y75.233 E.02247
G1 X54.088 Y75.445 E.02519
G1 X48.975 Y75.406 E.16032
G1 X48.382 Y75.205 E.01963
G1 X47.85 Y74.862 E.01985
G1 X47.3 Y74.303 E.02459
G1 X46.935 Y73.649 E.02348
G1 X46.776 Y72.964 E.02205
G1 X46.776 Y70.422 E.0797
G1 X46.324 Y69.951 E.02047
G1 X46.038 Y69.46 E.01782
G1 X45.776 Y68.519 E.03063
G1 X45.776 Y61.018 E.23519
G1 X45.926 Y60.31 E.02269
G1 X46.246 Y59.656 E.02283
G1 X46.776 Y59.077 E.02461
G1 X46.776 Y57.445 E.05117
G1 X25.958 Y57.445 E.65273
G1 X25.278 Y57.289 E.02187
G1 X24.67 Y56.958 E.02171
G1 X24.063 Y56.375 E.02639
G1 X23.688 Y55.775 E.02218
G1 X23.476 Y55.003 E.0251
G1 X23.521 Y24.39 E.95985
G1 X23.761 Y23.522 E.02824
G1 X24.04 Y23.005 E.01842
G1 X24.272 Y22.7 E.01202
G1 X24.572 Y22.925 F54000
G1 F1200
G1 X24.64 Y22.835 E.00354
G1 X25.087 Y22.416 E.01921
G1 X25.575 Y22.109 E.01808
G1 X26.205 Y21.87 E.02113
G1 X26.93 Y21.767 E.02296
G1 X31.625 Y21.767 E.14721
G1 X32.369 Y21.917 E.0238
G1 X32.688 Y22.043 E.01075
G1 X33.544 Y22.717 E.03416
G1 X33.897 Y23.283 E.02092
G1 X34.07 Y23.796 E.01697
G1 X55.721 Y49.009 E1.04201
G1 X55.917 Y49.334 E.0119
G1 X56.155 Y50.193 E.02795
G1 X56.155 Y72.977 E.71438
G1 X55.968 Y73.639 E.02157
G1 X55.756 Y74.01 E.0134
G1 X55.213 Y74.574 E.02455
G1 X54.733 Y74.879 E.01783
G1 X54.063 Y75.068 E.02183
G1 X49.067 Y75.04 E.15665
G1 X48.525 Y74.856 E.01795
G1 X48.102 Y74.581 E.01582
G1 X47.617 Y74.096 E.02151
G1 X47.278 Y73.489 E.0218
G1 X47.153 Y72.943 E.01756
G1 X47.153 Y70.271 E.08378
G1 X46.613 Y69.708 E.02446
G1 X46.377 Y69.294 E.01494
G1 X46.153 Y68.493 E.02608
G1 X46.153 Y61.038 E.23375
G1 X46.289 Y60.414 E.02002
G1 X46.57 Y59.85 E.01976
G1 X47.153 Y59.227 E.02675
G1 X47.153 Y57.068 E.06769
G1 X25.979 Y57.068 E.6639
G1 X25.435 Y56.945 E.01749
G1 X24.873 Y56.64 E.02005
G1 X24.342 Y56.121 E.02328
G1 X24.043 Y55.645 E.01762
G1 X23.854 Y54.976 E.0218
G1 X23.891 Y24.466 E.95662
G1 X24.118 Y23.644 E.02674
G1 X24.349 Y23.22 E.01514
G1 X24.535 Y22.973 E.00969
G1 X24.837 Y23.197 F54000
G1 F1200
G1 X24.911 Y23.097 E.0039
G1 X25.304 Y22.725 E.01697
G1 X25.759 Y22.439 E.01685
G1 X26.317 Y22.231 E.01867
G1 X26.943 Y22.144 E.01982
G1 X31.605 Y22.144 E.14617
G1 X32.274 Y22.283 E.02142
G1 X32.52 Y22.382 E.00831
G1 X33.28 Y22.989 E.0305
G1 X33.563 Y23.458 E.01717
G1 X33.734 Y23.984 E.01734
G1 X55.424 Y49.242 E1.04388
G1 X55.58 Y49.504 E.00956
G1 X55.778 Y50.219 E.02326
G1 X55.778 Y72.949 E.71268
G1 X55.613 Y73.511 E.01836
G1 X55.468 Y73.766 E.0092
G1 X54.957 Y74.297 E.02311
G1 X54.6 Y74.525 E.01328
G1 X54.036 Y74.691 E.01843
G1 X49.155 Y74.672 E.15304
G1 X48.707 Y74.525 E.01478
G1 X48.354 Y74.3 E.01313
G1 X47.903 Y73.849 E.02
G1 X47.622 Y73.333 E.01842
G1 X47.53 Y72.923 E.01317
G1 X47.53 Y70.119 E.08792
G1 X46.903 Y69.465 E.02841
G1 X46.718 Y69.131 E.01197
G1 X46.53 Y68.467 E.02164
G1 X46.53 Y61.058 E.2323
G1 X46.637 Y60.561 E.01594
G1 X46.894 Y60.045 E.01807
G1 X47.53 Y59.38 E.02885
G1 X47.53 Y56.691 E.08431
G1 X25.999 Y56.691 E.67509
G1 X25.588 Y56.599 E.01321
G1 X25.117 Y56.35 E.0167
G1 X24.621 Y55.866 E.02173
G1 X24.397 Y55.512 E.01313
G1 X24.231 Y54.948 E.01843
G1 X24.261 Y24.54 E.95342
G1 X24.461 Y23.803 E.02394
G1 X24.661 Y23.434 E.01316
G1 X24.801 Y23.245 E.00737
G1 X25.102 Y23.471 F54000
G1 F1200
G1 X25.202 Y23.337 E.00524
G1 X25.547 Y23.014 E.01482
G1 X25.941 Y22.77 E.01453
G1 X26.426 Y22.592 E.0162
G1 X26.955 Y22.521 E.01674
G1 X31.585 Y22.521 E.14517
G1 X32.177 Y22.648 E.01898
G1 X32.351 Y22.72 E.0059
G1 X32.977 Y23.215 E.02502
G1 X33.215 Y23.605 E.01433
G1 X33.339 Y23.954 E.01161
G1 X33.368 Y24.136 E.00578
G1 X55.129 Y49.477 E1.0473
G1 X55.225 Y49.635 E.0058
G1 X55.401 Y50.246 E.01994
G1 X55.401 Y72.919 E.7109
G1 X55.26 Y73.376 E.015
G1 X55.156 Y73.553 E.00644
G1 X54.702 Y74.019 E.0204
G1 X54.462 Y74.173 E.00894
G1 X54.007 Y74.314 E.01494
G1 X49.244 Y74.304 E.14934
G1 X48.847 Y74.174 E.0131
G1 X48.607 Y74.019 E.00896
G1 X48.19 Y73.603 E.01847
G1 X47.968 Y73.181 E.01495
G1 X47.907 Y72.903 E.00892
G1 X47.907 Y69.965 E.09212
G1 X47.218 Y69.256 E.031
G1 X47.073 Y69.001 E.0092
G1 X46.907 Y68.439 E.01837
G1 X46.907 Y61.08 E.23074
G1 X46.999 Y60.668 E.01324
G1 X47.216 Y60.243 E.01496
G1 X47.907 Y59.534 E.03104
G1 X47.907 Y56.314 E.10096
G1 X26.019 Y56.314 E.68628
G1 X25.74 Y56.253 E.00895
G1 X25.319 Y56.031 E.01492
G1 X24.902 Y55.614 E.01849
G1 X24.748 Y55.375 E.00891
G1 X24.608 Y54.919 E.01496
G1 X24.632 Y24.612 E.95026
G1 X24.804 Y23.962 E.02108
G1 X24.985 Y23.626 E.01197
G1 X25.066 Y23.519 E.00421
G1 X25.367 Y23.746 F54000
G1 F1200
G1 X25.494 Y23.576 E.00665
G1 X25.762 Y23.324 E.01153
G1 X26.122 Y23.101 E.01328
G1 X26.533 Y22.954 E.01369
G1 X26.967 Y22.898 E.01372
G1 X31.564 Y22.898 E.14414
G1 X32.076 Y23.011 E.01644
G1 X32.179 Y23.056 E.00352
G1 X32.675 Y23.444 E.01974
G1 X32.867 Y23.752 E.01138
G1 X32.976 Y24.058 E.01018
G1 X33.005 Y24.293 E.00742
G1 X54.831 Y49.709 E1.05041
G1 X54.888 Y49.805 E.0035
G1 X55.024 Y50.273 E.01528
G1 X55.024 Y72.888 E.70908
G1 X54.91 Y73.234 E.01142
G1 X54.848 Y73.335 E.00372
G1 X54.448 Y73.739 E.01783
G1 X54.319 Y73.824 E.00484
G1 X53.975 Y73.937 E.01135
G1 X49.333 Y73.937 E.14555
G1 X48.989 Y73.824 E.01135
G1 X48.86 Y73.739 E.00484
G1 X48.48 Y73.359 E.01685
G1 X48.316 Y73.035 E.01139
G1 X48.284 Y72.884 E.00484
G1 X48.284 Y69.81 E.09638
G1 X47.53 Y69.043 E.03372
G1 X47.425 Y68.867 E.00643
G1 X47.284 Y68.41 E.015
G1 X47.284 Y61.1 E.2292
G1 X47.346 Y60.817 E.00908
G1 X47.538 Y60.441 E.01324
G1 X48.284 Y59.691 E.03317
G1 X48.284 Y55.937 E.1177
G1 X26.037 Y55.937 E.69754
G1 X25.886 Y55.905 E.00484
G1 X25.563 Y55.742 E.01134
G1 X25.182 Y55.361 E.01689
G1 X25.098 Y55.232 E.00483
G1 X24.985 Y54.887 E.01138
G1 X25.003 Y24.682 E.94706
G1 X25.147 Y24.119 E.01822
G1 X25.331 Y23.794 E.01171
G1 X25.629 Y24.021 F54000
G1 F1200
G1 X25.784 Y23.819 E.00798
G1 X26.004 Y23.615 E.00941
G1 X26.3 Y23.434 E.01088
G1 X26.636 Y23.317 E.01116
G1 X26.978 Y23.275 E.0108
G1 X31.541 Y23.275 E.14307
G1 X32 Y23.388 E.01482
G1 X32.377 Y23.676 E.01488
G1 X32.52 Y23.899 E.00831
G1 X32.612 Y24.16 E.00868
G1 X32.639 Y24.445 E.00898
G1 X54.531 Y49.939 E1.05362
G1 X54.647 Y50.301 E.01192
G1 X54.647 Y72.852 E.70707
G1 X54.547 Y73.107 E.00859
G1 X54.167 Y73.478 E.01665
G1 X53.94 Y73.56 E.00757
G1 X49.369 Y73.56 E.14332
G1 X49.114 Y73.46 E.00859
G1 X48.771 Y73.117 E.01521
G1 X48.668 Y72.899 E.00756
G1 X48.661 Y69.654 E.10174
G1 X47.837 Y68.825 E.03665
G1 X47.775 Y68.724 E.00372
G1 X47.661 Y68.378 E.01142
G1 X47.661 Y61.118 E.22763
G1 X47.694 Y60.966 E.00488
G1 X47.86 Y60.641 E.01144
G1 X48.661 Y59.85 E.0353
G1 X48.661 Y55.56 E.13451
G1 X26.055 Y55.56 E.7088
G1 X25.805 Y55.45 E.00856
G1 X25.443 Y55.08 E.01623
G1 X25.362 Y54.852 E.00759
G1 X25.375 Y24.749 E.94386
G1 X25.491 Y24.275 E.0153
G1 X25.599 Y24.073 E.00718
G1 X25.931 Y24.247 F54000
G1 F1200
G1 X26.073 Y24.061 E.00734
G1 X26.242 Y23.907 E.00717
G1 X26.474 Y23.769 E.00846
G1 X26.736 Y23.681 E.00867
G1 X26.989 Y23.652 E.00798
G1 X31.518 Y23.652 E.142
