; File Parsed By Flow Comp Script
; Script Ver. V0.7.1
; Flow Model Ver. V0.2.1
; Logger Ver. V0.0.1
; Flow Comp Model Points:
; (0, 0)
; (0.2, 0.4444)
; (0.4, 0.6145)
; (0.6, 0.7059)
; (0.8, 0.7619)
; (1.5, 0.8571)
; (2, 0.8889)
; (3, 0.9231)
; (5, 0.952)
; (10, 1)

; generated by PrusaSlicer 2.9.1 on 2025-03-18 at 10:14:18 UTC

; 

; external perimeters extrusion width = 0.45mm
; perimeters extrusion width = 0.45mm
; infill extrusion width = 0.45mm
; solid infill extrusion width = 0.45mm
; top infill extrusion width = 0.40mm
; support material extrusion width = 0.35mm
; first layer extrusion width = 0.42mm

;TYPE:Custom
G90 ; use absolute coordinates
M83 ; extruder relative mode
M104 S210 ; set temporary nozzle temp to prevent oozing during homing
M140 S58 ; set final bed temp
G4 S30 ; allow partial nozzle warmup
G28 ; home all axis
G1 Z50 F240
G1 X2.0 Y10 F3000
M104 S208 ; set final nozzle temp
M190 S58 ; wait for bed temp to stabilize
M109 S208 ; wait for nozzle temp to stabilize
G1 Z0.28 F240
G92 E0
G1 X2.0 Y140 E10 F1500 ; prime the nozzle
G1 X2.3 Y140 F5000
G92 E0
G1 X2.3 Y10 E10 F1200 ; prime the nozzle
G92 E0
G21 ; set units to millimeters
G90 ; use absolute coordinates
M83 ; use relative distances for extrusion
; Filament gcode
M107
;LAYER_CHANGE
;Z:0.2
;HEIGHT:0.2
G1 E-3.5 F1500
G1 Z.2 F54000
G1 X61.619 Y35.725
G1 Z.2
G1 E3.5 F1500
M204 S3500
;TYPE:Skirt/Brim
;WIDTH:0.42
G1 F1800
G1 X62.915 Y34.095 E.06529
G1 X64.273 Y32.896 E.0568
G1 X66.052 Y31.813 E.0653
G1 X68.003 Y31.082 E.06533
G1 X70.054 Y30.73 E.06525
G1 X111.036 Y30.33 E1.28502
G1 X112.695 Y30.54 E.05243
G1 X114.426 Y31.042 E.05651
G1 X115.938 Y31.754 E.0524
G1 X117.645 Y32.947 E.0653
G1 X119.091 Y34.429 E.06492
G1 X120.111 Y35.927 E.05682
G1 X120.822 Y37.439 E.05239
G1 X121.378 Y39.446 E.0653
G1 X121.546 Y41.09 E.05181
G1 X122.132 Y67.636 E.83253
G1 X122.133 Y76.34 E.27291
G1 X121.736 Y78.589 E.07161
G1 X120.129 Y81.063 E.0925
G1 X117.365 Y83.732 E.12047
G1 X115.472 Y85.008 E.07158
G1 X112.804 Y85.575 E.08552
G1 X107.168 Y85.562 E.17671
G1 X65.098 Y82.893 E1.32173
G1 X62.88 Y82.354 E.07157
G1 X60.979 Y81.089 E.0716
G1 X59.628 Y79.249 E.07157
G1 X58.948 Y76.34 E.09367
G1 X58.953 Y64.727 E.36412
G1 X59.832 Y41.374 E.73274
G1 X60.048 Y39.559 E.05731
G1 X60.653 Y37.569 E.06521
G1 X61.591 Y35.778 E.06339
G1 X61.924 Y35.953 F54000
G1 F1800
G1 X61.938 Y35.927 E.00093
G1 X63.19 Y34.353 E.06306
G1 X64.495 Y33.201 E.05458
G1 X66.212 Y32.154 E.06305
G1 X68.097 Y31.447 E.06312
G1 X70.078 Y31.106 E.06303
G1 X111.013 Y30.707 E1.28355
G1 X112.624 Y30.91 E.05091
G1 X114.287 Y31.393 E.0543
G1 X115.757 Y32.085 E.05094
G1 X117.405 Y33.237 E.06304
G1 X118.801 Y34.669 E.0627
G1 X119.78 Y36.109 E.0546
G1 X120.472 Y37.578 E.05091
G1 X121.007 Y39.517 E.06307
G1 X121.169 Y41.098 E.04983
G1 X121.755 Y67.644 E.83253
G1 X121.756 Y76.34 E.27266
G1 X121.36 Y78.52 E.06947
G1 X119.867 Y80.792 E.08524
G1 X117.103 Y83.461 E.12047
G1 X115.259 Y84.69 E.06948
G1 X112.804 Y85.198 E.07861
G1 X107.584 Y85.198 E.16367
G1 X65.122 Y82.516 E1.33402
G1 X62.971 Y81.982 E.06949
G1 X61.147 Y80.725 E.06946
G1 X59.882 Y78.905 E.0695
G1 X59.325 Y76.34 E.0823
G1 X59.33 Y64.741 E.36368
G1 X60.209 Y41.388 E.73274
G1 X60.419 Y39.629 E.05554
G1 X61.003 Y37.707 E.06298
G1 X61.896 Y36.006 E.06024
G1 E-3.5 F1500
G1 X75.647 Y59.748 F54000
G1 E3.5 F1500
;TYPE:Support material interface
;WIDTH:0.35
G1 F1800
G1 X75.647 Y59.36 E.00991
G1 X75.34 Y59.36 E.00784
G1 X75.34 Y59.859 E.01274
G1 X75.033 Y60.167 E.0111
G1 X75.033 Y59.36 E.02061
G1 X74.726 Y59.36 E.00784
G1 X74.726 Y60.474 E.02844
G1 X74.419 Y60.781 E.01109
G1 X74.419 Y59.36 E.03628
G1 X74.112 Y59.36 E.00784
G1 X74.112 Y61.088 E.04412
G1 X73.805 Y61.395 E.01109
G1 X73.805 Y59.36 E.05196
G1 X73.498 Y59.36 E.00784
G1 X73.498 Y76.202 E.43004
G1 X73.191 Y76.202 E.00784
G1 X73.191 Y59.36 E.43004
G1 X72.884 Y59.36 E.00784
G1 X72.884 Y76.202 E.43004
G1 X72.577 Y76.202 E.00784
G1 X72.577 Y59.36 E.43004
G1 X72.27 Y59.36 E.00784
G1 X72.27 Y76.202 E.43004
G1 X71.963 Y76.202 E.00784
G1 X71.963 Y59.36 E.43004
G1 X71.655 Y59.36 E.00786
G1 X71.655 Y76.202 E.43004
G1 X71.348 Y76.202 E.00784
G1 X71.348 Y59.36 E.43004
G1 X71.041 Y59.36 E.00784
G1 X71.041 Y76.202 E.43004
G1 X70.734 Y76.202 E.00784
G1 X70.734 Y62.167 E.35837
G1 X70.427 Y62.167 E.00784
G1 X70.427 Y76.202 E.35837
G1 X70.12 Y76.202 E.00784
G1 X70.12 Y62.167 E.35837
G1 X69.813 Y62.167 E.00784
G1 X69.813 Y76.202 E.35837
G1 X69.506 Y76.202 E.00784
G1 X69.506 Y62.167 E.35837
G1 X69.199 Y62.167 E.00784
G1 X69.199 Y76.202 E.35837
G1 X68.892 Y76.202 E.00784
G1 X68.892 Y62.167 E.35837
G1 X68.585 Y62.167 E.00784
G1 X68.585 Y76.202 E.35837
G1 X68.278 Y76.202 E.00784
G1 X68.278 Y62.167 E.35837
G1 X68.084 Y62.167 E.00495
G1 X68.084 Y64.974 E.07167
G1 X67.971 Y64.974 E.00289
G1 X67.971 Y76.202 E.28669
G1 X67.663 Y76.202 E.00786
G1 X67.663 Y64.974 E.28669
G1 X67.356 Y64.974 E.00784
G1 X67.356 Y76.202 E.28669
G1 X67.049 Y76.202 E.00784
G1 X67.049 Y64.974 E.28669
G1 X66.742 Y64.974 E.00784
G1 X66.742 Y76.202 E.28669
G1 X66.435 Y76.202 E.00784
G1 X66.435 Y64.974 E.28669
G1 X66.128 Y64.974 E.00784
G1 X66.128 Y76.202 E.28669
G1 X65.821 Y76.202 E.00784
G1 X65.821 Y64.974 E.28669
G1 X65.514 Y64.974 E.00784
G1 X65.514 Y76.34 E.29022
G1 E-3.5 F1500
G1 X76.262 Y76.34 F54000
G1 E3.5 F1500
G1 F1800
G1 X76.262 Y67.781 E.21854
G1 X75.955 Y67.781 E.00784
G1 X75.955 Y76.202 E.21502
G1 X75.647 Y76.202 E.00786
G1 X75.647 Y67.781 E.21502
G1 X75.34 Y67.781 E.00784
G1 X75.34 Y76.202 E.21502
G1 X75.033 Y76.202 E.00784
G1 X75.033 Y67.781 E.21502
G1 X74.726 Y67.781 E.00784
G1 X74.726 Y76.202 E.21502
G1 X74.419 Y76.202 E.00784
G1 X74.419 Y67.781 E.21502
G1 X74.112 Y67.781 E.00784
G1 X74.112 Y76.202 E.21502
G1 X73.805 Y76.202 E.00784
G1 X73.805 Y62.134 E.35921
G1 X74.112 Y62.134 E.00784
G1 X74.112 Y64.974 E.07252
G1 X74.419 Y64.974 E.00784
G1 X74.419 Y62.134 E.07252
G1 X74.726 Y62.134 E.00784
G1 X74.726 Y64.974 E.07252
G1 X75.033 Y64.974 E.00784
G1 X75.033 Y62.134 E.07252
G1 X75.34 Y62.134 E.00784
G1 X75.34 Y64.974 E.07252
G1 X75.647 Y64.974 E.00784
G1 X75.647 Y62.134 E.07252
G1 X75.955 Y62.134 E.00786
G1 X75.955 Y64.974 E.07252
G1 X76.262 Y64.974 E.00784
G1 X76.262 Y62.134 E.07252
G1 X76.505 Y62.134 E.0062
G1 X76.569 Y73.395 E.28754
G1 X76.876 Y73.395 E.00784
G1 X76.876 Y64.974 E.21502
G1 X77.183 Y64.974 E.00784
G1 X77.183 Y73.395 E.21502
G1 X77.49 Y73.395 E.00784
G1 X77.49 Y64.974 E.21502
G1 X77.797 Y64.974 E.00784
G1 X77.797 Y73.395 E.21502
G1 X78.104 Y73.395 E.00784
G1 X78.104 Y64.974 E.21502
G1 X78.411 Y64.974 E.00784
G1 X78.411 Y73.395 E.21502
G1 X78.718 Y73.395 E.00784
G1 X78.718 Y64.974 E.21502
G1 X79.025 Y64.974 E.00784
G1 X79.025 Y73.395 E.21502
G1 X79.313 Y73.395 E.00735
G1 X79.332 Y62.167 E.28669
G1 X79.64 Y62.167 E.00786
G1 X79.64 Y70.588 E.21502
G1 X79.947 Y70.588 E.00784
G1 X79.947 Y62.167 E.21502
G1 X80.254 Y62.167 E.00784
G1 X80.254 Y70.588 E.21502
G1 X80.561 Y70.588 E.00784
G1 X80.561 Y62.167 E.21502
G1 X80.868 Y62.167 E.00784
G1 X80.868 Y70.588 E.21502
G1 X81.175 Y70.588 E.00784
G1 X81.175 Y62.167 E.21502
G1 X81.482 Y62.167 E.00784
G1 X81.482 Y70.588 E.21502
G1 X81.789 Y70.588 E.00784
G1 X81.789 Y62.167 E.21502
G1 X82.096 Y62.167 E.00784
G1 X82.12 Y70.588 E.21502
G1 X82.12 Y67.781 E.07167
G1 X82.403 Y67.781 E.00723
G1 X82.403 Y62.167 E.14335
G1 X82.71 Y62.167 E.00784
G1 X82.71 Y67.781 E.14335
G1 X83.017 Y67.781 E.00784
G1 X83.017 Y62.167 E.14335
G1 X83.324 Y62.167 E.00784
G1 X83.324 Y67.781 E.14335
G1 X83.632 Y67.781 E.00786
G1 X83.632 Y62.167 E.14335
G1 X83.939 Y62.167 E.00784
G1 X83.939 Y67.781 E.14335
G1 X84.246 Y67.781 E.00784
G1 X84.246 Y62.167 E.14335
G1 X84.553 Y62.167 E.00784
G1 X84.553 Y67.781 E.14335
G1 X84.86 Y67.781 E.00784
G1 X84.86 Y62.167 E.14335
G1 X85.167 Y62.167 E.00784
G1 X85.167 Y67.781 E.14335
G1 X85.474 Y67.781 E.00784
G1 X85.474 Y62.167 E.14335
G1 X85.781 Y62.167 E.00784
G1 X85.781 Y67.781 E.14335
G1 X86.088 Y67.781 E.00784
G1 X86.088 Y62.167 E.14335
G1 X86.395 Y62.167 E.00784
G1 X86.395 Y67.781 E.14335
G1 X86.702 Y67.781 E.00784
G1 X86.702 Y62.167 E.14335
G1 X87.009 Y62.167 E.00784
G1 X87.009 Y67.781 E.14335
G1 X87.316 Y67.781 E.00784
G1 X87.316 Y62.167 E.14335
G1 X87.624 Y62.167 E.00786
G1 X87.624 Y67.781 E.14335
G1 X87.931 Y67.781 E.00784
G1 X87.931 Y62.167 E.14335
G1 X88.238 Y62.167 E.00784
G1 X88.238 Y67.781 E.14335
G1 X88.545 Y67.781 E.00784
G1 X88.545 Y62.167 E.14335
G1 X88.852 Y62.167 E.00784
G1 X88.852 Y67.781 E.14335
G1 X89.159 Y67.781 E.00784
G1 X89.159 Y62.167 E.14335
G1 X89.466 Y62.167 E.00784
G1 X89.466 Y67.781 E.14335
G1 X89.773 Y67.781 E.00784
G1 X89.773 Y62.167 E.14335
G1 X90.08 Y62.167 E.00784
G1 X90.08 Y67.781 E.14335
G1 X90.387 Y67.781 E.00784
G1 X90.387 Y62.167 E.14335
G1 X90.694 Y62.167 E.00784
G1 X90.694 Y67.781 E.14335
G1 X91.001 Y67.781 E.00784
G1 X91.001 Y62.167 E.14335
G1 X91.309 Y62.167 E.00786
G1 X91.309 Y67.781 E.14335
G1 X91.616 Y67.781 E.00784
G1 X91.616 Y62.167 E.14335
G1 X91.923 Y62.167 E.00784
G1 X91.923 Y67.781 E.14335
G1 X92.23 Y67.781 E.00784
G1 X92.23 Y62.167 E.14335
G1 X92.537 Y62.167 E.00784
G1 X92.537 Y67.781 E.14335
G1 X92.844 Y67.781 E.00784
G1 X92.844 Y62.167 E.14335
G1 X93.151 Y62.167 E.00784
G1 X93.151 Y67.781 E.14335
G1 X93.458 Y67.781 E.00784
G1 X93.458 Y62.167 E.14335
G1 X93.765 Y62.167 E.00784
G1 X93.765 Y67.781 E.14335
G1 X94.072 Y67.781 E.00784
G1 X94.072 Y62.167 E.14335
G1 X94.379 Y62.167 E.00784
G1 X94.379 Y67.781 E.14335
G1 X94.686 Y67.781 E.00784
G1 X94.686 Y62.167 E.14335
G1 X94.993 Y62.167 E.00784
G1 X94.993 Y67.781 E.14335
G1 X95.301 Y67.781 E.00786
G1 X95.301 Y62.167 E.14335
G1 X95.608 Y62.167 E.00784
G1 X95.608 Y67.781 E.14335
G1 X95.915 Y67.781 E.00784
G1 X95.915 Y62.167 E.14335
G1 X96.222 Y62.167 E.00784
G1 X96.222 Y67.781 E.14335
G1 X96.529 Y67.781 E.00784
G1 X96.529 Y62.167 E.14335
G1 X96.836 Y62.167 E.00784
G1 X96.836 Y67.781 E.14335
G1 X97.143 Y67.781 E.00784
G1 X97.143 Y62.167 E.14335
G1 X97.45 Y62.167 E.00784
G1 X97.45 Y67.781 E.14335
G1 X97.757 Y67.781 E.00784
G1 X97.757 Y62.167 E.14335
G1 X98.064 Y62.167 E.00784
G1 X98.064 Y67.781 E.14335
G1 X98.371 Y67.781 E.00784
G1 X98.371 Y62.167 E.14335
G1 X98.678 Y62.167 E.00784
G1 X98.678 Y67.781 E.14335
G1 X98.962 Y67.781 E.00725
G1 X98.985 Y70.588 E.07168
G1 X98.985 Y62.167 E.21502
G1 X99.293 Y62.167 E.00786
G1 X99.293 Y70.588 E.21502
G1 X99.6 Y70.588 E.00784
G1 X99.6 Y62.167 E.21502
G1 X99.907 Y62.167 E.00784
G1 X99.907 Y70.588 E.21502
G1 X100.214 Y70.588 E.00784
G1 X100.214 Y62.167 E.21502
G1 X100.521 Y62.167 E.00784
G1 X100.521 Y70.588 E.21502
G1 X100.828 Y70.588 E.00784
G1 X100.828 Y62.167 E.21502
G1 X101.135 Y62.167 E.00784
G1 X101.135 Y70.588 E.21502
G1 X101.442 Y70.588 E.00784
G1 X101.442 Y62.167 E.21502
G1 X101.749 Y62.167 E.00784
G1 X101.769 Y73.395 E.28669
G1 X102.056 Y73.395 E.00733
G1 X102.056 Y64.974 E.21502
G1 X102.363 Y64.974 E.00784
G1 X102.363 Y73.395 E.21502
G1 X102.67 Y73.395 E.00784
G1 X102.67 Y64.974 E.21502
G1 X102.978 Y64.974 E.00786
G1 X102.978 Y73.395 E.21502
G1 X103.285 Y73.395 E.00784
G1 X103.285 Y64.974 E.21502
G1 X103.592 Y64.974 E.00784
G1 X103.592 Y73.395 E.21502
G1 X103.899 Y73.395 E.00784
G1 X103.899 Y64.974 E.21502
G1 X104.206 Y64.974 E.00784
G1 X104.206 Y73.533 E.21854
G1 E-3.5 F1500
G1 X102.056 Y62.305 F54000
G1 E3.5 F1500
G1 F1800
G1 X102.056 Y62.134 E.00437
G1 X104.206 Y62.134 E.0549
G1 X104.206 Y62.305 E.00437
G1 E-3.5 F1500
G1 X107.213 Y58.996 F54000
G1 E3.5 F1500
;TYPE:Support material
;WIDTH:0.42
G1 F1800
G1 X104.601 Y58.996 E.0819
G1 X104.601 Y56.416 E.08089
G1 X107.213 Y56.416 E.0819
G1 X107.213 Y58.939 E.07911
G1 X106.462 Y58.826 F54000
G1 F1800
G1 X106.462 Y56.756 E.0649
G1 X106.043 Y56.756 E.01314
G1 X106.043 Y58.657 E.0596
G1 X105.624 Y58.657 E.01314
G1 X105.624 Y56.756 E.0596
G1 X105.205 Y56.756 E.01314
G1 X105.205 Y58.826 E.0649
G1 X104.82 Y59.72 F54000
;TYPE:Support material interface
;WIDTH:0.35
G1 F1800
G1 X104.82 Y59.36 E.00919
G1 X105.127 Y59.36 E.00784
G1 X105.127 Y59.832 E.01205
G1 X105.434 Y60.139 E.01109
G1 X105.434 Y59.36 E.01989
G1 X105.741 Y59.36 E.00784
G1 X105.741 Y60.446 E.02773
G1 X106.048 Y60.753 E.01109
G1 X106.048 Y59.36 E.03557
G1 X106.355 Y59.36 E.00784
G1 X106.355 Y61.06 E.04341
G1 X106.662 Y61.367 E.01109
G1 X106.662 Y59.36 E.05125
G1 X106.97 Y59.36 E.00786
G1 X106.97 Y64.974 E.14335
G1 X106.662 Y64.974 E.00786
G1 X106.662 Y62.134 E.07252
G1 X106.355 Y62.134 E.00784
G1 X106.355 Y64.974 E.07252
G1 X106.048 Y64.974 E.00784
G1 X106.048 Y62.134 E.07252
G1 X105.741 Y62.134 E.00784
G1 X105.741 Y64.974 E.07252
G1 X105.434 Y64.974 E.00784
G1 X105.434 Y62.134 E.07252
G1 X105.127 Y62.134 E.00784
G1 X105.127 Y64.974 E.07252
G1 X104.82 Y64.974 E.00784
G1 X104.82 Y62.134 E.07252
G1 X104.513 Y62.134 E.00784
G1 X104.513 Y73.395 E.28754
G1 X104.576 Y73.395 E.00161
G1 X104.576 Y76.202 E.07167
G1 X104.82 Y76.202 E.00623
G1 X104.82 Y67.781 E.21502
G1 X105.127 Y67.781 E.00784
G1 X105.127 Y76.202 E.21502
G1 X105.434 Y76.202 E.00784
G1 X105.434 Y67.781 E.21502
G1 X105.741 Y67.781 E.00784
G1 X105.741 Y76.202 E.21502
G1 X106.048 Y76.202 E.00784
G1 X106.048 Y67.781 E.21502
G1 X106.355 Y67.781 E.00784
G1 X106.355 Y76.202 E.21502
G1 X106.662 Y76.202 E.00784
G1 X106.662 Y67.781 E.21502
G1 X106.97 Y67.781 E.00786
G1 X106.97 Y76.202 E.21502
G1 X107.277 Y76.202 E.00784
G1 X107.277 Y59.36 E.43004
G1 X107.383 Y59.36 E.00271
G1 X107.383 Y62.167 E.07167
G1 X107.584 Y62.167 E.00513
G1 X107.584 Y79.009 E.43004
G1 X107.891 Y79.009 E.00784
G1 X107.891 Y62.167 E.43004
G1 X108.198 Y62.167 E.00784
G1 X108.198 Y79.009 E.43004
G1 X108.505 Y79.009 E.00784
G1 X108.505 Y62.167 E.43004
G1 X108.812 Y62.167 E.00784
G1 X108.812 Y79.009 E.43004
G1 X109.119 Y79.009 E.00784
G1 X109.119 Y62.167 E.43004
G1 X109.426 Y62.167 E.00784
G1 X109.426 Y79.009 E.43004
G1 X109.733 Y79.009 E.00784
G1 X109.733 Y62.167 E.43004
G1 X110.04 Y62.167 E.00784
G1 X110.04 Y79.009 E.43004
G1 X110.347 Y79.009 E.00784
G1 X110.347 Y64.974 E.35837
G1 X110.654 Y64.974 E.00784
G1 X110.654 Y79.009 E.35837
G1 X110.962 Y79.009 E.00786
G1 X110.962 Y64.974 E.35837
G1 X111.269 Y64.974 E.00784
G1 X111.269 Y79.009 E.35837
G1 X111.576 Y79.009 E.00784
G1 X111.576 Y64.974 E.35837
G1 X111.883 Y64.974 E.00784
G1 X111.883 Y79.009 E.35837
G1 X112.19 Y79.009 E.00784
G1 X112.19 Y64.974 E.35837
G1 X112.497 Y64.974 E.00784
G1 X112.497 Y79.009 E.35837
G1 X112.804 Y79.009 E.00784
G1 X112.804 Y64.974 E.35837
G1 X112.998 Y64.974 E.00495
G1 X112.998 Y67.781 E.07167
G1 X113.111 Y67.781 E.00289
G1 X113.111 Y76.202 E.21502
G1 X113.418 Y76.202 E.00784
G1 X113.418 Y67.781 E.21502
G1 X113.725 Y67.781 E.00784
G1 X113.725 Y76.202 E.21502
G1 X114.032 Y76.202 E.00784
G1 X114.032 Y67.781 E.21502
G1 X114.339 Y67.781 E.00784
G1 X114.339 Y76.202 E.21502
G1 X114.647 Y76.202 E.00786
G1 X114.647 Y67.781 E.21502
G1 X114.954 Y67.781 E.00784
G1 X114.954 Y76.202 E.21502
G1 X115.261 Y76.202 E.00784
G1 X115.261 Y67.781 E.21502
G1 X115.568 Y67.781 E.00784
G1 X115.568 Y76.34 E.21854
G1 E-3.5 F1500
G1 X80.393 Y54.837 F54000
G1 E3.5 F1500
;TYPE:Perimeter
;WIDTH:0.419999
G1 F1800
G1 X80.766 Y54.341 E.01946
G1 X81.266 Y53.887 E.02118
G1 X81.841 Y53.535 E.02114
G1 X82.473 Y53.297 E.02117
G1 X83.342 Y53.173 E.02752
G1 X84.035 Y53.225 E.02179
G1 X84.686 Y53.403 E.02116
G1 X85.292 Y53.701 E.02117
G1 X85.831 Y54.106 E.02114
G1 X86.285 Y54.606 E.02118
G1 X86.637 Y55.181 E.02114
G1 X86.892 Y55.871 E.02306
G1 X86.999 Y56.685 E.02574
G1 X86.904 Y57.579 E.02819
G1 X86.682 Y58.234 E.02168
G1 X86.347 Y58.82 E.02116
G1 X85.909 Y59.333 E.02115
G1 X85.382 Y59.754 E.02115
G1 X84.785 Y60.069 E.02116
G1 X84.14 Y60.267 E.02115
G1 X83.469 Y60.341 E.02117
G1 X82.796 Y60.287 E.02117
G1 X82.146 Y60.108 E.02114
G1 X81.54 Y59.811 E.02116
G1 X81.001 Y59.405 E.02116
G1 X80.547 Y58.906 E.02115
G1 X80.194 Y58.327 E.02126
G1 X79.91 Y57.496 E.02753
G1 X79.831 Y56.809 E.02168
G1 X79.885 Y56.136 E.02117
G1 X80.063 Y55.486 E.02113
G1 X80.358 Y54.886 E.02096
G1 X80.708 Y55.037 F54000
;TYPE:External perimeter
G1 F1800
G1 X81.064 Y54.572 E.01836
G1 X81.515 Y54.17 E.01894
G1 X82.033 Y53.86 E.01893
G1 X82.6 Y53.652 E.01894
G1 X83.389 Y53.547 E.02496
