; File Parsed By Flow Comp Script
; Script Ver. V0.7.1
; Flow Model Ver. V0.2.1
; Logger Ver. V0.0.1
; Flow Comp Model Points:
; (0, 0)
; (0.2, 0.4444)
; (0.4, 0.6145)
; (0.6, 0.7059)
; (0.8, 0.7619)
; (1.5, 0.8571)
; (2, 0.8889)
; (3, 0.9231)
; (5, 0.952)
; (10, 1)

; generated by PrusaSlicer 2.9.1 on 2025-03-18 at 10:05:32 UTC

; 

; external perimeters extrusion width = 0.45mm
; perimeters extrusion width = 0.45mm
; infill extrusion width = 0.45mm
; solid infill extrusion width = 0.45mm
; top infill extrusion width = 0.40mm
; support material extrusion width = 0.35mm
; first layer extrusion width = 0.42mm

;TYPE:Custom
G90 ; use absolute coordinates
M83 ; extruder relative mode
M104 S210 ; set temporary nozzle temp to prevent oozing during homing
M140 S58 ; set final bed temp
G4 S30 ; allow partial nozzle warmup
G28 ; home all axis
G1 Z50 F240
G1 X2.0 Y10 F3000
M104 S208 ; set final nozzle temp
M190 S58 ; wait for bed temp to stabilize
M109 S208 ; wait for nozzle temp to stabilize
G1 Z0.28 F240
G92 E0
G1 X2.0 Y140 E10 F1500 ; prime the nozzle
G1 X2.3 Y140 F5000
G92 E0
G1 X2.3 Y10 E10 F1200 ; prime the nozzle
G92 E0
G21 ; set units to millimeters
G90 ; use absolute coordinates
M83 ; use relative distances for extrusion
; Filament gcode
M107
;LAYER_CHANGE
;Z:0.2
;HEIGHT:0.2
G1 E-3.5 F1500
G1 Z.2 F54000
G1 X57.374 Y61.542
G1 Z.2
G1 E3.5 F1500
M204 S3500
;TYPE:Skirt/Brim
;WIDTH:0.42
G1 F1800
G1 X58.732 Y60.343 E.0568
G1 X60.511 Y59.26 E.0653
G1 X62.462 Y58.529 E.06533
G1 X64.513 Y58.178 E.06524
G1 X105.495 Y57.778 E1.28502
G1 X107.154 Y57.987 E.05243
G1 X108.885 Y58.49 E.05652
G1 X110.397 Y59.202 E.0524
G1 X112.104 Y60.394 E.06528
G1 X113.55 Y61.876 E.06492
G1 X114.57 Y63.375 E.05685
G1 X115.282 Y64.886 E.05237
G1 X115.837 Y66.894 E.06532
G1 X116.005 Y68.537 E.05178
G1 X116.591 Y95.083 E.83253
G1 X116.593 Y103.788 E.27294
G1 X116.196 Y106.036 E.07158
G1 X114.588 Y108.511 E.09254
G1 X111.824 Y111.18 E.12047
G1 X109.931 Y112.456 E.07158
G1 X107.263 Y113.022 E.08551
G1 X101.627 Y113.009 E.17671
G1 X59.557 Y110.34 E1.32173
G1 X57.339 Y109.802 E.07156
G1 X55.439 Y108.536 E.07159
G1 X54.087 Y106.696 E.07159
G1 X53.407 Y103.788 E.09364
G1 X53.412 Y92.174 E.36415
G1 X54.291 Y68.822 E.7327
G1 X54.508 Y67.006 E.05734
G1 X55.112 Y65.016 E.06521
G1 X56.078 Y63.172 E.06527
G1 X57.337 Y61.589 E.06342
G1 X57.631 Y61.823 F54000
G1 F1800
G1 X57.649 Y61.8 E.00092
G1 X58.954 Y60.648 E.05458
G1 X60.672 Y59.601 E.06308
G1 X62.556 Y58.895 E.06308
G1 X64.537 Y58.554 E.06303
G1 X105.472 Y58.154 E1.28355
G1 X107.083 Y58.358 E.05092
G1 X108.746 Y58.841 E.0543
G1 X110.216 Y59.532 E.05093
G1 X111.864 Y60.685 E.06306
G1 X113.26 Y62.117 E.0627
G1 X114.24 Y63.556 E.05459
G1 X114.931 Y65.025 E.0509
G1 X115.467 Y66.964 E.06308
G1 X115.628 Y68.546 E.04986
G1 X116.214 Y95.092 E.83253
G1 X116.215 Y103.788 E.27266
G1 X115.819 Y105.968 E.06947
G1 X114.326 Y108.239 E.08522
G1 X111.562 Y110.908 E.12047
G1 X109.718 Y112.137 E.06948
G1 X107.263 Y112.645 E.07861
G1 X102.043 Y112.645 E.16367
G1 X59.581 Y109.964 E1.33402
G1 X57.43 Y109.43 E.06949
G1 X55.606 Y108.172 E.06947
G1 X54.341 Y106.353 E.06947
G1 X53.784 Y103.788 E.0823
G1 X53.789 Y92.188 E.36371
G1 X54.668 Y68.836 E.7327
G1 X54.878 Y67.077 E.05554
G1 X55.462 Y65.155 E.06298
G1 X56.397 Y63.374 E.06307
G1 X57.593 Y61.87 E.06025
G1 E-3.5 F1500
G1 X70.107 Y87.195 F54000
G1 E3.5 F1500
;TYPE:Support material interface
;WIDTH:0.35
G1 F1800
G1 X70.107 Y86.807 E.00991
G1 X69.8 Y86.807 E.00784
G1 X69.8 Y87.307 E.01277
G1 X69.492 Y87.614 E.0111
G1 X69.492 Y86.807 E.02061
G1 X69.185 Y86.807 E.00784
G1 X69.185 Y87.921 E.02844
G1 X68.878 Y88.228 E.01109
G1 X68.878 Y86.807 E.03628
G1 X68.571 Y86.807 E.00784
G1 X68.571 Y88.535 E.04412
G1 X68.264 Y88.842 E.01109
G1 X68.264 Y86.807 E.05196
G1 X67.957 Y86.807 E.00784
G1 X67.957 Y103.65 E.43007
G1 X67.65 Y103.65 E.00784
G1 X67.65 Y86.807 E.43007
G1 X67.343 Y86.807 E.00784
G1 X67.343 Y103.65 E.43007
G1 X67.036 Y103.65 E.00784
G1 X67.036 Y86.807 E.43007
G1 X66.729 Y86.807 E.00784
G1 X66.729 Y103.65 E.43007
G1 X66.422 Y103.65 E.00784
G1 X66.422 Y86.807 E.43007
G1 X66.115 Y86.807 E.00784
G1 X66.115 Y103.65 E.43007
G1 X65.808 Y103.65 E.00784
G1 X65.808 Y86.807 E.43007
G1 X65.5 Y86.807 E.00786
G1 X65.5 Y103.65 E.43007
G1 X65.193 Y103.65 E.00784
G1 X65.193 Y89.614 E.35839
G1 X64.886 Y89.614 E.00784
G1 X64.886 Y103.65 E.35839
G1 X64.579 Y103.65 E.00784
G1 X64.579 Y89.614 E.35839
G1 X64.272 Y89.614 E.00784
G1 X64.272 Y103.65 E.35839
G1 X63.965 Y103.65 E.00784
G1 X63.965 Y89.614 E.35839
G1 X63.658 Y89.614 E.00784
G1 X63.658 Y103.65 E.35839
G1 X63.351 Y103.65 E.00784
G1 X63.351 Y89.614 E.35839
G1 X63.044 Y89.614 E.00784
G1 X63.044 Y103.65 E.35839
G1 X62.737 Y103.65 E.00784
G1 X62.737 Y89.614 E.35839
G1 X62.543 Y89.614 E.00495
G1 X62.543 Y92.421 E.07167
G1 X62.43 Y92.421 E.00289
G1 X62.43 Y103.65 E.28672
G1 X62.123 Y103.65 E.00784
G1 X62.123 Y92.421 E.28672
G1 X61.815 Y92.421 E.00786
G1 X61.815 Y103.65 E.28672
G1 X61.508 Y103.65 E.00784
G1 X61.508 Y92.421 E.28672
G1 X61.201 Y92.421 E.00784
G1 X61.201 Y103.65 E.28672
G1 X60.894 Y103.65 E.00784
G1 X60.894 Y92.421 E.28672
G1 X60.587 Y92.421 E.00784
G1 X60.587 Y103.65 E.28672
G1 X60.28 Y103.65 E.00784
G1 X60.28 Y92.421 E.28672
G1 X59.973 Y92.421 E.00784
G1 X59.973 Y103.788 E.29024
G1 E-3.5 F1500
G1 X70.721 Y103.788 F54000
G1 E3.5 F1500
G1 F1800
G1 X70.721 Y95.228 E.21857
G1 X70.414 Y95.228 E.00784
G1 X70.414 Y103.65 E.21505
G1 X70.107 Y103.65 E.00784
G1 X70.107 Y95.228 E.21505
G1 X69.8 Y95.228 E.00784
G1 X69.8 Y103.65 E.21505
G1 X69.492 Y103.65 E.00786
G1 X69.492 Y95.228 E.21505
G1 X69.185 Y95.228 E.00784
G1 X69.185 Y103.65 E.21505
G1 X68.878 Y103.65 E.00784
G1 X68.878 Y95.228 E.21505
G1 X68.571 Y95.228 E.00784
G1 X68.571 Y103.65 E.21505
G1 X68.264 Y103.65 E.00784
G1 X68.264 Y89.582 E.35921
G1 X68.571 Y89.582 E.00784
G1 X68.571 Y92.421 E.07249
G1 X68.878 Y92.421 E.00784
G1 X68.878 Y89.582 E.07249
G1 X69.185 Y89.582 E.00784
G1 X69.185 Y92.421 E.07249
G1 X69.492 Y92.421 E.00784
G1 X69.492 Y89.582 E.07249
G1 X69.8 Y89.582 E.00786
G1 X69.8 Y92.421 E.07249
G1 X70.107 Y92.421 E.00784
G1 X70.107 Y89.582 E.07249
G1 X70.414 Y89.582 E.00784
G1 X70.414 Y92.421 E.07249
G1 X70.721 Y92.421 E.00784
G1 X70.721 Y89.582 E.07249
G1 X70.965 Y89.582 E.00623
G1 X71.028 Y100.842 E.28751
G1 X71.335 Y100.842 E.00784
G1 X71.335 Y92.421 E.21502
G1 X71.642 Y92.421 E.00784
G1 X71.642 Y100.842 E.21502
G1 X71.949 Y100.842 E.00784
G1 X71.949 Y92.421 E.21502
G1 X72.256 Y92.421 E.00784
G1 X72.256 Y100.842 E.21502
G1 X72.563 Y100.842 E.00784
G1 X72.563 Y92.421 E.21502
G1 X72.87 Y92.421 E.00784
G1 X72.87 Y100.842 E.21502
G1 X73.177 Y100.842 E.00784
G1 X73.177 Y92.421 E.21502
G1 X73.484 Y92.421 E.00784
G1 X73.484 Y100.842 E.21502
G1 X73.772 Y100.842 E.00735
G1 X73.792 Y89.614 E.28669
G1 X74.099 Y89.614 E.00784
G1 X74.099 Y98.035 E.21502
G1 X74.406 Y98.035 E.00784
G1 X74.406 Y89.614 E.21502
G1 X74.713 Y89.614 E.00784
G1 X74.713 Y98.035 E.21502
G1 X75.02 Y98.035 E.00784
G1 X75.02 Y89.614 E.21502
G1 X75.327 Y89.614 E.00784
G1 X75.327 Y98.035 E.21502
G1 X75.634 Y98.035 E.00784
G1 X75.634 Y89.614 E.21502
G1 X75.941 Y89.614 E.00784
G1 X75.941 Y98.035 E.21502
G1 X76.248 Y98.035 E.00784
G1 X76.248 Y89.614 E.21502
G1 X76.555 Y89.614 E.00784
G1 X76.579 Y98.035 E.21502
G1 X76.579 Y95.228 E.07167
G1 X76.862 Y95.228 E.00723
G1 X76.862 Y89.614 E.14335
G1 X77.169 Y89.614 E.00784
G1 X77.169 Y95.228 E.14335
G1 X77.477 Y95.228 E.00786
G1 X77.477 Y89.614 E.14335
G1 X77.784 Y89.614 E.00784
G1 X77.784 Y95.228 E.14335
G1 X78.091 Y95.228 E.00784
G1 X78.091 Y89.614 E.14335
G1 X78.398 Y89.614 E.00784
G1 X78.398 Y95.228 E.14335
G1 X78.705 Y95.228 E.00784
G1 X78.705 Y89.614 E.14335
G1 X79.012 Y89.614 E.00784
G1 X79.012 Y95.228 E.14335
G1 X79.319 Y95.228 E.00784
G1 X79.319 Y89.614 E.14335
G1 X79.626 Y89.614 E.00784
G1 X79.626 Y95.228 E.14335
G1 X79.933 Y95.228 E.00784
G1 X79.933 Y89.614 E.14335
G1 X80.24 Y89.614 E.00784
G1 X80.24 Y95.228 E.14335
G1 X80.547 Y95.228 E.00784
G1 X80.547 Y89.614 E.14335
G1 X80.854 Y89.614 E.00784
G1 X80.854 Y95.228 E.14335
G1 X81.161 Y95.228 E.00784
G1 X81.161 Y89.614 E.14335
G1 X81.469 Y89.614 E.00786
G1 X81.469 Y95.228 E.14335
G1 X81.776 Y95.228 E.00784
G1 X81.776 Y89.614 E.14335
G1 X82.083 Y89.614 E.00784
G1 X82.083 Y95.228 E.14335
G1 X82.39 Y95.228 E.00784
G1 X82.39 Y89.614 E.14335
G1 X82.697 Y89.614 E.00784
G1 X82.697 Y95.228 E.14335
G1 X83.004 Y95.228 E.00784
G1 X83.004 Y89.614 E.14335
G1 X83.311 Y89.614 E.00784
G1 X83.311 Y95.228 E.14335
G1 X83.618 Y95.228 E.00784
G1 X83.618 Y89.614 E.14335
G1 X83.925 Y89.614 E.00784
G1 X83.925 Y95.228 E.14335
G1 X84.232 Y95.228 E.00784
G1 X84.232 Y89.614 E.14335
G1 X84.539 Y89.614 E.00784
G1 X84.539 Y95.228 E.14335
G1 X84.846 Y95.228 E.00784
G1 X84.846 Y89.614 E.14335
G1 X85.153 Y89.614 E.00784
G1 X85.153 Y95.228 E.14335
G1 X85.461 Y95.228 E.00786
G1 X85.461 Y89.614 E.14335
G1 X85.768 Y89.614 E.00784
G1 X85.768 Y95.228 E.14335
G1 X86.075 Y95.228 E.00784
G1 X86.075 Y89.614 E.14335
G1 X86.382 Y89.614 E.00784
G1 X86.382 Y95.228 E.14335
G1 X86.689 Y95.228 E.00784
G1 X86.689 Y89.614 E.14335
G1 X86.996 Y89.614 E.00784
G1 X86.996 Y95.228 E.14335
G1 X87.303 Y95.228 E.00784
G1 X87.303 Y89.614 E.14335
G1 X87.61 Y89.614 E.00784
G1 X87.61 Y95.228 E.14335
G1 X87.917 Y95.228 E.00784
G1 X87.917 Y89.614 E.14335
G1 X88.224 Y89.614 E.00784
G1 X88.224 Y95.228 E.14335
G1 X88.531 Y95.228 E.00784
G1 X88.531 Y89.614 E.14335
G1 X88.838 Y89.614 E.00784
G1 X88.838 Y95.228 E.14335
G1 X89.146 Y95.228 E.00786
G1 X89.146 Y89.614 E.14335
G1 X89.453 Y89.614 E.00784
G1 X89.453 Y95.228 E.14335
G1 X89.76 Y95.228 E.00784
G1 X89.76 Y89.614 E.14335
G1 X90.067 Y89.614 E.00784
G1 X90.067 Y95.228 E.14335
G1 X90.374 Y95.228 E.00784
G1 X90.374 Y89.614 E.14335
G1 X90.681 Y89.614 E.00784
G1 X90.681 Y95.228 E.14335
G1 X90.988 Y95.228 E.00784
G1 X90.988 Y89.614 E.14335
G1 X91.295 Y89.614 E.00784
G1 X91.295 Y95.228 E.14335
G1 X91.602 Y95.228 E.00784
G1 X91.602 Y89.614 E.14335
G1 X91.909 Y89.614 E.00784
G1 X91.909 Y95.228 E.14335
G1 X92.216 Y95.228 E.00784
G1 X92.216 Y89.614 E.14335
G1 X92.523 Y89.614 E.00784
G1 X92.523 Y95.228 E.14335
G1 X92.83 Y95.228 E.00784
G1 X92.83 Y89.614 E.14335
G1 X93.138 Y89.614 E.00786
G1 X93.138 Y95.228 E.14335
G1 X93.421 Y95.228 E.00723
G1 X93.445 Y98.035 E.07168
G1 X93.445 Y89.614 E.21502
G1 X93.752 Y89.614 E.00784
G1 X93.752 Y98.035 E.21502
G1 X94.059 Y98.035 E.00784
G1 X94.059 Y89.614 E.21502
G1 X94.366 Y89.614 E.00784
G1 X94.366 Y98.035 E.21502
G1 X94.673 Y98.035 E.00784
G1 X94.673 Y89.614 E.21502
G1 X94.98 Y89.614 E.00784
G1 X94.98 Y98.035 E.21502
G1 X95.287 Y98.035 E.00784
G1 X95.287 Y89.614 E.21502
G1 X95.594 Y89.614 E.00784
G1 X95.594 Y98.035 E.21502
G1 X95.901 Y98.035 E.00784
G1 X95.901 Y89.614 E.21502
G1 X96.208 Y89.614 E.00784
G1 X96.228 Y100.842 E.28669
G1 X96.515 Y100.842 E.00733
G1 X96.515 Y92.421 E.21502
G1 X96.822 Y92.421 E.00784
G1 X96.822 Y100.842 E.21502
G1 X97.13 Y100.842 E.00786
G1 X97.13 Y92.421 E.21502
G1 X97.437 Y92.421 E.00784
G1 X97.437 Y100.842 E.21502
G1 X97.744 Y100.842 E.00784
G1 X97.744 Y92.421 E.21502
G1 X98.051 Y92.421 E.00784
G1 X98.051 Y100.842 E.21502
G1 X98.358 Y100.842 E.00784
G1 X98.358 Y92.421 E.21502
G1 X98.665 Y92.421 E.00784
G1 X98.665 Y100.981 E.21857
G1 E-3.5 F1500
G1 X96.515 Y89.752 F54000
G1 E3.5 F1500
G1 F1800
G1 X96.515 Y89.582 E.00434
G1 X98.665 Y89.582 E.0549
G1 X98.665 Y89.752 E.00434
G1 E-3.5 F1500
G1 X101.672 Y86.443 F54000
G1 E3.5 F1500
;TYPE:Support material
;WIDTH:0.42
G1 F1800
G1 X99.06 Y86.443 E.0819
G1 X99.06 Y83.864 E.08086
G1 X101.672 Y83.864 E.0819
G1 X101.672 Y86.387 E.07911
G1 X100.921 Y86.274 F54000
G1 F1800
G1 X100.921 Y84.203 E.06493
G1 X100.502 Y84.203 E.01314
G1 X100.502 Y86.104 E.0596
G1 X100.083 Y86.104 E.01314
G1 X100.083 Y84.203 E.0596
G1 X99.664 Y84.203 E.01314
G1 X99.664 Y86.274 E.06493
G1 X99.279 Y87.168 F54000
;TYPE:Support material interface
;WIDTH:0.35
G1 F1800
G1 X99.279 Y86.807 E.00922
G1 X99.586 Y86.807 E.00784
G1 X99.586 Y87.279 E.01205
G1 X99.893 Y87.586 E.01109
G1 X99.893 Y86.807 E.01989
G1 X100.2 Y86.807 E.00784
G1 X100.2 Y87.893 E.02773
G1 X100.507 Y88.2 E.01109
G1 X100.507 Y86.807 E.03557
G1 X100.815 Y86.807 E.00786
G1 X100.815 Y88.508 E.04343
G1 X101.122 Y88.815 E.01109
G1 X101.122 Y86.807 E.05127
G1 X101.429 Y86.807 E.00784
G1 X101.429 Y92.421 E.14335
G1 X101.122 Y92.421 E.00784
G1 X101.122 Y89.582 E.07249
G1 X100.815 Y89.582 E.00784
G1 X100.815 Y92.421 E.07249
G1 X100.507 Y92.421 E.00786
G1 X100.507 Y89.582 E.07249
G1 X100.2 Y89.582 E.00784
G1 X100.2 Y92.421 E.07249
G1 X99.893 Y92.421 E.00784
G1 X99.893 Y89.582 E.07249
G1 X99.586 Y89.582 E.00784
G1 X99.586 Y92.421 E.07249
G1 X99.279 Y92.421 E.00784
G1 X99.279 Y89.582 E.07249
G1 X98.972 Y89.582 E.00784
G1 X98.972 Y100.842 E.28751
G1 X99.035 Y100.842 E.00161
G1 X99.035 Y103.65 E.0717
G1 X99.279 Y103.65 E.00623
G1 X99.279 Y95.228 E.21505
G1 X99.586 Y95.228 E.00784
G1 X99.586 Y103.65 E.21505
G1 X99.893 Y103.65 E.00784
G1 X99.893 Y95.228 E.21505
G1 X100.2 Y95.228 E.00784
G1 X100.2 Y103.65 E.21505
G1 X100.507 Y103.65 E.00784
G1 X100.507 Y95.228 E.21505
G1 X100.815 Y95.228 E.00786
G1 X100.815 Y103.65 E.21505
G1 X101.122 Y103.65 E.00784
G1 X101.122 Y95.228 E.21505
G1 X101.429 Y95.228 E.00784
G1 X101.429 Y103.65 E.21505
G1 X101.736 Y103.65 E.00784
G1 X101.736 Y86.807 E.43007
G1 X101.842 Y86.807 E.00271
G1 X101.842 Y89.614 E.07167
G1 X102.043 Y89.614 E.00513
G1 X102.043 Y106.457 E.43007
G1 X102.35 Y106.457 E.00784
G1 X102.35 Y89.614 E.43007
G1 X102.657 Y89.614 E.00784
G1 X102.657 Y106.457 E.43007
G1 X102.964 Y106.457 E.00784
G1 X102.964 Y89.614 E.43007
G1 X103.271 Y89.614 E.00784
G1 X103.271 Y106.457 E.43007
G1 X103.578 Y106.457 E.00784
G1 X103.578 Y89.614 E.43007
G1 X103.885 Y89.614 E.00784
G1 X103.885 Y106.457 E.43007
G1 X104.192 Y106.457 E.00784
G1 X104.192 Y89.614 E.43007
G1 X104.499 Y89.614 E.00784
G1 X104.499 Y106.457 E.43007
G1 X104.807 Y106.457 E.00786
G1 X104.807 Y92.421 E.35839
G1 X105.114 Y92.421 E.00784
G1 X105.114 Y106.457 E.35839
G1 X105.421 Y106.457 E.00784
G1 X105.421 Y92.421 E.35839
G1 X105.728 Y92.421 E.00784
G1 X105.728 Y106.457 E.35839
G1 X106.035 Y106.457 E.00784
G1 X106.035 Y92.421 E.35839
G1 X106.342 Y92.421 E.00784
G1 X106.342 Y106.457 E.35839
G1 X106.649 Y106.457 E.00784
G1 X106.649 Y92.421 E.35839
G1 X106.956 Y92.421 E.00784
G1 X106.956 Y106.457 E.35839
G1 X107.263 Y106.457 E.00784
G1 X107.263 Y92.421 E.35839
G1 X107.457 Y92.421 E.00495
G1 X107.457 Y95.228 E.07167
G1 X107.57 Y95.228 E.00289
G1 X107.57 Y103.65 E.21505
G1 X107.877 Y103.65 E.00784
G1 X107.877 Y95.228 E.21505
G1 X108.184 Y95.228 E.00784
G1 X108.184 Y103.65 E.21505
G1 X108.491 Y103.65 E.00784
G1 X108.491 Y95.228 E.21505
G1 X108.799 Y95.228 E.00786
G1 X108.799 Y103.65 E.21505
G1 X109.106 Y103.65 E.00784
G1 X109.106 Y95.228 E.21505
G1 X109.413 Y95.228 E.00784
G1 X109.413 Y103.65 E.21505
G1 X109.72 Y103.65 E.00784
G1 X109.72 Y95.228 E.21505
G1 X110.027 Y95.228 E.00784
G1 X110.027 Y103.788 E.21857
G1 E-3.5 F1500
G1 X74.597 Y81.45 F54000
G1 E3.5 F1500
;TYPE:Perimeter
;WIDTH:0.419999
G1 F1800
G1 X74.725 Y81.335 E.0054
G1 X75.301 Y80.983 E.02117
G1 X75.932 Y80.745 E.02115
G1 X76.801 Y80.621 E.02752
G1 X77.472 Y80.67 E.02109
G1 X78.145 Y80.851 E.02185
G1 X78.751 Y81.148 E.02116
G1 X79.29 Y81.554 E.02116
G1 X79.744 Y82.053 E.02115
G1 X80.096 Y82.629 E.02117
G1 X80.323 Y83.23 E.02014
G1 X80.363 Y83.381 E.0049
G1 X80.458 Y84.132 E.02373
G1 X80.363 Y85.026 E.02819
G1 X80.141 Y85.681 E.02168
G1 X79.806 Y86.267 E.02116
G1 X79.368 Y86.78 E.02115
G1 X78.841 Y87.201 E.02115
G1 X78.244 Y87.517 E.02118
G1 X77.599 Y87.715 E.02115
G1 X76.928 Y87.788 E.02116
G1 X76.256 Y87.735 E.02114
G1 X75.605 Y87.556 E.02117
G1 X74.999 Y87.259 E.02116
G1 X74.46 Y86.853 E.02116
G1 X74.033 Y86.384 E.01989
G1 X73.673 Y85.808 E.0213
G1 X73.369 Y84.944 E.02872
G1 X73.29 Y84.257 E.02168
G1 X73.344 Y83.584 E.02117
G1 X73.522 Y82.933 E.02116
G1 X73.82 Y82.328 E.02115
G1 X74.225 Y81.788 E.02116
G1 X74.553 Y81.491 E.01387
G1 X74.837 Y81.74 F54000
;TYPE:External perimeter
G1 F1800
G1 X74.974 Y81.617 E.00577
G1 X75.493 Y81.307 E.01895
