; File Parsed By Flow Comp Script
; Script Ver. V0.7.1
; Flow Model Ver. V0.2.1
; Logger Ver. V0.0.1
; Flow Comp Model Points:
; (0, 0)
; (0.2, 0.4444)
; (0.4, 0.6145)
; (0.6, 0.7059)
; (0.8, 0.7619)
; (1.5, 0.8571)
; (2, 0.8889)
; (3, 0.9231)
; (5, 0.952)
; (10, 1)

; generated by PrusaSlicer 2.9.1 on 2025-03-18 at 07:53:24 UTC

; 

; external perimeters extrusion width = 0.45mm
; perimeters extrusion width = 0.45mm
; infill extrusion width = 0.45mm
; solid infill extrusion width = 0.45mm
; top infill extrusion width = 0.40mm
; support material extrusion width = 0.35mm
; first layer extrusion width = 0.42mm

;TYPE:Custom
G90 ; use absolute coordinates
M83 ; extruder relative mode
M104 S210 ; set temporary nozzle temp to prevent oozing during homing
M140 S58 ; set final bed temp
G4 S30 ; allow partial nozzle warmup
G28 ; home all axis
G1 Z50 F240
G1 X2.0 Y10 F3000
M104 S208 ; set final nozzle temp
M190 S58 ; wait for bed temp to stabilize
M109 S208 ; wait for nozzle temp to stabilize
G1 Z0.28 F240
G92 E0
G1 X2.0 Y140 E10 F1500 ; prime the nozzle
G1 X2.3 Y140 F5000
G92 E0
G1 X2.3 Y10 E10 F1200 ; prime the nozzle
G92 E0
G21 ; set units to millimeters
G90 ; use absolute coordinates
M83 ; use relative distances for extrusion
; Filament gcode
M107
;LAYER_CHANGE
;Z:0.2
;HEIGHT:0.2
G1 E-3.5 F1500
G1 Z.2 F54000
G1 X39.333 Y107.983
G1 Z.2
G1 E3.5 F1500
M204 S3500
;TYPE:Skirt/Brim
;WIDTH:0.42
G1 F1800
G1 X41.385 Y107.631 E.06528
G1 X82.367 Y107.231 E1.28502
G1 X84.025 Y107.441 E.0524
G1 X85.756 Y107.943 E.05651
G1 X87.269 Y108.655 E.05243
G1 X88.976 Y109.848 E.0653
G1 X90.422 Y111.33 E.06492
G1 X91.441 Y112.828 E.05681
G1 X92.153 Y114.34 E.0524
G1 X92.708 Y116.347 E.06529
G1 X92.876 Y117.991 E.05181
G1 X93.462 Y144.537 E.83253
G1 X93.464 Y153.241 E.27291
G1 X93.067 Y155.49 E.07161
G1 X91.459 Y157.964 E.09252
G1 X88.695 Y160.633 E.12047
G1 X86.802 Y161.909 E.07158
G1 X84.134 Y162.476 E.08552
G1 X78.498 Y162.463 E.17671
G1 X36.429 Y159.794 E1.3217
G1 X34.21 Y159.255 E.0716
G1 X32.31 Y157.989 E.07159
G1 X30.958 Y156.15 E.07157
G1 X30.279 Y153.241 E.09366
G1 X30.283 Y141.628 E.36412
G1 X31.163 Y118.275 E.73274
G1 X31.379 Y116.46 E.05731
G1 X31.983 Y114.47 E.06521
G1 X32.95 Y112.626 E.06528
G1 X34.245 Y110.996 E.06527
G1 X35.603 Y109.797 E.0568
G1 X37.382 Y108.714 E.0653
G1 X39.277 Y108.004 E.06345
G1 X39.409 Y108.355 F54000
G1 F1800
G1 X39.427 Y108.348 E.00061
G1 X41.408 Y108.007 E.06303
G1 X82.343 Y107.608 E1.28355
G1 X83.955 Y107.811 E.05094
G1 X85.617 Y108.294 E.05427
G1 X87.087 Y108.986 E.05094
G1 X88.735 Y110.138 E.06304
G1 X90.131 Y111.57 E.0627
G1 X91.111 Y113.01 E.05461
G1 X91.802 Y114.479 E.0509
G1 X92.338 Y116.418 E.06308
G1 X92.499 Y117.999 E.04983
G1 X93.085 Y144.545 E.83253
G1 X93.087 Y153.241 E.27266
G1 X92.69 Y155.421 E.06948
G1 X91.197 Y157.693 E.08524
G1 X88.433 Y160.362 E.12047
G1 X86.589 Y161.591 E.06948
G1 X84.134 Y162.099 E.07861
G1 X78.914 Y162.099 E.16367
G1 X36.453 Y159.417 E1.33399
G1 X34.302 Y158.883 E.06949
G1 X32.477 Y157.626 E.06948
G1 X31.212 Y155.806 E.0695
G1 X30.656 Y153.241 E.08229
G1 X30.66 Y141.642 E.36368
G1 X31.539 Y118.289 E.73274
G1 X31.749 Y116.53 E.05554
G1 X32.334 Y114.608 E.06299
G1 X33.268 Y112.828 E.06303
G1 X34.52 Y111.254 E.06306
G1 X35.825 Y110.102 E.05458
G1 X37.543 Y109.055 E.06308
G1 X39.353 Y108.376 E.06061
G1 E-3.5 F1500
G1 X46.978 Y136.649 F54000
G1 E3.5 F1500
;TYPE:Support material interface
;WIDTH:0.35
G1 F1800
G1 X46.978 Y136.261 E.00991
G1 X46.671 Y136.261 E.00784
G1 X46.671 Y136.76 E.01274
G1 X46.364 Y137.068 E.0111
G1 X46.364 Y136.261 E.02061
G1 X46.057 Y136.261 E.00784
G1 X46.057 Y137.375 E.02844
G1 X45.75 Y137.682 E.01109
G1 X45.75 Y136.261 E.03628
G1 X45.443 Y136.261 E.00784
G1 X45.443 Y137.989 E.04412
G1 X45.135 Y138.296 E.0111
G1 X45.135 Y136.261 E.05196
G1 X44.828 Y136.261 E.00784
G1 X44.828 Y153.103 E.43004
G1 X44.521 Y153.103 E.00784
G1 X44.521 Y136.261 E.43004
G1 X44.214 Y136.261 E.00784
G1 X44.214 Y153.103 E.43004
G1 X43.907 Y153.103 E.00784
G1 X43.907 Y136.261 E.43004
G1 X43.6 Y136.261 E.00784
G1 X43.6 Y153.103 E.43004
G1 X43.293 Y153.103 E.00784
G1 X43.293 Y136.261 E.43004
G1 X42.986 Y136.261 E.00784
G1 X42.986 Y153.103 E.43004
G1 X42.679 Y153.103 E.00784
G1 X42.679 Y136.261 E.43004
G1 X42.372 Y136.261 E.00784
G1 X42.372 Y153.103 E.43004
G1 X42.065 Y153.103 E.00784
G1 X42.065 Y139.068 E.35837
G1 X41.758 Y139.068 E.00784
G1 X41.758 Y153.103 E.35837
G1 X41.451 Y153.103 E.00784
G1 X41.451 Y139.068 E.35837
G1 X41.143 Y139.068 E.00786
G1 X41.143 Y153.103 E.35837
G1 X40.836 Y153.103 E.00784
G1 X40.836 Y139.068 E.35837
G1 X40.529 Y139.068 E.00784
G1 X40.529 Y153.103 E.35837
G1 X40.222 Y153.103 E.00784
G1 X40.222 Y139.068 E.35837
G1 X39.915 Y139.068 E.00784
G1 X39.915 Y153.103 E.35837
G1 X39.608 Y153.103 E.00784
G1 X39.608 Y139.068 E.35837
G1 X39.415 Y139.068 E.00493
G1 X39.415 Y141.875 E.07167
G1 X39.301 Y141.875 E.00291
G1 X39.301 Y153.103 E.28669
G1 X38.994 Y153.103 E.00784
G1 X38.994 Y141.875 E.28669
G1 X38.687 Y141.875 E.00784
G1 X38.687 Y153.103 E.28669
G1 X38.38 Y153.103 E.00784
G1 X38.38 Y141.875 E.28669
G1 X38.073 Y141.875 E.00784
G1 X38.073 Y153.103 E.28669
G1 X37.766 Y153.103 E.00784
G1 X37.766 Y141.875 E.28669
G1 X37.458 Y141.875 E.00786
G1 X37.458 Y153.103 E.28669
G1 X37.151 Y153.103 E.00784
G1 X37.151 Y141.875 E.28669
G1 X36.844 Y141.875 E.00784
G1 X36.844 Y153.241 E.29022
G1 E-3.5 F1500
G1 X47.592 Y153.241 F54000
G1 E3.5 F1500
G1 F1800
G1 X47.592 Y144.682 E.21854
G1 X47.285 Y144.682 E.00784
G1 X47.285 Y153.103 E.21502
G1 X46.978 Y153.103 E.00784
G1 X46.978 Y144.682 E.21502
G1 X46.671 Y144.682 E.00784
G1 X46.671 Y153.103 E.21502
G1 X46.364 Y153.103 E.00784
G1 X46.364 Y144.682 E.21502
G1 X46.057 Y144.682 E.00784
G1 X46.057 Y153.103 E.21502
G1 X45.75 Y153.103 E.00784
G1 X45.75 Y144.682 E.21502
G1 X45.443 Y144.682 E.00784
G1 X45.443 Y153.103 E.21502
G1 X45.135 Y153.103 E.00786
G1 X45.135 Y139.035 E.35921
G1 X45.443 Y139.035 E.00786
G1 X45.443 Y141.875 E.07252
G1 X45.75 Y141.875 E.00784
G1 X45.75 Y139.035 E.07252
G1 X46.057 Y139.035 E.00784
G1 X46.057 Y141.875 E.07252
G1 X46.364 Y141.875 E.00784
G1 X46.364 Y139.035 E.07252
G1 X46.671 Y139.035 E.00784
G1 X46.671 Y141.875 E.07252
G1 X46.978 Y141.875 E.00784
G1 X46.978 Y139.035 E.07252
G1 X47.285 Y139.035 E.00784
G1 X47.285 Y141.875 E.07252
G1 X47.592 Y141.875 E.00784
G1 X47.592 Y139.035 E.07252
G1 X47.836 Y139.035 E.00623
G1 X47.899 Y150.296 E.28754
G1 X48.206 Y150.296 E.00784
G1 X48.206 Y141.875 E.21502
G1 X48.513 Y141.875 E.00784
G1 X48.513 Y150.296 E.21502
G1 X48.82 Y150.296 E.00784
G1 X48.82 Y141.875 E.21502
G1 X49.127 Y141.875 E.00784
G1 X49.127 Y150.296 E.21502
G1 X49.435 Y150.296 E.00786
G1 X49.435 Y141.875 E.21502
G1 X49.742 Y141.875 E.00784
G1 X49.742 Y150.296 E.21502
G1 X50.049 Y150.296 E.00784
G1 X50.049 Y141.875 E.21502
G1 X50.356 Y141.875 E.00784
G1 X50.356 Y150.296 E.21502
G1 X50.643 Y150.296 E.00733
G1 X50.663 Y139.068 E.28669
G1 X50.97 Y139.068 E.00784
G1 X50.97 Y147.489 E.21502
G1 X51.277 Y147.489 E.00784
G1 X51.277 Y139.068 E.21502
G1 X51.584 Y139.068 E.00784
G1 X51.584 Y147.489 E.21502
G1 X51.891 Y147.489 E.00784
G1 X51.891 Y139.068 E.21502
G1 X52.198 Y139.068 E.00784
G1 X52.198 Y147.489 E.21502
G1 X52.505 Y147.489 E.00784
G1 X52.505 Y139.068 E.21502
G1 X52.812 Y139.068 E.00784
G1 X52.812 Y147.489 E.21502
G1 X53.12 Y147.489 E.00786
G1 X53.12 Y139.068 E.21502
G1 X53.427 Y139.068 E.00784
G1 X53.45 Y147.489 E.21502
G1 X53.45 Y144.682 E.07167
G1 X53.734 Y144.682 E.00725
G1 X53.734 Y139.068 E.14335
G1 X54.041 Y139.068 E.00784
G1 X54.041 Y144.682 E.14335
G1 X54.348 Y144.682 E.00784
G1 X54.348 Y139.068 E.14335
G1 X54.655 Y139.068 E.00784
G1 X54.655 Y144.682 E.14335
G1 X54.962 Y144.682 E.00784
G1 X54.962 Y139.068 E.14335
G1 X55.269 Y139.068 E.00784
G1 X55.269 Y144.682 E.14335
G1 X55.576 Y144.682 E.00784
G1 X55.576 Y139.068 E.14335
G1 X55.883 Y139.068 E.00784
G1 X55.883 Y144.682 E.14335
G1 X56.19 Y144.682 E.00784
G1 X56.19 Y139.068 E.14335
G1 X56.497 Y139.068 E.00784
G1 X56.497 Y144.682 E.14335
G1 X56.804 Y144.682 E.00784
G1 X56.804 Y139.068 E.14335
G1 X57.112 Y139.068 E.00786
G1 X57.112 Y144.682 E.14335
G1 X57.419 Y144.682 E.00784
G1 X57.419 Y139.068 E.14335
G1 X57.726 Y139.068 E.00784
G1 X57.726 Y144.682 E.14335
G1 X58.033 Y144.682 E.00784
G1 X58.033 Y139.068 E.14335
G1 X58.34 Y139.068 E.00784
G1 X58.34 Y144.682 E.14335
G1 X58.647 Y144.682 E.00784
G1 X58.647 Y139.068 E.14335
G1 X58.954 Y139.068 E.00784
G1 X58.954 Y144.682 E.14335
G1 X59.261 Y144.682 E.00784
G1 X59.261 Y139.068 E.14335
G1 X59.568 Y139.068 E.00784
G1 X59.568 Y144.682 E.14335
G1 X59.875 Y144.682 E.00784
G1 X59.875 Y139.068 E.14335
G1 X60.182 Y139.068 E.00784
G1 X60.182 Y144.682 E.14335
G1 X60.489 Y144.682 E.00784
G1 X60.489 Y139.068 E.14335
G1 X60.796 Y139.068 E.00784
G1 X60.796 Y144.682 E.14335
G1 X61.104 Y144.682 E.00786
G1 X61.104 Y139.068 E.14335
G1 X61.411 Y139.068 E.00784
G1 X61.411 Y144.682 E.14335
G1 X61.718 Y144.682 E.00784
G1 X61.718 Y139.068 E.14335
G1 X62.025 Y139.068 E.00784
G1 X62.025 Y144.682 E.14335
G1 X62.332 Y144.682 E.00784
G1 X62.332 Y139.068 E.14335
G1 X62.639 Y139.068 E.00784
G1 X62.639 Y144.682 E.14335
G1 X62.946 Y144.682 E.00784
G1 X62.946 Y139.068 E.14335
G1 X63.253 Y139.068 E.00784
G1 X63.253 Y144.682 E.14335
G1 X63.56 Y144.682 E.00784
G1 X63.56 Y139.068 E.14335
G1 X63.867 Y139.068 E.00784
G1 X63.867 Y144.682 E.14335
G1 X64.174 Y144.682 E.00784
G1 X64.174 Y139.068 E.14335
G1 X64.481 Y139.068 E.00784
G1 X64.481 Y144.682 E.14335
G1 X64.789 Y144.682 E.00786
G1 X64.789 Y139.068 E.14335
G1 X65.096 Y139.068 E.00784
G1 X65.096 Y144.682 E.14335
G1 X65.403 Y144.682 E.00784
G1 X65.403 Y139.068 E.14335
G1 X65.71 Y139.068 E.00784
G1 X65.71 Y144.682 E.14335
G1 X66.017 Y144.682 E.00784
G1 X66.017 Y139.068 E.14335
G1 X66.324 Y139.068 E.00784
G1 X66.324 Y144.682 E.14335
G1 X66.631 Y144.682 E.00784
G1 X66.631 Y139.068 E.14335
G1 X66.938 Y139.068 E.00784
G1 X66.938 Y144.682 E.14335
G1 X67.245 Y144.682 E.00784
G1 X67.245 Y139.068 E.14335
G1 X67.552 Y139.068 E.00784
G1 X67.552 Y144.682 E.14335
G1 X67.859 Y144.682 E.00784
G1 X67.859 Y139.068 E.14335
G1 X68.166 Y139.068 E.00784
G1 X68.166 Y144.682 E.14335
G1 X68.473 Y144.682 E.00784
G1 X68.473 Y139.068 E.14335
G1 X68.781 Y139.068 E.00786
G1 X68.781 Y144.682 E.14335
G1 X69.088 Y144.682 E.00784
G1 X69.088 Y139.068 E.14335
G1 X69.395 Y139.068 E.00784
G1 X69.395 Y144.682 E.14335
G1 X69.702 Y144.682 E.00784
G1 X69.702 Y139.068 E.14335
G1 X70.009 Y139.068 E.00784
G1 X70.009 Y144.682 E.14335
G1 X70.293 Y144.682 E.00725
G1 X70.316 Y147.489 E.07168
G1 X70.316 Y139.068 E.21502
G1 X70.623 Y139.068 E.00784
G1 X70.623 Y147.489 E.21502
G1 X70.93 Y147.489 E.00784
G1 X70.93 Y139.068 E.21502
G1 X71.237 Y139.068 E.00784
G1 X71.237 Y147.489 E.21502
G1 X71.544 Y147.489 E.00784
G1 X71.544 Y139.068 E.21502
G1 X71.851 Y139.068 E.00784
G1 X71.851 Y147.489 E.21502
G1 X72.158 Y147.489 E.00784
G1 X72.158 Y139.068 E.21502
G1 X72.465 Y139.068 E.00784
G1 X72.465 Y147.489 E.21502
G1 X72.773 Y147.489 E.00786
G1 X72.773 Y139.068 E.21502
G1 X73.08 Y139.068 E.00784
G1 X73.1 Y150.296 E.28669
G1 X73.387 Y150.296 E.00733
G1 X73.387 Y141.875 E.21502
G1 X73.694 Y141.875 E.00784
G1 X73.694 Y150.296 E.21502
G1 X74.001 Y150.296 E.00784
G1 X74.001 Y141.875 E.21502
G1 X74.308 Y141.875 E.00784
G1 X74.308 Y150.296 E.21502
G1 X74.615 Y150.296 E.00784
G1 X74.615 Y141.875 E.21502
G1 X74.922 Y141.875 E.00784
G1 X74.922 Y150.296 E.21502
G1 X75.229 Y150.296 E.00784
G1 X75.229 Y141.875 E.21502
G1 X75.536 Y141.875 E.00784
G1 X75.536 Y150.434 E.21854
G1 E-3.5 F1500
G1 X73.387 Y139.206 F54000
G1 E3.5 F1500
G1 F1800
G1 X73.387 Y139.035 E.00437
G1 X75.536 Y139.035 E.05487
G1 X75.536 Y139.206 E.00437
G1 E-3.5 F1500
G1 X78.543 Y135.897 F54000
G1 E3.5 F1500
;TYPE:Support material
;WIDTH:0.42
G1 F1800
G1 X75.931 Y135.897 E.0819
G1 X75.931 Y133.317 E.08089
G1 X78.543 Y133.317 E.0819
G1 X78.543 Y135.84 E.07911
G1 X77.792 Y135.727 F54000
G1 F1800
G1 X77.792 Y133.657 E.0649
G1 X77.373 Y133.657 E.01314
G1 X77.373 Y135.558 E.0596
G1 X76.954 Y135.558 E.01314
G1 X76.954 Y133.657 E.0596
G1 X76.536 Y133.657 E.01311
G1 X76.536 Y135.727 E.0649
G1 X76.15 Y136.621 F54000
;TYPE:Support material interface
;WIDTH:0.35
G1 F1800
G1 X76.15 Y136.261 E.00919
G1 X76.458 Y136.261 E.00786
G1 X76.458 Y136.733 E.01205
G1 X76.765 Y137.04 E.01109
G1 X76.765 Y136.261 E.01989
G1 X77.072 Y136.261 E.00784
G1 X77.072 Y137.347 E.02773
G1 X77.379 Y137.654 E.01109
G1 X77.379 Y136.261 E.03557
G1 X77.686 Y136.261 E.00784
G1 X77.686 Y137.961 E.04341
G1 X77.993 Y138.268 E.01109
G1 X77.993 Y136.261 E.05125
G1 X78.3 Y136.261 E.00784
G1 X78.3 Y141.875 E.14335
G1 X77.993 Y141.875 E.00784
G1 X77.993 Y139.035 E.07252
G1 X77.686 Y139.035 E.00784
G1 X77.686 Y141.875 E.07252
G1 X77.379 Y141.875 E.00784
G1 X77.379 Y139.035 E.07252
G1 X77.072 Y139.035 E.00784
G1 X77.072 Y141.875 E.07252
G1 X76.765 Y141.875 E.00784
G1 X76.765 Y139.035 E.07252
G1 X76.458 Y139.035 E.00784
G1 X76.458 Y141.875 E.07252
G1 X76.15 Y141.875 E.00786
G1 X76.15 Y139.035 E.07252
G1 X75.843 Y139.035 E.00784
G1 X75.843 Y150.296 E.28754
G1 X75.907 Y150.296 E.00163
G1 X75.907 Y153.103 E.07167
G1 X76.15 Y153.103 E.0062
G1 X76.15 Y144.682 E.21502
G1 X76.458 Y144.682 E.00786
G1 X76.458 Y153.103 E.21502
G1 X76.765 Y153.103 E.00784
G1 X76.765 Y144.682 E.21502
G1 X77.072 Y144.682 E.00784
G1 X77.072 Y153.103 E.21502
G1 X77.379 Y153.103 E.00784
G1 X77.379 Y144.682 E.21502
G1 X77.686 Y144.682 E.00784
G1 X77.686 Y153.103 E.21502
G1 X77.993 Y153.103 E.00784
G1 X77.993 Y144.682 E.21502
G1 X78.3 Y144.682 E.00784
G1 X78.3 Y153.103 E.21502
G1 X78.607 Y153.103 E.00784
G1 X78.607 Y136.261 E.43004
G1 X78.714 Y136.261 E.00273
G1 X78.714 Y139.068 E.07167
G1 X78.914 Y139.068 E.00511
G1 X78.914 Y155.91 E.43004
G1 X79.221 Y155.91 E.00784
G1 X79.221 Y139.068 E.43004
G1 X79.528 Y139.068 E.00784
G1 X79.528 Y155.91 E.43004
G1 X79.835 Y155.91 E.00784
G1 X79.835 Y139.068 E.43004
G1 X80.142 Y139.068 E.00784
G1 X80.142 Y155.91 E.43004
G1 X80.45 Y155.91 E.00786
G1 X80.45 Y139.068 E.43004
G1 X80.757 Y139.068 E.00784
G1 X80.757 Y155.91 E.43004
G1 X81.064 Y155.91 E.00784
G1 X81.064 Y139.068 E.43004
G1 X81.371 Y139.068 E.00784
G1 X81.371 Y155.91 E.43004
G1 X81.678 Y155.91 E.00784
G1 X81.678 Y141.875 E.35837
G1 X81.985 Y141.875 E.00784
G1 X81.985 Y155.91 E.35837
G1 X82.292 Y155.91 E.00784
G1 X82.292 Y141.875 E.35837
G1 X82.599 Y141.875 E.00784
G1 X82.599 Y155.91 E.35837
G1 X82.906 Y155.91 E.00784
G1 X82.906 Y141.875 E.35837
G1 X83.213 Y141.875 E.00784
G1 X83.213 Y155.91 E.35837
G1 X83.52 Y155.91 E.00784
G1 X83.52 Y141.875 E.35837
G1 X83.827 Y141.875 E.00784
G1 X83.827 Y155.91 E.35837
G1 X84.134 Y155.91 E.00784
G1 X84.134 Y141.875 E.35837
G1 X84.328 Y141.875 E.00495
G1 X84.328 Y144.682 E.07167
G1 X84.442 Y144.682 E.00291
G1 X84.442 Y153.103 E.21502
G1 X84.749 Y153.103 E.00784
G1 X84.749 Y144.682 E.21502
G1 X85.056 Y144.682 E.00784
G1 X85.056 Y153.103 E.21502
G1 X85.363 Y153.103 E.00784
G1 X85.363 Y144.682 E.21502
G1 X85.67 Y144.682 E.00784
G1 X85.67 Y153.103 E.21502
G1 X85.977 Y153.103 E.00784
G1 X85.977 Y144.682 E.21502
G1 X86.284 Y144.682 E.00784
G1 X86.284 Y153.103 E.21502
G1 X86.591 Y153.103 E.00784
G1 X86.591 Y144.682 E.21502
G1 X86.898 Y144.682 E.00784
G1 X86.898 Y153.241 E.21854
G1 E-3.5 F1500
G1 X69.682 Y130.338 F54000
G1 E3.5 F1500
;TYPE:Perimeter
;WIDTH:0.419999
G1 F1800
G1 X70.053 Y130.198 E.01243
G1 X70.922 Y130.074 E.02752
G1 X71.615 Y130.126 E.02179
G1 X72.266 Y130.304 E.02116
G1 X72.872 Y130.602 E.02117
G1 X73.411 Y131.007 E.02114
G1 X73.865 Y131.507 E.02118
G1 X74.217 Y132.082 E.02114
;WIDTH:0.434034
G1 X74.462 Y132.711 E.02195
G1 X74.568 Y133.587 E.0287
;WIDTH:0.444898
G1 X74.496 Y134.481 E.02998
G1 X74.262 Y135.135 E.02322
;WIDTH:0.419999
G1 X73.928 Y135.721 E.02115
G1 X73.489 Y136.234 E.02117
G1 X72.962 Y136.655 E.02115
G1 X72.365 Y136.97 E.02116
G1 X71.72 Y137.168 E.02115
G1 X71.05 Y137.242 E.02114
G1 X70.377 Y137.188 E.02117
G1 X69.726 Y137.009 E.02117
G1 X69.031 Y136.655 E.02446
G1 X68.581 Y136.306 E.01786
G1 X68.128 Y135.807 E.02113
G1 X67.774 Y135.228 E.02128
G1 X67.49 Y134.397 E.02753
G1 X67.412 Y133.71 E.02168
