; generated by PrusaSlicer 2.9.0 on 2025-01-27 at 22:35:20 UTC

; 

; external perimeters extrusion width = 0.42mm
; perimeters extrusion width = 0.44mm
; infill extrusion width = 0.44mm
; solid infill extrusion width = 0.44mm
; top infill extrusion width = 0.40mm
; first layer extrusion width = 0.42mm


; printing object x_axis_carriage_mounting_plate.stl id:0 copy 0
; stop printing object x_axis_carriage_mounting_plate.stl id:0 copy 0

;TYPE:Custom
G90 ; use absolute coordinates
M83 ; extruder relative mode
M104 S150 ; set temporary nozzle temp to prevent oozing during homing
M140 S60 ; set final bed temp
G4 S30 ; allow partial nozzle warmup
G28 ; home all axis
G1 Z50 F240
G1 X2.0 Y10 F3000
M104 S210 ; set final nozzle temp
M190 S60 ; wait for bed temp to stabilize
M109 S210 ; wait for nozzle temp to stabilize
G1 Z0.28 F240
G92 E0
G1 X2.0 Y140 E10 F1500 ; prime the nozzle
G1 X2.3 Y140 F5000
G92 E0
G1 X2.3 Y10 E10 F1200 ; prime the nozzle
G92 E0
G21 ; set units to millimeters
G90 ; use absolute coordinates
M83 ; use relative distances for extrusion
; Filament gcode
M107
;LAYER_CHANGE
;Z:0.2
;HEIGHT:0.2
G1 E-2.5 F1800
G1 Z.2 F54000
G1 X17.06 Y29.904
G1 Z.2
G1 E2.5 F1200
M204 S3500
;TYPE:Skirt/Brim
;WIDTH:0.42
G1 F2100
G1 X19.135 Y29.238 E.06833
G1 X39.135 Y29.238 E.62709
G1 X40.765 Y29.632 E.05258
G1 X42.035 Y30.728 E.0526
G1 X42.701 Y32.804 E.06836
G1 X42.701 Y44.804 E.37625
G1 X42.306 Y46.434 E.05259
G1 X41.21 Y47.703 E.05257
G1 X39.135 Y48.369 E.06833
G1 X19.135 Y48.369 E.62709
G1 X17.505 Y47.975 E.05258
G1 X16.236 Y46.879 E.05257
G1 X15.569 Y44.804 E.06834
G1 X15.569 Y32.804 E.37625
G1 X15.964 Y31.173 E.05262
G1 X17.021 Y29.949 E.05071
G1 X17.021 Y29.949 F54000
G1 X17.317 Y30.227
G1 F2100
G1 X17.424 Y30.113 E.0049
G1 X19.135 Y29.615 E.05587
G1 X39.135 Y29.615 E.62709
G1 X40.67 Y30.009 E.04969
G1 X41.826 Y31.093 E.04969
G1 X42.324 Y32.804 E.05587
G1 X42.324 Y44.804 E.37625
G1 X41.93 Y46.338 E.04966
G1 X40.846 Y47.494 E.04969
G1 X39.135 Y47.992 E.05587
G1 X19.135 Y47.992 E.62709
G1 X17.6 Y47.598 E.04969
G1 X16.444 Y46.514 E.04969
G1 X15.947 Y44.804 E.05583
G1 X15.947 Y32.804 E.37625
G1 X16.34 Y31.269 E.04968
G1 X17.276 Y30.271 E.0429
G1 E-.5 F1800
;WIPE_START
G1 F43200
G1 X17.317 Y30.227 E-.00238
G1 X17.424 Y30.113 E-.00619
G1 X19.135 Y29.615 E-.07054
G1 X39.135 Y29.615 E-.79167
G1 X40.67 Y30.009 E-.06273
G1 X41.826 Y31.093 E-.06273
G1 X42.324 Y32.804 E-.07054
G1 X42.324 Y44.804 E-.475
G1 X41.93 Y46.338 E-.06269
G1 X40.846 Y47.494 E-.06273
G1 X39.135 Y47.992 E-.07054
G1 X32.51 Y47.992 E-.26226
;WIPE_END
; printing object x_axis_carriage_mounting_plate.stl id:0 copy 0
G1 X35.114 Y42.883 F54000
G1 E2.5 F1200
;TYPE:Perimeter
;WIDTH:0.419999
G1 F2100
G1 X35.064 Y42.886 E.00157
G1 X34.565 Y42.81 E.01583
G1 X34.199 Y42.667 E.01232
G1 X33.867 Y42.459 E.01228
G1 X33.579 Y42.192 E.01231
G1 X33.346 Y41.876 E.01231
G1 X33.177 Y41.521 E.01233
G1 X33.077 Y41.142 E.01229
G1 X33.052 Y40.734 E.01282
G1 X33.137 Y40.225 E.01618
G1 X33.346 Y39.731 E.01682
G1 X33.652 Y39.338 E.01562
G1 X33.953 Y39.086 E.01231
G1 X34.296 Y38.895 E.01231
G1 X34.747 Y38.761 E.01475
G1 X35.273 Y38.727 E.01653
G1 X35.737 Y38.812 E.01479
G1 X36.207 Y39.015 E.01605
G1 X36.613 Y39.334 E.01619
G1 X36.924 Y39.731 E.01581
G1 X37.093 Y40.086 E.01233
G1 X37.193 Y40.465 E.01229
G1 X37.218 Y40.875 E.01288
G1 X37.141 Y41.373 E.0158
G1 X36.999 Y41.739 E.01231
G1 X36.79 Y42.072 E.01233
G1 X36.523 Y42.36 E.01231
G1 X36.207 Y42.592 E.01229
G1 X35.853 Y42.761 E.0123
G1 X35.473 Y42.861 E.01232
G1 X35.174 Y42.88 E.00939
G1 X35.174 Y42.88 F54000
G1 X35.126 Y42.511
;TYPE:External perimeter
G1 F2100
G1 X35.111 Y42.512 E.00047
G1 X34.693 Y42.455 E.01323
G1 X34.391 Y42.343 E.0101
G1 X34.116 Y42.176 E.01009
G1 X33.877 Y41.961 E.01008
G1 X33.682 Y41.704 E.01012
G1 X33.539 Y41.416 E.01008
G1 X33.453 Y41.106 E.01009
G1 X33.427 Y40.77 E.01057
G1 X33.499 Y40.33 E.01398
G1 X33.701 Y39.873 E.01567
G1 X34.054 Y39.486 E.01642
G1 X34.423 Y39.249 E.01375
G1 X34.795 Y39.135 E.0122
G1 X35.238 Y39.103 E.01393
G1 X35.748 Y39.208 E.01633
G1 X36.066 Y39.37 E.01119
G1 X36.322 Y39.574 E.01026
G1 X36.588 Y39.902 E.01324
G1 X36.731 Y40.191 E.01011
G1 X36.817 Y40.501 E.01009
G1 X36.844 Y40.827 E.01026
G1 X36.786 Y41.245 E.01323
G1 X36.674 Y41.547 E.0101
G1 X36.508 Y41.823 E.0101
G1 X36.292 Y42.062 E.0101
G1 X36.036 Y42.256 E.01007
G1 X35.748 Y42.399 E.01008
G1 X35.438 Y42.486 E.0101
G1 X35.185 Y42.506 E.00796
G1 E-.5 F1800
;WIPE_START
G1 F43200
G1 X35.126 Y42.511 E-.00234
G1 X35.111 Y42.512 E-.0006
G1 X34.693 Y42.455 E-.0167
G1 X34.391 Y42.343 E-.01275
G1 X34.116 Y42.176 E-.01274
G1 X33.877 Y41.961 E-.01273
G1 X33.682 Y41.704 E-.01277
G1 X33.539 Y41.416 E-.01273
G1 X33.453 Y41.106 E-.01273
G1 X33.427 Y40.77 E-.01334
G1 X33.499 Y40.33 E-.01765
G1 X33.701 Y39.873 E-.01978
G1 X34.054 Y39.486 E-.02073
G1 X34.423 Y39.249 E-.01736
G1 X34.795 Y39.135 E-.0154
G1 X35.238 Y39.103 E-.01758
G1 X35.748 Y39.208 E-.02061
G1 X36.066 Y39.37 E-.01413
G1 X36.322 Y39.574 E-.01296
G1 X36.588 Y39.902 E-.01672
G1 X36.731 Y40.191 E-.01276
G1 X36.817 Y40.501 E-.01273
G1 X36.844 Y40.827 E-.01295
G1 X36.786 Y41.245 E-.0167
G1 X36.674 Y41.547 E-.01275
G1 X36.508 Y41.823 E-.01275
G1 X36.292 Y42.062 E-.01275
G1 X36.036 Y42.256 E-.01271
G1 X35.748 Y42.399 E-.01273
G1 X35.438 Y42.486 E-.01274
G1 X35.185 Y42.506 E-.01005
;WIPE_END
G1 E-1.57603 F1800
G1 X35.156 Y37.874 F54000
G1 E2.5 F1200
;TYPE:Perimeter
G1 F2100
G1 X34.803 Y37.861 E.01108
G1 X34.318 Y37.722 E.01582
G1 X33.973 Y37.535 E.0123
G1 X33.669 Y37.287 E.0123
G1 X33.417 Y36.986 E.01231
G1 X33.226 Y36.643 E.01231
G1 X33.103 Y36.27 E.01231
G1 X33.051 Y35.881 E.01231
G1 X33.073 Y35.489 E.01231
G1 X33.176 Y35.092 E.01286
G1 X33.403 Y34.642 E.0158
G1 X33.652 Y34.338 E.01232
G1 X33.953 Y34.086 E.01231
G1 X34.296 Y33.895 E.01231
G1 X34.57 Y33.813 E.00897
;WIDTH:0.387933
G1 X35.056 Y33.757 E.01403
;WIDTH:0.361236
G1 X35.459 Y33.775 E.01068
;WIDTH:0.390618
G1 X35.706 Y33.83 E.00732
;WIDTH:0.419999
G1 X35.952 Y33.885 E.0079
G1 X36.297 Y34.072 E.0123
G1 X36.601 Y34.32 E.0123
G1 X36.918 Y34.731 E.01627
G1 X37.141 Y35.234 E.01725
G1 X37.219 Y35.726 E.01562
G1 X37.193 Y36.135 E.01285
G1 X37.054 Y36.62 E.01582
G1 X36.867 Y36.966 E.01233
G1 X36.618 Y37.269 E.0123
G1 X36.317 Y37.521 E.01231
G1 X35.819 Y37.768 E.01743
G1 X35.319 Y37.881 E.01607
G1 X35.216 Y37.877 E.00323
G1 X35.216 Y37.877 F54000
G1 X35.144 Y37.492
;TYPE:External perimeter
G1 F2100
G1 X34.897 Y37.496 E.00775
G1 X34.49 Y37.386 E.01322
G1 X34.043 Y37.112 E.01644
G1 X33.742 Y36.794 E.01373
G1 X33.581 Y36.515 E.0101
G1 X33.475 Y36.211 E.01009
G1 X33.428 Y35.893 E.01008
G1 X33.441 Y35.572 E.01007
G1 X33.517 Y35.253 E.01028
G1 X33.701 Y34.873 E.01324
G1 X33.901 Y34.62 E.01011
G1 X34.145 Y34.41 E.01009
G1 X34.423 Y34.249 E.01007
G1 X34.693 Y34.152 E.009
G1 X35.045 Y34.096 E.01118
G1 X35.373 Y34.111 E.01029
G1 X35.781 Y34.221 E.01325
G1 X36.066 Y34.37 E.01008
G1 X36.318 Y34.57 E.01009
G1 X36.593 Y34.923 E.01403
G1 X36.795 Y35.396 E.01613
G1 X36.842 Y35.714 E.01008
G1 X36.827 Y36.042 E.01029
G1 X36.718 Y36.449 E.01321
G1 X36.569 Y36.734 E.01008
G1 X36.214 Y37.123 E.01651
G1 X35.847 Y37.358 E.01366
G1 X35.384 Y37.489 E.01509
G1 X35.204 Y37.491 E.00564
G1 E-.5 F1800
;WIPE_START
G1 F43200
G1 X35.144 Y37.492 E-.00238
G1 X34.897 Y37.496 E-.00978
G1 X34.49 Y37.386 E-.01669
G1 X34.043 Y37.112 E-.02075
G1 X33.742 Y36.794 E-.01733
G1 X33.581 Y36.515 E-.01275
G1 X33.475 Y36.211 E-.01274
G1 X33.428 Y35.893 E-.01272
G1 X33.441 Y35.572 E-.01272
G1 X33.517 Y35.253 E-.01298
G1 X33.701 Y34.873 E-.01671
G1 X33.901 Y34.62 E-.01277
G1 X34.145 Y34.41 E-.01274
G1 X34.423 Y34.249 E-.01272
G1 X34.693 Y34.152 E-.01136
G1 X35.045 Y34.096 E-.01411
G1 X35.373 Y34.111 E-.013
G1 X35.781 Y34.221 E-.01673
G1 X36.066 Y34.37 E-.01273
G1 X36.318 Y34.57 E-.01273
G1 X36.593 Y34.923 E-.01771
G1 X36.795 Y35.396 E-.02036
G1 X36.842 Y35.714 E-.01272
G1 X36.827 Y36.042 E-.013
G1 X36.718 Y36.449 E-.01668
G1 X36.569 Y36.734 E-.01273
G1 X36.214 Y37.123 E-.02085
G1 X35.847 Y37.358 E-.01725
G1 X35.384 Y37.489 E-.01905
G1 X35.204 Y37.491 E-.00713
;WIPE_END
G1 E-1.57608 F1800
G1 X23.556 Y37.874 F54000
G1 E2.5 F1200
;TYPE:Perimeter
G1 F2100
G1 X23.203 Y37.861 E.01108
G1 X22.718 Y37.722 E.01582
G1 X22.373 Y37.535 E.0123
G1 X22.069 Y37.287 E.0123
G1 X21.817 Y36.986 E.01231
G1 X21.626 Y36.643 E.01231
G1 X21.503 Y36.27 E.01231
G1 X21.451 Y35.881 E.01231
G1 X21.473 Y35.489 E.01231
G1 X21.576 Y35.092 E.01286
G1 X21.803 Y34.642 E.0158
G1 X22.052 Y34.338 E.01232
G1 X22.353 Y34.086 E.01231
G1 X22.696 Y33.895 E.01231
G1 X23.072 Y33.794 E.01221
;WIDTH:0.37256
G1 X23.743 Y33.763 E.01841
;WIDTH:0.384047
G1 X23.989 Y33.803 E.00707
;WIDTH:0.417612
G1 X24.235 Y33.842 E.00776
;WIDTH:0.419999
G1 X24.697 Y34.072 E.01618
G1 X25.001 Y34.32 E.0123
G1 X25.253 Y34.621 E.01231
G1 X25.444 Y34.964 E.01231
G1 X25.568 Y35.337 E.01232
G1 X25.619 Y35.726 E.0123
G1 X25.597 Y36.118 E.01231
G1 X25.494 Y36.515 E.01286
G1 X25.267 Y36.965 E.0158
G1 X25.018 Y37.269 E.01232
G1 X24.717 Y37.521 E.01231
G1 X24.219 Y37.768 E.01743
G1 X23.719 Y37.881 E.01607
G1 X23.616 Y37.877 E.00323
G1 X23.616 Y37.877 F54000
G1 X23.544 Y37.492
;TYPE:External perimeter
G1 F2100
G1 X23.297 Y37.496 E.00775
G1 X22.89 Y37.386 E.01322
G1 X22.443 Y37.112 E.01644
G1 X22.142 Y36.794 E.01373
G1 X21.981 Y36.515 E.0101
G1 X21.875 Y36.211 E.01009
G1 X21.828 Y35.893 E.01008
G1 X21.841 Y35.572 E.01007
G1 X21.917 Y35.253 E.01028
G1 X22.101 Y34.873 E.01324
G1 X22.301 Y34.62 E.01011
G1 X22.545 Y34.41 E.01009
G1 X22.823 Y34.249 E.01007
G1 X23.127 Y34.143 E.01009
G1 X23.445 Y34.096 E.01008
G1 X23.773 Y34.111 E.01029
G1 X24.181 Y34.221 E.01325
G1 X24.466 Y34.37 E.01008
G1 X24.718 Y34.57 E.01009
G1 X24.928 Y34.813 E.01007
G1 X25.089 Y35.092 E.0101
G1 X25.195 Y35.396 E.01009
G1 X25.242 Y35.714 E.01008
G1 X25.229 Y36.035 E.01007
G1 X25.153 Y36.354 E.01028
G1 X24.969 Y36.734 E.01324
G1 X24.616 Y37.121 E.01642
G1 X24.247 Y37.358 E.01375
G1 X23.784 Y37.489 E.01509
G1 X23.604 Y37.491 E.00564
G1 E-.5 F1800
;WIPE_START
G1 F43200
G1 X23.544 Y37.492 E-.00238
G1 X23.297 Y37.496 E-.00978
G1 X22.89 Y37.386 E-.01669
G1 X22.443 Y37.112 E-.02075
G1 X22.142 Y36.794 E-.01733
G1 X21.981 Y36.515 E-.01275
G1 X21.875 Y36.211 E-.01274
G1 X21.828 Y35.893 E-.01272
G1 X21.841 Y35.572 E-.01272
G1 X21.917 Y35.253 E-.01298
G1 X22.101 Y34.873 E-.01671
G1 X22.301 Y34.62 E-.01277
G1 X22.545 Y34.41 E-.01274
G1 X22.823 Y34.249 E-.01272
G1 X23.127 Y34.143 E-.01274
G1 X23.445 Y34.096 E-.01272
G1 X23.773 Y34.111 E-.013
G1 X24.181 Y34.221 E-.01673
G1 X24.466 Y34.37 E-.01273
G1 X24.718 Y34.57 E-.01273
G1 X24.928 Y34.813 E-.01271
G1 X25.089 Y35.092 E-.01275
G1 X25.195 Y35.396 E-.01274
G1 X25.242 Y35.714 E-.01272
G1 X25.229 Y36.035 E-.01272
G1 X25.153 Y36.354 E-.01298
G1 X24.969 Y36.734 E-.01671
G1 X24.616 Y37.121 E-.02073
G1 X24.247 Y37.358 E-.01736
G1 X23.784 Y37.489 E-.01905
G1 X23.604 Y37.491 E-.00713
;WIPE_END
G1 E-1.57597 F1800
G1 X23.514 Y42.886 F54000
G1 E2.5 F1200
;TYPE:Perimeter
G1 F2100
G1 X23.482 Y42.888 E.00101
G1 X23.092 Y42.841 E.01232
G1 X22.718 Y42.722 E.01231
G1 X22.359 Y42.524 E.01285
G1 X21.979 Y42.192 E.01582
G1 X21.746 Y41.876 E.01231
G1 X21.577 Y41.521 E.01233
G1 X21.477 Y41.142 E.01229
G1 X21.45 Y40.857 E.00898
G1 X21.497 Y40.361 E.01562
G1 X21.616 Y39.987 E.01231
G1 X21.803 Y39.642 E.0123
G1 X22.07 Y39.322 E.01307
G1 X22.507 Y38.994 E.01713
G1 X22.965 Y38.797 E.01563
G1 X23.547 Y38.717 E.01842
G1 X23.978 Y38.766 E.0136
G1 X24.352 Y38.885 E.01231
G1 X24.697 Y39.072 E.0123
G1 X25.001 Y39.32 E.0123
G1 X25.253 Y39.621 E.01231
G1 X25.45 Y39.981 E.01287
G1 X25.593 Y40.465 E.01582
G1 X25.62 Y40.857 E.01232
G1 X25.573 Y41.246 E.01229
G1 X25.454 Y41.62 E.01231
G1 X25.267 Y41.965 E.0123
G1 X25.005 Y42.281 E.01287
G1 X24.608 Y42.592 E.01581
G1 X24.253 Y42.761 E.01233
G1 X23.873 Y42.861 E.01232
G1 X23.574 Y42.882 E.0094
G1 X23.574 Y42.882 F54000
G1 X23.526 Y42.512
;TYPE:External perimeter
G1 F2100
G1 X23.517 Y42.513 E.00028
G1 X23.197 Y42.479 E.01009
G1 X22.889 Y42.386 E.01009
G1 X22.599 Y42.233 E.01028
G1 X22.268 Y41.95 E.01365
G1 X22.082 Y41.704 E.00967
G1 X21.939 Y41.416 E.01008
G1 X21.853 Y41.106 E.01009
G1 X21.826 Y40.821 E.00898
G1 X21.859 Y40.466 E.01118
G1 X21.952 Y40.158 E.01009
G1 X22.101 Y39.873 E.01008
G1 X22.454 Y39.486 E.01642
G1 X22.823 Y39.249 E.01375
G1 X23.195 Y39.135 E.0122
G1 X23.638 Y39.103 E.01393
G1 X24.148 Y39.208 E.01633
G1 X24.466 Y39.37 E.01119
G1 X24.718 Y39.57 E.01009
G1 X24.928 Y39.813 E.01007
G1 X25.091 Y40.098 E.01029
G1 X25.217 Y40.501 E.01324
G1 X25.244 Y40.821 E.01007
G1 X25.211 Y41.141 E.01009
G1 X25.118 Y41.449 E.01009
G1 X24.969 Y41.734 E.01008
G1 X24.764 Y41.991 E.01031
G1 X24.436 Y42.256 E.01322
G1 X24.148 Y42.399 E.01008
G1 X23.838 Y42.486 E.0101
G1 X23.585 Y42.507 E.00796
G1 E-.5 F1800
;WIPE_START
G1 F43200
G1 X23.526 Y42.512 E-.00234
G1 X23.517 Y42.513 E-.00036
G1 X23.197 Y42.479 E-.01274
G1 X22.889 Y42.386 E-.01274
G1 X22.599 Y42.233 E-.01298
G1 X22.268 Y41.95 E-.01724
G1 X22.082 Y41.704 E-.01221
G1 X21.939 Y41.416 E-.01273
G1 X21.853 Y41.106 E-.01273
G1 X21.826 Y40.821 E-.01133
G1 X21.859 Y40.466 E-.01411
G1 X21.952 Y40.158 E-.01274
G1 X22.101 Y39.873 E-.01273
G1 X22.454 Y39.486 E-.02073
G1 X22.823 Y39.249 E-.01736
G1 X23.195 Y39.135 E-.0154
G1 X23.638 Y39.103 E-.01758
G1 X24.148 Y39.208 E-.02061
G1 X24.466 Y39.37 E-.01413
G1 X24.718 Y39.57 E-.01273
G1 X24.928 Y39.813 E-.01271
G1 X25.091 Y40.098 E-.013
G1 X25.217 Y40.501 E-.01671
G1 X25.244 Y40.821 E-.01271
G1 X25.211 Y41.141 E-.01273
G1 X25.118 Y41.449 E-.01274
G1 X24.969 Y41.734 E-.01273
G1 X24.764 Y41.991 E-.01301
G1 X24.436 Y42.256 E-.01669
G1 X24.148 Y42.399 E-.01273
G1 X23.838 Y42.486 E-.01274
G1 X23.585 Y42.507 E-.01005
;WIPE_END
G1 E-1.57593 F1800
G1 X37.658 Y34.257 F54000
G1 E2.5 F1200
;TYPE:Perimeter
;WIDTH:0.556116
G1 F2100
G1 X37.594 Y34.257 E.00273
G1 X37.562 Y34.313 E.00275
G1 X37.594 Y34.368 E.00272
G1 X37.658 Y34.368 E.00273
G1 X37.69 Y34.313 E.00272
G1 E-.5 F1800
;WIPE_START
G1 F43200
G1 X37.658 Y34.257 E-.00255
G1 X37.594 Y34.257 E-.00253
G1 X37.562 Y34.313 E-.00255
G1 X37.594 Y34.368 E-.00252
G1 X37.658 Y34.368 E-.00253
G1 X37.69 Y34.313 E-.00252
;WIPE_END
G1 E-1.9848 F1800
G1 X36.625 Y43.295 F54000
G1 E2.5 F1200
;WIDTH:0.554007
G1 F2100
G1 X37.027 Y43.008 E.02099
G1 X37.406 Y42.615 E.0232
G1 X37.627 Y42.29 E.0167
G1 X37.627 Y43.295 E.04271
G1 X36.685 Y43.295 E.04003
G1 E-.5 F1800
;WIPE_START
G1 F43200
G1 X36.625 Y43.295 E-.00238
G1 X37.027 Y43.008 E-.01955
G1 X37.406 Y42.615 E-.02161
G1 X37.627 Y42.29 E-.01556
G1 X37.627 Y43.295 E-.03978
G1 X36.685 Y43.295 E-.03729
;WIPE_END
G1 E-1.86383 F1800
G1 X37.694 Y39.582 F54000
G1 E2.5 F1200
;WIDTH:0.419999
G1 F2100
G1 X37.596 Y39.389 E.00679
G1 X37.194 Y38.853 E.02101
G1 X36.92 Y38.601 E.01167
G1 X36.475 Y38.305 E.01676
G1 X36.701 Y38.17 E.00825
G1 X37.117 Y37.835 E.01675
G1 X37.463 Y37.428 E.01675
G1 X37.694 Y37.025 E.01456
G1 X37.694 Y39.522 E.07829
G1 E-.5 F1800
;WIPE_START
G1 F43200
G1 X37.694 Y39.582 E-.00238
G1 X37.596 Y39.389 E-.00857
G1 X37.194 Y38.853 E-.02652
G1 X36.92 Y38.601 E-.01474
G1 X36.475 Y38.305 E-.02116
G1 X36.701 Y38.17 E-.01042
G1 X37.117 Y37.835 E-.02114
G1 X37.463 Y37.428 E-.02115
G1 X37.694 Y37.025 E-.01839
G1 X37.694 Y39.522 E-.09884
;WIPE_END
G1 E-1.75669 F1800
G1 X35.311 Y38.307 F54000
G1 E2.5 F1200
;WIDTH:0.523586
G1 F2100
G1 X34.913 Y38.307 E.01591
G1 E-.5 F1800
;WIPE_START
G1 F43200
G1 X35.311 Y38.307 E-.01575
G1 X34.913 Y38.307 E-.01575
;WIPE_END
G1 E-1.9685 F1800
G1 X29.135 Y43.362 F54000
G1 E2.5 F1200
;WIDTH:0.419999
G1 F2100
G1 X24.757 Y43.362 E.13727
G1 X24.95 Y43.264 E.00679
G1 X25.485 Y42.862 E.02098
G1 X25.863 Y42.428 E.01805
G1 X26.126 Y41.963 E.01675
G1 X26.297 Y41.457 E.01675
G1 X26.371 Y40.928 E.01675
G1 X26.344 Y40.394 E.01676
G1 X26.24 Y39.973 E.0136
G1 X26.048 Y39.484 E.01647
G1 X25.73 Y39.006 E.018
G1 X25.32 Y38.601 E.01807
G1 X24.875 Y38.305 E.01676
G1 X25.302 Y38.025 E.01601
G1 X25.687 Y37.654 E.01676
G1 X25.989 Y37.231 E.0163
G1 X26.205 Y36.771 E.01593
G1 X26.333 Y36.282 E.01585
G1 X26.373 Y35.749 E.01676
G1 X26.312 Y35.219 E.01673
G1 X26.154 Y34.709 E.01674
