; generated by PrusaSlicer 2.9.0 on 2025-01-28 at 01:24:26 UTC

; 

; external perimeters extrusion width = 0.42mm
; perimeters extrusion width = 0.44mm
; infill extrusion width = 0.44mm
; solid infill extrusion width = 0.44mm
; top infill extrusion width = 0.40mm
; support material extrusion width = 0.36mm
; first layer extrusion width = 0.42mm

; external perimeters extrusion width = 0.42mm
; perimeters extrusion width = 0.44mm
; infill extrusion width = 0.44mm
; solid infill extrusion width = 0.44mm
; top infill extrusion width = 0.40mm
; support material extrusion width = 0.36mm
; first layer extrusion width = 0.42mm


; printing object x_axis_carriage_mounting_plate.stl id:1 copy 0
; stop printing object x_axis_carriage_mounting_plate.stl id:1 copy 0
; printing object ender2pro_mount_for_printed_carriage.stl id:0 copy 0
; stop printing object ender2pro_mount_for_printed_carriage.stl id:0 copy 0

;TYPE:Custom
G90 ; use absolute coordinates
M83 ; extruder relative mode
M104 S210 ; set temporary nozzle temp to prevent oozing during homing
M140 S60 ; set final bed temp
G4 S30 ; allow partial nozzle warmup
G28 ; home all axis
G1 Z50 F240
G1 X2.0 Y10 F3000
M104 S210 ; set final nozzle temp
M190 S60 ; wait for bed temp to stabilize
M109 S210 ; wait for nozzle temp to stabilize
G1 Z0.28 F240
G92 E0
G1 X2.0 Y140 E10 F1500 ; prime the nozzle
G1 X2.3 Y140 F5000
G92 E0
G1 X2.3 Y10 E10 F1200 ; prime the nozzle
G92 E0
G21 ; set units to millimeters
G90 ; use absolute coordinates
M83 ; use relative distances for extrusion
; Filament gcode
M107
;LAYER_CHANGE
;Z:0.2
;HEIGHT:0.2
G1 E-2.5 F1800
G1 Z.2 F54000
G1 X51.374 Y86.243
G1 Z.2
G1 E2.5 F1200
M204 S3500
;TYPE:Skirt/Brim
;WIDTH:0.42
G1 F2100
G1 X52.276 Y85.829 E.03112
G1 X53.224 Y85.536 E.03111
G1 X54.202 Y85.369 E.03111
G1 X95.293 Y85.332 E1.28838
G1 X96.281 Y85.424 E.03111
G1 X97.793 Y85.829 E.04908
G1 X98.695 Y86.243 E.03112
G1 X99.865 Y87.025 E.04412
G1 X100.972 Y88.132 E.04909
G1 X101.546 Y88.942 E.03113
G1 X102.169 Y90.205 E.04416
G1 X102.462 Y91.152 E.03108
G1 X106.162 Y116.154 E.79246
G1 X106.196 Y129.099 E.40588
G1 X105.802 Y130.634 E.04969
G1 X105.262 Y131.354 E.02822
G1 X103.82 Y132.79 E.06381
G1 X87.664 Y147.283 E.68051
G1 X85.534 Y148.098 E.07151
G1 X64.534 Y148.098 E.65844
G1 X62.405 Y147.283 E.07148
G1 X46.249 Y132.79 E.68051
G1 X44.807 Y131.354 E.06381
G1 X44 Y129.99 E.04969
G1 X43.873 Y129.099 E.02822
G1 X43.907 Y116.154 E.40588
G1 X47.467 Y91.876 E.76936
G1 X47.711 Y90.766 E.03563
G1 X48.31 Y89.312 E.04931
G1 X49.096 Y88.132 E.04445
G1 X49.626 Y87.541 E.02489
G1 X50.535 Y86.771 E.03735
G1 X51.323 Y86.275 E.02919
G1 E-.5 F1800
;WIPE_START
G1 F43200
G1 X51.374 Y86.243 E-.00238
G1 X52.276 Y85.829 E-.03929
G1 X53.224 Y85.536 E-.03928
G1 X54.202 Y85.369 E-.03927
G1 X95.293 Y85.332 E-1.62652
G1 X96.281 Y85.424 E-.03928
G1 X97.793 Y85.829 E-.06196
G1 X98.695 Y86.243 E-.03929
G1 X99.865 Y87.025 E-.0557
G1 X100.884 Y88.044 E-.05703
;WIPE_END
; printing object ender2pro_mount_for_printed_carriage.stl id:0 copy 0
G1 X91.154 Y111.349 F54000
G1 E2.5 F1200
;TYPE:Support material
G1 F2100
G1 X93.788 Y111.349 E.08259
G1 X93.788 Y112.666 E.04129
G1 X96.422 Y112.666 E.08259
G1 X96.422 Y113.983 E.04129
G1 X100.373 Y113.983 E.12388
G1 X100.373 Y115.3 E.04129
G1 X101.69 Y115.3 E.04129
G1 X101.69 Y116.617 E.04129
G1 X103.007 Y116.617 E.04129
G1 X103.007 Y129.099 E.39136
G1 X101.69 Y129.099 E.04129
G1 X101.69 Y130.416 E.04129
G1 X89.208 Y130.416 E.39136
G1 X89.208 Y129.099 E.04129
G1 X87.891 Y129.099 E.04129
G1 X87.891 Y127.782 E.04129
G1 X86.574 Y127.782 E.04129
G1 X86.574 Y125.148 E.08259
G1 X83.94 Y125.148 E.08259
G1 X83.94 Y123.831 E.04129
G1 X81.306 Y123.831 E.08259
G1 X81.306 Y122.514 E.04129
G1 X77.354 Y122.514 E.12391
G1 X77.354 Y121.197 E.04129
G1 X72.715 Y121.197 E.14545
G1 X72.715 Y122.514 E.04129
G1 X68.763 Y122.514 E.12391
G1 X68.763 Y123.831 E.04129
G1 X66.129 Y123.831 E.08259
G1 X66.129 Y125.148 E.04129
G1 X63.495 Y125.148 E.08259
G1 X63.495 Y127.782 E.08259
G1 X62.178 Y127.782 E.04129
G1 X62.178 Y129.099 E.04129
G1 X60.861 Y129.099 E.04129
G1 X60.861 Y130.416 E.04129
G1 X48.379 Y130.416 E.39136
G1 X48.379 Y129.099 E.04129
G1 X47.062 Y129.099 E.04129
G1 X47.062 Y116.617 E.39136
G1 X48.379 Y116.617 E.04129
G1 X48.379 Y115.3 E.04129
G1 X49.696 Y115.3 E.04129
G1 X49.696 Y113.983 E.04129
G1 X53.647 Y113.983 E.12388
G1 X53.647 Y112.666 E.04129
G1 X56.281 Y112.666 E.08259
G1 X56.281 Y111.349 E.04129
G1 X58.915 Y111.349 E.08259
G1 X58.915 Y105.298 E.18972
G1 X62.773 Y109.155 E.17105
G1 X62.943 Y109.225 E.00576
G1 X65.047 Y109.225 E.06597
G1 X65.047 Y114.955 E.17966
G1 X65.318 Y115.225 E.01199
G1 X84.701 Y115.225 E.60774
G1 X84.971 Y114.955 E.01197
G1 X84.971 Y109.225 E.17966
G1 X87.126 Y109.225 E.06757
G1 X87.296 Y109.155 E.00576
G1 X91.154 Y105.298 E.17105
G1 X91.154 Y111.292 E.18794
G1 X91.154 Y111.292 F54000
G1 X102.268 Y128.929
G1 F2100
G1 X102.268 Y116.956 E.37541
G1 X101.849 Y116.956 E.01314
G1 X101.849 Y128.76 E.37011
G1 X101.43 Y128.76 E.01314
G1 X101.43 Y116.956 E.37011
G1 X101.351 Y116.956 E.00248
G1 X101.351 Y115.639 E.04129
G1 X101.011 Y115.639 E.01066
G1 X101.011 Y130.077 E.45269
G1 X100.592 Y130.077 E.01314
G1 X100.592 Y115.639 E.45269
G1 X100.173 Y115.639 E.01314
G1 X100.173 Y130.077 E.45269
G1 X99.754 Y130.077 E.01314
G1 X99.754 Y114.322 E.49399
G1 X99.335 Y114.322 E.01314
G1 X99.335 Y130.077 E.49399
G1 X98.916 Y130.077 E.01314
G1 X98.916 Y114.322 E.49399
G1 X98.497 Y114.322 E.01314
G1 X98.497 Y130.077 E.49399
G1 X98.078 Y130.077 E.01314
G1 X98.078 Y114.322 E.49399
G1 X97.659 Y114.322 E.01314
G1 X97.659 Y130.077 E.49399
G1 X97.24 Y130.077 E.01314
G1 X97.24 Y114.322 E.49399
G1 X96.821 Y114.322 E.01314
G1 X96.821 Y130.077 E.49399
G1 X96.402 Y130.077 E.01314
G1 X96.402 Y114.322 E.49399
G1 X96.083 Y114.322 E.01
G1 X96.083 Y113.005 E.04129
G1 X95.983 Y113.005 E.00314
G1 X95.983 Y130.077 E.53528
G1 X95.564 Y130.077 E.01314
G1 X95.564 Y113.005 E.53528
G1 X95.145 Y113.005 E.01314
G1 X95.145 Y130.077 E.53528
G1 X94.726 Y130.077 E.01314
G1 X94.726 Y113.005 E.53528
G1 X94.307 Y113.005 E.01314
G1 X94.307 Y130.077 E.53528
G1 X93.888 Y130.077 E.01314
G1 X93.888 Y113.005 E.53528
G1 X93.469 Y113.005 E.01314
G1 X93.469 Y130.077 E.53528
G1 X93.05 Y130.077 E.01314
G1 X93.05 Y111.688 E.57657
G1 X92.632 Y111.688 E.01311
G1 X92.632 Y130.077 E.57657
G1 X92.213 Y130.077 E.01314
G1 X92.213 Y111.688 E.57657
G1 X91.794 Y111.688 E.01314
G1 X91.794 Y130.077 E.57657
G1 X91.375 Y130.077 E.01314
G1 X91.375 Y111.688 E.57657
G1 X90.956 Y111.688 E.01314
G1 X90.956 Y130.077 E.57657
G1 X90.537 Y130.077 E.01314
G1 X90.537 Y106.395 E.74253
G1 X90.118 Y106.814 E.01858
G1 X90.118 Y130.077 E.7294
G1 X89.699 Y130.077 E.01314
G1 X89.699 Y107.233 E.71626
G1 X89.28 Y107.652 E.01858
G1 X89.28 Y128.76 E.66183
G1 X88.861 Y128.76 E.01314
G1 X88.861 Y108.071 E.64869
G1 X88.442 Y108.489 E.01856
G1 X88.442 Y128.76 E.63558
G1 X88.23 Y128.76 E.00665
G1 X88.23 Y127.443 E.04129
G1 X88.023 Y127.443 E.00649
G1 X88.023 Y108.908 E.58115
G1 X87.604 Y109.327 E.01858
G1 X87.604 Y127.443 E.56801
G1 X87.185 Y127.443 E.01314
G1 X87.185 Y109.565 E.56055
G1 X86.766 Y109.565 E.01314
G1 X86.766 Y124.809 E.47796
G1 X86.347 Y124.809 E.01314
G1 X86.347 Y109.565 E.47796
G1 X85.928 Y109.565 E.01314
G1 X85.928 Y124.809 E.47796
G1 X85.509 Y124.809 E.01314
G1 X85.509 Y109.565 E.47796
G1 X85.311 Y109.565 E.00621
G1 X85.311 Y115.095 E.17339
G1 X85.09 Y115.316 E.0098
G1 X85.09 Y124.809 E.29765
G1 X84.671 Y124.809 E.01314
G1 X84.671 Y115.565 E.28984
G1 X84.252 Y115.565 E.01314
G1 X84.252 Y123.491 E.24851
G1 X83.833 Y123.491 E.01314
G1 X83.833 Y115.565 E.24851
G1 X83.414 Y115.565 E.01314
G1 X83.414 Y123.491 E.24851
G1 X82.995 Y123.491 E.01314
G1 X82.995 Y115.565 E.24851
G1 X82.576 Y115.565 E.01314
G1 X82.576 Y123.491 E.24851
G1 X82.157 Y123.491 E.01314
G1 X82.157 Y115.565 E.24851
G1 X81.738 Y115.565 E.01314
G1 X81.738 Y123.491 E.24851
G1 X81.645 Y123.491 E.00292
G1 X81.645 Y122.174 E.04129
G1 X81.319 Y122.174 E.01022
G1 X81.319 Y115.565 E.20722
G1 X80.9 Y115.565 E.01314
G1 X80.9 Y122.174 E.20722
G1 X80.481 Y122.174 E.01314
G1 X80.481 Y115.565 E.20722
G1 X80.062 Y115.565 E.01314
G1 X80.062 Y122.174 E.20722
G1 X79.643 Y122.174 E.01314
G1 X79.643 Y115.565 E.20722
G1 X79.224 Y115.565 E.01314
G1 X79.224 Y122.174 E.20722
G1 X78.805 Y122.174 E.01314
G1 X78.805 Y115.565 E.20722
G1 X78.386 Y115.565 E.01314
G1 X78.386 Y122.174 E.20722
G1 X77.967 Y122.174 E.01314
G1 X77.967 Y115.565 E.20722
G1 X77.548 Y115.565 E.01314
G1 X77.548 Y120.857 E.16593
G1 X77.129 Y120.857 E.01314
G1 X77.129 Y115.565 E.16593
G1 X76.71 Y115.565 E.01314
G1 X76.71 Y120.857 E.16593
G1 X76.291 Y120.857 E.01314
G1 X76.291 Y115.565 E.16593
G1 X75.872 Y115.565 E.01314
G1 X75.872 Y120.857 E.16593
G1 X75.453 Y120.857 E.01314
G1 X75.453 Y115.565 E.16593
G1 X75.034 Y115.565 E.01314
G1 X75.034 Y120.857 E.16593
G1 X74.615 Y120.857 E.01314
G1 X74.615 Y115.565 E.16593
G1 X74.197 Y115.565 E.01311
G1 X74.197 Y120.857 E.16593
G1 X73.778 Y120.857 E.01314
G1 X73.778 Y115.565 E.16593
G1 X73.359 Y115.565 E.01314
G1 X73.359 Y120.857 E.16593
G1 X72.94 Y120.857 E.01314
G1 X72.94 Y115.565 E.16593
G1 X72.521 Y115.565 E.01314
G1 X72.521 Y120.857 E.16593
G1 X72.375 Y120.857 E.00458
G1 X72.375 Y122.174 E.04129
G1 X72.102 Y122.174 E.00856
G1 X72.102 Y115.565 E.20722
G1 X71.683 Y115.565 E.01314
G1 X71.683 Y122.174 E.20722
G1 X71.264 Y122.174 E.01314
G1 X71.264 Y115.565 E.20722
G1 X70.845 Y115.565 E.01314
G1 X70.845 Y122.174 E.20722
G1 X70.426 Y122.174 E.01314
G1 X70.426 Y115.565 E.20722
G1 X70.007 Y115.565 E.01314
G1 X70.007 Y122.174 E.20722
G1 X69.588 Y122.174 E.01314
G1 X69.588 Y115.565 E.20722
G1 X69.169 Y115.565 E.01314
G1 X69.169 Y122.174 E.20722
G1 X68.75 Y122.174 E.01314
G1 X68.75 Y115.565 E.20722
G1 X68.331 Y115.565 E.01314
G1 X68.331 Y123.491 E.24851
G1 X67.912 Y123.491 E.01314
G1 X67.912 Y115.565 E.24851
G1 X67.493 Y115.565 E.01314
G1 X67.493 Y123.491 E.24851
G1 X67.074 Y123.491 E.01314
G1 X67.074 Y115.565 E.24851
G1 X66.655 Y115.565 E.01314
G1 X66.655 Y123.491 E.24851
G1 X66.236 Y123.491 E.01314
G1 X66.236 Y115.565 E.24851
G1 X65.817 Y115.565 E.01314
G1 X65.79 Y124.809 E.28984
G1 X65.398 Y124.809 E.01229
G1 X65.398 Y115.565 E.28984
G1 X65.178 Y115.565 E.0069
G1 X64.979 Y115.366 E.00882
G1 X64.979 Y124.809 E.29608
G1 X64.56 Y124.809 E.01314
G1 X64.56 Y109.565 E.47796
G1 X64.141 Y109.565 E.01314
G1 X64.141 Y124.809 E.47796
G1 X63.722 Y124.809 E.01314
G1 X63.722 Y109.565 E.47796
G1 X63.303 Y109.565 E.01314
G1 X63.303 Y124.809 E.47796
G1 X63.156 Y124.809 E.00461
G1 X63.156 Y127.443 E.08259
G1 X62.884 Y127.443 E.00853
G1 X62.884 Y109.565 E.56055
G1 X62.465 Y109.327 E.01511
G1 X62.465 Y127.443 E.56801
G1 X62.046 Y127.443 E.01314
G1 X62.046 Y108.908 E.58115
G1 X61.627 Y108.489 E.01858
G1 X61.627 Y128.76 E.63558
G1 X61.208 Y128.76 E.01314
G1 X61.208 Y108.071 E.64869
G1 X60.789 Y107.652 E.01858
G1 X60.789 Y128.76 E.66183
G1 X60.522 Y128.76 E.00837
G1 X60.522 Y130.077 E.04129
G1 X60.37 Y130.077 E.00477
G1 X60.37 Y107.233 E.71626
G1 X59.951 Y106.814 E.01858
G1 X59.951 Y130.077 E.7294
G1 X59.532 Y130.077 E.01314
G1 X59.532 Y106.395 E.74253
G1 X59.255 Y106.117 E.0123
G1 X59.255 Y111.688 E.17467
G1 X59.113 Y111.688 E.00445
G1 X59.113 Y130.077 E.57657
G1 X58.694 Y130.077 E.01314
G1 X58.694 Y111.688 E.57657
G1 X58.275 Y111.688 E.01314
G1 X58.275 Y130.077 E.57657
G1 X57.856 Y130.077 E.01314
G1 X57.856 Y111.688 E.57657
G1 X57.437 Y111.688 E.01314
G1 X57.437 Y130.077 E.57657
G1 X57.018 Y130.077 E.01314
G1 X57.018 Y111.688 E.57657
G1 X56.62 Y111.688 E.01248
G1 X56.599 Y130.077 E.57657
G1 X56.181 Y130.077 E.01311
G1 X56.181 Y113.005 E.53528
G1 X55.762 Y113.005 E.01314
G1 X55.762 Y130.077 E.53528
G1 X55.343 Y130.077 E.01314
G1 X55.343 Y113.005 E.53528
G1 X54.924 Y113.005 E.01314
G1 X54.924 Y130.077 E.53528
G1 X54.505 Y130.077 E.01314
G1 X54.505 Y113.005 E.53528
G1 X54.086 Y113.005 E.01314
G1 X54.086 Y130.077 E.53528
G1 X53.667 Y130.077 E.01314
G1 X53.667 Y114.322 E.49399
G1 X53.248 Y114.322 E.01314
G1 X53.248 Y130.077 E.49399
G1 X52.829 Y130.077 E.01314
G1 X52.829 Y114.322 E.49399
G1 X52.41 Y114.322 E.01314
G1 X52.41 Y130.077 E.49399
G1 X51.991 Y130.077 E.01314
G1 X51.991 Y114.322 E.49399
G1 X51.572 Y114.322 E.01314
G1 X51.572 Y130.077 E.49399
G1 X51.153 Y130.077 E.01314
G1 X51.153 Y114.322 E.49399
G1 X50.734 Y114.322 E.01314
G1 X50.734 Y130.077 E.49399
G1 X50.315 Y130.077 E.01314
G1 X50.315 Y114.322 E.49399
G1 X50.035 Y114.322 E.00878
G1 X50.035 Y115.639 E.04129
G1 X49.896 Y115.639 E.00436
G1 X49.896 Y130.077 E.45269
G1 X49.477 Y130.077 E.01314
G1 X49.477 Y115.639 E.45269
G1 X49.058 Y115.639 E.01314
G1 X49.058 Y130.077 E.45269
G1 X48.718 Y130.077 E.01066
G1 X48.718 Y128.76 E.04129
G1 X48.639 Y128.76 E.00248
G1 X48.639 Y116.956 E.37011
G1 X48.22 Y116.956 E.01314
G1 X48.22 Y128.76 E.37011
G1 X47.801 Y128.76 E.01314
G1 X47.801 Y116.787 E.37541
G1 E-.5 F1800
;WIPE_START
G1 F43200
G1 X47.801 Y128.76 E-.47393
G1 X48.22 Y128.76 E-.01659
G1 X48.22 Y116.956 E-.46724
G1 X48.639 Y116.956 E-.01659
G1 X48.639 Y128.76 E-.46724
G1 X48.718 Y128.76 E-.00313
G1 X48.718 Y130.077 E-.05213
G1 X49.058 Y130.077 E-.01346
G1 X49.058 Y117.706 E-.48969
;WIPE_END
G1 X82.419 Y108.463 F54000
G1 E2.5 F1200
;TYPE:External perimeter
;WIDTH:0.419999
G1 F2100
G1 X82.08 Y108.432 E.01067
G1 X81.764 Y108.346 E.01027
G1 X81.318 Y108.072 E.01641
G1 X81.016 Y107.754 E.01375
G1 X80.855 Y107.475 E.0101
G1 X80.754 Y107.191 E.00945
G1 X80.706 Y106.743 E.01413
G1 X80.717 Y106.526 E.00681
G1 X80.827 Y106.118 E.01325
G1 X80.976 Y105.833 E.01008
G1 X81.176 Y105.58 E.01011
G1 X81.419 Y105.37 E.01007
G1 X81.698 Y105.209 E.0101
G1 X82.002 Y105.103 E.01009
G1 X82.32 Y105.056 E.01008
G1 X82.647 Y105.071 E.01026
G1 X83.055 Y105.181 E.01325
G1 X83.34 Y105.33 E.01008
G1 X83.593 Y105.53 E.01011
G1 X83.803 Y105.773 E.01007
G1 X83.964 Y106.052 E.0101
G1 X84.069 Y106.356 E.01008
G1 X84.117 Y106.674 E.01008
G1 X84.102 Y107.001 E.01026
G1 X83.992 Y107.409 E.01325
G1 X83.843 Y107.694 E.01008
G1 X83.639 Y107.951 E.01029
G1 X83.369 Y108.175 E.011
G1 X82.95 Y108.379 E.01461
G1 X82.499 Y108.471 E.01443
G1 X82.478 Y108.469 E.00066
G1 E-.5 F1800
;WIPE_START
G1 F43200
G1 X82.419 Y108.463 E-.00235
G1 X82.08 Y108.432 E-.01347
G1 X81.764 Y108.346 E-.01296
G1 X81.318 Y108.072 E-.02072
G1 X81.016 Y107.754 E-.01736
G1 X80.855 Y107.475 E-.01275
G1 X80.754 Y107.191 E-.01193
G1 X80.706 Y106.743 E-.01783
G1 X80.717 Y106.526 E-.0086
G1 X80.827 Y106.118 E-.01673
G1 X80.976 Y105.833 E-.01273
G1 X81.176 Y105.58 E-.01277
G1 X81.419 Y105.37 E-.01271
G1 X81.698 Y105.209 E-.01275
G1 X82.002 Y105.103 E-.01274
G1 X82.32 Y105.056 E-.01272
G1 X82.647 Y105.071 E-.01296
G1 X83.055 Y105.181 E-.01673
G1 X83.34 Y105.33 E-.01273
G1 X83.593 Y105.53 E-.01277
G1 X83.803 Y105.773 E-.01271
G1 X83.964 Y106.052 E-.01275
G1 X84.069 Y106.356 E-.01273
G1 X84.117 Y106.674 E-.01273
G1 X84.102 Y107.001 E-.01296
G1 X83.992 Y107.409 E-.01673
G1 X83.843 Y107.694 E-.01273
G1 X83.639 Y107.951 E-.01299
G1 X83.369 Y108.175 E-.01389
G1 X82.95 Y108.379 E-.01845
G1 X82.499 Y108.471 E-.01822
G1 X82.478 Y108.469 E-.00084
;WIPE_END
G1 E-1.57596 F1800
G1 X82.35 Y113.464 F54000
G1 E2.5 F1200
G1 F2100
G1 X82.178 Y113.457 E.0054
G1 X81.859 Y113.381 E.01028
G1 X81.479 Y113.197 E.01324
G1 X81.226 Y112.997 E.01011
G1 X81.016 Y112.754 E.01007
G1 X80.855 Y112.475 E.0101
G1 X80.749 Y112.171 E.01009
G1 X80.702 Y111.853 E.01008
G1 X80.717 Y111.525 E.01029
G1 X80.827 Y111.118 E.01322
G1 X80.976 Y110.833 E.01008
G1 X81.328 Y110.446 E.0164
G1 X81.698 Y110.209 E.01378
G1 X82.095 Y110.089 E.013
G1 X82.449 Y110.06 E.01114
G1 X82.945 Y110.14 E.01575
G1 X83.252 Y110.281 E.01059
G1 X83.556 Y110.532 E.01236
;WIDTH:0.448141
G1 X83.851 Y110.928 E.01664
G1 X83.921 Y111.281 E.01213
;WIDTH:0.412941
G1 X83.991 Y111.634 E.01107
;WIDTH:0.390617
G1 X83.971 Y112.083 E.01299
;WIDTH:0.419999
G1 X83.789 Y112.691 E.0199
G1 X83.443 Y113.112 E.01709
G1 X83.122 Y113.315 E.01191
G1 X82.817 Y113.423 E.01014
G1 X82.499 Y113.47 E.01008
G1 X82.41 Y113.467 E.00279
G1 E-.5 F1800
;WIPE_START
G1 F43200
G1 X82.35 Y113.464 E-.00238
G1 X82.178 Y113.457 E-.00681
