; generated by PrusaSlicer 2.9.0 on 2025-01-27 at 23:59:06 UTC

; 

; external perimeters extrusion width = 0.42mm
; perimeters extrusion width = 0.44mm
; infill extrusion width = 0.44mm
; solid infill extrusion width = 0.44mm
; top infill extrusion width = 0.40mm
; support material extrusion width = 0.36mm
; first layer extrusion width = 0.42mm

; external perimeters extrusion width = 0.42mm
; perimeters extrusion width = 0.44mm
; infill extrusion width = 0.44mm
; solid infill extrusion width = 0.44mm
; top infill extrusion width = 0.40mm
; support material extrusion width = 0.36mm
; first layer extrusion width = 0.42mm


; printing object ender2pro_mount_for_printed_carriage.stl id:1 copy 0
; stop printing object ender2pro_mount_for_printed_carriage.stl id:1 copy 0
; printing object x_axis_carriage_mounting_plate.stl id:0 copy 0
; stop printing object x_axis_carriage_mounting_plate.stl id:0 copy 0

;TYPE:Custom
G90 ; use absolute coordinates
M83 ; extruder relative mode
M104 S210 ; set temporary nozzle temp to prevent oozing during homing
M140 S60 ; set final bed temp
G4 S30 ; allow partial nozzle warmup
G28 ; home all axis
G1 Z50 F240
G1 X2.0 Y10 F3000
M104 S210 ; set final nozzle temp
M190 S60 ; wait for bed temp to stabilize
M109 S210 ; wait for nozzle temp to stabilize
G1 Z0.28 F240
G92 E0
G1 X2.0 Y140 E10 F1500 ; prime the nozzle
G1 X2.3 Y140 F5000
G92 E0
G1 X2.3 Y10 E10 F1200 ; prime the nozzle
G92 E0
G21 ; set units to millimeters
G90 ; use absolute coordinates
M83 ; use relative distances for extrusion
; Filament gcode
M107
;LAYER_CHANGE
;Z:0.2
;HEIGHT:0.2
G1 E-2.5 F1800
G1 Z.2 F54000
G1 X55.696 Y52.316
G1 Z.2
G1 E2.5 F1200
M204 S3500
;TYPE:Skirt/Brim
;WIDTH:0.42
G1 F2100
G1 X56.605 Y51.546 E.03735
G1 X57.444 Y51.018 E.03108
G1 X58.346 Y50.603 E.03113
G1 X59.294 Y50.31 E.03111
G1 X60.272 Y50.144 E.0311
G1 X101.363 Y50.106 E1.28838
G1 X102.351 Y50.198 E.03111
G1 X103.864 Y50.603 E.04911
G1 X104.765 Y51.018 E.0311
G1 X105.936 Y51.799 E.04413
G1 X107.043 Y52.907 E.04911
G1 X107.617 Y53.717 E.03113
G1 X108.239 Y54.979 E.04411
G1 X108.532 Y55.927 E.03111
G1 X112.233 Y80.928 E.79243
G1 X112.266 Y93.873 E.40588
G1 X111.873 Y95.408 E.04968
G1 X111.332 Y96.128 E.02824
G1 X109.89 Y97.564 E.06381
G1 X93.734 Y112.057 E.68051
G1 X91.605 Y112.873 E.07149
G1 X70.605 Y112.873 E.65844
G1 X68.476 Y112.057 E.07149
G1 X52.32 Y97.564 E.68051
G1 X50.877 Y96.128 E.06383
G1 X50.07 Y94.764 E.04969
G1 X49.943 Y93.873 E.02822
G1 X49.977 Y80.928 E.40588
G1 X53.538 Y56.651 E.76933
G1 X53.781 Y55.54 E.03566
G1 X54.381 Y54.086 E.04932
G1 X55.167 Y52.907 E.04443
G1 X55.656 Y52.36 E.023
G1 E-.5 F1800
;WIPE_START
G1 F43200
G1 X55.696 Y52.316 E-.00235
G1 X56.605 Y51.546 E-.04716
G1 X57.444 Y51.018 E-.03924
G1 X58.346 Y50.603 E-.0393
G1 X59.294 Y50.31 E-.03928
G1 X60.272 Y50.144 E-.03927
G1 X101.363 Y50.106 E-1.62652
G1 X102.351 Y50.198 E-.03928
G1 X103.864 Y50.603 E-.062
G1 X104.765 Y51.018 E-.03927
G1 X105.318 Y51.387 E-.02633
;WIPE_END
; printing object x_axis_carriage_mounting_plate.stl id:0 copy 0
G1 X87.584 Y107.764 F54000
G1 E2.5 F1200
;TYPE:Perimeter
;WIDTH:0.419999
G1 F2100
G1 X87.534 Y107.767 E.00157
G1 X87.035 Y107.69 E.01583
G1 X86.669 Y107.548 E.01231
G1 X86.336 Y107.339 E.01233
G1 X86.049 Y107.072 E.01229
G1 X85.816 Y106.756 E.01231
G1 X85.647 Y106.402 E.0123
G1 X85.547 Y106.022 E.01232
G1 X85.52 Y105.631 E.01229
G1 X85.554 Y105.296 E.01056
G1 X85.686 Y104.867 E.01407
G1 X85.873 Y104.522 E.0123
G1 X86.122 Y104.218 E.01232
G1 X86.423 Y103.966 E.01231
G1 X86.765 Y103.775 E.01228
G1 X87.217 Y103.641 E.01478
G1 X87.743 Y103.608 E.01652
G1 X88.206 Y103.692 E.01475
G1 X88.677 Y103.895 E.01608
G1 X89.071 Y104.201 E.01564
G1 X89.323 Y104.502 E.01231
G1 X89.514 Y104.845 E.01231
G1 X89.64 Y105.235 E.01285
G1 X89.688 Y105.755 E.01637
G1 X89.611 Y106.254 E.01583
G1 X89.468 Y106.62 E.01232
G1 X89.26 Y106.952 E.01228
G1 X88.993 Y107.24 E.01231
G1 X88.677 Y107.473 E.01231
G1 X88.323 Y107.642 E.0123
G1 X87.943 Y107.742 E.01232
G1 X87.644 Y107.76 E.00939
G1 X87.644 Y107.76 F54000
G1 X87.595 Y107.392
;TYPE:External perimeter
G1 F2100
G1 X87.581 Y107.393 E.00044
G1 X87.163 Y107.335 E.01323
G1 X86.861 Y107.223 E.0101
G1 X86.586 Y107.056 E.01009
G1 X86.347 Y106.841 E.01008
G1 X86.152 Y106.585 E.01009
G1 X86.009 Y106.297 E.01008
G1 X85.923 Y105.987 E.01009
G1 X85.896 Y105.666 E.0101
G1 X85.925 Y105.365 E.00948
G1 X86.022 Y105.038 E.01069
G1 X86.171 Y104.753 E.01008
G1 X86.524 Y104.366 E.01642
G1 X86.893 Y104.13 E.01373
G1 X87.265 Y104.015 E.01221
G1 X87.708 Y103.983 E.01393
G1 X88.218 Y104.088 E.01633
G1 X88.536 Y104.25 E.01119
G1 X88.788 Y104.45 E.01009
G1 X88.998 Y104.694 E.01009
G1 X89.159 Y104.972 E.01007
G1 X89.266 Y105.282 E.01028
G1 X89.314 Y105.708 E.01344
G1 X89.256 Y106.126 E.01323
G1 X89.144 Y106.428 E.0101
G1 X88.977 Y106.703 E.01009
G1 X88.762 Y106.942 E.01008
G1 X88.506 Y107.137 E.01009
G1 X88.218 Y107.28 E.01008
G1 X87.908 Y107.366 E.01009
G1 X87.655 Y107.387 E.00796
G1 E-.5 F1800
;WIPE_START
G1 F43200
G1 X87.595 Y107.392 E-.00238
G1 X87.581 Y107.393 E-.00056
G1 X87.163 Y107.335 E-.0167
G1 X86.861 Y107.223 E-.01275
G1 X86.586 Y107.056 E-.01274
G1 X86.347 Y106.841 E-.01273
G1 X86.152 Y106.585 E-.01274
G1 X86.009 Y106.297 E-.01273
G1 X85.923 Y105.987 E-.01273
G1 X85.896 Y105.666 E-.01275
G1 X85.925 Y105.365 E-.01197
G1 X86.022 Y105.038 E-.0135
G1 X86.171 Y104.753 E-.01273
G1 X86.524 Y104.366 E-.02073
G1 X86.893 Y104.13 E-.01734
G1 X87.265 Y104.015 E-.01541
G1 X87.708 Y103.983 E-.01758
G1 X88.218 Y104.088 E-.02061
G1 X88.536 Y104.25 E-.01413
G1 X88.788 Y104.45 E-.01273
G1 X88.998 Y104.694 E-.01274
G1 X89.159 Y104.972 E-.01272
G1 X89.266 Y105.282 E-.01298
G1 X89.314 Y105.708 E-.01697
G1 X89.256 Y106.126 E-.0167
G1 X89.144 Y106.428 E-.01275
G1 X88.977 Y106.703 E-.01274
G1 X88.762 Y106.942 E-.01273
G1 X88.506 Y107.137 E-.01274
G1 X88.218 Y107.28 E-.01273
G1 X87.908 Y107.366 E-.01273
G1 X87.655 Y107.387 E-.01005
;WIPE_END
G1 E-1.57588 F1800
G1 X87.626 Y102.755 F54000
G1 E2.5 F1200
;TYPE:Perimeter
G1 F2100
G1 X87.273 Y102.741 E.01108
G1 X86.788 Y102.603 E.01581
G1 X86.443 Y102.416 E.0123
G1 X86.139 Y102.167 E.01232
G1 X85.887 Y101.866 E.01231
G1 X85.696 Y101.523 E.01231
G1 X85.572 Y101.151 E.01229
G1 X85.521 Y100.762 E.0123
G1 X85.543 Y100.37 E.01231
G1 X85.646 Y99.973 E.01286
G1 X85.873 Y99.522 E.01583
G1 X86.122 Y99.218 E.01232
G1 X86.423 Y98.966 E.01231
G1 X86.765 Y98.775 E.01228
G1 X87.142 Y98.675 E.01223
;WIDTH:0.372563
G1 X87.813 Y98.644 E.01841
;WIDTH:0.384048
G1 X88.059 Y98.683 E.00706
;WIDTH:0.417615
G1 X88.305 Y98.722 E.00776
;WIDTH:0.419999
G1 X88.767 Y98.952 E.01618
G1 X89.071 Y99.201 E.01232
G1 X89.388 Y99.612 E.01627
G1 X89.611 Y100.114 E.01722
G1 X89.689 Y100.606 E.01562
G1 X89.662 Y101.016 E.01288
G1 X89.524 Y101.501 E.01581
G1 X89.336 Y101.846 E.01232
G1 X89.088 Y102.15 E.0123
G1 X88.787 Y102.402 E.01231
G1 X88.289 Y102.649 E.01743
G1 X87.789 Y102.761 E.01607
G1 X87.686 Y102.757 E.00323
G1 X87.686 Y102.757 F54000
G1 X87.614 Y102.373
;TYPE:External perimeter
G1 F2100
G1 X87.367 Y102.376 E.00775
G1 X86.959 Y102.267 E.01324
G1 X86.674 Y102.118 E.01008
G1 X86.422 Y101.918 E.01009
G1 X86.212 Y101.674 E.01009
G1 X86.051 Y101.396 E.01007
G1 X85.945 Y101.092 E.01009
G1 X85.898 Y100.774 E.01008
G1 X85.911 Y100.452 E.0101
G1 X85.987 Y100.133 E.01028
G1 X86.171 Y99.753 E.01324
G1 X86.371 Y99.501 E.01009
G1 X86.614 Y99.291 E.01007
G1 X86.893 Y99.13 E.0101
G1 X87.197 Y99.024 E.01009
G1 X87.515 Y98.977 E.01008
G1 X87.843 Y98.992 E.01029
G1 X88.25 Y99.101 E.01321
G1 X88.536 Y99.25 E.01011
G1 X88.788 Y99.45 E.01009
G1 X89.063 Y99.804 E.01405
G1 X89.265 Y100.276 E.0161
G1 X89.312 Y100.594 E.01008
G1 X89.297 Y100.922 E.01029
G1 X89.188 Y101.33 E.01324
G1 X89.039 Y101.615 E.01008
G1 X88.684 Y102.004 E.01651
G1 X88.317 Y102.238 E.01365
G1 X87.854 Y102.369 E.01509
G1 X87.674 Y102.372 E.00564
G1 E-.5 F1800
;WIPE_START
G1 F43200
G1 X87.614 Y102.373 E-.00238
G1 X87.367 Y102.376 E-.00978
G1 X86.959 Y102.267 E-.01672
G1 X86.674 Y102.118 E-.01273
G1 X86.422 Y101.918 E-.01273
G1 X86.212 Y101.674 E-.01274
G1 X86.051 Y101.396 E-.01272
G1 X85.945 Y101.092 E-.01274
G1 X85.898 Y100.774 E-.01272
G1 X85.911 Y100.452 E-.01276
G1 X85.987 Y100.133 E-.01298
G1 X86.171 Y99.753 E-.01671
G1 X86.371 Y99.501 E-.01273
G1 X86.614 Y99.291 E-.01271
G1 X86.893 Y99.13 E-.01275
G1 X87.197 Y99.024 E-.01274
G1 X87.515 Y98.977 E-.01272
G1 X87.843 Y98.992 E-.013
G1 X88.25 Y99.101 E-.01668
G1 X88.536 Y99.25 E-.01277
G1 X88.788 Y99.45 E-.01273
G1 X89.063 Y99.804 E-.01774
G1 X89.265 Y100.276 E-.02032
G1 X89.312 Y100.594 E-.01272
G1 X89.297 Y100.922 E-.013
G1 X89.188 Y101.33 E-.01672
G1 X89.039 Y101.615 E-.01273
G1 X88.684 Y102.004 E-.02085
G1 X88.317 Y102.238 E-.01723
G1 X87.854 Y102.369 E-.01905
G1 X87.674 Y102.372 E-.00713
;WIPE_END
G1 E-1.57597 F1800
G1 X74.626 Y102.755 F54000
G1 E2.5 F1200
;TYPE:Perimeter
G1 F2100
G1 X74.273 Y102.741 E.01108
G1 X73.788 Y102.603 E.01581
G1 X73.443 Y102.416 E.0123
G1 X73.139 Y102.167 E.01232
G1 X72.887 Y101.866 E.01231
G1 X72.696 Y101.523 E.01231
G1 X72.572 Y101.151 E.01229
G1 X72.521 Y100.762 E.0123
G1 X72.543 Y100.37 E.01231
G1 X72.646 Y99.973 E.01286
G1 X72.873 Y99.522 E.01583
G1 X73.122 Y99.218 E.01232
G1 X73.423 Y98.966 E.01231
G1 X73.765 Y98.775 E.01228
G1 X74.142 Y98.675 E.01223
;WIDTH:0.37256
G1 X74.813 Y98.644 E.01841
;WIDTH:0.384048
G1 X75.059 Y98.683 E.00706
;WIDTH:0.417614
G1 X75.305 Y98.722 E.00776
;WIDTH:0.419999
G1 X75.767 Y98.952 E.01618
G1 X76.071 Y99.201 E.01232
G1 X76.323 Y99.502 E.01231
G1 X76.514 Y99.845 E.01231
G1 X76.637 Y100.217 E.01228
G1 X76.689 Y100.606 E.01231
G1 X76.666 Y100.998 E.01231
G1 X76.564 Y101.395 E.01285
G1 X76.337 Y101.846 E.01583
G1 X76.088 Y102.15 E.01232
G1 X75.787 Y102.402 E.01231
G1 X75.289 Y102.649 E.01743
G1 X74.789 Y102.761 E.01607
G1 X74.686 Y102.757 E.00323
G1 X74.686 Y102.757 F54000
G1 X74.614 Y102.373
;TYPE:External perimeter
G1 F2100
G1 X74.367 Y102.376 E.00775
G1 X73.959 Y102.267 E.01324
G1 X73.513 Y101.993 E.01641
G1 X73.212 Y101.674 E.01375
G1 X73.051 Y101.396 E.01007
G1 X72.945 Y101.092 E.01009
G1 X72.898 Y100.774 E.01008
G1 X72.911 Y100.452 E.0101
G1 X72.987 Y100.133 E.01028
G1 X73.171 Y99.753 E.01324
G1 X73.371 Y99.501 E.01009
G1 X73.614 Y99.291 E.01007
G1 X73.893 Y99.13 E.0101
G1 X74.197 Y99.024 E.01009
G1 X74.515 Y98.977 E.01008
G1 X74.843 Y98.992 E.01029
G1 X75.25 Y99.101 E.01321
G1 X75.536 Y99.25 E.01011
G1 X75.788 Y99.45 E.01009
G1 X75.998 Y99.694 E.01009
G1 X76.159 Y99.972 E.01007
G1 X76.265 Y100.276 E.01009
G1 X76.312 Y100.594 E.01008
G1 X76.298 Y100.916 E.01011
G1 X76.223 Y101.235 E.01027
G1 X76.039 Y101.615 E.01324
G1 X75.686 Y102.002 E.01642
G1 X75.317 Y102.238 E.01373
G1 X74.854 Y102.369 E.01509
G1 X74.674 Y102.372 E.00564
G1 E-.5 F1800
;WIPE_START
G1 F43200
G1 X74.614 Y102.373 E-.00238
G1 X74.367 Y102.376 E-.00978
G1 X73.959 Y102.267 E-.01672
G1 X73.513 Y101.993 E-.02072
G1 X73.212 Y101.674 E-.01736
G1 X73.051 Y101.396 E-.01272
G1 X72.945 Y101.092 E-.01274
G1 X72.898 Y100.774 E-.01272
G1 X72.911 Y100.452 E-.01276
G1 X72.987 Y100.133 E-.01298
G1 X73.171 Y99.753 E-.01671
G1 X73.371 Y99.501 E-.01273
G1 X73.614 Y99.291 E-.01271
G1 X73.893 Y99.13 E-.01275
G1 X74.197 Y99.024 E-.01274
G1 X74.515 Y98.977 E-.01272
G1 X74.843 Y98.992 E-.013
G1 X75.25 Y99.101 E-.01668
G1 X75.536 Y99.25 E-.01277
G1 X75.788 Y99.45 E-.01273
G1 X75.998 Y99.694 E-.01274
G1 X76.159 Y99.972 E-.01272
G1 X76.265 Y100.276 E-.01274
G1 X76.312 Y100.594 E-.01272
G1 X76.298 Y100.916 E-.01276
G1 X76.223 Y101.235 E-.01297
G1 X76.039 Y101.615 E-.01671
G1 X75.686 Y102.002 E-.02073
G1 X75.317 Y102.238 E-.01734
G1 X74.854 Y102.369 E-.01905
G1 X74.674 Y102.372 E-.00713
;WIPE_END
G1 E-1.57597 F1800
G1 X74.584 Y107.767 F54000
G1 E2.5 F1200
;TYPE:Perimeter
G1 F2100
G1 X74.552 Y107.769 E.00101
G1 X74.162 Y107.722 E.01232
G1 X73.788 Y107.603 E.01231
G1 X73.429 Y107.404 E.01287
G1 X73.049 Y107.073 E.0158
G1 X72.816 Y106.756 E.01234
G1 X72.647 Y106.402 E.0123
G1 X72.547 Y106.022 E.01232
G1 X72.52 Y105.737 E.00898
G1 X72.567 Y105.241 E.01562
G1 X72.686 Y104.867 E.01231
G1 X72.873 Y104.522 E.0123
G1 X73.122 Y104.218 E.01232
G1 X73.423 Y103.966 E.01231
G1 X73.765 Y103.775 E.01228
G1 X74.217 Y103.641 E.01478
G1 X74.743 Y103.608 E.01652
G1 X75.206 Y103.692 E.01475
G1 X75.677 Y103.895 E.01608
G1 X76.071 Y104.201 E.01564
G1 X76.323 Y104.502 E.01231
G1 X76.52 Y104.862 E.01287
G1 X76.663 Y105.345 E.01579
G1 X76.69 Y105.737 E.01232
G1 X76.643 Y106.127 E.01232
G1 X76.524 Y106.501 E.01231
G1 X76.336 Y106.847 E.01235
G1 X76.07 Y107.166 E.01302
G1 X75.677 Y107.473 E.01564
G1 X75.323 Y107.642 E.0123
G1 X74.943 Y107.742 E.01232
G1 X74.644 Y107.762 E.0094
G1 X74.644 Y107.762 F54000
G1 X74.595 Y107.393
;TYPE:External perimeter
G1 F2100
G1 X74.587 Y107.393 E.00025
G1 X74.267 Y107.36 E.01009
G1 X73.959 Y107.267 E.01009
G1 X73.669 Y107.114 E.01028
G1 X73.347 Y106.841 E.01324
G1 X73.152 Y106.585 E.01009
G1 X73.009 Y106.297 E.01008
G1 X72.923 Y105.987 E.01009
G1 X72.896 Y105.702 E.00898
G1 X72.929 Y105.346 E.01121
G1 X73.022 Y105.038 E.01009
G1 X73.171 Y104.753 E.01008
G1 X73.526 Y104.365 E.01649
G1 X73.893 Y104.13 E.01366
G1 X74.265 Y104.015 E.01221
G1 X74.708 Y103.983 E.01393
G1 X75.218 Y104.088 E.01633
G1 X75.536 Y104.25 E.01119
G1 X75.788 Y104.45 E.01009
G1 X75.998 Y104.694 E.01009
G1 X76.161 Y104.978 E.01027
G1 X76.287 Y105.381 E.01324
G1 X76.314 Y105.702 E.0101
G1 X76.281 Y106.022 E.01009
G1 X76.188 Y106.33 E.01009
G1 X76.038 Y106.615 E.0101
G1 X75.83 Y106.875 E.01044
G1 X75.506 Y107.137 E.01306
G1 X75.218 Y107.28 E.01008
G1 X74.908 Y107.366 E.01009
G1 X74.655 Y107.388 E.00796
G1 X74.655 Y107.388 F54000
G1 X73.116 Y108.176
;TYPE:Perimeter
;WIDTH:0.553973
G1 F2100
G1 X72.113 Y108.176 E.04262
G1 X72.113 Y107.174 E.04258
G1 X72.224 Y107.349 E.00881
G1 X72.612 Y107.794 E.02509
G1 X73.069 Y108.14 E.02436
G1 E-.5 F1800
;WIPE_START
G1 F43200
G1 X73.116 Y108.176 E-.00234
G1 X72.113 Y108.176 E-.0397
G1 X72.113 Y107.174 E-.03966
G1 X72.224 Y107.349 E-.0082
G1 X72.612 Y107.794 E-.02337
G1 X73.069 Y108.14 E-.02269
;WIPE_END
G1 E-1.86404 F1800
G1 X72.144 Y99.136 F54000
G1 E2.5 F1200
;WIDTH:0.55128
G1 F2100
G1 X72.08 Y99.136 E.00271
G1 X72.048 Y99.191 E.00269
G1 X72.08 Y99.246 E.00269
G1 X72.144 Y99.246 E.00271
G1 X72.175 Y99.191 E.00267
G1 E-.5 F1800
;WIPE_START
G1 F43200
G1 X72.144 Y99.136 E-.0025
G1 X72.08 Y99.136 E-.00253
G1 X72.048 Y99.191 E-.00252
G1 X72.08 Y99.246 E-.00252
G1 X72.144 Y99.246 E-.00253
G1 X72.175 Y99.191 E-.0025
;WIPE_END
G1 E-1.9849 F1800
G1 X73.265 Y103.183 F54000
G1 E2.5 F1200
;WIDTH:0.419999
G1 F2100
G1 X73.039 Y103.317 E.00824
G1 X72.623 Y103.652 E.01675
G1 X72.277 Y104.06 E.01677
G1 X72.046 Y104.462 E.01454
G1 X72.046 Y101.906 E.08014
G1 X72.384 Y102.451 E.02011
G1 X72.82 Y102.887 E.01933
G1 X73.215 Y103.15 E.01488
G1 X73.215 Y103.15 F54000
G1 X74.781 Y103.187
;WIDTH:0.523584
G1 F2100
G1 X74.383 Y103.188 E.01591
G1 E-.5 F1800
;WIPE_START
G1 F43200
G1 X74.781 Y103.187 E-.01575
G1 X74.383 Y103.188 E-.01575
;WIPE_END
G1 E-1.9685 F1800
G1 X90.128 Y99.138 F54000
G1 E2.5 F1200
;WIDTH:0.556116
G1 F2100
G1 X90.063 Y99.138 E.00277
G1 X90.031 Y99.193 E.00272
G1 X90.063 Y99.249 E.00275
G1 X90.128 Y99.249 E.00277
G1 X90.16 Y99.193 E.00275
G1 E-.5 F1800
;WIPE_START
G1 F43200
G1 X90.128 Y99.138 E-.00252
G1 X90.063 Y99.138 E-.00257
G1 X90.031 Y99.193 E-.00252
G1 X90.063 Y99.249 E-.00255
G1 X90.128 Y99.249 E-.00257
G1 X90.16 Y99.193 E-.00255
;WIPE_END
G1 E-1.98472 F1800
G1 X89.095 Y108.176 F54000
G1 E2.5 F1200
;WIDTH:0.554007
G1 F2100
G1 X89.496 Y107.889 E.02096
G1 X89.876 Y107.495 E.02326
G1 X90.097 Y107.171 E.01667
G1 X90.097 Y108.176 E.04271
G1 X89.155 Y108.176 E.04003
G1 E-.5 F1800
;WIPE_START
G1 F43200
G1 X89.095 Y108.176 E-.00238
G1 X89.496 Y107.889 E-.01952
G1 X89.876 Y107.495 E-.02167
G1 X90.097 Y107.171 E-.01552
G1 X90.097 Y108.176 E-.03978
G1 X89.155 Y108.176 E-.03729
;WIPE_END
G1 E-1.86384 F1800
G1 X90.164 Y104.462 F54000
G1 E2.5 F1200
;WIDTH:0.419999
G1 F2100
G1 X89.826 Y103.917 E.02011
G1 X89.39 Y103.481 E.01933
G1 X88.944 Y103.185 E.01678
G1 X89.171 Y103.051 E.00826
G1 X89.587 Y102.716 E.01675
