; generated by PrusaSlicer 2.9.0 on 2025-01-29 at 18:41:26 UTC

; 

; external perimeters extrusion width = 0.42mm
; perimeters extrusion width = 0.44mm
; infill extrusion width = 0.44mm
; solid infill extrusion width = 0.44mm
; top infill extrusion width = 0.40mm
; support material extrusion width = 0.36mm
; first layer extrusion width = 0.42mm


; printing object ender2pro_mount_for_printed_carriage_with_countersink.stl id:0 copy 0
; stop printing object ender2pro_mount_for_printed_carriage_with_countersink.stl id:0 copy 0

;TYPE:Custom
G90 ; use absolute coordinates
M83 ; extruder relative mode
M104 S150 ; set temporary nozzle temp to prevent oozing during homing
M140 S60 ; set final bed temp
G4 S30 ; allow partial nozzle warmup
G28 ; home all axis
G1 Z50 F240
G1 X2.0 Y10 F3000
M104 S210 ; set final nozzle temp
M190 S60 ; wait for bed temp to stabilize
M109 S210 ; wait for nozzle temp to stabilize
G1 Z0.28 F240
G92 E0
G1 X2.0 Y140 E10 F1500 ; prime the nozzle
G1 X2.3 Y140 F5000
G92 E0
G1 X2.3 Y10 E10 F1200 ; prime the nozzle
G92 E0
G21 ; set units to millimeters
G90 ; use absolute coordinates
M83 ; use relative distances for extrusion
; Filament gcode
M107
;LAYER_CHANGE
;Z:0.2
;HEIGHT:0.2
G1 E-2.5 F1800
G1 Z.2 F54000
G1 X55.993 Y60.937
G1 Z.2
G1 E2.5 F1200
M204 S3500
;TYPE:Skirt/Brim
;WIDTH:0.42
G1 F2100
G1 X57.229 Y59.99 E.04882
G1 X58.491 Y59.367 E.04413
G1 X60.004 Y58.962 E.04911
G1 X60.992 Y58.87 E.03111
G1 X101.508 Y58.87 E1.27035
G1 X102.496 Y58.962 E.03111
G1 X104.009 Y59.367 E.04911
G1 X104.91 Y59.782 E.0311
G1 X106.081 Y60.564 E.04415
G1 X107.188 Y61.671 E.04909
G1 X107.762 Y62.481 E.03113
G1 X108.384 Y63.743 E.04411
G1 X108.788 Y65.246 E.0488
G1 X112.412 Y90.155 E.78923
G1 X112.412 Y102.638 E.3914
G1 X112.018 Y104.172 E.04966
G1 X111.478 Y104.892 E.02822
G1 X110.161 Y106.209 E.0584
G1 X108.797 Y107.016 E.04969
G1 X107.906 Y107.143 E.02822
G1 X54.594 Y107.143 E1.67156
G1 X53.059 Y106.749 E.04969
G1 X52.34 Y106.209 E.02819
G1 X51.022 Y104.892 E.05842
G1 X50.216 Y103.528 E.04968
G1 X50.089 Y102.638 E.02819
G1 X50.122 Y89.693 E.40588
G1 X53.821 Y64.7 E.79217
G1 X54.112 Y63.752 E.03109
G1 X54.73 Y62.495 E.04392
G1 X55.312 Y61.671 E.03163
G1 X55.953 Y60.981 E.02953
G1 E-.5 F1800
;WIPE_START
G1 F43200
G1 X55.993 Y60.937 E-.00235
G1 X57.229 Y59.99 E-.06163
G1 X58.491 Y59.367 E-.05571
G1 X60.004 Y58.962 E-.062
G1 X60.992 Y58.87 E-.03928
G1 X101.508 Y58.87 E-1.60376
G1 X102.496 Y58.962 E-.03928
G1 X104.009 Y59.367 E-.062
G1 X104.91 Y59.782 E-.03927
G1 X105.639 Y60.269 E-.03472
;WIPE_END
; printing object ender2pro_mount_for_printed_carriage_with_countersink.stl id:0 copy 0
G1 X97.369 Y84.887 F54000
G1 E2.5 F1200
;TYPE:Support material
G1 F2100
G1 X100.003 Y84.887 E.08259
G1 X100.003 Y86.204 E.04129
G1 X102.638 Y86.204 E.08262
G1 X102.638 Y87.521 E.04129
G1 X106.589 Y87.521 E.12388
G1 X106.589 Y88.838 E.04129
G1 X107.906 Y88.838 E.04129
G1 X107.906 Y90.155 E.04129
G1 X109.223 Y90.155 E.04129
G1 X109.223 Y102.638 E.3914
G1 X107.906 Y102.638 E.04129
G1 X107.906 Y103.955 E.04129
G1 X95.424 Y103.955 E.39136
G1 X95.424 Y102.638 E.04129
G1 X94.107 Y102.638 E.04129
G1 X94.107 Y101.32 E.04132
G1 X92.789 Y101.32 E.04132
G1 X92.789 Y98.686 E.08259
G1 X90.155 Y98.686 E.08259
G1 X90.155 Y97.369 E.04129
G1 X87.521 Y97.369 E.08259
G1 X87.521 Y96.052 E.04129
G1 X83.57 Y96.052 E.12388
G1 X83.57 Y94.735 E.04129
G1 X78.93 Y94.735 E.14548
G1 X78.93 Y96.052 E.04129
G1 X74.979 Y96.052 E.12388
G1 X74.979 Y97.369 E.04129
G1 X72.345 Y97.369 E.08259
G1 X72.345 Y98.686 E.04129
G1 X69.711 Y98.686 E.08259
G1 X69.711 Y101.32 E.08259
G1 X68.394 Y101.32 E.04129
G1 X68.394 Y102.638 E.04132
G1 X67.076 Y102.638 E.04132
G1 X67.076 Y103.955 E.04129
G1 X54.594 Y103.955 E.39136
G1 X54.594 Y102.638 E.04129
G1 X53.277 Y102.638 E.04129
G1 X53.277 Y90.155 E.3914
G1 X54.594 Y90.155 E.04129
G1 X54.594 Y88.838 E.04129
G1 X55.911 Y88.838 E.04129
G1 X55.911 Y87.521 E.04129
G1 X59.862 Y87.521 E.12388
G1 X59.862 Y86.204 E.04129
G1 X62.497 Y86.204 E.08262
G1 X62.497 Y84.887 E.04129
G1 X65.131 Y84.887 E.08259
G1 X65.131 Y78.836 E.18972
G1 X68.988 Y82.694 E.17105
G1 X69.158 Y82.764 E.00576
G1 X71.263 Y82.764 E.066
G1 X71.263 Y88.493 E.17963
G1 X71.534 Y88.764 E.01202
G1 X90.916 Y88.764 E.60771
G1 X91.187 Y88.493 E.01202
G1 X91.187 Y82.764 E.17963
G1 X93.342 Y82.764 E.06757
G1 X93.512 Y82.694 E.00576
G1 X97.369 Y78.836 E.17105
G1 X97.369 Y84.83 E.18794
G1 X97.369 Y84.83 F54000
G1 X108.484 Y102.468
G1 F2100
G1 X108.484 Y90.495 E.37541
G1 X108.065 Y90.495 E.01314
G1 X108.065 Y102.298 E.37007
G1 X107.646 Y102.298 E.01314
G1 X107.646 Y90.495 E.37007
G1 X107.567 Y90.495 E.00248
G1 X107.567 Y89.178 E.04129
G1 X107.227 Y89.178 E.01066
G1 X107.227 Y103.615 E.45266
G1 X106.808 Y103.615 E.01314
G1 X106.808 Y89.178 E.45266
G1 X106.389 Y89.178 E.01314
G1 X106.389 Y103.615 E.45266
G1 X105.97 Y103.615 E.01314
G1 X105.97 Y87.86 E.49399
G1 X105.551 Y87.86 E.01314
G1 X105.551 Y103.615 E.49399
G1 X105.132 Y103.615 E.01314
G1 X105.132 Y87.86 E.49399
G1 X104.713 Y87.86 E.01314
G1 X104.713 Y103.615 E.49399
G1 X104.294 Y103.615 E.01314
G1 X104.294 Y87.86 E.49399
G1 X103.875 Y87.86 E.01314
G1 X103.875 Y103.615 E.49399
G1 X103.456 Y103.615 E.01314
G1 X103.456 Y87.86 E.49399
G1 X103.037 Y87.86 E.01314
G1 X103.037 Y103.615 E.49399
G1 X102.618 Y103.615 E.01314
G1 X102.618 Y87.86 E.49399
G1 X102.298 Y87.86 E.01003
G1 X102.298 Y86.543 E.04129
G1 X102.199 Y86.543 E.0031
G1 X102.199 Y103.615 E.53528
G1 X101.78 Y103.615 E.01314
G1 X101.78 Y86.543 E.53528
G1 X101.361 Y86.543 E.01314
G1 X101.361 Y103.615 E.53528
G1 X100.942 Y103.615 E.01314
G1 X100.942 Y86.543 E.53528
G1 X100.523 Y86.543 E.01314
G1 X100.523 Y103.615 E.53528
G1 X100.104 Y103.615 E.01314
G1 X100.104 Y86.543 E.53528
G1 X99.685 Y86.543 E.01314
G1 X99.685 Y103.615 E.53528
G1 X99.266 Y103.615 E.01314
G1 X99.266 Y85.226 E.57657
G1 X98.847 Y85.226 E.01314
G1 X98.847 Y103.615 E.57657
G1 X98.428 Y103.615 E.01314
G1 X98.428 Y85.226 E.57657
G1 X98.009 Y85.226 E.01314
G1 X98.009 Y103.615 E.57657
G1 X97.59 Y103.615 E.01314
G1 X97.59 Y85.226 E.57657
G1 X97.171 Y85.226 E.01314
G1 X97.171 Y103.615 E.57657
G1 X96.752 Y103.615 E.01314
G1 X96.752 Y79.933 E.74253
G1 X96.333 Y80.352 E.01858
G1 X96.333 Y103.615 E.7294
G1 X95.914 Y103.615 E.01314
G1 X95.914 Y80.771 E.71626
G1 X95.495 Y81.19 E.01858
G1 X95.495 Y102.298 E.66183
G1 X95.076 Y102.298 E.01314
G1 X95.076 Y81.609 E.64869
G1 X94.657 Y82.028 E.01858
G1 X94.657 Y102.298 E.63555
G1 X94.446 Y102.298 E.00662
G1 X94.446 Y100.981 E.04129
G1 X94.238 Y100.981 E.00652
G1 X94.238 Y82.447 E.58112
G1 X93.819 Y82.866 E.01858
G1 X93.819 Y100.981 E.56798
G1 X93.4 Y100.981 E.01314
G1 X93.4 Y83.103 E.56055
G1 X92.981 Y83.103 E.01314
G1 X92.981 Y98.347 E.47796
G1 X92.562 Y98.347 E.01314
G1 X92.562 Y83.103 E.47796
G1 X92.143 Y83.103 E.01314
G1 X92.143 Y98.347 E.47796
G1 X91.724 Y98.347 E.01314
G1 X91.724 Y83.103 E.47796
G1 X91.526 Y83.103 E.00621
G1 X91.526 Y88.634 E.17342
G1 X91.305 Y88.855 E.0098
G1 X91.305 Y98.347 E.29761
G1 X90.886 Y98.347 E.01314
G1 X90.886 Y89.103 E.28984
G1 X90.467 Y89.103 E.01314
G1 X90.467 Y97.03 E.24855
G1 X90.049 Y97.03 E.01311
G1 X90.049 Y89.103 E.24855
G1 X89.63 Y89.103 E.01314
G1 X89.63 Y97.03 E.24855
G1 X89.211 Y97.03 E.01314
G1 X89.211 Y89.103 E.24855
G1 X88.792 Y89.103 E.01314
G1 X88.792 Y97.03 E.24855
G1 X88.373 Y97.03 E.01314
G1 X88.373 Y89.103 E.24855
G1 X87.954 Y89.103 E.01314
G1 X87.954 Y97.03 E.24855
G1 X87.861 Y97.03 E.00292
G1 X87.861 Y95.713 E.04129
G1 X87.535 Y95.713 E.01022
G1 X87.535 Y89.103 E.20725
G1 X87.116 Y89.103 E.01314
G1 X87.116 Y95.713 E.20725
G1 X86.697 Y95.713 E.01314
G1 X86.697 Y89.103 E.20725
G1 X86.278 Y89.103 E.01314
G1 X86.278 Y95.713 E.20725
G1 X85.859 Y95.713 E.01314
G1 X85.859 Y89.103 E.20725
G1 X85.44 Y89.103 E.01314
G1 X85.44 Y95.713 E.20725
G1 X85.021 Y95.713 E.01314
G1 X85.021 Y89.103 E.20725
G1 X84.602 Y89.103 E.01314
G1 X84.602 Y95.713 E.20725
G1 X84.183 Y95.713 E.01314
G1 X84.183 Y89.103 E.20725
G1 X83.764 Y89.103 E.01314
G1 X83.764 Y94.396 E.16596
G1 X83.345 Y94.396 E.01314
G1 X83.345 Y89.103 E.16596
G1 X82.926 Y89.103 E.01314
G1 X82.926 Y94.396 E.16596
G1 X82.507 Y94.396 E.01314
G1 X82.507 Y89.103 E.16596
G1 X82.088 Y89.103 E.01314
G1 X82.088 Y94.396 E.16596
G1 X81.669 Y94.396 E.01314
G1 X81.669 Y89.103 E.16596
G1 X81.25 Y89.103 E.01314
G1 X81.25 Y94.396 E.16596
G1 X80.831 Y94.396 E.01314
G1 X80.831 Y89.103 E.16596
G1 X80.412 Y89.103 E.01314
G1 X80.412 Y94.396 E.16596
G1 X79.993 Y94.396 E.01314
G1 X79.993 Y89.103 E.16596
G1 X79.574 Y89.103 E.01314
G1 X79.574 Y94.396 E.16596
G1 X79.155 Y94.396 E.01314
G1 X79.155 Y89.103 E.16596
G1 X78.736 Y89.103 E.01314
G1 X78.736 Y94.396 E.16596
G1 X78.591 Y94.396 E.00455
G1 X78.591 Y95.713 E.04129
G1 X78.317 Y95.713 E.00859
G1 X78.317 Y89.103 E.20725
G1 X77.898 Y89.103 E.01314
G1 X77.898 Y95.713 E.20725
G1 X77.479 Y95.713 E.01314
G1 X77.479 Y89.103 E.20725
G1 X77.06 Y89.103 E.01314
G1 X77.06 Y95.713 E.20725
G1 X76.641 Y95.713 E.01314
G1 X76.641 Y89.103 E.20725
G1 X76.222 Y89.103 E.01314
G1 X76.222 Y95.713 E.20725
G1 X75.803 Y95.713 E.01314
G1 X75.803 Y89.103 E.20725
G1 X75.384 Y89.103 E.01314
G1 X75.384 Y95.713 E.20725
G1 X74.965 Y95.713 E.01314
G1 X74.965 Y89.103 E.20725
G1 X74.546 Y89.103 E.01314
G1 X74.546 Y97.03 E.24855
G1 X74.127 Y97.03 E.01314
G1 X74.127 Y89.103 E.24855
G1 X73.708 Y89.103 E.01314
G1 X73.708 Y97.03 E.24855
G1 X73.289 Y97.03 E.01314
G1 X73.289 Y89.103 E.24855
G1 X72.87 Y89.103 E.01314
G1 X72.87 Y97.03 E.24855
G1 X72.451 Y97.03 E.01314
G1 X72.451 Y89.103 E.24855
G1 X72.033 Y89.103 E.01311
G1 X72.005 Y98.347 E.28984
G1 X71.614 Y98.347 E.01226
G1 X71.614 Y89.103 E.28984
G1 X71.393 Y89.103 E.00693
G1 X71.195 Y88.905 E.00878
G1 X71.195 Y98.347 E.29605
G1 X70.776 Y98.347 E.01314
G1 X70.776 Y83.103 E.47796
G1 X70.357 Y83.103 E.01314
G1 X70.357 Y98.347 E.47796
G1 X69.938 Y98.347 E.01314
G1 X69.938 Y83.103 E.47796
G1 X69.519 Y83.103 E.01314
G1 X69.519 Y98.347 E.47796
G1 X69.371 Y98.347 E.00464
G1 X69.371 Y100.981 E.08259
G1 X69.1 Y100.981 E.0085
G1 X69.1 Y83.103 E.56055
G1 X68.681 Y82.866 E.01509
G1 X68.681 Y100.981 E.56798
G1 X68.262 Y100.981 E.01314
G1 X68.262 Y82.447 E.58112
G1 X67.843 Y82.028 E.01858
G1 X67.843 Y102.298 E.63555
G1 X67.424 Y102.298 E.01314
G1 X67.424 Y81.609 E.64869
G1 X67.005 Y81.19 E.01858
G1 X67.005 Y102.298 E.66183
G1 X66.737 Y102.298 E.0084
G1 X66.737 Y103.615 E.04129
G1 X66.586 Y103.615 E.00473
G1 X66.586 Y80.771 E.71626
G1 X66.167 Y80.352 E.01858
G1 X66.167 Y103.615 E.7294
G1 X65.748 Y103.615 E.01314
G1 X65.748 Y79.933 E.74253
G1 X65.47 Y79.655 E.01233
G1 X65.47 Y85.226 E.17467
G1 X65.329 Y85.226 E.00442
G1 X65.329 Y103.615 E.57657
G1 X64.91 Y103.615 E.01314
G1 X64.91 Y85.226 E.57657
G1 X64.491 Y85.226 E.01314
G1 X64.491 Y103.615 E.57657
G1 X64.072 Y103.615 E.01314
G1 X64.072 Y85.226 E.57657
G1 X63.653 Y85.226 E.01314
G1 X63.653 Y103.615 E.57657
G1 X63.234 Y103.615 E.01314
G1 X63.234 Y85.226 E.57657
G1 X62.836 Y85.226 E.01248
G1 X62.815 Y103.615 E.57657
G1 X62.396 Y103.615 E.01314
G1 X62.396 Y86.543 E.53528
G1 X61.977 Y86.543 E.01314
G1 X61.977 Y103.615 E.53528
G1 X61.558 Y103.615 E.01314
G1 X61.558 Y86.543 E.53528
G1 X61.139 Y86.543 E.01314
G1 X61.139 Y103.615 E.53528
G1 X60.72 Y103.615 E.01314
G1 X60.72 Y86.543 E.53528
G1 X60.301 Y86.543 E.01314
G1 X60.301 Y103.615 E.53528
G1 X59.882 Y103.615 E.01314
G1 X59.882 Y87.86 E.49399
G1 X59.463 Y87.86 E.01314
G1 X59.463 Y103.615 E.49399
G1 X59.044 Y103.615 E.01314
G1 X59.044 Y87.86 E.49399
G1 X58.625 Y87.86 E.01314
G1 X58.625 Y103.615 E.49399
G1 X58.206 Y103.615 E.01314
G1 X58.206 Y87.86 E.49399
G1 X57.787 Y87.86 E.01314
G1 X57.787 Y103.615 E.49399
G1 X57.368 Y103.615 E.01314
G1 X57.368 Y87.86 E.49399
G1 X56.949 Y87.86 E.01314
G1 X56.949 Y103.615 E.49399
G1 X56.53 Y103.615 E.01314
G1 X56.53 Y87.86 E.49399
G1 X56.251 Y87.86 E.00875
G1 X56.251 Y89.178 E.04132
G1 X56.111 Y89.178 E.00439
G1 X56.111 Y103.615 E.45266
G1 X55.692 Y103.615 E.01314
G1 X55.692 Y89.178 E.45266
G1 X55.273 Y89.178 E.01314
G1 X55.273 Y103.615 E.45266
G1 X54.934 Y103.615 E.01063
G1 X54.934 Y102.298 E.04129
G1 X54.854 Y102.298 E.00251
G1 X54.854 Y90.495 E.37007
G1 X54.435 Y90.495 E.01314
G1 X54.435 Y102.298 E.37007
G1 X54.016 Y102.298 E.01314
G1 X54.016 Y90.325 E.37541
G1 E-.5 F1800
;WIPE_START
G1 F43200
G1 X54.016 Y102.298 E-.47393
G1 X54.435 Y102.298 E-.01659
G1 X54.435 Y90.495 E-.4672
G1 X54.854 Y90.495 E-.01659
G1 X54.854 Y102.298 E-.4672
G1 X54.934 Y102.298 E-.00317
G1 X54.934 Y103.615 E-.05213
G1 X55.273 Y103.615 E-.01342
G1 X55.273 Y91.241 E-.48977
;WIPE_END
G1 X74.246 Y79.381 F54000
G1 E2.5 F1200
;TYPE:Perimeter
;WIDTH:0.419999
G1 F2100
G1 X74.227 Y79.383 E.0006
G1 X73.893 Y79.359 E.0105
G1 X73.408 Y79.221 E.01581
G1 X73.063 Y79.034 E.0123
G1 X72.759 Y78.785 E.01232
G1 X72.507 Y78.484 E.01231
G1 X72.316 Y78.141 E.01231
G1 X72.193 Y77.769 E.01228
G1 X72.141 Y77.38 E.01231
G1 X72.168 Y76.97 E.01288
G1 X72.306 Y76.485 E.01581
G1 X72.493 Y76.14 E.0123
G1 X72.742 Y75.836 E.01232
G1 X73.043 Y75.584 E.01231
G1 X73.386 Y75.393 E.01231
G1 X73.762 Y75.293 E.0122
;WIDTH:0.372559
G1 X74.433 Y75.262 E.01841
;WIDTH:0.384049
G1 X74.679 Y75.301 E.00706
;WIDTH:0.417615
G1 X74.925 Y75.34 E.00776
;WIDTH:0.419999
G1 X75.387 Y75.57 E.01618
G1 X75.691 Y75.819 E.01232
G1 X75.943 Y76.12 E.01231
G1 X76.134 Y76.462 E.01228
G1 X76.257 Y76.835 E.01231
G1 X76.309 Y77.224 E.01231
G1 X76.282 Y77.634 E.01288
G1 X76.144 Y78.118 E.01578
G1 X75.957 Y78.464 E.01233
G1 X75.708 Y78.768 E.01232
G1 X75.407 Y79.02 E.01231
G1 X75.064 Y79.211 E.01231
G1 X74.692 Y79.334 E.01228
G1 X74.306 Y79.375 E.01217
G1 X74.306 Y79.375 F54000
G1 X74.234 Y79.006
;TYPE:External perimeter
G1 F2100
G1 X73.987 Y78.994 E.00775
G1 X73.537 Y78.863 E.0147
G1 X73.294 Y78.736 E.0086
G1 X73.042 Y78.536 E.01009
G1 X72.832 Y78.292 E.01009
G1 X72.671 Y78.014 E.01007
G1 X72.565 Y77.71 E.01009
G1 X72.518 Y77.391 E.01011
G1 X72.533 Y77.064 E.01026
G1 X72.642 Y76.656 E.01324
G1 X72.791 Y76.371 E.01008
G1 X72.991 Y76.119 E.01009
G1 X73.235 Y75.909 E.01009
G1 X73.513 Y75.748 E.01007
G1 X73.817 Y75.642 E.01009
G1 X74.135 Y75.595 E.01008
G1 X74.463 Y75.61 E.01029
G1 X74.87 Y75.719 E.01321
G1 X75.156 Y75.868 E.01011
G1 X75.408 Y76.068 E.01009
G1 X75.618 Y76.312 E.01009
G1 X75.779 Y76.59 E.01007
G1 X75.885 Y76.894 E.01009
G1 X75.932 Y77.212 E.01008
G1 X75.917 Y77.54 E.01029
G1 X75.808 Y77.947 E.01321
G1 X75.659 Y78.233 E.01011
G1 X75.459 Y78.485 E.01009
G1 X75.215 Y78.695 E.01009
G1 X74.937 Y78.856 E.01007
G1 X74.633 Y78.962 E.01009
G1 X74.294 Y79 E.0107
G1 E-.5 F1800
;WIPE_START
G1 F43200
G1 X74.234 Y79.006 E-.00239
G1 X73.987 Y78.994 E-.00979
G1 X73.537 Y78.863 E-.01855
G1 X73.294 Y78.736 E-.01085
G1 X73.042 Y78.536 E-.01273
G1 X72.832 Y78.292 E-.01274
G1 X72.671 Y78.014 E-.01272
G1 X72.565 Y77.71 E-.01274
G1 X72.518 Y77.391 E-.01276
G1 X72.533 Y77.064 E-.01296
G1 X72.642 Y76.656 E-.01672
G1 X72.791 Y76.371 E-.01273
G1 X72.991 Y76.119 E-.01273
G1 X73.235 Y75.909 E-.01274
G1 X73.513 Y75.748 E-.01272
G1 X73.817 Y75.642 E-.01274
G1 X74.135 Y75.595 E-.01272
G1 X74.463 Y75.61 E-.013
G1 X74.87 Y75.719 E-.01668
G1 X75.156 Y75.868 E-.01277
G1 X75.408 Y76.068 E-.01273
G1 X75.618 Y76.312 E-.01274
G1 X75.779 Y76.59 E-.01272
G1 X75.885 Y76.894 E-.01274
G1 X75.932 Y77.212 E-.01272
G1 X75.917 Y77.54 E-.013
G1 X75.808 Y77.947 E-.01668
G1 X75.659 Y78.233 E-.01277
G1 X75.459 Y78.485 E-.01273
G1 X75.215 Y78.695 E-.01274
G1 X74.937 Y78.856 E-.01272
G1 X74.633 Y78.962 E-.01274
G1 X74.294 Y79 E-.0135
;WIPE_END
G1 E-1.57569 F1800
G1 X74.215 Y87.01 F54000
G1 E2.5 F1200
G1 F2100
G1 X74.207 Y87.011 E.00025
G1 X73.887 Y86.978 E.01009
G1 X73.579 Y86.885 E.01009
G1 X73.219 Y86.677 E.01304
G1 X73.038 Y86.531 E.00729
G1 X72.772 Y86.203 E.01324
;WIDTH:0.449916
G1 X72.646 Y85.925 E.01033
;WIDTH:0.479832
G1 X72.521 Y85.648 E.01104
;WIDTH:0.488213
G1 X72.511 Y85.625 E.00093
G1 X72.51 Y84.996 E.02329
;WIDTH:0.485849
G1 X72.641 Y84.698 E.01199
;WIDTH:0.452924
G1 X72.772 Y84.401 E.01107
;WIDTH:0.419999
G1 X72.991 Y84.119 E.0112
G1 X73.235 Y83.909 E.01009
G1 X73.513 Y83.748 E.01007
G1 X73.823 Y83.641 E.01028
G1 X74.312 Y83.6 E.01539
