; generated by PrusaSlicer 2.9.0 on 2025-01-30 at 22:29:40 UTC

; 

; external perimeters extrusion width = 0.42mm
; perimeters extrusion width = 0.44mm
; infill extrusion width = 0.44mm
; solid infill extrusion width = 0.44mm
; top infill extrusion width = 0.40mm
; support material extrusion width = 0.36mm
; first layer extrusion width = 0.42mm


; printing object x_axis_carriage_printable_design_with_klackender.stl id:0 copy 0
; stop printing object x_axis_carriage_printable_design_with_klackender.stl id:0 copy 0

;TYPE:Custom
G90 ; use absolute coordinates
M83 ; extruder relative mode
M104 S150 ; set temporary nozzle temp to prevent oozing during homing
M140 S60 ; set final bed temp
G4 S30 ; allow partial nozzle warmup
G28 ; home all axis
G1 Z50 F240
G1 X2.0 Y10 F3000
M104 S210 ; set final nozzle temp
M190 S60 ; wait for bed temp to stabilize
M109 S210 ; wait for nozzle temp to stabilize
G1 Z0.28 F240
G92 E0
G1 X2.0 Y140 E10 F1500 ; prime the nozzle
G1 X2.3 Y140 F5000
G92 E0
G1 X2.3 Y10 E10 F1200 ; prime the nozzle
G92 E0
G21 ; set units to millimeters
G90 ; use absolute coordinates
M83 ; use relative distances for extrusion
; Filament gcode
M107
;LAYER_CHANGE
;Z:0.2
;HEIGHT:0.2
G1 E-2.5 F1800
G1 Z.2 F54000
G1 X12.317 Y25.243
G1 Z.2
G1 E2.5 F1200
M204 S3500
;TYPE:Skirt/Brim
;WIDTH:0.42
G1 X13.618 Y24.646 E.04488
G1 X60.106 Y8.344 E1.54462
G1 X62.229 Y8.034 E.06727
G1 X72.429 Y8.034 E.31981
G1 X74.287 Y8.168 E.05841
G1 X75.404 Y8.424 E.03593
G1 X77.002 Y9.055 E.05387
G1 X78.46 Y9.961 E.05382
G1 X78.907 Y10.32 E.01798
G1 X80.107 Y11.547 E.05381
G1 X80.89 Y12.644 E.04226
G1 X87.903 Y23.812 E.41348
G1 X88.63 Y25.405 E.0549
G1 X88.849 Y26.204 E.02598
G1 X89.011 Y27.383 E.03731
G1 X89.028 Y28.111 E.02283
G1 X87.249 Y46.853 E.59028
G1 X79.056 Y80.669 E1.09095
G1 X78.375 Y82.597 E.06411
G1 X77.318 Y84.424 E.06618
G1 X76.444 Y85.501 E.04349
G1 X75.794 Y86.152 E.02884
G1 X74.865 Y86.921 E.03781
G1 X73.686 Y87.684 E.04403
G1 X72.42 Y88.293 E.04405
G1 X71.57 Y88.599 E.02833
G1 X70.206 Y88.937 E.04406
G1 X68.811 Y89.1 E.04404
G1 X22.606 Y89.1 E1.44873
G1 X21.014 Y88.899 E.05031
G1 X19.656 Y88.537 E.04407
G1 X17.907 Y87.781 E.05974
G1 X16.714 Y87.038 E.04407
G1 X15.123 Y85.66 E.06599
G1 X13.82 Y84.012 E.06587
G1 X13.044 Y82.602 E.05046
G1 X12.348 Y80.614 E.06604
G1 X6.31 Y45.056 E1.13086
G1 X6.367 Y43.014 E.06405
G1 X8.347 Y30.931 E.38391
G1 X8.809 Y29.278 E.05381
G1 X9.558 Y27.831 E.05109
G1 X10.223 Y26.948 E.03466
G1 X10.757 Y26.393 E.02415
G1 X11.666 Y25.653 E.03675
G1 X12.266 Y25.275 E.02223
G1 E-.5 F1800
;WIPE_START
G1 F43200
G1 X12.317 Y25.243 E-.00238
G1 X13.618 Y24.646 E-.05666
G1 X59.89 Y8.42 E-1.94096
;WIPE_END
; printing object x_axis_carriage_printable_design_with_klackender.stl id:0 copy 0
G1 X14.645 Y40.32 F54000
G1 E2.5 F1200
;TYPE:Support material
G1 X14.747 Y40.349 E.00332
G1 X14.747 Y45.32 E.15586
G1 X15.017 Y45.591 E.01199
G1 X17.047 Y45.591 E.06365
G1 X17.047 Y49.867 E.13407
G1 X15.017 Y49.867 E.06365
G1 X14.747 Y50.138 E.01199
G1 X14.747 Y50.669 E.01665
G1 X14.039 Y50.414 E.02359
G1 X12.924 Y49.601 E.04327
G1 X12.223 Y48.643 E.03722
G1 X12.054 Y48.156 E.01616
G1 X11.738 Y48.044 E.01051
G1 X11.218 Y47.709 E.01939
G1 X10.625 Y47.234 E.02382
G1 X9.924 Y46.285 E.03699
G1 X9.56 Y45.256 E.03422
G1 X9.466 Y44.602 E.02072
G1 X9.513 Y43.53 E.03364
G1 X9.905 Y42.422 E.03685
G1 X10.745 Y41.311 E.04367
G1 X11.651 Y40.641 E.03533
G1 X12.814 Y40.229 E.03869
G1 X14.001 Y40.176 E.03725
G1 X14.59 Y40.308 E.01893
G1 E-.5 F1800
;WIPE_START
G1 F43200
G1 X14.001 Y40.176 E-.02389
G1 X12.814 Y40.229 E-.04703
G1 X11.651 Y40.641 E-.04884
G1 X10.745 Y41.311 E-.0446
G1 X9.905 Y42.422 E-.05513
G1 X9.513 Y43.53 E-.04652
G1 X9.466 Y44.602 E-.04247
G1 X9.56 Y45.256 E-.02615
G1 X9.924 Y46.285 E-.0432
G1 X10.625 Y47.234 E-.0467
G1 X11.218 Y47.709 E-.03007
G1 X11.738 Y48.044 E-.02448
G1 X12.054 Y48.156 E-.01327
G1 X12.223 Y48.643 E-.0204
G1 X12.924 Y49.601 E-.04699
G1 X14.039 Y50.414 E-.05462
G1 X14.747 Y50.669 E-.02979
G1 X14.747 Y50.138 E-.02102
G1 X15.017 Y49.867 E-.01514
G1 X17.047 Y49.867 E-.08035
G1 X17.047 Y45.591 E-.16926
G1 X15.017 Y45.591 E-.08035
G1 X14.747 Y45.32 E-.01514
G1 X14.747 Y40.349 E-.19677
G1 X14.645 Y40.32 E-.0042
;WIPE_END
G1 E-.77362 F1800
G1 X16.623 Y49.697 F54000
G1 E2.5 F1200
G1 X16.623 Y45.93 E.11811
G1 X16.204 Y45.93 E.01314
G1 X16.204 Y49.528 E.11281
G1 X15.785 Y49.528 E.01314
G1 X15.785 Y45.93 E.11281
G1 X15.366 Y45.93 E.01314
G1 X15.366 Y49.528 E.11281
G1 X14.947 Y49.528 E.01314
G1 X14.947 Y45.93 E.11281
G1 X14.528 Y45.582 E.01708
G1 X14.528 Y49.876 E.13464
G1 X14.407 Y49.997 E.00537
G1 X14.407 Y50.187 E.00596
G1 X14.11 Y50.057 E.01017
G1 X14.11 Y40.548 E.29815
G1 X13.691 Y40.529 E.01315
G1 X13.691 Y49.78 E.29006
G1 X13.272 Y49.445 E.01682
G1 X13.272 Y40.548 E.27896
G1 X12.853 Y40.575 E.01316
G1 X12.853 Y48.929 E.26193
G1 X12.527 Y48.483 E.01732
G1 X12.434 Y48.215 E.00889
G1 X12.434 Y40.724 E.23488
G1 X12.015 Y40.872 E.01393
G1 X12.015 Y47.782 E.21666
G1 X11.596 Y47.549 E.01503
G1 X11.596 Y41.104 E.20208
G1 X11.177 Y41.414 E.01634
G1 X11.177 Y47.241 E.1827
G1 X10.758 Y46.843 E.01812
G1 X10.758 Y41.816 E.15762
G1 X10.339 Y42.388 E.02223
G1 X10.339 Y46.276 E.12191
G1 X9.92 Y45.256 E.03457
G1 X9.92 Y42.89 E.07418
G1 E-.5 F1800
;WIPE_START
G1 F43200
G1 X9.92 Y45.256 E-.09365
G1 X10.339 Y46.276 E-.04365
G1 X10.339 Y42.388 E-.1539
G1 X10.758 Y41.816 E-.02807
G1 X10.758 Y46.843 E-.19899
G1 X11.177 Y47.241 E-.02288
G1 X11.177 Y41.414 E-.23065
G1 X11.596 Y41.104 E-.02063
G1 X11.596 Y47.549 E-.25511
G1 X12.015 Y47.782 E-.01898
G1 X12.015 Y40.872 E-.27352
G1 X12.434 Y40.724 E-.01759
G1 X12.434 Y48.215 E-.29652
G1 X12.527 Y48.483 E-.01123
G1 X12.853 Y48.929 E-.02187
G1 X12.853 Y41.028 E-.31276
;WIPE_END
G1 X17.033 Y27.44 F54000
G1 E2.5 F1200
G1 X18.107 Y27.747 E.03502
G1 X19.158 Y28.34 E.03784
G1 X19.385 Y28.554 E.00978
G1 X20.195 Y28.384 E.02595
G1 X21.342 Y28.436 E.036
G1 X22.636 Y28.933 E.04346
G1 X23.767 Y28.874 E.03551
G1 X24.882 Y29.153 E.03604
G1 X25.481 Y28.938 E.01995
G1 X26.676 Y28.875 E.03752
G1 X27.856 Y29.173 E.03816
G1 X28.409 Y28.974 E.01843
G1 X29.604 Y28.912 E.03752
G1 X30.873 Y29.236 E.04106
G1 X31.876 Y29.834 E.03661
G1 X32.701 Y30.742 E.03847
G1 X33.224 Y31.844 E.03825
G1 X33.407 Y33.06 E.03856
G1 X33.235 Y34.259 E.03798
G1 X32.725 Y35.359 E.03802
G1 X31.94 Y36.245 E.03712
G1 X30.855 Y36.913 E.03995
G1 X29.723 Y37.219 E.03677
G1 X29.171 Y37.203 E.01731
G1 X29.171 Y34.438 E.08669
G1 X28.9 Y34.167 E.01202
G1 X15.017 Y34.167 E.43529
G1 X14.747 Y34.438 E.01199
G1 X14.747 Y36.875 E.07641
G1 X13.606 Y36.306 E.03998
G1 X12.808 Y35.637 E.03265
G1 X12.05 Y34.64 E.03927
G1 X11.619 Y33.642 E.03408
G1 X11.439 Y32.633 E.03214
G1 X11.432 Y32.032 E.01885
G1 X11.618 Y30.888 E.03634
G1 X12.106 Y29.748 E.03888
G1 X12.771 Y28.865 E.03466
G1 X13.68 Y28.125 E.03675
G1 X14.675 Y27.655 E.0345
G1 X15.181 Y27.527 E.01637
G1 X15.906 Y27.395 E.02311
G1 X16.976 Y27.438 E.03358
G1 X16.976 Y27.438 F54000
G1 X32.963 Y34.441
G1 F1200
G1 X32.963 Y32.382 E.06456
G1 X32.896 Y31.945 E.01386
G1 X32.545 Y31.204 E.02571
G1 X32.545 Y34.941 E.11717
G1 X32.126 Y35.524 E.02251
G1 X32.126 Y30.614 E.15395
G1 X31.707 Y30.153 E.01953
G1 X31.707 Y35.992 E.18308
G1 X31.288 Y36.262 E.01563
G1 X31.288 Y29.879 E.20013
G1 X30.869 Y29.629 E.0153
G1 X30.869 Y36.512 E.21581
G1 X30.45 Y36.671 E.01405
G1 X30.45 Y29.466 E.22591
G1 X30.031 Y29.357 E.01357
G1 X30.031 Y36.784 E.23287
G1 X29.612 Y36.876 E.01345
G1 X29.574 Y29.253 E.23902
G1 X29.193 Y29.273 E.01196
G1 X29.193 Y33.98 E.14758
G1 X29.041 Y33.828 E.00674
G1 X28.774 Y33.828 E.00837
G1 X28.774 Y29.295 E.14213
G1 X28.355 Y29.354 E.01327
G1 X28.355 Y33.828 E.14028
G1 X27.936 Y33.828 E.01314
G1 X27.936 Y29.505 E.13554
G1 X27.517 Y29.427 E.01336
G1 X27.517 Y33.828 E.13799
G1 X27.098 Y33.828 E.01314
G1 X27.098 Y29.319 E.14138
G1 X26.679 Y29.224 E.01347
G1 X26.679 Y33.828 E.14436
G1 X26.26 Y33.828 E.01314
G1 X26.26 Y29.237 E.14395
G1 X25.841 Y29.259 E.01316
G1 X25.841 Y33.828 E.14326
G1 X25.422 Y33.828 E.01314
G1 X25.422 Y29.319 E.14138
G1 X25.003 Y29.471 E.01398
G1 X25.003 Y33.828 E.13661
G1 X24.584 Y33.828 E.01314
G1 X24.584 Y29.419 E.13824
G1 X24.165 Y29.313 E.01355
G1 X24.165 Y33.828 E.14156
G1 X23.746 Y33.828 E.01314
G1 X23.737 Y29.215 E.14464
G1 X23.327 Y29.237 E.01287
G1 X23.327 Y33.828 E.14395
G1 X22.908 Y33.828 E.01314
G1 X22.908 Y29.259 E.14326
G1 X22.489 Y29.244 E.01315
G1 X22.489 Y33.828 E.14373
G1 X22.07 Y33.828 E.01314
G1 X22.07 Y29.04 E.15012
G1 X21.651 Y28.899 E.01386
G1 X21.651 Y33.828 E.15455
G1 X21.232 Y33.828 E.01314
G1 X21.232 Y28.771 E.15856
G1 X20.813 Y28.752 E.01315
G1 X20.813 Y33.828 E.15915
G1 X20.394 Y33.828 E.01314
G1 X20.394 Y28.733 E.15975
G1 X20.223 Y28.725 E.00537
G1 X19.975 Y28.777 E.00794
G1 X19.975 Y33.828 E.15837
G1 X19.556 Y33.828 E.01314
G1 X19.556 Y28.865 E.15561
G1 X19.282 Y28.923 E.00878
G1 X19.137 Y28.787 E.00623
G1 X19.137 Y33.828 E.15806
G1 X18.718 Y33.828 E.01314
G1 X18.718 Y28.476 E.16781
G1 X18.299 Y28.235 E.01516
G1 X18.299 Y33.828 E.17536
G1 X17.88 Y33.828 E.01314
G1 X17.88 Y28.036 E.1816
G1 X17.461 Y27.916 E.01367
G1 X17.461 Y33.828 E.18537
G1 X17.042 Y33.828 E.01314
G1 X17.042 Y27.796 E.18913
G1 X16.623 Y27.763 E.01318
G1 X16.623 Y33.828 E.19016
G1 X16.204 Y33.828 E.01314
G1 X16.204 Y27.747 E.19067
G1 X15.929 Y27.736 E.00863
G1 X15.785 Y27.762 E.00459
G1 X15.785 Y33.828 E.1902
G1 X15.366 Y33.828 E.01314
G1 X15.366 Y27.838 E.18781
G1 X14.947 Y27.936 E.01349
G1 X14.947 Y33.828 E.18474
G1 X14.528 Y34.176 E.01708
G1 X14.528 Y28.099 E.19054
G1 X14.11 Y28.297 E.0145
G1 X14.11 Y36.178 E.2471
G1 X13.691 Y35.934 E.0152
G1 X13.691 Y28.554 E.23139
G1 X13.272 Y28.895 E.01694
G1 X13.272 Y35.583 E.2097
G1 X12.853 Y35.166 E.01853
G1 X12.853 Y29.321 E.18327
G1 X12.434 Y29.878 E.02185
G1 X12.434 Y34.596 E.14793
G1 X12.015 Y33.702 E.03096
G1 X12.015 Y30.325 E.10588
G1 E-.5 F1800
;WIPE_START
G1 F43200
G1 X12.015 Y33.702 E-.13367
G1 X12.434 Y34.596 E-.03908
G1 X12.434 Y29.878 E-.18675
G1 X12.853 Y29.321 E-.02759
G1 X12.853 Y35.166 E-.23136
G1 X13.272 Y35.583 E-.0234
G1 X13.272 Y28.895 E-.26473
G1 X13.691 Y28.554 E-.02138
G1 X13.691 Y35.934 E-.29212
G1 X14.11 Y36.178 E-.01919
G1 X14.11 Y28.297 E-.31196
G1 X14.528 Y28.099 E-.01831
G1 X14.528 Y34.176 E-.24055
G1 X14.947 Y33.828 E-.02156
G1 X14.947 Y29.575 E-.16835
;WIPE_END
G1 X62.811 Y11.249 F54000
G1 E2.5 F1200
G1 X63.373 Y11.275 E.01764
G1 X64.49 Y11.532 E.03594
G1 X65.542 Y11.984 E.0359
G1 X66.496 Y12.617 E.0359
G1 X67.321 Y13.411 E.0359
G1 X67.599 Y13.797 E.01491
G1 X68.3 Y12.991 E.03349
G1 X69.195 Y12.275 E.03594
G1 X70.203 Y11.731 E.03591
G1 X71.293 Y11.377 E.03593
G1 X72.429 Y11.223 E.03594
G1 X73.573 Y11.275 E.03591
G1 X74.69 Y11.532 E.03594
G1 X75.742 Y11.984 E.0359
G1 X76.696 Y12.618 E.03592
G1 X77.521 Y13.411 E.03588
G1 X78.19 Y14.339 E.03587
G1 X78.682 Y15.371 E.03585
G1 X78.981 Y16.474 E.03583
G1 X79.079 Y17.611 E.03578
G1 X78.972 Y18.747 E.03578
G1 X78.664 Y19.845 E.03576
G1 X78.166 Y20.869 E.0357
G1 X77.493 Y21.787 E.03569
G1 X76.669 Y22.571 E.03566
G1 X75.719 Y23.195 E.03564
G1 X74.673 Y23.641 E.03565
G1 X73.566 Y23.893 E.0356
G1 X72.43 Y23.945 E.03566
G1 X71.304 Y23.794 E.03562
G1 X70.222 Y23.445 E.03565
G1 X69.219 Y22.908 E.03567
G1 X68.326 Y22.202 E.03569
G1 X67.597 Y21.373 E.03461
G1 X67.293 Y21.787 E.0161
G1 X66.469 Y22.571 E.03566
G1 X65.519 Y23.195 E.03564
G1 X64.474 Y23.64 E.03561
G1 X63.366 Y23.893 E.03563
G1 X62.231 Y23.944 E.03562
G1 X61.104 Y23.793 E.03565
G1 X60.022 Y23.444 E.03565
G1 X59.019 Y22.908 E.03566
G1 X58.126 Y22.201 E.03571
G1 X57.373 Y21.346 E.03572
G1 X56.785 Y20.37 E.03573
G1 X56.379 Y19.303 E.0358
G1 X56.171 Y18.18 E.03581
G1 X56.166 Y17.038 E.03581
G1 X56.366 Y15.912 E.03586
G1 X56.765 Y14.839 E.03589
G1 X57.349 Y13.855 E.03588
G1 X58.1 Y12.991 E.03589
G1 X58.995 Y12.275 E.03594
G1 X60.003 Y11.731 E.03591
G1 X61.093 Y11.376 E.03594
G1 X62.229 Y11.222 E.03594
G1 X62.755 Y11.247 E.01651
G1 X62.755 Y11.247 F54000
G1 X78.632 Y19.33
G1 F1200
G1 X78.632 Y16.482 E.0893
G1 X78.213 Y15.176 E.043
G1 X78.213 Y19.996 E.15113
G1 X77.794 Y20.802 E.02848
G1 X77.794 Y14.37 E.20167
G1 X77.375 Y13.789 E.02246
G1 X77.375 Y21.375 E.23785
G1 X76.956 Y21.83 E.01939
G1 X76.956 Y13.339 E.26623
G1 X76.537 Y12.936 E.01823
G1 X76.537 Y22.228 E.29134
G1 X76.118 Y22.527 E.01614
G1 X76.118 Y12.641 E.30997
G1 X75.699 Y12.363 E.01577
G1 X75.699 Y22.803 E.32734
G1 X75.28 Y23.014 E.01471
G1 X75.28 Y12.155 E.34048
G1 X74.861 Y11.975 E.0143
G1 X74.861 Y23.192 E.3517
G1 X74.442 Y23.345 E.01399
G1 X74.442 Y11.823 E.36126
G1 X74.023 Y11.727 E.01348
G1 X74.023 Y23.441 E.36728
G1 X73.604 Y23.536 E.01347
G1 X73.604 Y11.631 E.37327
G1 X73.185 Y11.597 E.01318
G1 X73.185 Y23.571 E.37544
G1 X72.766 Y23.59 E.01315
G1 X72.766 Y11.578 E.37663
G1 X72.347 Y11.576 E.01314
G1 X72.347 Y23.591 E.37672
G1 X71.928 Y23.535 E.01325
G1 X71.928 Y11.633 E.37318
G1 X71.509 Y11.69 E.01326
G1 X71.509 Y23.479 E.36964
G1 X71.09 Y23.368 E.01359
G1 X71.09 Y11.799 E.36274
G1 X70.671 Y11.936 E.01382
G1 X70.671 Y23.233 E.35421
G1 X70.252 Y23.076 E.01403
G1 X70.252 Y12.09 E.34446
G1 X69.833 Y12.316 E.01493
G1 X69.833 Y22.852 E.33035
G1 X69.414 Y22.628 E.0149
G1 X69.414 Y12.542 E.31624
G1 X68.996 Y12.869 E.01664
G1 X68.996 Y22.299 E.29567
G1 X68.577 Y21.967 E.01676
G1 X68.577 Y13.205 E.27473
G1 X68.158 Y13.673 E.0197
G1 X68.158 Y21.497 E.24532
G1 X67.739 Y21.021 E.01988
G1 X67.739 Y14.154 E.21531
G1 X67.575 Y14.343 E.00785
G1 X67.32 Y13.989 E.01368
G1 X67.32 Y21.177 E.22537
G1 X66.901 Y21.692 E.02082
G1 X66.901 Y13.477 E.25758
G1 X66.482 Y13.074 E.01823
G1 X66.482 Y22.091 E.28272
G1 X66.063 Y22.432 E.01694
G1 X66.063 Y12.737 E.30398
G1 X65.644 Y12.459 E.01577
G1 X65.644 Y22.707 E.32132
G1 X65.225 Y22.952 E.01522
G1 X65.225 Y12.217 E.33659
G1 X64.806 Y12.037 E.0143
G1 X64.806 Y23.13 E.34781
G1 X64.387 Y23.309 E.01429
G1 X64.387 Y11.857 E.35907
G1 X63.968 Y11.76 E.01348
G1 X63.968 Y23.408 E.36521
G1 X63.549 Y23.503 E.01347
G1 X63.549 Y11.663 E.37123
G1 X63.13 Y11.604 E.01327
G1 X63.13 Y23.564 E.375
G1 X62.711 Y23.583 E.01315
G1 X62.711 Y11.584 E.37622
G1 X62.292 Y11.565 E.01315
G1 X62.292 Y23.602 E.37741
G1 X61.873 Y23.554 E.01322
G1 X61.873 Y11.613 E.3744
G1 X61.454 Y11.67 E.01326
G1 X61.454 Y23.498 E.37086
G1 X61.179 Y23.461 E.0087
G1 X61.035 Y23.415 E.00474
G1 X61.035 Y11.752 E.36569
G1 X60.616 Y11.888 E.01381
G1 X60.616 Y23.279 E.35716
G1 X60.197 Y23.144 E.0138
G1 X60.197 Y12.025 E.34863
G1 X59.778 Y12.238 E.01474
G1 X59.778 Y22.929 E.33521
G1 X59.359 Y22.705 E.0149
G1 X59.359 Y12.464 E.3211
G1 X58.94 Y12.753 E.01596
G1 X58.94 Y22.413 E.30288
G1 X58.521 Y22.081 E.01676
G1 X58.521 Y13.089 E.28194
G1 X58.102 Y13.506 E.01853
G1 X58.102 Y21.66 E.25566
G1 X57.683 Y21.185 E.01986
G1 X57.683 Y13.988 E.22566
G1 X57.264 Y14.663 E.02491
G1 X57.264 Y20.508 E.18327
G1 X56.845 Y19.574 E.0321
G1 X56.845 Y15.11 E.13997
G1 E-.5 F1800
;WIPE_START
G1 F43200
G1 X56.845 Y19.574 E-.1767
G1 X57.264 Y20.508 E-.04052
G1 X57.264 Y14.663 E-.23136
G1 X57.683 Y13.988 E-.03145
G1 X57.683 Y21.185 E-.28488
G1 X58.102 Y21.66 E-.02507
G1 X58.102 Y13.506 E-.32276
G1 X58.521 Y13.089 E-.0234
G1 X58.521 Y22.081 E-.35593
G1 X58.94 Y22.413 E-.02116
G1 X58.94 Y12.753 E-.38238
G1 X59.359 Y12.464 E-.02015
G1 X59.359 Y14.592 E-.08424
;WIPE_END
G1 X81.761 Y23.391 F54000
G1 E2.5 F1200
G1 X82.403 Y23.471 E.02029
G1 X83.486 Y23.875 E.03624
G1 X84.462 Y24.582 E.03779
G1 X85.202 Y25.508 E.03717
G1 X85.428 Y26.015 E.0174
G1 X85.69 Y26.639 E.02122
G1 X85.853 Y27.818 E.03732
G1 X85.696 Y29 E.03739
G1 X85.216 Y30.13 E.03849
G1 X84.48 Y31.06 E.03719
G1 X83.536 Y31.753 E.03672
G1 X83.196 Y31.891 E.01151
G1 X83.749 Y32.811 E.03366
G1 X84.115 Y33.899 E.03599
G1 X84.239 Y35.036 E.03586
G1 X84.062 Y36.331 E.04098
G1 X84.239 Y37.626 E.04098
G1 X84.115 Y38.764 E.03589
G1 X84.004 Y39.097 E.01101
G1 X84.114 Y39.425 E.01085
G1 X84.239 Y40.563 E.0359
G1 X84.116 Y41.702 E.03592
G1 X83.776 Y42.713 E.03344
G1 X84.148 Y43.817 E.03653
G1 X84.273 Y44.957 E.03596
G1 X84.15 Y46.103 E.03614
G1 X83.784 Y47.191 E.03599
G1 X83.194 Y48.175 E.03597
G1 X82.406 Y49.011 E.03602
G1 X81.459 Y49.658 E.03596
