; generated by PrusaSlicer 2.9.0 on 2025-01-21 at 11:50:10 UTC

; 

; external perimeters extrusion width = 0.42mm
; perimeters extrusion width = 0.44mm
; infill extrusion width = 0.44mm
; solid infill extrusion width = 0.44mm
; top infill extrusion width = 0.40mm
; support material extrusion width = 0.36mm
; first layer extrusion width = 0.42mm


; printing object x_axis_carriage_printable_design_with_klackender.stl id:0 copy 0
; stop printing object x_axis_carriage_printable_design_with_klackender.stl id:0 copy 0

;TYPE:Custom
G90 ; use absolute coordinates
M83 ; extruder relative mode
M104 S150 ; set temporary nozzle temp to prevent oozing during homing
M140 S60 ; set final bed temp
G4 S30 ; allow partial nozzle warmup
G28 ; home all axis
G1 Z50 F240
G1 X2.0 Y10 F3000
M104 S210 ; set final nozzle temp
M190 S60 ; wait for bed temp to stabilize
M109 S210 ; wait for nozzle temp to stabilize
G1 Z0.28 F240
G92 E0
G1 X2.0 Y140 E10 F1500 ; prime the nozzle
G1 X2.3 Y140 F5000
G92 E0
G1 X2.3 Y10 E10 F1200 ; prime the nozzle
G92 E0
G21 ; set units to millimeters
G90 ; use absolute coordinates
M83 ; use relative distances for extrusion
; Filament gcode
M107
;LAYER_CHANGE
;Z:0.2
;HEIGHT:0.2
G1 E-2.5 F1800
G1 Z.2 F54000
G1 X47.897 Y59.862
G1 Z.2
G1 E2.5 F1200
M204 S3500
;TYPE:Skirt/Brim
;WIDTH:0.42
G1 X74.242 Y48.686 E.89728
G1 X76.228 Y48.043 E.06545
G1 X92.304 Y44.778 E.51434
G1 X92.936 Y44.715 E.01991
G1 X112.469 Y44.715 E.61244
G1 X113.04 Y44.766 E.01797
G1 X118.067 Y46.28 E.16461
G1 X119.417 Y47.109 E.04967
G1 X120.201 Y48.486 E.04968
G1 X120.314 Y49.326 E.02657
G1 X120.314 Y72.345 E.72174
G1 X120.252 Y72.968 E.01963
G1 X113.003 Y109.282 E1.16106
G1 X112.581 Y110.622 E.04405
G1 X111.994 Y111.898 E.04404
G1 X111.252 Y113.091 E.04405
G1 X110.376 Y114.17 E.04358
G1 X108.799 Y115.588 E.0665
G1 X107.62 Y116.352 E.04405
G1 X106.815 Y116.762 E.02833
G1 X105.504 Y117.267 E.04405
G1 X104.337 Y117.567 E.03778
G1 X103.445 Y117.708 E.02832
G1 X102.142 Y117.785 E.04093
G1 X56.54 Y117.768 E1.42982
G1 X54.458 Y117.457 E.066
G1 X52.931 Y116.961 E.05034
G1 X51.232 Y116.096 E.05978
G1 X49.557 Y114.82 E.06602
G1 X48.151 Y113.253 E.06601
G1 X47.063 Y111.451 E.066
G1 X46.704 Y110.622 E.02833
G1 X46.286 Y109.297 E.04356
G1 X45.972 Y107.215 E.06602
G1 X45.954 Y62.797 E1.3927
G1 X46.348 Y61.262 E.04969
G1 X47.853 Y59.902 E.0636
G1 E-.5 F1800
;WIPE_START
G1 F43200
G1 X47.897 Y59.862 E-.00235
G1 X74.242 Y48.686 E-1.13278
G1 X76.228 Y48.043 E-.08263
G1 X92.304 Y44.778 E-.64933
G1 X92.936 Y44.715 E-.02514
G1 X95.659 Y44.715 E-.10777
;WIPE_END
; printing object x_axis_carriage_printable_design_with_klackender.stl id:0 copy 0
G1 X117.125 Y72.345 F54000
G1 E2.5 F1200
;TYPE:Support material
G1 X110.604 Y72.345 E.20446
G1 X110.604 Y62.605 E.30539
G1 X110.334 Y62.335 E.01197
G1 X108.594 Y62.335 E.05456
G1 X108.594 Y61.808 E.01652
G1 X102.638 Y61.808 E.18675
G1 X102.638 Y62.335 E.01652
G1 X98.451 Y62.335 E.13128
G1 X98.18 Y62.605 E.01199
G1 X98.18 Y66.835 E.13263
G1 X92.394 Y66.835 E.18142
G1 X92.394 Y62.786 E.12695
G1 X92.295 Y61.225 E.04904
G1 X92.004 Y59.7 E.04868
G1 X91.521 Y58.209 E.04914
G1 X90.854 Y56.79 E.04916
G1 X90.155 Y55.673 E.04132
G1 X90.155 Y51.263 E.13827
G1 X91.586 Y50.975 E.04577
G1 X91.621 Y51.525 E.01728
G1 X92.362 Y52.794 E.04608
G1 X92.992 Y54.203 E.04839
G1 X93.225 Y54.359 E.00879
G1 X112.392 Y54.358 E.60097
G1 X112.938 Y54.239 E.01752
G1 X113.375 Y53.947 E.01648
G1 X113.586 Y53.69 E.01043
G1 X113.787 Y53.204 E.01649
G1 X113.82 Y49.326 E.1216
G1 X117.125 Y49.326 E.10363
G1 X117.125 Y72.288 E.71996
G1 X117.125 Y72.288 F54000
G1 X116.444 Y72.175
G1 F1200
G1 X116.444 Y49.665 E.70579
G1 X116.025 Y49.665 E.01314
G1 X116.025 Y72.005 E.70046
G1 X115.606 Y72.005 E.01314
G1 X115.606 Y49.665 E.70046
G1 X115.187 Y49.665 E.01314
G1 X115.187 Y72.005 E.70046
G1 X114.768 Y72.005 E.01314
G1 X114.768 Y49.665 E.70046
G1 X114.349 Y49.665 E.01314
G1 X114.349 Y72.005 E.70046
G1 X113.93 Y72.005 E.01314
G1 X113.93 Y53.766 E.57187
G1 X113.511 Y54.274 E.02065
G1 X113.511 Y72.005 E.55594
G1 X113.092 Y72.005 E.01314
G1 X113.092 Y54.541 E.54757
G1 X112.673 Y54.671 E.01376
G1 X112.673 Y72.005 E.5435
G1 X112.254 Y72.005 E.01314
G1 X112.254 Y54.698 E.54265
G1 X111.835 Y54.698 E.01314
G1 X111.835 Y72.005 E.54265
G1 X111.416 Y72.005 E.01314
G1 X111.416 Y54.698 E.54265
G1 X110.997 Y54.698 E.01314
G1 X110.997 Y72.005 E.54265
G1 X110.944 Y72.005 E.00166
G1 X110.944 Y62.465 E.29912
G1 X110.578 Y62.099 E.01623
G1 X110.578 Y54.698 E.23205
G1 X110.159 Y54.698 E.01314
G1 X110.159 Y61.995 E.22879
G1 X109.74 Y61.995 E.01314
G1 X109.74 Y54.698 E.22879
G1 X109.321 Y54.698 E.01314
G1 X109.321 Y61.995 E.22879
G1 X108.934 Y61.995 E.01213
G1 X108.902 Y61.469 E.01652
G1 X108.902 Y54.698 E.2123
G1 X108.484 Y54.698 E.01311
G1 X108.484 Y61.469 E.2123
G1 X108.065 Y61.469 E.01314
G1 X108.065 Y54.698 E.2123
G1 X107.646 Y54.698 E.01314
G1 X107.646 Y61.469 E.2123
G1 X107.227 Y61.469 E.01314
G1 X107.227 Y54.698 E.2123
G1 X106.808 Y54.698 E.01314
G1 X106.808 Y61.469 E.2123
G1 X106.389 Y61.469 E.01314
G1 X106.389 Y54.698 E.2123
G1 X105.97 Y54.698 E.01314
G1 X105.97 Y61.469 E.2123
G1 X105.551 Y61.469 E.01314
G1 X105.551 Y54.698 E.2123
G1 X105.132 Y54.698 E.01314
G1 X105.132 Y61.469 E.2123
G1 X104.713 Y61.469 E.01314
G1 X104.713 Y54.698 E.2123
G1 X104.294 Y54.698 E.01314
G1 X104.294 Y61.469 E.2123
G1 X103.875 Y61.469 E.01314
G1 X103.875 Y54.698 E.2123
G1 X103.456 Y54.698 E.01314
G1 X103.456 Y61.469 E.2123
G1 X103.037 Y61.469 E.01314
G1 X103.037 Y54.698 E.2123
G1 X102.618 Y54.698 E.01314
G1 X102.618 Y61.469 E.2123
G1 X102.298 Y61.469 E.01003
G1 X102.298 Y61.995 E.01649
G1 X102.199 Y61.995 E.0031
G1 X102.199 Y54.698 E.22879
G1 X101.78 Y54.698 E.01314
G1 X101.78 Y61.995 E.22879
G1 X101.361 Y61.995 E.01314
G1 X101.361 Y54.698 E.22879
G1 X100.942 Y54.698 E.01314
G1 X100.942 Y61.995 E.22879
G1 X100.523 Y61.995 E.01314
G1 X100.523 Y54.698 E.22879
G1 X100.104 Y54.698 E.01314
G1 X100.104 Y61.995 E.22879
G1 X99.685 Y61.995 E.01314
G1 X99.685 Y54.698 E.22879
G1 X99.266 Y54.698 E.01314
G1 X99.266 Y61.995 E.22879
G1 X98.847 Y61.995 E.01314
G1 X98.847 Y54.698 E.22879
G1 X98.428 Y54.698 E.01314
G1 X98.428 Y61.995 E.22879
G1 X98.311 Y61.995 E.00367
G1 X98.009 Y62.297 E.01339
G1 X98.009 Y54.698 E.23826
G1 X97.59 Y54.698 E.01314
G1 X97.59 Y66.495 E.36989
G1 X97.171 Y66.495 E.01314
G1 X97.171 Y54.698 E.36989
G1 X96.752 Y54.698 E.01314
G1 X96.752 Y66.495 E.36989
G1 X96.333 Y66.495 E.01314
G1 X96.333 Y54.698 E.36989
G1 X95.914 Y54.698 E.01314
G1 X95.914 Y66.495 E.36989
G1 X95.495 Y66.495 E.01314
G1 X95.495 Y54.698 E.36989
G1 X95.076 Y54.698 E.01314
G1 X95.076 Y66.495 E.36989
G1 X94.657 Y66.495 E.01314
G1 X94.657 Y54.698 E.36989
G1 X94.238 Y54.698 E.01314
G1 X94.238 Y66.495 E.36989
G1 X93.819 Y66.495 E.01314
G1 X93.819 Y54.698 E.36989
G1 X93.4 Y54.698 E.01314
G1 X93.4 Y66.495 E.36989
G1 X92.981 Y66.495 E.01314
G1 X92.981 Y54.604 E.37283
G1 X92.718 Y54.428 E.00992
G1 X92.562 Y54.055 E.01268
G1 X92.562 Y60.743 E.2097
G1 X92.143 Y58.961 E.0574
G1 X92.143 Y53.122 E.18308
G1 X91.724 Y52.338 E.02787
G1 X91.724 Y57.824 E.17201
G1 X91.305 Y56.928 E.03101
G1 X91.305 Y51.657 E.16527
G1 X91.246 Y51.39 E.00857
G1 X90.886 Y51.462 E.01151
G1 X90.886 Y56.511 E.15831
G1 E-.5 F1800
;WIPE_START
G1 F43200
G1 X90.886 Y51.462 E-.19986
G1 X91.246 Y51.39 E-.01453
G1 X91.305 Y51.657 E-.01082
G1 X91.305 Y56.928 E-.20864
G1 X91.724 Y57.824 E-.03915
G1 X91.724 Y52.338 E-.21715
G1 X92.143 Y53.122 E-.03519
G1 X92.143 Y58.961 E-.23113
G1 X92.562 Y60.743 E-.07246
G1 X92.562 Y54.055 E-.26473
G1 X92.718 Y54.428 E-.016
G1 X92.981 Y54.604 E-.01253
G1 X92.981 Y66.495 E-.47069
G1 X93.4 Y66.495 E-.01659
G1 X93.4 Y61.682 E-.19053
;WIPE_END
G1 X76.109 Y93.454 F54000
G1 E2.5 F1200
;TYPE:Perimeter
;WIDTH:0.419999
G1 X76.054 Y93.457 E.00173
G1 X75.555 Y93.385 E.01581
G1 X75.048 Y93.204 E.01688
G1 X74.625 Y92.935 E.01572
G1 X74.214 Y92.52 E.01831
G1 X73.97 Y92.147 E.01398
G1 X73.797 Y91.731 E.01413
G1 X73.709 Y91.371 E.01162
G1 X73.682 Y90.908 E.01454
G1 X73.742 Y90.449 E.01451
G1 X73.888 Y90.009 E.01454
G1 X74.113 Y89.604 E.01453
G1 X74.452 Y89.211 E.01627
G1 X74.768 Y88.955 E.01275
G1 X75.175 Y88.733 E.01454
G1 X75.645 Y88.588 E.01542
G1 X76.224 Y88.537 E.01822
G1 X76.69 Y88.597 E.01473
G1 X77.13 Y88.742 E.01453
G1 X77.536 Y88.967 E.01455
G1 X77.891 Y89.264 E.01451
G1 X78.185 Y89.622 E.01452
G1 X78.416 Y90.058 E.01547
G1 X78.576 Y90.623 E.01841
G1 X78.602 Y91.088 E.0146
G1 X78.532 Y91.579 E.01555
G1 X78.368 Y92.056 E.01582
G1 X78.1 Y92.492 E.01605
G1 X77.762 Y92.851 E.01546
G1 X77.386 Y93.122 E.01453
G1 X76.965 Y93.317 E.01455
G1 X76.516 Y93.43 E.01452
G1 X76.169 Y93.45 E.0109
G1 X76.169 Y93.45 F54000
G1 X76.121 Y93.062
G1 F1200
G1 X75.804 Y93.055 E.00994
G1 X75.32 Y92.912 E.01582
G1 X74.874 Y92.652 E.01619
G1 X74.512 Y92.289 E.01607
G1 X74.224 Y91.814 E.01742
G1 X74.085 Y91.335 E.01564
G1 X74.058 Y90.944 E.01229
G1 X74.105 Y90.554 E.01232
G1 X74.224 Y90.18 E.01231
G1 X74.411 Y89.835 E.0123
G1 X74.702 Y89.494 E.01406
G1 X74.96 Y89.279 E.01053
G1 X75.303 Y89.088 E.01231
G1 X75.693 Y88.962 E.01285
G1 X76.189 Y88.912 E.01563
G1 X76.585 Y88.959 E.0125
G1 X76.959 Y89.078 E.01231
G1 X77.304 Y89.265 E.0123
G1 X77.608 Y89.514 E.01232
G1 X77.86 Y89.814 E.01228
G1 X78.057 Y90.175 E.01289
G1 X78.2 Y90.658 E.01579
G1 X78.227 Y91.051 E.01235
G1 X78.174 Y91.462 E.01299
G1 X78.006 Y91.933 E.01568
G1 X77.798 Y92.265 E.01228
G1 X77.531 Y92.553 E.01231
G1 X77.215 Y92.786 E.01231
G1 X76.86 Y92.955 E.01233
G1 X76.34 Y93.068 E.01668
G1 X76.181 Y93.064 E.00499
G1 X76.181 Y93.064 F54000
G1 X76.133 Y92.686
;TYPE:External perimeter
G1 F1200
G1 X75.806 Y92.673 E.01026
G1 X75.344 Y92.503 E.01544
G1 X75.008 Y92.268 E.01286
G1 X74.69 Y91.898 E.0153
G1 X74.521 Y91.521 E.01295
G1 X74.433 Y91.015 E.0161
G1 X74.467 Y90.659 E.01121
G1 X74.56 Y90.351 E.01009
G1 X74.709 Y90.066 E.01008
G1 X74.951 Y89.777 E.01182
G1 X75.152 Y89.604 E.00832
G1 X75.431 Y89.443 E.0101
G1 X75.74 Y89.336 E.01025
G1 X76.154 Y89.288 E.01307
G1 X76.48 Y89.321 E.01027
G1 X76.788 Y89.414 E.01009
G1 X77.073 Y89.563 E.01008
G1 X77.326 Y89.763 E.01011
G1 X77.536 Y90.006 E.01007
G1 X77.699 Y90.291 E.01029
G1 X77.837 Y90.819 E.01711
G1 X77.821 Y91.323 E.01581
G1 X77.682 Y91.74 E.01378
G1 X77.515 Y92.016 E.01011
G1 X77.3 Y92.255 E.01008
G1 X77.043 Y92.45 E.01012
G1 X76.755 Y92.593 E.01008
G1 X76.304 Y92.693 E.01448
G1 X76.193 Y92.688 E.00348
G1 E-.5 F1800
;WIPE_START
G1 F43200
G1 X76.133 Y92.686 E-.00238
G1 X75.806 Y92.673 E-.01295
G1 X75.344 Y92.503 E-.01949
G1 X75.008 Y92.268 E-.01623
G1 X74.69 Y91.898 E-.01931
G1 X74.521 Y91.521 E-.01635
G1 X74.433 Y91.015 E-.02033
G1 X74.467 Y90.659 E-.01416
G1 X74.56 Y90.351 E-.01274
G1 X74.709 Y90.066 E-.01273
G1 X74.951 Y89.777 E-.01492
G1 X75.152 Y89.604 E-.0105
G1 X75.431 Y89.443 E-.01275
G1 X75.74 Y89.336 E-.01294
G1 X76.154 Y89.288 E-.0165
G1 X76.48 Y89.321 E-.01297
G1 X76.788 Y89.414 E-.01274
G1 X77.073 Y89.563 E-.01273
G1 X77.326 Y89.763 E-.01277
G1 X77.536 Y90.006 E-.01271
G1 X77.699 Y90.291 E-.013
G1 X77.837 Y90.819 E-.0216
G1 X77.821 Y91.323 E-.01996
G1 X77.682 Y91.74 E-.0174
G1 X77.515 Y92.016 E-.01277
G1 X77.3 Y92.255 E-.01273
G1 X77.043 Y92.45 E-.01277
G1 X76.755 Y92.593 E-.01273
G1 X76.304 Y92.693 E-.01829
G1 X76.193 Y92.688 E-.0044
;WIPE_END
G1 E-1.57615 F1800
G1 X66.109 Y92.104 F54000
G1 E2.5 F1200
;TYPE:Perimeter
G1 X66.054 Y92.107 E.00173
G1 X65.566 Y92.038 E.01545
G1 X65.076 Y91.869 E.01625
G1 X64.625 Y91.585 E.01671
G1 X64.288 Y91.266 E.01455
G1 X64.018 Y90.89 E.01451
G1 X63.822 Y90.47 E.01453
G1 X63.709 Y90.021 E.01452
G1 X63.682 Y89.558 E.01454
G1 X63.743 Y89.099 E.01452
G1 X63.888 Y88.659 E.01453
G1 X64.113 Y88.254 E.01453
G1 X64.41 Y87.898 E.01454
G1 X64.768 Y87.605 E.0145
G1 X65.175 Y87.383 E.01454
G1 X65.645 Y87.238 E.01542
G1 X66.22 Y87.186 E.0181
G1 X66.69 Y87.247 E.01486
G1 X67.13 Y87.392 E.01453
G1 X67.548 Y87.627 E.01504
G1 X67.91 Y87.936 E.01492
G1 X68.186 Y88.274 E.01368
G1 X68.418 Y88.714 E.0156
G1 X68.572 Y89.237 E.01709
G1 X68.603 Y89.736 E.01568
G1 X68.534 Y90.223 E.01542
G1 X68.367 Y90.708 E.01608
G1 X68.081 Y91.165 E.0169
G1 X67.666 Y91.576 E.01831
G1 X67.249 Y91.841 E.01549
G1 X66.966 Y91.967 E.00971
G1 X66.516 Y92.08 E.01455
G1 X66.169 Y92.1 E.0109
G1 X66.169 Y92.1 F54000
G1 X66.121 Y91.729
G1 F1200
G1 X66.089 Y91.732 E.00101
G1 X65.682 Y91.679 E.01287
G1 X65.207 Y91.511 E.0158
G1 X64.874 Y91.302 E.01233
G1 X64.586 Y91.035 E.01231
G1 X64.354 Y90.719 E.01229
G1 X64.185 Y90.365 E.0123
G1 X64.085 Y89.985 E.01232
G1 X64.058 Y89.594 E.01229
G1 X64.105 Y89.204 E.01232
G1 X64.224 Y88.83 E.01231
G1 X64.411 Y88.485 E.0123
G1 X64.659 Y88.181 E.0123
G1 X64.96 Y87.929 E.01231
G1 X65.303 Y87.738 E.01231
G1 X65.693 Y87.612 E.01285
G1 X66.204 Y87.564 E.01609
G1 X66.585 Y87.609 E.01203
G1 X66.959 Y87.728 E.01231
G1 X67.317 Y87.925 E.01281
G1 X67.628 Y88.185 E.01271
G1 X67.861 Y88.466 E.01145
G1 X68.06 Y88.83 E.01301
G1 X68.2 Y89.308 E.01562
G1 X68.227 Y89.7 E.01232
G1 X68.175 Y90.107 E.01286
G1 X68.006 Y90.583 E.01584
G1 X67.729 Y90.994 E.01554
G1 X67.435 Y91.278 E.01282
G1 X66.959 Y91.566 E.01744
G1 X66.481 Y91.705 E.01561
G1 X66.181 Y91.725 E.00943
G1 X66.181 Y91.725 F54000
G1 X66.133 Y91.355
;TYPE:External perimeter
G1 F1200
G1 X66.125 Y91.356 E.00025
G1 X65.799 Y91.321 E.01028
G1 X65.399 Y91.186 E.01324
G1 X65.123 Y91.019 E.01011
G1 X64.884 Y90.804 E.01008
G1 X64.69 Y90.548 E.01007
G1 X64.547 Y90.26 E.01008
G1 X64.46 Y89.95 E.0101
G1 X64.433 Y89.629 E.0101
G1 X64.467 Y89.309 E.01009
G1 X64.56 Y89.001 E.01009
G1 X64.709 Y88.716 E.01008
G1 X64.909 Y88.464 E.01009
G1 X65.152 Y88.254 E.01007
G1 X65.431 Y88.093 E.0101
G1 X65.74 Y87.986 E.01025
G1 X66.17 Y87.939 E.01356
G1 X66.48 Y87.971 E.00977
G1 X66.788 Y88.064 E.01009
G1 X67.086 Y88.223 E.01059
G1 X67.345 Y88.435 E.01049
G1 X67.631 Y88.818 E.01499
G1 X67.816 Y89.303 E.01628
G1 X67.852 Y89.665 E.01141
G1 X67.816 Y89.991 E.01028
G1 X67.635 Y90.47 E.01606
G1 X67.326 Y90.881 E.01612
G1 X66.906 Y91.169 E.01597
G1 X66.445 Y91.329 E.0153
G1 X66.193 Y91.35 E.00793
G1 E-.5 F1800
;WIPE_START
G1 F43200
G1 X66.133 Y91.355 E-.00238
G1 X66.125 Y91.356 E-.00032
G1 X65.799 Y91.321 E-.01298
G1 X65.399 Y91.186 E-.01671
G1 X65.123 Y91.019 E-.01277
G1 X64.884 Y90.804 E-.01273
G1 X64.69 Y90.548 E-.01271
G1 X64.547 Y90.26 E-.01273
G1 X64.46 Y89.95 E-.01274
G1 X64.433 Y89.629 E-.01275
G1 X64.467 Y89.309 E-.01274
G1 X64.56 Y89.001 E-.01274
G1 X64.709 Y88.716 E-.01273
G1 X64.909 Y88.464 E-.01273
G1 X65.152 Y88.254 E-.01271
G1 X65.431 Y88.093 E-.01275
G1 X65.74 Y87.986 E-.01294
G1 X66.17 Y87.939 E-.01712
G1 X66.48 Y87.971 E-.01234
G1 X66.788 Y88.064 E-.01274
G1 X67.086 Y88.223 E-.01337
G1 X67.345 Y88.435 E-.01325
G1 X67.631 Y88.818 E-.01892
G1 X67.816 Y89.303 E-.02055
G1 X67.852 Y89.665 E-.0144
G1 X67.816 Y89.991 E-.01298
G1 X67.635 Y90.47 E-.02027
G1 X67.326 Y90.881 E-.02035
G1 X66.906 Y91.169 E-.02016
G1 X66.445 Y91.329 E-.01932
G1 X66.193 Y91.35 E-.01001
;WIPE_END
G1 E-1.57606 F1800
G1 X66.176 Y80.4 F54000
G1 E2.5 F1200
;TYPE:Perimeter
G1 X66.054 Y80.407 E.00383
G1 X65.594 Y80.347 E.01455
G1 X65.154 Y80.202 E.01453
G1 X64.749 Y79.976 E.01454
G1 X64.394 Y79.679 E.01451
G1 X64.1 Y79.321 E.01452
G1 X63.869 Y78.886 E.01544
G1 X63.709 Y78.321 E.01841
G1 X63.682 Y77.858 E.01454
G1 X63.742 Y77.399 E.01451
G1 X63.888 Y76.959 E.01454
G1 X64.113 Y76.554 E.01453
G1 X64.41 Y76.198 E.01454
G1 X64.768 Y75.904 E.01452
G1 X65.175 Y75.683 E.01452
G1 X65.645 Y75.538 E.01542
G1 X66.224 Y75.487 E.01822
G1 X66.69 Y75.547 E.01473
G1 X67.241 Y75.748 E.01839
G1 X67.536 Y75.917 E.01066
G1 X67.891 Y76.214 E.01451
G1 X68.186 Y76.574 E.01459
G1 X68.418 Y77.014 E.0156
G1 X68.576 Y77.573 E.01821
G1 X68.603 Y78.036 E.01454
G1 X68.534 Y78.523 E.01542
G1 X68.331 Y79.075 E.01844
G1 X68.081 Y79.464 E.0145
G1 X67.762 Y79.801 E.01455
G1 X67.386 Y80.072 E.01453
G1 X66.965 Y80.267 E.01455
G1 X66.506 Y80.381 E.01483
G1 X66.236 Y80.396 E.00848
G1 X66.236 Y80.396 F54000
G1 X66.164 Y80.013
G1 F1200
G1 X65.941 Y80.018 E.00699
G1 X65.425 Y79.905 E.01656
G1 X64.98 Y79.679 E.01565
G1 X64.676 Y79.43 E.01232
G1 X64.425 Y79.129 E.01229
