; generated by PrusaSlicer 2.9.0 on 2025-01-22 at 08:29:54 UTC

; 

; external perimeters extrusion width = 0.42mm
; perimeters extrusion width = 0.44mm
; infill extrusion width = 0.44mm
; solid infill extrusion width = 0.44mm
; top infill extrusion width = 0.40mm
; support material extrusion width = 0.36mm
; first layer extrusion width = 0.42mm


; printing object x_axis_carriage_printable_design_with_klackender.stl id:0 copy 0
; stop printing object x_axis_carriage_printable_design_with_klackender.stl id:0 copy 0

;TYPE:Custom
G90 ; use absolute coordinates
M83 ; extruder relative mode
M104 S210 ; set temporary nozzle temp to prevent oozing during homing
M140 S60 ; set final bed temp
G4 S30 ; allow partial nozzle warmup
G28 ; home all axis
G1 Z50 F240
G1 X2.0 Y10 F3000
M104 S210 ; set final nozzle temp
M190 S60 ; wait for bed temp to stabilize
M109 S210 ; wait for nozzle temp to stabilize
G1 Z0.28 F240
G92 E0
G1 X2.0 Y140 E10 F1500 ; prime the nozzle
G1 X2.3 Y140 F5000
G92 E0
G1 X2.3 Y10 E10 F1200 ; prime the nozzle
G92 E0
G21 ; set units to millimeters
G90 ; use absolute coordinates
M83 ; use relative distances for extrusion
; Filament gcode
M107
;LAYER_CHANGE
;Z:0.2
;HEIGHT:0.2
G1 E-2.5 F1800
G1 Z.2 F54000
G1 X34.58 Y77.083
G1 Z.2
G1 E2.5 F1200
M204 S3500
;TYPE:Skirt/Brim
;WIDTH:0.42
G1 X63.534 Y64.093 E.99501
G1 X64.839 Y63.814 E.04184
G1 X86.541 Y63.814 E.68045
G1 X88.076 Y64.208 E.04969
G1 X89.092 Y65.09 E.04218
G1 X93.043 Y70.358 E.20647
G1 X93.681 Y72.271 E.06323
G1 X93.681 Y95.29 E.72174
G1 X93.619 Y95.917 E.01976
G1 X86.37 Y131.977 E1.15326
G1 X85.952 Y133.306 E.04368
G1 X85.361 Y134.593 E.0444
G1 X84.619 Y135.787 E.04408
G1 X83.741 Y136.868 E.04367
G1 X82.166 Y138.284 E.06641
G1 X80.987 Y139.047 E.04403
G1 X80.182 Y139.457 E.02833
G1 X78.871 Y139.962 E.04405
G1 X77.704 Y140.262 E.03778
G1 X76.812 Y140.403 E.02832
G1 X75.51 Y140.481 E.0409
G1 X29.907 Y140.463 E1.42985
G1 X27.825 Y140.153 E.066
G1 X26.298 Y139.657 E.05034
G1 X24.6 Y138.791 E.05976
G1 X22.924 Y137.515 E.06605
G1 X21.518 Y135.949 E.06599
G1 X20.43 Y134.146 E.06603
G1 X19.699 Y132.171 E.06603
G1 X19.502 Y131.29 E.02831
G1 X19.34 Y129.912 E.0435
G1 X19.321 Y85.992 E1.37708
G1 X19.715 Y84.457 E.04969
G1 X21.204 Y83.083 E.06353
G1 X34.525 Y77.107 E.45777
G1 E-.5 F1800
;WIPE_START
G1 F43200
G1 X34.58 Y77.083 E-.00238
G1 X63.534 Y64.093 E-1.25615
G1 X64.839 Y63.814 E-.05282
G1 X82.237 Y63.814 E-.68865
;WIPE_END
; printing object x_axis_carriage_printable_design_with_klackender.stl id:0 copy 0
G1 X90.493 Y95.29 F54000
G1 E2.5 F1200
;TYPE:Support material
G1 X83.972 Y95.29 E.20446
G1 X83.972 Y85.801 E.29752
G1 X83.701 Y85.53 E.01202
G1 X81.962 Y85.53 E.05453
G1 X81.962 Y84.753 E.02436
G1 X76.005 Y84.753 E.18678
G1 X76.005 Y85.53 E.02436
G1 X71.818 Y85.53 E.13128
G1 X71.548 Y85.801 E.01199
G1 X71.548 Y89.53 E.11692
G1 X65.762 Y89.53 E.18142
G1 X65.761 Y85.981 E.11128
G1 X65.662 Y84.42 E.04904
G1 X65.371 Y82.895 E.04868
G1 X64.888 Y81.404 E.04914
G1 X64.221 Y79.985 E.04916
G1 X63.522 Y78.868 E.04132
G1 X63.522 Y74.458 E.13827
G1 X64.953 Y74.17 E.04577
G1 X64.988 Y74.72 E.01728
G1 X65.729 Y75.989 E.04608
G1 X66.359 Y77.399 E.04842
G1 X66.592 Y77.554 E.00877
G1 X85.759 Y77.553 E.60097
G1 X86.305 Y77.434 E.01752
G1 X86.742 Y77.142 E.01648
G1 X86.953 Y76.885 E.01043
G1 X87.154 Y76.399 E.01649
G1 X87.187 Y72.271 E.12943
G1 X90.493 Y72.271 E.10366
G1 X90.493 Y95.233 E.71996
G1 X90.493 Y95.233 F54000
G1 X89.811 Y95.12
G1 F1200
G1 X89.811 Y72.61 E.70579
G1 X89.392 Y72.61 E.01314
G1 X89.392 Y94.951 E.70049
G1 X88.973 Y94.951 E.01314
G1 X88.973 Y72.61 E.70049
G1 X88.554 Y72.61 E.01314
G1 X88.554 Y94.951 E.70049
G1 X88.135 Y94.951 E.01314
G1 X88.135 Y72.61 E.70049
G1 X87.716 Y72.61 E.01314
G1 X87.716 Y94.951 E.70049
G1 X87.297 Y94.951 E.01314
G1 X87.297 Y76.961 E.56406
G1 X86.878 Y77.469 E.02065
G1 X86.878 Y94.951 E.54814
G1 X86.459 Y94.951 E.01314
G1 X86.459 Y77.736 E.53976
G1 X86.04 Y77.866 E.01376
G1 X86.04 Y94.951 E.53569
G1 X85.621 Y94.951 E.01314
G1 X85.621 Y77.893 E.53484
G1 X85.202 Y77.893 E.01314
G1 X85.202 Y94.951 E.53484
G1 X84.783 Y94.951 E.01314
G1 X84.783 Y77.893 E.53484
G1 X84.364 Y77.893 E.01314
G1 X84.364 Y94.951 E.53484
G1 X84.311 Y94.951 E.00166
G1 X84.311 Y85.66 E.29131
G1 X83.946 Y85.295 E.01618
G1 X83.946 Y77.893 E.23208
G1 X83.527 Y77.893 E.01314
G1 X83.527 Y85.191 E.22882
G1 X83.108 Y85.191 E.01314
G1 X83.108 Y77.893 E.22882
G1 X82.689 Y77.893 E.01314
G1 X82.689 Y85.191 E.22882
G1 X82.301 Y85.191 E.01217
G1 X82.27 Y77.893 E.22883
G1 X81.851 Y77.893 E.01314
G1 X81.851 Y84.414 E.20446
G1 X81.432 Y84.414 E.01314
G1 X81.432 Y77.893 E.20446
G1 X81.013 Y77.893 E.01314
G1 X81.013 Y84.414 E.20446
G1 X80.594 Y84.414 E.01314
G1 X80.594 Y77.893 E.20446
G1 X80.175 Y77.893 E.01314
G1 X80.175 Y84.414 E.20446
G1 X79.756 Y84.414 E.01314
G1 X79.756 Y77.893 E.20446
G1 X79.337 Y77.893 E.01314
G1 X79.337 Y84.414 E.20446
G1 X78.918 Y84.414 E.01314
G1 X78.918 Y77.893 E.20446
G1 X78.499 Y77.893 E.01314
G1 X78.499 Y84.414 E.20446
G1 X78.08 Y84.414 E.01314
G1 X78.08 Y77.893 E.20446
G1 X77.661 Y77.893 E.01314
G1 X77.661 Y84.414 E.20446
G1 X77.242 Y84.414 E.01314
G1 X77.242 Y77.893 E.20446
G1 X76.823 Y77.893 E.01314
G1 X76.823 Y84.414 E.20446
G1 X76.404 Y84.414 E.01314
G1 X76.404 Y77.893 E.20446
G1 X75.985 Y77.893 E.01314
G1 X75.985 Y84.414 E.20446
G1 X75.665 Y84.414 E.01003
G1 X75.665 Y85.191 E.02436
G1 X75.566 Y85.191 E.0031
G1 X75.566 Y77.893 E.22882
G1 X75.147 Y77.893 E.01314
G1 X75.147 Y85.191 E.22882
G1 X74.728 Y85.191 E.01314
G1 X74.728 Y77.893 E.22882
G1 X74.309 Y77.893 E.01314
G1 X74.309 Y85.191 E.22882
G1 X73.89 Y85.191 E.01314
G1 X73.89 Y77.893 E.22882
G1 X73.471 Y77.893 E.01314
G1 X73.471 Y85.191 E.22882
G1 X73.052 Y85.191 E.01314
G1 X73.052 Y77.893 E.22882
G1 X72.633 Y77.893 E.01314
G1 X72.633 Y85.191 E.22882
G1 X72.214 Y85.191 E.01314
G1 X72.214 Y77.893 E.22882
G1 X71.795 Y77.893 E.01314
G1 X71.795 Y85.191 E.22882
G1 X71.678 Y85.191 E.00367
G1 X71.376 Y85.492 E.01337
G1 X71.376 Y77.893 E.23826
G1 X70.957 Y77.893 E.01314
G1 X70.957 Y89.191 E.35424
G1 X70.538 Y89.191 E.01314
G1 X70.538 Y77.893 E.35424
G1 X70.119 Y77.893 E.01314
G1 X70.119 Y89.191 E.35424
G1 X69.7 Y89.191 E.01314
G1 X69.7 Y77.893 E.35424
G1 X69.281 Y77.893 E.01314
G1 X69.281 Y89.191 E.35424
G1 X68.862 Y89.191 E.01314
G1 X68.862 Y77.893 E.35424
G1 X68.443 Y77.893 E.01314
G1 X68.443 Y89.191 E.35424
G1 X68.024 Y89.191 E.01314
G1 X68.024 Y77.893 E.35424
G1 X67.605 Y77.893 E.01314
G1 X67.605 Y89.191 E.35424
G1 X67.186 Y89.191 E.01314
G1 X67.186 Y77.893 E.35424
G1 X66.767 Y77.893 E.01314
G1 X66.767 Y89.191 E.35424
G1 X66.348 Y89.191 E.01314
G1 X66.348 Y77.8 E.35716
G1 X66.085 Y77.624 E.00992
G1 X65.93 Y77.251 E.01266
G1 X65.93 Y83.938 E.20967
G1 X65.511 Y82.156 E.0574
G1 X65.511 Y76.317 E.18308
G1 X65.092 Y75.534 E.02784
G1 X65.092 Y81.019 E.17198
G1 X64.673 Y80.124 E.03099
G1 X64.673 Y74.852 E.1653
G1 X64.613 Y74.585 E.00858
G1 X64.254 Y74.657 E.01148
G1 X64.254 Y79.706 E.15831
G1 E-.5 F1800
;WIPE_START
G1 F43200
G1 X64.254 Y74.657 E-.19986
G1 X64.613 Y74.585 E-.01449
G1 X64.673 Y74.852 E-.01083
G1 X64.673 Y80.124 E-.20868
G1 X65.092 Y81.019 E-.03912
G1 X65.092 Y75.534 E-.21711
G1 X65.511 Y76.317 E-.03515
G1 X65.511 Y82.156 E-.23113
G1 X65.93 Y83.938 E-.07246
G1 X65.93 Y77.251 E-.26469
G1 X66.085 Y77.624 E-.01599
G1 X66.348 Y77.8 E-.01253
G1 X66.348 Y89.191 E-.45089
G1 X66.767 Y89.191 E-.01659
G1 X66.767 Y83.874 E-.21048
;WIPE_END
G1 X86.541 Y70.879 F54000
G1 E2.5 F1200
G1 X85.857 Y70.636 E.02276
G1 X66.278 Y70.636 E.61389
G1 X65.931 Y70.712 E.01114
G1 X65.423 Y71.018 E.01859
G1 X65.087 Y71.479 E.01789
G1 X64.976 Y71.843 E.01193
G1 X64.839 Y71.806 E.00445
G1 X64.839 Y67.003 E.15059
G1 X86.541 Y67.003 E.68045
G1 X86.541 Y70.823 E.11977
G1 X86.541 Y70.823 F54000
G1 X86.04 Y70.493
G1 F1200
G1 X86.04 Y67.342 E.0988
G1 X85.621 Y67.342 E.01314
G1 X85.621 Y70.297 E.09265
G1 X85.202 Y70.297 E.01314
G1 X85.202 Y67.342 E.09265
G1 X84.783 Y67.342 E.01314
G1 X84.783 Y70.297 E.09265
G1 X84.364 Y70.297 E.01314
G1 X84.364 Y67.342 E.09265
G1 X83.946 Y67.342 E.01311
G1 X83.946 Y70.297 E.09265
G1 X83.527 Y70.297 E.01314
G1 X83.527 Y67.342 E.09265
G1 X83.108 Y67.342 E.01314
G1 X83.108 Y70.297 E.09265
G1 X82.689 Y70.297 E.01314
G1 X82.689 Y67.342 E.09265
G1 X82.27 Y67.342 E.01314
G1 X82.27 Y70.297 E.09265
G1 X81.851 Y70.297 E.01314
G1 X81.851 Y67.342 E.09265
G1 X81.432 Y67.342 E.01314
G1 X81.432 Y70.297 E.09265
G1 X81.013 Y70.297 E.01314
G1 X81.013 Y67.342 E.09265
G1 X80.594 Y67.342 E.01314
G1 X80.594 Y70.297 E.09265
G1 X80.175 Y70.297 E.01314
G1 X80.175 Y67.342 E.09265
G1 X79.756 Y67.342 E.01314
G1 X79.756 Y70.297 E.09265
G1 X79.337 Y70.297 E.01314
G1 X79.337 Y67.342 E.09265
G1 X78.918 Y67.342 E.01314
G1 X78.918 Y70.297 E.09265
G1 X78.499 Y70.297 E.01314
G1 X78.499 Y67.342 E.09265
G1 X78.08 Y67.342 E.01314
G1 X78.08 Y70.297 E.09265
G1 X77.661 Y70.297 E.01314
G1 X77.661 Y67.342 E.09265
G1 X77.242 Y67.342 E.01314
G1 X77.242 Y70.297 E.09265
G1 X76.823 Y70.297 E.01314
G1 X76.823 Y67.342 E.09265
G1 X76.404 Y67.342 E.01314
G1 X76.404 Y70.297 E.09265
G1 X75.985 Y70.297 E.01314
G1 X75.985 Y67.342 E.09265
G1 X75.566 Y67.342 E.01314
G1 X75.566 Y70.297 E.09265
G1 X75.147 Y70.297 E.01314
G1 X75.147 Y67.342 E.09265
G1 X74.728 Y67.342 E.01314
G1 X74.728 Y70.297 E.09265
G1 X74.309 Y70.297 E.01314
G1 X74.309 Y67.342 E.09265
G1 X73.89 Y67.342 E.01314
G1 X73.89 Y70.297 E.09265
G1 X73.471 Y70.297 E.01314
G1 X73.471 Y67.342 E.09265
G1 X73.052 Y67.342 E.01314
G1 X73.052 Y70.297 E.09265
G1 X72.633 Y70.297 E.01314
G1 X72.633 Y67.342 E.09265
G1 X72.214 Y67.342 E.01314
G1 X72.214 Y70.297 E.09265
G1 X71.795 Y70.297 E.01314
G1 X71.795 Y67.342 E.09265
G1 X71.376 Y67.342 E.01314
G1 X71.376 Y70.297 E.09265
G1 X70.957 Y70.297 E.01314
G1 X70.957 Y67.342 E.09265
G1 X70.538 Y67.342 E.01314
G1 X70.538 Y70.297 E.09265
G1 X70.119 Y70.297 E.01314
G1 X70.119 Y67.342 E.09265
G1 X69.7 Y67.342 E.01314
G1 X69.7 Y70.297 E.09265
G1 X69.281 Y70.297 E.01314
G1 X69.281 Y67.342 E.09265
G1 X68.862 Y67.342 E.01314
G1 X68.862 Y70.297 E.09265
G1 X68.443 Y70.297 E.01314
G1 X68.443 Y67.342 E.09265
G1 X68.024 Y67.342 E.01314
G1 X68.024 Y70.297 E.09265
G1 X67.605 Y70.297 E.01314
G1 X67.605 Y67.342 E.09265
G1 X67.186 Y67.342 E.01314
G1 X67.186 Y70.297 E.09265
G1 X66.767 Y70.297 E.01314
G1 X66.767 Y67.342 E.09265
G1 X66.348 Y67.342 E.01314
G1 X66.348 Y70.297 E.09265
G1 X65.93 Y70.36 E.01325
G1 X65.93 Y67.342 E.09463
G1 X65.511 Y67.342 E.01314
G1 X65.511 Y70.738 E.10648
G1 E-.5 F1800
;WIPE_START
G1 F43200
G1 X65.511 Y67.342 E-.13443
G1 X65.93 Y67.342 E-.01659
G1 X65.93 Y70.36 E-.11946
G1 X66.348 Y70.297 E-.01673
G1 X66.348 Y67.342 E-.11697
G1 X66.767 Y67.342 E-.01659
G1 X66.767 Y70.297 E-.11697
G1 X67.186 Y70.297 E-.01659
G1 X67.186 Y67.342 E-.11697
G1 X67.605 Y67.342 E-.01659
G1 X67.605 Y70.297 E-.11697
G1 X68.024 Y70.297 E-.01659
G1 X68.024 Y67.342 E-.11697
G1 X68.443 Y67.342 E-.01659
G1 X68.443 Y70.297 E-.11697
G1 X68.862 Y70.297 E-.01659
G1 X68.862 Y67.342 E-.11697
G1 X69.281 Y67.342 E-.01659
G1 X69.281 Y70.297 E-.11697
G1 X69.7 Y70.297 E-.01659
G1 X69.7 Y67.342 E-.11697
G1 X70.119 Y67.342 E-.01659
G1 X70.119 Y70.297 E-.11697
G1 X70.538 Y70.297 E-.01659
G1 X70.538 Y67.342 E-.11697
G1 X70.957 Y67.342 E-.01659
G1 X70.957 Y70.297 E-.11697
G1 X71.376 Y70.297 E-.01659
G1 X71.376 Y67.516 E-.11007
;WIPE_END
G1 X50.346 Y115.379 F54000
G1 E2.5 F1200
;TYPE:Perimeter
;WIDTH:0.419999
G1 X50.291 Y115.382 E.00173
G1 X49.832 Y115.322 E.01451
G1 X49.392 Y115.177 E.01453
G1 X48.986 Y114.952 E.01455
G1 X48.631 Y114.655 E.01451
G1 X48.336 Y114.295 E.01459
G1 X48.084 Y113.793 E.01761
G1 X47.947 Y113.3 E.01604
G1 X47.919 Y112.833 E.01467
G1 X47.99 Y112.339 E.01565
G1 X48.156 Y111.872 E.01554
G1 X48.35 Y111.529 E.01236
G1 X48.647 Y111.173 E.01454
G1 X49.005 Y110.88 E.0145
G1 X49.412 Y110.658 E.01454
;WIDTH:0.467798
G1 X49.644 Y110.562 E.00887
;WIDTH:0.515596
G1 X49.876 Y110.466 E.00987
;WIDTH:0.551564
G1 X50.06 Y110.424 E.00798
;WIDTH:0.587531
G1 X50.244 Y110.382 E.00855
;WIDTH:0.598474
G1 X50.759 Y110.4 E.0238
G1 X50.911 Y110.467 E.00767
;WIDTH:0.553856
G1 X51.064 Y110.534 E.0071
;WIDTH:0.509237
G1 X51.216 Y110.6 E.00643
;WIDTH:0.464618
G1 X51.368 Y110.667 E.00582
;WIDTH:0.419999
G1 X51.773 Y110.892 E.01453
G1 X52.128 Y111.189 E.01451
G1 X52.422 Y111.548 E.01455
G1 X52.653 Y111.983 E.01544
G1 X52.813 Y112.548 E.01841
G1 X52.84 Y113.011 E.01454
G1 X52.771 Y113.499 E.01545
G1 X52.568 Y114.05 E.01841
G1 X52.318 Y114.44 E.01452
G1 X51.999 Y114.776 E.01453
G1 X51.623 Y115.047 E.01453
G1 X51.203 Y115.242 E.01452
G1 X50.753 Y115.355 E.01455
G1 X50.406 Y115.375 E.0109
G1 X50.406 Y115.375 F54000
G1 X50.358 Y115.005
G1 F1200
G1 X50.326 Y115.007 E.00101
G1 X49.937 Y114.96 E.01229
G1 X49.563 Y114.841 E.01231
G1 X49.218 Y114.654 E.0123
G1 X48.914 Y114.405 E.01232
G1 X48.661 Y114.103 E.01235
G1 X48.442 Y113.677 E.01502
G1 X48.322 Y113.261 E.01358
G1 X48.295 Y112.869 E.01232
G1 X48.352 Y112.444 E.01344
G1 X48.492 Y112.044 E.01329
G1 X48.648 Y111.76 E.01016
G1 X48.896 Y111.456 E.0123
G1 X49.197 Y111.204 E.01231
G1 X49.54 Y111.013 E.01231
G1 X49.93 Y110.887 E.01285
G1 X50.426 Y110.837 E.01563
G1 X50.822 Y110.884 E.0125
G1 X51.196 Y111.003 E.01231
G1 X51.542 Y111.19 E.01233
G1 X51.845 Y111.439 E.0123
G1 X52.097 Y111.74 E.01231
G1 X52.295 Y112.1 E.01288
G1 X52.437 Y112.583 E.01579
G1 X52.464 Y112.975 E.01232
G1 X52.412 Y113.382 E.01286
G1 X52.243 Y113.858 E.01584
G1 X52.035 Y114.19 E.01228
G1 X51.768 Y114.478 E.01231
G1 X51.452 Y114.711 E.01231
G1 X51.097 Y114.88 E.01233
G1 X50.718 Y114.98 E.01229
G1 X50.418 Y115 E.00943
G1 X50.418 Y115 F54000
G1 X50.37 Y114.631
;TYPE:External perimeter
G1 F1200
G1 X50.362 Y114.631 E.00025
G1 X50.042 Y114.598 E.01009
G1 X49.734 Y114.505 E.01009
G1 X49.449 Y114.356 E.01008
G1 X49.196 Y114.156 E.01011
G1 X48.986 Y113.912 E.01009
G1 X48.801 Y113.561 E.01244
G1 X48.697 Y113.225 E.01103
G1 X48.688 Y112.719 E.01587
G1 X48.797 Y112.276 E.0143
G1 X48.946 Y111.991 E.01008
G1 X49.146 Y111.739 E.01009
G1 X49.389 Y111.529 E.01007
G1 X49.668 Y111.368 E.0101
G1 X49.978 Y111.261 E.01028
G1 X50.391 Y111.213 E.01304
G1 X50.717 Y111.246 E.01027
G1 X51.025 Y111.339 E.01009
G1 X51.31 Y111.488 E.01008
G1 X51.563 Y111.688 E.01011
G1 X51.773 Y111.932 E.01009
G1 X51.936 Y112.216 E.01027
G1 X52.062 Y112.619 E.01324
G1 X52.089 Y112.94 E.0101
G1 X52.054 Y113.266 E.01028
G1 X51.919 Y113.666 E.01324
G1 X51.752 Y113.941 E.01009
G1 X51.537 Y114.18 E.01008
G1 X51.281 Y114.375 E.01009
G1 X50.992 Y114.518 E.01011
G1 X50.682 Y114.604 E.01009
G1 X50.43 Y114.626 E.00793
G1 E-.5 F1800
;WIPE_START
G1 F43200
G1 X50.37 Y114.631 E-.00238
G1 X50.362 Y114.631 E-.00032
G1 X50.042 Y114.598 E-.01273
G1 X49.734 Y114.505 E-.01274
G1 X49.449 Y114.356 E-.01273
G1 X49.196 Y114.156 E-.01277
G1 X48.986 Y113.912 E-.01274
G1 X48.801 Y113.561 E-.01571
G1 X48.697 Y113.225 E-.01392
G1 X48.688 Y112.719 E-.02003
G1 X48.797 Y112.276 E-.01806
G1 X48.946 Y111.991 E-.01273
G1 X49.146 Y111.739 E-.01273
G1 X49.389 Y111.529 E-.01271
G1 X49.668 Y111.368 E-.01275
G1 X49.978 Y111.261 E-.01298
G1 X50.391 Y111.213 E-.01646
G1 X50.717 Y111.246 E-.01297
G1 X51.025 Y111.339 E-.01274
G1 X51.31 Y111.488 E-.01273
G1 X51.563 Y111.688 E-.01277
G1 X51.773 Y111.932 E-.01274
G1 X51.936 Y112.216 E-.01296
G1 X52.062 Y112.619 E-.01671
G1 X52.089 Y112.94 E-.01275
G1 X52.054 Y113.266 E-.01298
G1 X51.919 Y113.666 E-.01671
G1 X51.752 Y113.941 E-.01274
G1 X51.537 Y114.18 E-.01273
G1 X51.281 Y114.375 E-.01274
G1 X50.992 Y114.518 E-.01276
G1 X50.682 Y114.604 E-.01273
G1 X50.43 Y114.626 E-.01001
;WIPE_END
G1 E-1.57574 F1800
G1 X64.536 Y115.379 F54000
G1 E2.5 F1200
;TYPE:Perimeter
G1 X64.481 Y115.382 E.00173
G1 X64.022 Y115.322 E.01451
G1 X63.582 Y115.177 E.01453
G1 X63.176 Y114.952 E.01455
G1 X62.821 Y114.655 E.01451
G1 X62.527 Y114.296 E.01455
G1 X62.296 Y113.861 E.01544
G1 X62.136 Y113.296 E.01841
G1 X62.109 Y112.833 E.01454
G1 X62.17 Y112.374 E.01452
G1 X62.315 Y111.934 E.01453
G1 X62.54 Y111.529 E.01453
G1 X62.837 Y111.173 E.01454
G1 X63.195 Y110.88 E.0145
G1 X63.603 Y110.658 E.01456
;WIDTH:0.467797
G1 X63.834 Y110.562 E.00884
