; generated by PrusaSlicer 2.9.0 on 2025-01-27 at 23:11:14 UTC

; 

; external perimeters extrusion width = 0.42mm
; perimeters extrusion width = 0.44mm
; infill extrusion width = 0.44mm
; solid infill extrusion width = 0.44mm
; top infill extrusion width = 0.40mm
; first layer extrusion width = 0.42mm


; printing object x_axis_carriage_mounting_plate.stl id:0 copy 0
; stop printing object x_axis_carriage_mounting_plate.stl id:0 copy 0

;TYPE:Custom
G90 ; use absolute coordinates
M83 ; extruder relative mode
M104 S210 ; set temporary nozzle temp to prevent oozing during homing
M140 S60 ; set final bed temp
G4 S30 ; allow partial nozzle warmup
G28 ; home all axis
G1 Z50 F240
G1 X2.0 Y10 F3000
M104 S210 ; set final nozzle temp
M190 S60 ; wait for bed temp to stabilize
M109 S210 ; wait for nozzle temp to stabilize
G1 Z0.28 F240
G92 E0
G1 X2.0 Y140 E10 F1500 ; prime the nozzle
G1 X2.3 Y140 F5000
G92 E0
G1 X2.3 Y10 E10 F1200 ; prime the nozzle
G92 E0
G21 ; set units to millimeters
G90 ; use absolute coordinates
M83 ; use relative distances for extrusion
; Filament gcode
M107
;LAYER_CHANGE
;Z:0.2
;HEIGHT:0.2
G1 E-2.5 F1800
G1 Z.2 F54000
G1 X12.912 Y20.795
G1 Z.2
G1 E2.5 F1200
M204 S3500
;TYPE:Skirt/Brim
;WIDTH:0.42
G1 F2100
G1 X14.987 Y20.129 E.06833
G1 X34.987 Y20.129 E.62709
G1 X36.617 Y20.523 E.05258
G1 X37.886 Y21.619 E.05257
G1 X38.553 Y23.695 E.06837
G1 X38.553 Y35.695 E.37625
G1 X38.158 Y37.325 E.05259
G1 X37.062 Y38.594 E.05257
G1 X34.987 Y39.26 E.06833
G1 X14.987 Y39.26 E.62709
G1 X13.357 Y38.866 E.05258
G1 X12.088 Y37.77 E.05257
G1 X11.421 Y35.695 E.06834
G1 X11.421 Y23.695 E.37625
G1 X11.816 Y22.065 E.05259
G1 X12.872 Y20.841 E.05069
G1 X12.872 Y20.841 F54000
G1 X13.169 Y21.118
G1 F2100
G1 X13.276 Y21.004 E.0049
G1 X14.987 Y20.506 E.05587
G1 X34.987 Y20.506 E.62709
G1 X36.522 Y20.9 E.04969
G1 X37.678 Y21.984 E.04969
G1 X38.175 Y23.695 E.05586
G1 X38.175 Y35.695 E.37625
G1 X37.782 Y37.23 E.04968
G1 X36.698 Y38.385 E.04967
G1 X34.987 Y38.883 E.05587
G1 X14.987 Y38.883 E.62709
G1 X13.452 Y38.489 E.04969
G1 X12.296 Y37.406 E.04967
G1 X11.798 Y35.695 E.05587
G1 X11.798 Y23.695 E.37625
G1 X12.192 Y22.16 E.04969
G1 X13.128 Y21.162 E.0429
G1 E-.5 F1800
;WIPE_START
G1 F43200
G1 X13.169 Y21.118 E-.00238
G1 X13.276 Y21.004 E-.00619
G1 X14.987 Y20.506 E-.07054
G1 X34.987 Y20.506 E-.79167
G1 X36.522 Y20.9 E-.06273
G1 X37.678 Y21.984 E-.06273
G1 X38.175 Y23.695 E-.07053
G1 X38.175 Y35.695 E-.475
G1 X37.782 Y37.23 E-.06272
G1 X36.698 Y38.385 E-.0627
G1 X34.987 Y38.883 E-.07054
G1 X28.361 Y38.883 E-.26227
;WIPE_END
; printing object x_axis_carriage_mounting_plate.stl id:0 copy 0
G1 X30.966 Y33.774 F54000
G1 E2.5 F1200
;TYPE:Perimeter
;WIDTH:0.419999
G1 F2100
G1 X30.916 Y33.777 E.00157
G1 X30.417 Y33.701 E.01583
G1 X30.051 Y33.558 E.01232
G1 X29.719 Y33.35 E.01228
G1 X29.431 Y33.083 E.01231
G1 X29.198 Y32.767 E.01231
G1 X29.029 Y32.413 E.0123
G1 X28.929 Y32.033 E.01232
G1 X28.904 Y31.626 E.01279
G1 X28.989 Y31.116 E.01621
G1 X29.198 Y30.623 E.01679
G1 X29.504 Y30.229 E.01564
G1 X29.805 Y29.977 E.01231
G1 X30.147 Y29.786 E.01228
G1 X30.599 Y29.652 E.01478
G1 X31.125 Y29.618 E.01653
G1 X31.588 Y29.703 E.01476
G1 X32.059 Y29.906 E.01608
G1 X32.465 Y30.225 E.01619
G1 X32.776 Y30.622 E.01581
G1 X32.945 Y30.977 E.01233
G1 X33.045 Y31.356 E.01229
G1 X33.07 Y31.766 E.01288
G1 X32.993 Y32.264 E.0158
G1 X32.851 Y32.63 E.01231
G1 X32.642 Y32.963 E.01233
G1 X32.375 Y33.251 E.01231
G1 X32.059 Y33.483 E.01229
G1 X31.705 Y33.653 E.01231
G1 X31.325 Y33.752 E.01231
G1 X31.026 Y33.771 E.00939
G1 X31.026 Y33.771 F54000
G1 X30.978 Y33.402
;TYPE:External perimeter
G1 F2100
G1 X30.963 Y33.403 E.00047
G1 X30.545 Y33.346 E.01323
G1 X30.243 Y33.234 E.0101
G1 X29.968 Y33.067 E.01009
G1 X29.729 Y32.852 E.01008
G1 X29.534 Y32.596 E.01009
G1 X29.391 Y32.307 E.01011
G1 X29.305 Y31.998 E.01006
G1 X29.279 Y31.661 E.0106
G1 X29.351 Y31.221 E.01398
G1 X29.553 Y30.764 E.01567
G1 X29.906 Y30.377 E.01642
G1 X30.275 Y30.14 E.01375
G1 X30.647 Y30.026 E.0122
G1 X31.09 Y29.994 E.01393
G1 X31.6 Y30.099 E.01633
G1 X31.918 Y30.261 E.01119
G1 X32.174 Y30.465 E.01026
G1 X32.44 Y30.793 E.01324
G1 X32.583 Y31.082 E.01011
G1 X32.669 Y31.392 E.01009
G1 X32.696 Y31.719 E.01029
G1 X32.638 Y32.137 E.01323
G1 X32.526 Y32.438 E.01007
G1 X32.359 Y32.714 E.01011
G1 X32.144 Y32.953 E.01008
G1 X31.888 Y33.147 E.01007
G1 X31.6 Y33.29 E.01008
G1 X31.29 Y33.377 E.0101
G1 X31.037 Y33.397 E.00796
G1 E-.5 F1800
;WIPE_START
G1 F43200
G1 X30.978 Y33.402 E-.00234
G1 X30.963 Y33.403 E-.0006
G1 X30.545 Y33.346 E-.0167
G1 X30.243 Y33.234 E-.01275
G1 X29.968 Y33.067 E-.01274
G1 X29.729 Y32.852 E-.01273
G1 X29.534 Y32.596 E-.01274
G1 X29.391 Y32.307 E-.01276
G1 X29.305 Y31.998 E-.0127
G1 X29.279 Y31.661 E-.01338
G1 X29.351 Y31.221 E-.01765
G1 X29.553 Y30.764 E-.01978
G1 X29.906 Y30.377 E-.02073
G1 X30.275 Y30.14 E-.01736
G1 X30.647 Y30.026 E-.0154
G1 X31.09 Y29.994 E-.01758
G1 X31.6 Y30.099 E-.02061
G1 X31.918 Y30.261 E-.01413
G1 X32.174 Y30.465 E-.01296
G1 X32.44 Y30.793 E-.01672
G1 X32.583 Y31.082 E-.01276
G1 X32.669 Y31.392 E-.01273
G1 X32.696 Y31.719 E-.01299
G1 X32.638 Y32.137 E-.0167
G1 X32.526 Y32.438 E-.01271
G1 X32.359 Y32.714 E-.01277
G1 X32.144 Y32.953 E-.01273
G1 X31.888 Y33.147 E-.01271
G1 X31.6 Y33.29 E-.01273
G1 X31.29 Y33.377 E-.01274
G1 X31.037 Y33.397 E-.01005
;WIPE_END
G1 E-1.57602 F1800
G1 X31.008 Y28.766 F54000
G1 E2.5 F1200
;TYPE:Perimeter
G1 F2100
G1 X30.655 Y28.752 E.01108
G1 X30.17 Y28.614 E.01581
G1 X29.825 Y28.426 E.01232
G1 X29.521 Y28.178 E.0123
G1 X29.269 Y27.877 E.01231
G1 X29.078 Y27.534 E.01231
G1 X28.954 Y27.161 E.01232
G1 X28.903 Y26.772 E.0123
G1 X28.925 Y26.38 E.01231
G1 X29.028 Y25.983 E.01286
G1 X29.255 Y25.533 E.0158
G1 X29.504 Y25.229 E.01232
G1 X29.805 Y24.977 E.01231
G1 X30.147 Y24.786 E.01228
G1 X30.422 Y24.704 E.009
;WIDTH:0.387933
G1 X30.908 Y24.648 E.01403
;WIDTH:0.361236
G1 X31.311 Y24.666 E.01068
;WIDTH:0.390618
G1 X31.557 Y24.721 E.00729
;WIDTH:0.419999
G1 X31.804 Y24.776 E.00793
G1 X32.149 Y24.963 E.0123
G1 X32.453 Y25.211 E.0123
G1 X32.77 Y25.622 E.01627
G1 X32.993 Y26.125 E.01725
G1 X33.071 Y26.617 E.01562
G1 X33.044 Y27.026 E.01285
G1 X32.906 Y27.511 E.01581
G1 X32.719 Y27.857 E.01233
G1 X32.47 Y28.161 E.01232
G1 X32.169 Y28.413 E.01231
G1 X31.671 Y28.66 E.01743
G1 X31.171 Y28.772 E.01607
G1 X31.068 Y28.768 E.00323
G1 X31.068 Y28.768 F54000
G1 X30.996 Y28.383
;TYPE:External perimeter
G1 F2100
G1 X30.749 Y28.387 E.00775
G1 X30.342 Y28.278 E.01321
G1 X29.895 Y28.003 E.01646
G1 X29.594 Y27.685 E.01373
G1 X29.433 Y27.406 E.0101
G1 X29.327 Y27.102 E.01009
G1 X29.28 Y26.784 E.01008
G1 X29.293 Y26.463 E.01007
G1 X29.369 Y26.144 E.01028
G1 X29.553 Y25.764 E.01324
G1 X29.753 Y25.512 E.01009
G1 X29.997 Y25.301 E.01011
G1 X30.275 Y25.14 E.01007
G1 X30.545 Y25.043 E.009
G1 X30.897 Y24.988 E.01117
G1 X31.225 Y25.002 E.01029
G1 X31.632 Y25.112 E.01322
G1 X31.918 Y25.261 E.01011
G1 X32.17 Y25.461 E.01009
G1 X32.445 Y25.814 E.01403
G1 X32.647 Y26.287 E.01613
G1 X32.694 Y26.605 E.01008
G1 X32.679 Y26.933 E.01029
G1 X32.57 Y27.34 E.01321
G1 X32.421 Y27.626 E.01011
G1 X32.066 Y28.014 E.01649
G1 X31.699 Y28.249 E.01366
G1 X31.236 Y28.38 E.01509
G1 X31.056 Y28.382 E.00564
G1 E-.5 F1800
;WIPE_START
G1 F43200
G1 X30.996 Y28.383 E-.00238
G1 X30.749 Y28.387 E-.00978
G1 X30.342 Y28.278 E-.01668
G1 X29.895 Y28.003 E-.02077
G1 X29.594 Y27.685 E-.01733
G1 X29.433 Y27.406 E-.01275
G1 X29.327 Y27.102 E-.01274
G1 X29.28 Y26.784 E-.01272
G1 X29.293 Y26.463 E-.01272
G1 X29.369 Y26.144 E-.01298
G1 X29.553 Y25.764 E-.01671
G1 X29.753 Y25.512 E-.01273
G1 X29.997 Y25.301 E-.01277
G1 X30.275 Y25.14 E-.01272
G1 X30.545 Y25.043 E-.01136
G1 X30.897 Y24.988 E-.0141
G1 X31.225 Y25.002 E-.013
G1 X31.632 Y25.112 E-.01669
G1 X31.918 Y25.261 E-.01277
G1 X32.17 Y25.461 E-.01273
G1 X32.445 Y25.814 E-.01771
G1 X32.647 Y26.287 E-.02036
G1 X32.694 Y26.605 E-.01272
G1 X32.679 Y26.933 E-.013
G1 X32.57 Y27.34 E-.01668
G1 X32.421 Y27.626 E-.01277
G1 X32.066 Y28.014 E-.02082
G1 X31.699 Y28.249 E-.01725
G1 X31.236 Y28.38 E-.01905
G1 X31.056 Y28.382 E-.00713
;WIPE_END
G1 E-1.57608 F1800
G1 X19.408 Y28.766 F54000
G1 E2.5 F1200
;TYPE:Perimeter
G1 F2100
G1 X19.055 Y28.752 E.01108
G1 X18.57 Y28.614 E.01581
G1 X18.225 Y28.426 E.01232
G1 X17.921 Y28.178 E.0123
G1 X17.669 Y27.877 E.01231
G1 X17.478 Y27.534 E.01231
G1 X17.354 Y27.161 E.01232
G1 X17.303 Y26.772 E.0123
G1 X17.325 Y26.38 E.01231
G1 X17.428 Y25.983 E.01286
G1 X17.655 Y25.533 E.0158
G1 X17.904 Y25.229 E.01232
G1 X18.205 Y24.977 E.01231
G1 X18.547 Y24.786 E.01228
G1 X18.924 Y24.686 E.01223
;WIDTH:0.37256
G1 X19.595 Y24.654 E.01841
;WIDTH:0.384047
G1 X19.841 Y24.694 E.00707
;WIDTH:0.417612
G1 X20.087 Y24.733 E.00776
;WIDTH:0.419999
G1 X20.549 Y24.963 E.01618
G1 X20.853 Y25.211 E.0123
G1 X21.105 Y25.512 E.01231
G1 X21.296 Y25.855 E.01231
G1 X21.419 Y26.228 E.01231
G1 X21.471 Y26.617 E.01231
G1 X21.449 Y27.009 E.01231
G1 X21.346 Y27.406 E.01286
G1 X21.119 Y27.856 E.0158
G1 X20.87 Y28.161 E.01235
G1 X20.569 Y28.412 E.01229
G1 X20.071 Y28.66 E.01744
G1 X19.571 Y28.772 E.01607
G1 X19.468 Y28.768 E.00323
G1 X19.468 Y28.768 F54000
G1 X19.396 Y28.383
;TYPE:External perimeter
G1 F2100
G1 X19.149 Y28.387 E.00775
G1 X18.741 Y28.278 E.01324
G1 X18.295 Y28.004 E.01641
G1 X17.994 Y27.685 E.01375
G1 X17.833 Y27.406 E.0101
G1 X17.727 Y27.102 E.01009
G1 X17.68 Y26.784 E.01008
G1 X17.693 Y26.463 E.01007
G1 X17.769 Y26.144 E.01028
G1 X17.953 Y25.764 E.01324
G1 X18.153 Y25.512 E.01009
G1 X18.397 Y25.301 E.01011
G1 X18.675 Y25.14 E.01007
G1 X18.979 Y25.035 E.01008
G1 X19.297 Y24.988 E.01008
G1 X19.625 Y25.002 E.01029
G1 X20.032 Y25.112 E.01322
G1 X20.318 Y25.261 E.01011
G1 X20.57 Y25.461 E.01009
G1 X20.78 Y25.704 E.01007
G1 X20.941 Y25.983 E.0101
G1 X21.047 Y26.287 E.01009
G1 X21.094 Y26.605 E.01008
G1 X21.081 Y26.927 E.0101
G1 X21.005 Y27.245 E.01025
G1 X20.821 Y27.625 E.01324
G1 X20.468 Y28.012 E.01642
G1 X20.099 Y28.249 E.01375
G1 X19.636 Y28.38 E.01509
G1 X19.456 Y28.382 E.00564
G1 E-.5 F1800
;WIPE_START
G1 F43200
G1 X19.396 Y28.383 E-.00238
G1 X19.149 Y28.387 E-.00978
G1 X18.741 Y28.278 E-.01672
G1 X18.295 Y28.004 E-.02072
G1 X17.994 Y27.685 E-.01736
G1 X17.833 Y27.406 E-.01275
G1 X17.727 Y27.102 E-.01274
G1 X17.68 Y26.784 E-.01272
G1 X17.693 Y26.463 E-.01272
G1 X17.769 Y26.144 E-.01298
G1 X17.953 Y25.764 E-.01671
G1 X18.153 Y25.512 E-.01273
G1 X18.397 Y25.301 E-.01277
G1 X18.675 Y25.14 E-.01272
G1 X18.979 Y25.035 E-.01273
G1 X19.297 Y24.988 E-.01272
G1 X19.625 Y25.002 E-.013
G1 X20.032 Y25.112 E-.01669
G1 X20.318 Y25.261 E-.01277
G1 X20.57 Y25.461 E-.01273
G1 X20.78 Y25.704 E-.01271
G1 X20.941 Y25.983 E-.01275
G1 X21.047 Y26.287 E-.01274
G1 X21.094 Y26.605 E-.01272
G1 X21.081 Y26.927 E-.01276
G1 X21.005 Y27.245 E-.01294
G1 X20.821 Y27.625 E-.01671
G1 X20.468 Y28.012 E-.02073
G1 X20.099 Y28.249 E-.01736
G1 X19.636 Y28.38 E-.01905
G1 X19.456 Y28.382 E-.00713
;WIPE_END
G1 E-1.57596 F1800
G1 X19.366 Y33.777 F54000
G1 E2.5 F1200
;TYPE:Perimeter
G1 F2100
G1 X19.334 Y33.779 E.00101
G1 X18.944 Y33.732 E.01232
G1 X18.57 Y33.613 E.01231
G1 X18.211 Y33.415 E.01285
G1 X17.831 Y33.083 E.01582
G1 X17.598 Y32.767 E.01231
G1 X17.429 Y32.413 E.0123
G1 X17.329 Y32.033 E.01232
G1 X17.302 Y31.748 E.00898
G1 X17.349 Y31.252 E.01562
G1 X17.468 Y30.878 E.01231
G1 X17.655 Y30.533 E.0123
G1 X17.922 Y30.213 E.01307
G1 X18.359 Y29.886 E.01711
G1 X18.817 Y29.689 E.01563
G1 X19.399 Y29.608 E.01842
G1 X19.83 Y29.657 E.0136
G1 X20.204 Y29.776 E.01231
G1 X20.549 Y29.963 E.0123
G1 X20.853 Y30.211 E.0123
G1 X21.105 Y30.512 E.01231
G1 X21.302 Y30.872 E.01287
G1 X21.445 Y31.356 E.01582
G1 X21.472 Y31.748 E.01232
G1 X21.425 Y32.138 E.01232
G1 X21.306 Y32.511 E.01228
G1 X21.119 Y32.857 E.01233
G1 X20.857 Y33.172 E.01285
G1 X20.459 Y33.483 E.01584
G1 X20.105 Y33.653 E.01231
G1 X19.725 Y33.752 E.01231
G1 X19.426 Y33.773 E.0094
G1 X19.426 Y33.773 F54000
G1 X19.377 Y33.403
;TYPE:External perimeter
G1 F2100
G1 X19.369 Y33.404 E.00025
G1 X19.049 Y33.37 E.01009
G1 X18.741 Y33.277 E.01009
G1 X18.451 Y33.125 E.01027
G1 X18.12 Y32.841 E.01367
G1 X17.934 Y32.596 E.00964
G1 X17.791 Y32.307 E.01011
G1 X17.705 Y31.998 E.01006
G1 X17.678 Y31.712 E.00901
G1 X17.711 Y31.357 E.01118
G1 X17.804 Y31.049 E.01009
G1 X17.953 Y30.764 E.01008
G1 X18.306 Y30.377 E.01642
G1 X18.675 Y30.14 E.01375
G1 X19.047 Y30.026 E.0122
G1 X19.49 Y29.994 E.01393
G1 X20 Y30.099 E.01633
G1 X20.318 Y30.261 E.01119
G1 X20.57 Y30.461 E.01009
G1 X20.78 Y30.704 E.01007
G1 X20.943 Y30.989 E.01029
G1 X21.069 Y31.392 E.01324
G1 X21.096 Y31.712 E.01007
G1 X21.063 Y32.032 E.01009
G1 X20.97 Y32.34 E.01009
G1 X20.821 Y32.626 E.01011
G1 X20.616 Y32.882 E.01028
G1 X20.288 Y33.147 E.01322
G1 X20 Y33.29 E.01008
G1 X19.69 Y33.377 E.0101
G1 X19.437 Y33.398 E.00796
G1 E-.5 F1800
;WIPE_START
G1 F43200
G1 X19.377 Y33.403 E-.00238
G1 X19.369 Y33.404 E-.00032
G1 X19.049 Y33.37 E-.01274
G1 X18.741 Y33.277 E-.01274
G1 X18.451 Y33.125 E-.01296
G1 X18.12 Y32.841 E-.01726
G1 X17.934 Y32.596 E-.01218
G1 X17.791 Y32.307 E-.01276
G1 X17.705 Y31.998 E-.0127
G1 X17.678 Y31.712 E-.01137
G1 X17.711 Y31.357 E-.01411
G1 X17.804 Y31.049 E-.01274
G1 X17.953 Y30.764 E-.01273
G1 X18.306 Y30.377 E-.02073
G1 X18.675 Y30.14 E-.01736
G1 X19.047 Y30.026 E-.0154
G1 X19.49 Y29.994 E-.01758
G1 X20 Y30.099 E-.02061
G1 X20.318 Y30.261 E-.01413
G1 X20.57 Y30.461 E-.01273
G1 X20.78 Y30.704 E-.01271
G1 X20.943 Y30.989 E-.013
G1 X21.069 Y31.392 E-.01671
G1 X21.096 Y31.712 E-.01271
G1 X21.063 Y32.032 E-.01273
G1 X20.97 Y32.34 E-.01274
G1 X20.821 Y32.626 E-.01277
G1 X20.616 Y32.882 E-.01298
G1 X20.288 Y33.147 E-.01669
G1 X20 Y33.29 E-.01273
G1 X19.69 Y33.377 E-.01274
G1 X19.437 Y33.398 E-.01005
;WIPE_END
G1 E-1.57591 F1800
G1 X33.51 Y25.148 F54000
G1 E2.5 F1200
;TYPE:Perimeter
;WIDTH:0.556116
G1 F2100
G1 X33.446 Y25.148 E.00273
G1 X33.414 Y25.204 E.00275
G1 X33.446 Y25.26 E.00275
G1 X33.51 Y25.26 E.00273
G1 X33.542 Y25.204 E.00275
G1 E-.5 F1800
;WIPE_START
G1 F43200
G1 X33.51 Y25.148 E-.00255
G1 X33.446 Y25.148 E-.00253
G1 X33.414 Y25.204 E-.00255
G1 X33.446 Y25.26 E-.00255
G1 X33.51 Y25.26 E-.00253
G1 X33.542 Y25.204 E-.00255
;WIPE_END
G1 E-1.98474 F1800
G1 X32.477 Y34.186 F54000
G1 E2.5 F1200
;WIDTH:0.554007
G1 F2100
G1 X32.879 Y33.9 E.02097
G1 X33.258 Y33.506 E.02323
G1 X33.479 Y33.182 E.01667
G1 X33.479 Y34.186 E.04267
G1 X32.537 Y34.186 E.04003
G1 E-.5 F1800
;WIPE_START
G1 F43200
G1 X32.477 Y34.186 E-.00237
G1 X32.879 Y33.9 E-.01953
G1 X33.258 Y33.506 E-.02164
G1 X33.479 Y33.182 E-.01552
G1 X33.479 Y34.186 E-.03974
G1 X32.537 Y34.186 E-.03729
;WIPE_END
G1 E-1.86391 F1800
G1 X33.546 Y30.473 F54000
G1 E2.5 F1200
;WIDTH:0.419999
G1 F2100
G1 X33.447 Y30.28 E.0068
G1 X33.046 Y29.744 E.02099
G1 X32.772 Y29.492 E.01167
G1 X32.326 Y29.196 E.01678
G1 X32.553 Y29.062 E.00826
G1 X32.969 Y28.726 E.01677
G1 X33.314 Y28.319 E.01673
G1 X33.546 Y27.917 E.01455
G1 X33.546 Y30.413 E.07826
G1 E-.5 F1800
;WIPE_START
G1 F43200
G1 X33.546 Y30.473 E-.00237
G1 X33.447 Y30.28 E-.00859
G1 X33.046 Y29.744 E-.0265
G1 X32.772 Y29.492 E-.01474
G1 X32.326 Y29.196 E-.02119
G1 X32.553 Y29.062 E-.01043
G1 X32.969 Y28.726 E-.02117
G1 X33.314 Y28.319 E-.02112
G1 X33.546 Y27.917 E-.01837
G1 X33.546 Y30.413 E-.0988
;WIPE_END
G1 E-1.75672 F1800
G1 X31.163 Y29.198 F54000
G1 E2.5 F1200
;WIDTH:0.523586
G1 F2100
G1 X30.765 Y29.198 E.01591
G1 E-.5 F1800
;WIPE_START
G1 F43200
G1 X31.163 Y29.198 E-.01575
G1 X30.765 Y29.198 E-.01575
;WIPE_END
G1 E-1.9685 F1800
G1 X24.987 Y34.253 F54000
G1 E2.5 F1200
;WIDTH:0.419999
G1 F2100
G1 X20.609 Y34.253 E.13727
G1 X20.802 Y34.155 E.00679
G1 X21.337 Y33.753 E.02098
G1 X21.715 Y33.319 E.01805
G1 X21.978 Y32.854 E.01675
G1 X22.149 Y32.348 E.01675
G1 X22.222 Y31.819 E.01674
G1 X22.196 Y31.285 E.01676
G1 X22.092 Y30.864 E.0136
G1 X21.9 Y30.375 E.01647
G1 X21.581 Y29.897 E.01802
G1 X21.172 Y29.492 E.01805
G1 X20.726 Y29.196 E.01678
G1 X21.154 Y28.916 E.01604
G1 X21.539 Y28.545 E.01676
G1 X21.841 Y28.122 E.0163
G1 X22.057 Y27.662 E.01593
G1 X22.185 Y27.173 E.01585
G1 X22.225 Y26.64 E.01676
G1 X22.164 Y26.11 E.01673
G1 X22.006 Y25.6 E.01674
G1 X21.758 Y25.136 E.0165
