; generated by PrusaSlicer 2.9.0 on 2025-02-01 at 15:35:58 UTC

; 

; external perimeters extrusion width = 0.42mm
; perimeters extrusion width = 0.44mm
; infill extrusion width = 0.44mm
; solid infill extrusion width = 0.44mm
; top infill extrusion width = 0.40mm
; support material extrusion width = 0.36mm
; first layer extrusion width = 0.42mm


; printing object x_axis_carriage_printable_design_with_klackender.stl id:0 copy 0
; stop printing object x_axis_carriage_printable_design_with_klackender.stl id:0 copy 0

;TYPE:Custom
G90 ; use absolute coordinates
M83 ; extruder relative mode
M104 S150 ; set temporary nozzle temp to prevent oozing during homing
M140 S60 ; set final bed temp
G4 S30 ; allow partial nozzle warmup
G28 ; home all axis
G1 Z50 F240
G1 X2.0 Y10 F3000
M104 S210 ; set final nozzle temp
M190 S60 ; wait for bed temp to stabilize
M109 S210 ; wait for nozzle temp to stabilize
G1 Z0.28 F240
G92 E0
G1 X2.0 Y140 E10 F1500 ; prime the nozzle
G1 X2.3 Y140 F5000
G92 E0
G1 X2.3 Y10 E10 F1200 ; prime the nozzle
G92 E0
G21 ; set units to millimeters
G90 ; use absolute coordinates
M83 ; use relative distances for extrusion
; Filament gcode
M107
;LAYER_CHANGE
;Z:0.2
;HEIGHT:0.2
G1 E-2.5 F1800
G1 Z.2 F54000
G1 X25.818 Y22.762
G1 Z.2
G1 E2.5 F1200
M204 S4000
;TYPE:Skirt/Brim
;WIDTH:0.42
G1 F1800
G1 X27.563 Y21.286 E.07166
G1 X54.619 Y11.854 E.89839
G1 X56.435 Y11.378 E.05886
G1 X58.375 Y11.122 E.06135
G1 X72.233 Y10.021 E.43588
G1 X91.693 Y10.021 E.61015
G1 X93.214 Y10.279 E.04837
G1 X97.537 Y11.781 E.14349
G1 X98.857 Y12.658 E.04969
G1 X99.677 Y14.792 E.07168
G1 X99.677 Y36.494 E.68045
G1 X99.613 Y37.128 E.01998
G1 X92.473 Y72.282 E1.12473
G1 X92.055 Y73.61 E.04365
G1 X91.464 Y74.898 E.04443
G1 X90.722 Y76.091 E.04405
G1 X89.848 Y77.169 E.04351
G1 X88.269 Y78.589 E.06658
G1 X87.09 Y79.352 E.04403
G1 X86.285 Y79.762 E.02833
G1 X84.974 Y80.267 E.04405
G1 X83.807 Y80.567 E.03778
G1 X82.916 Y80.708 E.02828
G1 X81.613 Y80.785 E.04093
G1 X36.01 Y80.768 E1.42985
G1 X33.928 Y80.457 E.066
G1 X32.401 Y79.961 E.05034
G1 X30.703 Y79.096 E.05975
G1 X29.028 Y77.82 E.06602
G1 X27.629 Y76.263 E.06563
G1 X26.533 Y74.451 E.0664
G1 X25.802 Y72.476 E.06603
G1 X25.605 Y71.595 E.02831
G1 X25.443 Y70.217 E.0435
G1 X25.424 Y24.297 E1.43979
G1 X25.803 Y22.82 E.04781
G1 E-.5
;WIPE_START
G1 F43200
G1 X25.818 Y22.762 E-.00237
G1 X27.563 Y21.286 E-.09047
G1 X54.619 Y11.854 E-1.13418
G1 X56.435 Y11.378 E-.07431
G1 X58.375 Y11.122 E-.07746
G1 X72.233 Y10.021 E-.55027
G1 X74.025 Y10.021 E-.07094
;WIPE_END
; printing object x_axis_carriage_printable_design_with_klackender.stl id:0 copy 0
G1 X96.488 Y36.494 F54000
G1 E2.5 F1200
;TYPE:Support material
G1 F1800
G1 X90.075 Y36.494 E.20108
G1 X90.075 Y24.106 E.38842
G1 X89.804 Y23.835 E.01202
G1 X75.921 Y23.835 E.43529
G1 X75.651 Y24.106 E.01199
G1 X75.651 Y29.835 E.17963
G1 X71.865 Y29.835 E.11871
G1 X71.841 Y25.52 E.1353
G1 X71.645 Y23.965 E.04914
G1 X71.471 Y23.186 E.02503
G1 X70.986 Y21.695 E.04916
G1 X70.324 Y20.29 E.0487
G1 X69.518 Y19.014 E.04732
G1 X69.518 Y16.124 E.09061
G1 X70.851 Y15.731 E.04357
G1 X70.888 Y17.3 E.04921
G1 X71.43 Y18.139 E.03132
G1 X72.089 Y19.495 E.04727
G1 X72.316 Y19.651 E.00864
G1 X91.503 Y19.653 E.60159
G1 X92.538 Y19.466 E.03298
G1 X92.832 Y19.3 E.01059
G1 X93.026 Y19.052 E.00987
G1 X93.075 Y14.792 E.13358
G1 X96.488 Y14.792 E.10701
G1 X96.488 Y36.438 E.6787
G1 X96.488 Y36.438 F54000
G1 X95.807 Y36.325
G1 F1800
G1 X95.807 Y15.132 E.66449
G1 X95.388 Y15.132 E.01314
G1 X95.388 Y36.155 E.65916
G1 X94.969 Y36.155 E.01314
G1 X94.969 Y15.132 E.65916
G1 X94.55 Y15.132 E.01314
G1 X94.55 Y36.155 E.65916
G1 X94.131 Y36.155 E.01314
G1 X94.131 Y15.132 E.65916
G1 X93.712 Y15.132 E.01314
G1 X93.712 Y36.155 E.65916
G1 X93.293 Y36.155 E.01314
G1 X93.293 Y19.273 E.52932
G1 X92.874 Y19.68 E.01832
G1 X92.874 Y36.155 E.51656
G1 X92.455 Y36.155 E.01314
G1 X92.455 Y19.852 E.51117
G1 X92.036 Y19.942 E.01344
G1 X92.036 Y36.155 E.50835
G1 X91.617 Y36.155 E.01314
G1 X91.617 Y19.986 E.50697
G1 X91.198 Y19.998 E.01314
G1 X91.198 Y36.155 E.50659
G1 X90.779 Y36.155 E.01314
G1 X90.779 Y19.998 E.50659
G1 X90.36 Y19.998 E.01314
G1 X90.36 Y23.911 E.12269
G1 X89.941 Y23.496 E.01849
G1 X89.941 Y19.998 E.10968
G1 X89.522 Y19.998 E.01314
G1 X89.522 Y23.496 E.10968
G1 X89.103 Y23.496 E.01314
G1 X89.103 Y19.998 E.10968
G1 X88.684 Y19.998 E.01314
G1 X88.684 Y23.496 E.10968
G1 X88.265 Y23.496 E.01314
G1 X88.265 Y19.998 E.10968
G1 X87.846 Y19.998 E.01314
G1 X87.846 Y23.496 E.10968
G1 X87.427 Y23.496 E.01314
G1 X87.427 Y19.998 E.10968
G1 X87.008 Y19.998 E.01314
G1 X87.008 Y23.496 E.10968
G1 X86.589 Y23.496 E.01314
G1 X86.589 Y19.998 E.10968
G1 X86.17 Y19.998 E.01314
G1 X86.17 Y23.496 E.10968
G1 X85.751 Y23.496 E.01314
G1 X85.751 Y19.998 E.10968
G1 X85.332 Y19.998 E.01314
G1 X85.332 Y23.496 E.10968
G1 X84.913 Y23.496 E.01314
G1 X84.913 Y19.998 E.10968
G1 X84.494 Y19.998 E.01314
G1 X84.494 Y23.496 E.10968
G1 X84.075 Y23.496 E.01314
G1 X84.075 Y19.998 E.10968
G1 X83.657 Y19.998 E.01311
G1 X83.657 Y23.496 E.10968
G1 X83.238 Y23.496 E.01314
G1 X83.238 Y19.998 E.10968
G1 X82.819 Y19.998 E.01314
G1 X82.819 Y23.496 E.10968
G1 X82.4 Y23.496 E.01314
G1 X82.4 Y19.998 E.10968
G1 X81.981 Y19.998 E.01314
G1 X81.981 Y23.496 E.10968
G1 X81.562 Y23.496 E.01314
G1 X81.562 Y19.998 E.10968
G1 X81.143 Y19.998 E.01314
G1 X81.143 Y23.496 E.10968
G1 X80.724 Y23.496 E.01314
G1 X80.724 Y19.998 E.10968
G1 X80.305 Y19.998 E.01314
G1 X80.305 Y23.496 E.10968
G1 X79.886 Y23.496 E.01314
G1 X79.886 Y19.998 E.10968
G1 X79.467 Y19.998 E.01314
G1 X79.467 Y23.496 E.10968
G1 X79.048 Y23.496 E.01314
G1 X79.048 Y19.998 E.10968
G1 X78.629 Y19.998 E.01314
G1 X78.629 Y23.496 E.10968
G1 X78.21 Y23.496 E.01314
G1 X78.21 Y19.998 E.10968
G1 X77.791 Y19.998 E.01314
G1 X77.791 Y23.496 E.10968
G1 X77.372 Y23.496 E.01314
G1 X77.372 Y19.998 E.10968
G1 X76.953 Y19.998 E.01314
G1 X76.953 Y23.496 E.10968
G1 X76.534 Y23.496 E.01314
G1 X76.534 Y19.998 E.10968
G1 X76.115 Y19.998 E.01314
G1 X76.115 Y23.496 E.10968
G1 X75.781 Y23.496 E.01047
G1 X75.696 Y23.58 E.00375
G1 X75.696 Y19.998 E.11231
G1 X75.277 Y19.998 E.01314
G1 X75.277 Y29.496 E.2978
G1 X74.858 Y29.496 E.01314
G1 X74.858 Y19.998 E.2978
G1 X74.439 Y19.998 E.01314
G1 X74.439 Y29.496 E.2978
G1 X74.02 Y29.496 E.01314
G1 X74.02 Y19.998 E.2978
G1 X73.601 Y19.998 E.01314
G1 X73.601 Y29.496 E.2978
G1 X73.182 Y29.496 E.01314
G1 X73.182 Y19.998 E.2978
G1 X72.763 Y19.998 E.01314
G1 X72.763 Y29.496 E.2978
G1 X72.344 Y29.496 E.01314
G1 X72.344 Y19.991 E.29802
G1 X72.207 Y19.988 E.0043
G1 X71.925 Y19.794 E.01073
G1 X71.925 Y23.66 E.12122
G1 X71.506 Y22.138 E.0495
G1 X71.506 Y19.021 E.09773
G1 X71.087 Y18.234 E.02796
G1 X71.087 Y21.076 E.08911
G1 X70.668 Y20.217 E.02997
G1 X70.668 Y17.585 E.08252
G1 X70.511 Y17.221 E.01243
G1 X70.511 Y16.185 E.03248
G1 X70.249 Y16.262 E.00856
G1 X70.249 Y19.829 E.11184
G1 E-.5
;WIPE_START
G1 F43200
G1 X70.249 Y16.262 E-.14119
G1 X70.511 Y16.185 E-.01081
G1 X70.511 Y17.221 E-.04101
G1 X70.668 Y17.585 E-.01569
G1 X70.668 Y20.217 E-.10418
G1 X71.087 Y21.076 E-.03783
G1 X71.087 Y18.234 E-.1125
G1 X71.506 Y19.021 E-.03529
G1 X71.506 Y22.138 E-.12338
G1 X71.925 Y23.66 E-.06249
G1 X71.925 Y19.794 E-.15303
G1 X72.207 Y19.988 E-.01355
G1 X72.344 Y19.991 E-.00542
G1 X72.344 Y29.496 E-.37624
G1 X72.763 Y29.496 E-.01659
G1 X72.763 Y19.998 E-.37596
G1 X73.182 Y19.998 E-.01659
G1 X73.182 Y29.048 E-.35825
;WIPE_END
G1 X62.613 Y50.438 F54000
G1 E2.5 F1200
;TYPE:Perimeter
;WIDTH:0.419999
G1 F1800
G1 X53.111 Y50.438 E.29793
G1 X52.58 Y50.384 E.01673
G1 X52.054 Y50.231 E.01718
G1 X51.715 Y50.078 E.01166
G1 X51.234 Y49.76 E.01808
G1 X50.878 Y49.395 E.01599
G1 X50.644 Y49.086 E.01215
G1 X50.392 Y48.614 E.01678
G1 X50.249 Y48.077 E.01742
G1 X50.175 Y47.599 E.01517
G1 X50.175 Y40.873 E.21089
G1 X50.175 Y36.395 E.1404
G1 X50.239 Y35.888 E.01602
G1 X50.404 Y35.359 E.01737
G1 X50.665 Y34.872 E.01732
G1 X51.013 Y34.442 E.01734
G1 X51.435 Y34.085 E.01733
G1 X51.917 Y33.813 E.01735
G1 X52.441 Y33.637 E.01733
G1 X52.986 Y33.562 E.01725
G1 X53.884 Y33.556 E.02816
G1 X72.115 Y33.556 E.57162
G1 X72.816 Y33.647 E.02216
G1 X73.511 Y33.915 E.02336
G1 X74.108 Y34.344 E.02305
G1 X74.537 Y34.834 E.02042
G1 X74.864 Y35.457 E.02206
G1 X75.019 Y36.107 E.02095
G1 X75.051 Y36.394 E.00905
G1 X75.054 Y47.499 E.34819
G1 X74.959 Y48.205 E.02234
G1 X74.849 Y48.56 E.01165
G1 X74.63 Y49.016 E.01586
G1 X74.24 Y49.52 E.01998
G1 X73.999 Y49.747 E.01038
G1 X73.581 Y50.045 E.0161
G1 X73.002 Y50.295 E.01977
G1 X72.682 Y50.377 E.01036
G1 X72.115 Y50.438 E.01788
G1 X62.673 Y50.438 E.29605
G1 X62.673 Y50.438 F54000
G1 X62.613 Y50.057
G1 F1800
G1 X53.111 Y50.061 E.29793
G1 X52.646 Y50.011 E.01466
G1 X52.159 Y49.869 E.01591
G1 X51.751 Y49.654 E.01446
G1 X51.392 Y49.392 E.01394
G1 X51.04 Y49.006 E.01638
G1 X50.779 Y48.548 E.01653
G1 X50.685 Y48.3 E.00832
G1 X50.574 Y47.805 E.01591
G1 X50.552 Y46.586 E.03823
G1 X50.552 Y40.873 E.17913
G1 X50.552 Y36.395 E.1404
G1 X50.622 Y35.889 E.01602
G1 X50.815 Y35.36 E.01766
G1 X51.094 Y34.92 E.01634
G1 X51.425 Y34.57 E.0151
G1 X51.816 Y34.288 E.01512
G1 X52.253 Y34.084 E.01512
G1 X52.72 Y33.966 E.0151
G1 X53.884 Y33.933 E.03651
G1 X72.115 Y33.933 E.57162
G1 X72.7 Y34.006 E.01848
G1 X73.308 Y34.234 E.02036
G1 X73.834 Y34.602 E.02013
G1 X74.219 Y35.037 E.01821
G1 X74.509 Y35.584 E.01941
G1 X74.651 Y36.189 E.01948
G1 X74.674 Y37.211 E.03205
G1 X74.677 Y47.499 E.32257
G1 X74.586 Y48.145 E.02045
G1 X74.425 Y48.575 E.0144
G1 X74.208 Y48.967 E.01405
G1 X73.875 Y49.36 E.01615
G1 X73.448 Y49.681 E.01675
G1 X72.863 Y49.944 E.02011
G1 X72.234 Y50.054 E.02002
G1 X62.673 Y50.057 E.29978
G1 X62.673 Y50.057 F54000
G1 X62.613 Y49.682
G1 F1800
G1 X53.111 Y49.684 E.29793
G1 X52.751 Y49.649 E.01134
G1 X52.264 Y49.507 E.01591
G1 X51.776 Y49.224 E.01769
G1 X51.389 Y48.837 E.01716
G1 X51.109 Y48.366 E.01718
G1 X50.942 Y47.723 E.02083
G1 X50.929 Y40.873 E.21478
G1 X50.929 Y36.395 E.1404
G1 X51.01 Y35.902 E.01566
G1 X51.176 Y35.49 E.01393
G1 X51.377 Y35.17 E.01185
G1 X51.656 Y34.868 E.01289
G1 X51.987 Y34.624 E.01289
G1 X52.358 Y34.446 E.0129
G1 X52.903 Y34.327 E.01749
G1 X53.884 Y34.31 E.03076
G1 X72.115 Y34.31 E.57162
G1 X72.585 Y34.365 E.01484
G1 X73.106 Y34.552 E.01736
G1 X73.559 Y34.86 E.01718
G1 X73.901 Y35.24 E.01603
G1 X74.153 Y35.71 E.01672
G1 X74.283 Y36.271 E.01806
G1 X74.3 Y47.499 E.35205
G1 X74.214 Y48.086 E.0186
G1 X74.011 Y48.57 E.01646
G1 X73.659 Y49.04 E.01841
G1 X73.226 Y49.376 E.01718
G1 X72.724 Y49.593 E.01715
G1 X72.186 Y49.68 E.01709
G1 X62.673 Y49.682 E.29827
G1 X62.673 Y49.682 F54000
G1 X62.613 Y49.307
;TYPE:External perimeter
G1 F1800
G1 X53.111 Y49.307 E.29793
G1 X52.857 Y49.287 E.00799
G1 X52.37 Y49.145 E.01591
G1 X51.943 Y48.877 E.01581
G1 X51.636 Y48.541 E.01427
G1 X51.421 Y48.135 E.0144
G1 X51.31 Y47.64 E.01591
G1 X51.306 Y40.873 E.21217
G1 X51.306 Y36.395 E.1404
G1 X51.365 Y36.03 E.01159
G1 X51.5 Y35.682 E.0117
G1 X51.659 Y35.419 E.00964
G1 X51.887 Y35.166 E.01068
G1 X52.158 Y34.96 E.01067
G1 X52.463 Y34.808 E.01068
G1 X52.939 Y34.702 E.01529
G1 X53.884 Y34.687 E.02963
G1 X72.115 Y34.687 E.57162
G1 X72.469 Y34.724 E.01116
G1 X72.904 Y34.871 E.0144
G1 X73.284 Y35.118 E.01421
G1 X73.59 Y35.453 E.01423
G1 X73.804 Y35.859 E.01439
G1 X73.915 Y36.354 E.01591
G1 X73.923 Y47.499 E.34944
G1 X73.841 Y48.027 E.01675
G1 X73.627 Y48.486 E.01588
G1 X73.334 Y48.832 E.01422
G1 X72.963 Y49.093 E.01422
G1 X72.54 Y49.255 E.0142
G1 X72.115 Y49.307 E.01342
G1 X62.673 Y49.307 E.29605
G1 E-.5
;WIPE_START
G1 F43200
G1 X62.613 Y49.307 E-.00238
G1 X53.111 Y49.307 E-.37612
G1 X52.857 Y49.287 E-.01009
G1 X52.37 Y49.145 E-.02008
G1 X51.943 Y48.877 E-.01996
G1 X51.636 Y48.541 E-.01802
G1 X51.421 Y48.135 E-.01819
G1 X51.31 Y47.64 E-.02008
G1 X51.306 Y40.873 E-.26786
G1 X51.306 Y36.395 E-.17725
G1 X51.365 Y36.03 E-.01464
G1 X51.5 Y35.682 E-.01478
G1 X51.659 Y35.419 E-.01217
G1 X51.887 Y35.166 E-.01348
G1 X52.158 Y34.96 E-.01347
G1 X52.463 Y34.808 E-.01349
G1 X52.939 Y34.702 E-.0193
G1 X53.884 Y34.687 E-.03741
G1 X72.115 Y34.687 E-.72164
G1 X72.469 Y34.724 E-.01409
G1 X72.904 Y34.871 E-.01818
G1 X73.284 Y35.118 E-.01794
G1 X73.59 Y35.453 E-.01796
G1 X73.804 Y35.859 E-.01817
G1 X73.915 Y36.354 E-.02008
G1 X73.917 Y38.96 E-.10317
;WIPE_END
G1 X45.568 Y41.024 F54000
G1 E2.5 F1200
;TYPE:Perimeter
G1 F1800
G1 X45.203 Y41.006 E.01146
G1 X44.684 Y40.879 E.01675
G1 X44.198 Y40.657 E.01675
G1 X43.698 Y40.285 E.01954
G1 X43.461 Y40.048 E.01051
G1 X43.152 Y39.611 E.01678
G1 X42.931 Y39.125 E.01674
G1 X42.804 Y38.606 E.01675
G1 X42.777 Y38.073 E.01673
G1 X42.851 Y37.544 E.01675
G1 X42.931 Y37.269 E.00898
G1 X43.152 Y36.783 E.01674
G1 X43.461 Y36.346 E.01678
G1 X43.846 Y35.976 E.01674
G1 X44.293 Y35.684 E.01674
G1 X44.788 Y35.481 E.01677
G1 X45.44 Y35.366 E.02076
G1 X46.019 Y35.388 E.01817
G1 X46.541 Y35.515 E.01684
G1 X47.027 Y35.736 E.01674
G1 X47.463 Y36.045 E.01676
G1 X47.834 Y36.43 E.01676
G1 X48.126 Y36.877 E.01674
G1 X48.363 Y37.504 E.02102
G1 X48.448 Y38.073 E.01804
G1 X48.421 Y38.606 E.01673
G1 X48.295 Y39.125 E.01675
G1 X48.074 Y39.611 E.01674
G1 X47.765 Y40.048 E.01678
G1 X47.27 Y40.498 E.02098
G1 X46.772 Y40.788 E.01807
G1 X46.266 Y40.959 E.01675
G1 X45.737 Y41.032 E.01674
G1 X45.628 Y41.027 E.00342
G1 X45.628 Y41.027 F54000
G1 X45.58 Y40.654
G1 F1800
G1 X45.524 Y40.657 E.00176
G1 X45.065 Y40.597 E.01451
G1 X44.625 Y40.452 E.01453
G1 X44.196 Y40.208 E.01547
G1 X43.8 Y39.866 E.01641
G1 X43.488 Y39.44 E.01656
G1 X43.293 Y39.02 E.01452
G1 X43.18 Y38.571 E.01452
G1 X43.153 Y38.108 E.01454
G1 X43.213 Y37.649 E.01451
G1 X43.293 Y37.374 E.00898
G1 X43.528 Y36.882 E.0171
G1 X43.88 Y36.448 E.01752
G1 X44.239 Y36.155 E.01453
G1 X44.646 Y35.933 E.01454
G1 X45.115 Y35.788 E.01539
G1 X45.694 Y35.737 E.01822
G1 X46.161 Y35.797 E.01476
G1 X46.601 Y35.942 E.01453
G1 X47.006 Y36.167 E.01453
G1 X47.362 Y36.464 E.01454
G1 X47.655 Y36.822 E.0145
G1 X47.886 Y37.258 E.01547
G1 X48.046 Y37.823 E.01841
G1 X48.073 Y38.286 E.01454
G1 X48.013 Y38.745 E.01451
G1 X47.868 Y39.185 E.01453
G1 X47.642 Y39.59 E.01454
G1 X47.323 Y39.965 E.01544
G1 X46.856 Y40.321 E.01841
G1 X46.436 Y40.517 E.01453
G1 X45.987 Y40.63 E.01452
G1 X45.64 Y40.65 E.0109
G1 X45.64 Y40.65 F54000
G1 X45.592 Y40.279
G1 F1800
G1 X45.56 Y40.282 E.00101
G1 X45.17 Y40.235 E.01232
G1 X44.796 Y40.116 E.01231
G1 X44.437 Y39.917 E.01287
G1 X44.057 Y39.585 E.01582
G1 X43.786 Y39.194 E.01492
G1 X43.655 Y38.915 E.00966
G1 X43.555 Y38.535 E.01232
G1 X43.528 Y38.144 E.01229
G1 X43.575 Y37.754 E.01232
G1 X43.655 Y37.479 E.00898
G1 X43.881 Y37.035 E.01562
G1 X44.154 Y36.709 E.01333
G1 X44.43 Y36.479 E.01126
G1 X44.773 Y36.288 E.01231
G1 X45.163 Y36.162 E.01285
G1 X45.659 Y36.112 E.01563
G1 X46.056 Y36.159 E.01253
G1 X46.43 Y36.278 E.01231
G1 X46.775 Y36.465 E.0123
G1 X47.079 Y36.714 E.01232
G1 X47.331 Y37.015 E.01231
G1 X47.528 Y37.375 E.01287
G1 X47.671 Y37.858 E.01579
G1 X47.698 Y38.25 E.01232
G1 X47.651 Y38.64 E.01232
G1 X47.532 Y39.014 E.01231
G1 X47.345 Y39.359 E.0123
G1 X47.082 Y39.675 E.01289
G1 X46.685 Y39.986 E.01581
G1 X46.331 Y40.155 E.0123
G1 X45.951 Y40.255 E.01232
G1 X45.652 Y40.275 E.0094
G1 X45.652 Y40.275 F54000
G1 X45.604 Y39.885
;TYPE:External perimeter
G1 F1800
G1 X45.413 Y39.889 E.00599
G1 X44.967 Y39.78 E.0144
G1 X44.677 Y39.627 E.01028
G1 X44.355 Y39.354 E.01324
G1 X44.122 Y39.023 E.01269
G1 X43.937 Y38.535 E.01636
G1 X43.903 Y38.179 E.01121
G1 X43.937 Y37.859 E.01009
G1 X44.017 Y37.584 E.00898
G1 X44.179 Y37.266 E.01119
G1 X44.404 Y36.992 E.01112
G1 X44.622 Y36.804 E.00903
G1 X44.901 Y36.643 E.0101
G1 X45.211 Y36.536 E.01028
G1 X45.624 Y36.488 E.01304
G1 X45.95 Y36.521 E.01027
G1 X46.259 Y36.614 E.01012
G1 X46.544 Y36.763 E.01008
G1 X46.796 Y36.963 E.01009
G1 X47.006 Y37.207 E.01009
G1 X47.169 Y37.491 E.01027
G1 X47.295 Y37.894 E.01324
G1 X47.322 Y38.215 E.0101
G1 X47.288 Y38.535 E.01009
G1 X47.196 Y38.843 E.01008
G1 X47.047 Y39.128 E.01008
G1 X46.842 Y39.384 E.01028
G1 X46.514 Y39.65 E.01324
G1 X46.226 Y39.793 E.01008
G1 X45.916 Y39.879 E.01009
G1 X45.664 Y39.884 E.0079
G1 E-.5
;WIPE_START
G1 F43200
G1 X45.604 Y39.885 E-.00238
G1 X45.413 Y39.889 E-.00756
