; generated by PrusaSlicer 2.9.0 on 2025-01-28 at 11:22:20 UTC

; 

; external perimeters extrusion width = 0.42mm
; perimeters extrusion width = 0.44mm
; infill extrusion width = 0.44mm
; solid infill extrusion width = 0.44mm
; top infill extrusion width = 0.40mm
; support material extrusion width = 0.36mm
; first layer extrusion width = 0.42mm

; external perimeters extrusion width = 0.42mm
; perimeters extrusion width = 0.44mm
; infill extrusion width = 0.44mm
; solid infill extrusion width = 0.44mm
; top infill extrusion width = 0.40mm
; support material extrusion width = 0.36mm
; first layer extrusion width = 0.42mm


; printing object x_axis_carriage_printable_design_with_klackender.stl id:0 copy 0
; stop printing object x_axis_carriage_printable_design_with_klackender.stl id:0 copy 0

;TYPE:Custom
G90 ; use absolute coordinates
M83 ; extruder relative mode
M104 S210 ; set temporary nozzle temp to prevent oozing during homing
M140 S60 ; set final bed temp
G4 S30 ; allow partial nozzle warmup
G28 ; home all axis
G1 Z50 F240
G1 X2.0 Y10 F3000
M104 S210 ; set final nozzle temp
M190 S60 ; wait for bed temp to stabilize
M109 S210 ; wait for nozzle temp to stabilize
G1 Z0.28 F240
G92 E0
G1 X2.0 Y140 E10 F1500 ; prime the nozzle
G1 X2.3 Y140 F5000
G92 E0
G1 X2.3 Y10 E10 F1200 ; prime the nozzle
G92 E0
G21 ; set units to millimeters
G90 ; use absolute coordinates
M83 ; use relative distances for extrusion
; Filament gcode
M107
;LAYER_CHANGE
;Z:0.2
;HEIGHT:0.2
G1 E-2.5 F1800
G1 Z.2 F54000
G1 X48.005 Y59.212
G1 Z.2
G1 E2.5 F1200
M204 S3500
;TYPE:Skirt/Brim
;WIDTH:0.42
G1 F2100
G1 X74.35 Y48.036 E.89728
G1 X76.335 Y47.393 E.06542
G1 X78.062 Y47.066 E.05511
G1 X91.787 Y45.134 E.43458
G1 X114.177 Y45.134 E.70202
G1 X115.712 Y45.528 E.04969
G1 X116.96 Y46.766 E.05512
G1 X119.908 Y52.038 E.18939
G1 X120.314 Y53.594 E.05042
G1 X120.314 Y73.662 E.62922
G1 X120.245 Y74.32 E.02074
G1 X113.111 Y108.132 E1.08349
G1 X112.688 Y109.473 E.04409
G1 X112.005 Y110.925 E.05031
G1 X111.242 Y112.104 E.04403
G1 X110.336 Y113.179 E.04408
G1 X108.744 Y114.557 E.06602
G1 X107.727 Y115.202 E.03776
G1 X106.461 Y115.812 E.04406
G1 X104.445 Y116.418 E.066
G1 X103.553 Y116.559 E.02832
G1 X102.25 Y116.636 E.04093
G1 X56.647 Y116.619 E1.42985
G1 X54.565 Y116.308 E.066
G1 X53.039 Y115.812 E.05031
G1 X51.171 Y114.839 E.06604
G1 X49.519 Y113.534 E.06601
G1 X48.141 Y111.942 E.06602
G1 X47.085 Y110.12 E.06603
G1 X46.39 Y108.133 E.066
G1 X46.079 Y106.05 E.06603
G1 X46.061 Y62.147 E1.37655
G1 X46.455 Y60.613 E.04966
G1 X47.96 Y59.252 E.06362
G1 E-.5 F1800
;WIPE_START
G1 F43200
G1 X48.005 Y59.212 E-.00238
G1 X74.35 Y48.036 E-1.13278
G1 X76.335 Y47.393 E-.08259
G1 X78.062 Y47.066 E-.06958
G1 X91.787 Y45.134 E-.54864
G1 X95.931 Y45.134 E-.16403
;WIPE_END
; printing object x_axis_carriage_printable_design_with_klackender.stl id:0 copy 0
G1 X91.418 Y56.594 F54000
G1 E2.5 F1200
;TYPE:Support material
G1 F2100
G1 X114.546 Y56.594 E.72516
G1 X114.546 Y53.594 E.09406
G1 X117.125 Y53.594 E.08086
G1 X117.125 Y73.662 E.62922
G1 X110.712 Y73.662 E.20108
G1 X110.712 Y61.956 E.36703
G1 X110.441 Y61.686 E.01199
G1 X98.559 Y61.686 E.37255
G1 X98.288 Y61.956 E.01199
G1 X98.288 Y65.686 E.11695
G1 X92.502 Y65.686 E.18142
G1 X92.478 Y61.371 E.1353
G1 X92.28 Y59.802 E.04959
G1 X91.623 Y57.546 E.07367
G1 X90.962 Y56.141 E.04868
G1 X90.155 Y54.865 E.04734
G1 X90.155 Y53.594 E.03985
G1 X91.418 Y53.594 E.0396
G1 X91.418 Y56.538 E.09231
G1 E-.5 F1800
;WIPE_START
G1 F43200
G1 X91.418 Y53.594 E-.11653
G1 X90.155 Y53.594 E-.04999
G1 X90.155 Y54.865 E-.05031
G1 X90.962 Y56.141 E-.05976
G1 X91.623 Y57.546 E-.06146
G1 X92.28 Y59.802 E-.09301
G1 X92.478 Y61.371 E-.0626
G1 X92.502 Y65.686 E-.1708
G1 X98.288 Y65.686 E-.22903
G1 X98.288 Y61.956 E-.14765
G1 X98.559 Y61.686 E-.01514
G1 X110.441 Y61.686 E-.47033
G1 X110.712 Y61.956 E-.01514
G1 X110.712 Y73.533 E-.45825
;WIPE_END
G1 X116.444 Y73.492 F54000
G1 E2.5 F1200
G1 F2100
G1 X116.444 Y53.934 E.61323
G1 X116.025 Y53.934 E.01314
G1 X116.025 Y73.322 E.6079
G1 X115.606 Y73.322 E.01314
G1 X115.606 Y53.934 E.6079
G1 X115.187 Y53.934 E.01314
G1 X115.187 Y73.322 E.6079
G1 X114.768 Y73.322 E.01314
G1 X114.768 Y56.934 E.51383
G1 X114.349 Y56.934 E.01314
G1 X114.349 Y73.322 E.51383
G1 X113.93 Y73.322 E.01314
G1 X113.93 Y56.934 E.51383
G1 X113.511 Y56.934 E.01314
G1 X113.511 Y73.322 E.51383
G1 X113.092 Y73.322 E.01314
G1 X113.092 Y56.934 E.51383
G1 X112.673 Y56.934 E.01314
G1 X112.673 Y73.322 E.51383
G1 X112.254 Y73.322 E.01314
G1 X112.254 Y56.934 E.51383
G1 X111.835 Y56.934 E.01314
G1 X111.835 Y73.322 E.51383
G1 X111.416 Y73.322 E.01314
G1 X111.416 Y56.934 E.51383
G1 X110.997 Y56.934 E.01314
G1 X110.997 Y61.762 E.15138
G1 X110.578 Y61.346 E.01851
G1 X110.578 Y56.934 E.13834
G1 X110.159 Y56.934 E.01314
G1 X110.159 Y61.346 E.13834
G1 X109.74 Y61.346 E.01314
G1 X109.74 Y56.934 E.13834
G1 X109.321 Y56.934 E.01314
G1 X109.321 Y61.346 E.13834
G1 X108.902 Y61.346 E.01314
G1 X108.902 Y56.934 E.13834
G1 X108.484 Y56.934 E.01311
G1 X108.484 Y61.346 E.13834
G1 X108.065 Y61.346 E.01314
G1 X108.065 Y56.934 E.13834
G1 X107.646 Y56.934 E.01314
G1 X107.646 Y61.346 E.13834
G1 X107.227 Y61.346 E.01314
G1 X107.227 Y56.934 E.13834
G1 X106.808 Y56.934 E.01314
G1 X106.808 Y61.346 E.13834
G1 X106.389 Y61.346 E.01314
G1 X106.389 Y56.934 E.13834
G1 X105.97 Y56.934 E.01314
G1 X105.97 Y61.346 E.13834
G1 X105.551 Y61.346 E.01314
G1 X105.551 Y56.934 E.13834
G1 X105.132 Y56.934 E.01314
G1 X105.132 Y61.346 E.13834
G1 X104.713 Y61.346 E.01314
G1 X104.713 Y56.934 E.13834
G1 X104.294 Y56.934 E.01314
G1 X104.294 Y61.346 E.13834
G1 X103.875 Y61.346 E.01314
G1 X103.875 Y56.934 E.13834
G1 X103.456 Y56.934 E.01314
G1 X103.456 Y61.346 E.13834
G1 X103.037 Y61.346 E.01314
G1 X103.037 Y56.934 E.13834
G1 X102.618 Y56.934 E.01314
G1 X102.618 Y61.346 E.13834
G1 X102.199 Y61.346 E.01314
G1 X102.199 Y56.934 E.13834
G1 X101.78 Y56.934 E.01314
G1 X101.78 Y61.346 E.13834
G1 X101.361 Y61.346 E.01314
G1 X101.361 Y56.934 E.13834
G1 X100.942 Y56.934 E.01314
G1 X100.942 Y61.346 E.13834
G1 X100.523 Y61.346 E.01314
G1 X100.523 Y56.934 E.13834
G1 X100.104 Y56.934 E.01314
G1 X100.104 Y61.346 E.13834
G1 X99.685 Y61.346 E.01314
G1 X99.685 Y56.934 E.13834
G1 X99.266 Y56.934 E.01314
G1 X99.266 Y61.346 E.13834
G1 X98.847 Y61.346 E.01314
G1 X98.847 Y56.934 E.13834
G1 X98.428 Y56.934 E.01314
G1 X98.428 Y61.346 E.13834
G1 X98.009 Y61.755 E.01836
G1 X98.009 Y56.934 E.15116
G1 X97.59 Y56.934 E.01314
G1 X97.59 Y65.346 E.26375
G1 X97.171 Y65.346 E.01314
G1 X97.171 Y56.934 E.26375
G1 X96.752 Y56.934 E.01314
G1 X96.752 Y65.346 E.26375
G1 X96.333 Y65.346 E.01314
G1 X96.333 Y56.934 E.26375
G1 X95.914 Y56.934 E.01314
G1 X95.914 Y65.346 E.26375
G1 X95.495 Y65.346 E.01314
G1 X95.495 Y56.934 E.26375
G1 X95.076 Y56.934 E.01314
G1 X95.076 Y65.346 E.26375
G1 X94.657 Y65.346 E.01314
G1 X94.657 Y56.934 E.26375
G1 X94.238 Y56.934 E.01314
G1 X94.238 Y65.346 E.26375
G1 X93.819 Y65.346 E.01314
G1 X93.819 Y56.934 E.26375
G1 X93.4 Y56.934 E.01314
G1 X93.4 Y65.346 E.26375
G1 X92.981 Y65.346 E.01314
G1 X92.981 Y56.934 E.26375
G1 X92.562 Y56.934 E.01314
G1 X92.562 Y59.511 E.0808
G1 X92.143 Y57.989 E.0495
G1 X92.143 Y56.764 E.03841
G1 X92.143 Y56.764 F54000
G1 X90.886 Y55.679
G1 F2100
G1 X90.886 Y53.764 E.06004
G1 X90.886 Y53.764 F54000
G1 X92.109 Y53.217
;TYPE:Support material interface
;WIDTH:0.36
G1 F2100
G1 X92.626 Y54.081 E.02655
G1 X92.626 Y56.226 E.05655
G1 X93.143 Y56.226 E.01363
G1 X93.143 Y54.938 E.03396
G1 X93.329 Y55.051 E.00574
G1 X93.66 Y55.051 E.00873
G1 X93.66 Y56.226 E.03098
G1 X94.177 Y56.226 E.01363
G1 X94.177 Y55.052 E.03095
G1 X94.694 Y55.052 E.01363
G1 X94.694 Y56.226 E.03095
G1 X95.211 Y56.226 E.01363
G1 X95.211 Y55.052 E.03095
G1 X95.728 Y55.052 E.01363
G1 X95.728 Y56.226 E.03095
G1 X96.245 Y56.226 E.01363
G1 X96.245 Y55.052 E.03095
G1 X96.762 Y55.052 E.01363
G1 X96.762 Y56.226 E.03095
G1 X97.279 Y56.226 E.01363
G1 X97.279 Y55.052 E.03095
G1 X97.797 Y55.052 E.01366
G1 X97.797 Y56.226 E.03095
G1 X98.314 Y56.226 E.01363
G1 X98.314 Y55.053 E.03093
G1 X98.831 Y55.053 E.01363
G1 X98.831 Y56.226 E.03093
G1 X99.348 Y56.226 E.01363
G1 X99.348 Y55.053 E.03093
G1 X99.865 Y55.053 E.01363
G1 X99.865 Y56.226 E.03093
G1 X100.382 Y56.226 E.01363
G1 X100.382 Y55.053 E.03093
G1 X100.899 Y55.053 E.01363
G1 X100.899 Y56.226 E.03093
G1 X101.416 Y56.226 E.01363
G1 X101.416 Y55.053 E.03093
G1 X101.933 Y55.053 E.01363
G1 X101.933 Y56.226 E.03093
G1 X102.45 Y56.226 E.01363
G1 X102.45 Y55.054 E.0309
G1 X102.967 Y55.054 E.01363
G1 X102.967 Y56.226 E.0309
G1 X103.484 Y56.226 E.01363
G1 X103.484 Y55.054 E.0309
G1 X104.001 Y55.054 E.01363
G1 X104.001 Y56.226 E.0309
G1 X104.519 Y56.226 E.01366
G1 X104.519 Y55.054 E.0309
G1 X105.036 Y55.054 E.01363
G1 X105.036 Y56.226 E.0309
G1 X105.553 Y56.226 E.01363
G1 X105.553 Y55.054 E.0309
G1 X106.07 Y55.054 E.01363
G1 X106.07 Y56.226 E.0309
G1 X106.587 Y56.226 E.01363
G1 X106.587 Y55.055 E.03087
G1 X107.104 Y55.055 E.01363
G1 X107.104 Y56.226 E.03087
G1 X107.621 Y56.226 E.01363
G1 X107.621 Y55.055 E.03087
G1 X108.138 Y55.055 E.01363
G1 X108.138 Y56.226 E.03087
G1 X108.655 Y56.226 E.01363
G1 X108.655 Y55.055 E.03087
G1 X109.172 Y55.055 E.01363
G1 X109.172 Y56.226 E.03087
G1 X109.689 Y56.226 E.01363
G1 X109.689 Y55.055 E.03087
G1 X110.206 Y55.055 E.01363
G1 X110.206 Y56.226 E.03087
G1 X110.724 Y56.226 E.01366
G1 X110.724 Y55.056 E.03085
G1 X111.241 Y55.056 E.01363
G1 X111.241 Y56.226 E.03085
G1 X111.758 Y56.226 E.01363
G1 X111.758 Y55.056 E.03085
G1 X112.275 Y55.034 E.01364
G1 X112.275 Y56.226 E.03143
G1 X112.792 Y56.226 E.01363
G1 X112.792 Y54.941 E.03388
G1 X113.055 Y54.816 E.00768
G1 X113.055 Y54.816 F54000
G1 X112.89 Y54.436
;TYPE:Support material
;WIDTH:0.42
G1 F2100
G1 X112.783 Y54.567 E.0053
G1 X111.893 Y54.687 E.02816
G1 X93.432 Y54.683 E.57883
G1 X93.319 Y54.614 E.00415
G1 X92.788 Y53.594 E.03606
G1 X112.89 Y53.594 E.63028
G1 X112.89 Y54.379 E.02461
G1 X112.89 Y54.379 F54000
G1 X112.254 Y54.496
G1 F2100
G1 X112.254 Y53.934 E.01762
G1 X111.835 Y53.934 E.01314
G1 X111.835 Y54.348 E.01298
G1 X111.416 Y54.348 E.01314
G1 X111.416 Y53.934 E.01298
G1 X110.997 Y53.934 E.01314
G1 X110.997 Y54.348 E.01298
G1 X110.578 Y54.348 E.01314
G1 X110.578 Y53.934 E.01298
G1 X110.159 Y53.934 E.01314
G1 X110.159 Y54.347 E.01295
G1 X109.74 Y54.347 E.01314
G1 X109.74 Y53.934 E.01295
G1 X109.321 Y53.934 E.01314
G1 X109.321 Y54.347 E.01295
G1 X108.902 Y54.347 E.01314
G1 X108.902 Y53.934 E.01295
G1 X108.484 Y53.934 E.01311
G1 X108.484 Y54.347 E.01295
G1 X108.065 Y54.347 E.01314
G1 X108.065 Y53.934 E.01295
G1 X107.646 Y53.934 E.01314
G1 X107.646 Y54.347 E.01295
G1 X107.227 Y54.347 E.01314
G1 X107.227 Y53.934 E.01295
G1 X106.808 Y53.934 E.01314
G1 X106.808 Y54.347 E.01295
G1 X106.389 Y54.347 E.01314
G1 X106.389 Y53.934 E.01295
G1 X105.97 Y53.934 E.01314
G1 X105.97 Y54.346 E.01292
G1 X105.551 Y54.346 E.01314
G1 X105.551 Y53.934 E.01292
G1 X105.132 Y53.934 E.01314
G1 X105.132 Y54.346 E.01292
G1 X104.713 Y54.346 E.01314
G1 X104.713 Y53.934 E.01292
G1 X104.294 Y53.934 E.01314
G1 X104.294 Y54.346 E.01292
G1 X103.875 Y54.346 E.01314
G1 X103.875 Y53.934 E.01292
G1 X103.456 Y53.934 E.01314
G1 X103.456 Y54.346 E.01292
G1 X103.037 Y54.346 E.01314
G1 X103.037 Y53.934 E.01292
G1 X102.618 Y53.934 E.01314
G1 X102.618 Y54.346 E.01292
G1 X102.199 Y54.346 E.01314
G1 X102.199 Y53.934 E.01292
G1 X101.78 Y53.934 E.01314
G1 X101.78 Y54.345 E.01289
G1 X101.361 Y54.345 E.01314
G1 X101.361 Y53.934 E.01289
G1 X100.942 Y53.934 E.01314
G1 X100.942 Y54.345 E.01289
G1 X100.523 Y54.345 E.01314
G1 X100.523 Y53.934 E.01289
G1 X100.104 Y53.934 E.01314
G1 X100.104 Y54.345 E.01289
G1 X99.685 Y54.345 E.01314
G1 X99.685 Y53.934 E.01289
G1 X99.266 Y53.934 E.01314
G1 X99.266 Y54.345 E.01289
G1 X98.847 Y54.345 E.01314
G1 X98.847 Y53.934 E.01289
G1 X98.428 Y53.934 E.01314
G1 X98.428 Y54.345 E.01289
G1 X98.009 Y54.344 E.01314
G1 X98.009 Y53.934 E.01286
G1 X97.59 Y53.934 E.01314
G1 X97.59 Y54.344 E.01286
G1 X97.171 Y54.344 E.01314
G1 X97.171 Y53.934 E.01286
G1 X96.752 Y53.934 E.01314
G1 X96.752 Y54.344 E.01286
G1 X96.333 Y54.344 E.01314
G1 X96.333 Y53.934 E.01286
G1 X95.914 Y53.934 E.01314
G1 X95.914 Y54.344 E.01286
G1 X95.495 Y54.344 E.01314
G1 X95.495 Y53.934 E.01286
G1 X95.076 Y53.934 E.01314
G1 X95.076 Y54.344 E.01286
G1 X94.657 Y54.344 E.01314
G1 X94.657 Y53.934 E.01286
G1 X94.238 Y53.934 E.01314
G1 X94.238 Y54.344 E.01286
G1 X93.819 Y54.343 E.01314
G1 X93.819 Y53.934 E.01282
G1 X93.4 Y53.934 E.01314
G1 X93.4 Y54.403 E.01471
G1 E-.5 F1800
;WIPE_START
G1 F43200
G1 X93.4 Y53.934 E-.01856
G1 X93.819 Y53.934 E-.01659
G1 X93.819 Y54.343 E-.01619
G1 X94.238 Y54.344 E-.01659
G1 X94.238 Y53.934 E-.01623
G1 X94.657 Y53.934 E-.01659
G1 X94.657 Y54.344 E-.01623
G1 X95.076 Y54.344 E-.01659
G1 X95.076 Y53.934 E-.01623
G1 X95.495 Y53.934 E-.01659
G1 X95.495 Y54.344 E-.01623
G1 X95.914 Y54.344 E-.01659
G1 X95.914 Y53.934 E-.01623
G1 X96.333 Y53.934 E-.01659
G1 X96.333 Y54.344 E-.01623
G1 X96.752 Y54.344 E-.01659
G1 X96.752 Y53.934 E-.01623
G1 X97.171 Y53.934 E-.01659
G1 X97.171 Y54.344 E-.01623
G1 X97.59 Y54.344 E-.01659
G1 X97.59 Y53.934 E-.01623
G1 X98.009 Y53.934 E-.01659
G1 X98.009 Y54.344 E-.01623
G1 X98.428 Y54.345 E-.01659
G1 X98.428 Y53.934 E-.01627
G1 X98.847 Y53.934 E-.01659
G1 X98.847 Y54.345 E-.01627
G1 X99.266 Y54.345 E-.01659
G1 X99.266 Y53.934 E-.01627
G1 X99.685 Y53.934 E-.01659
G1 X99.685 Y54.345 E-.01627
G1 X100.104 Y54.345 E-.01659
G1 X100.104 Y53.934 E-.01627
G1 X100.523 Y53.934 E-.01659
G1 X100.523 Y54.345 E-.01627
G1 X100.942 Y54.345 E-.01659
G1 X100.942 Y53.934 E-.01627
G1 X101.361 Y53.934 E-.01659
G1 X101.361 Y54.345 E-.01627
G1 X101.78 Y54.345 E-.01659
G1 X101.78 Y53.934 E-.01627
G1 X102.199 Y53.934 E-.01659
G1 X102.199 Y54.346 E-.01631
G1 X102.618 Y54.346 E-.01659
G1 X102.618 Y53.934 E-.01631
G1 X103.037 Y53.934 E-.01659
G1 X103.037 Y54.346 E-.01631
G1 X103.456 Y54.346 E-.01659
G1 X103.456 Y53.934 E-.01631
G1 X103.875 Y53.934 E-.01659
G1 X103.875 Y54.346 E-.01631
G1 X104.294 Y54.346 E-.01659
G1 X104.294 Y53.934 E-.01631
G1 X104.713 Y53.934 E-.01659
G1 X104.713 Y54.346 E-.01631
G1 X105.132 Y54.346 E-.01659
G1 X105.132 Y53.934 E-.01631
G1 X105.551 Y53.934 E-.01659
G1 X105.551 Y54.346 E-.01631
G1 X105.97 Y54.346 E-.01659
G1 X105.97 Y53.934 E-.01631
G1 X106.389 Y53.934 E-.01659
G1 X106.389 Y54.347 E-.01635
G1 X106.808 Y54.347 E-.01659
G1 X106.808 Y53.934 E-.01635
G1 X107.227 Y53.934 E-.01659
G1 X107.227 Y54.347 E-.01635
G1 X107.646 Y54.347 E-.01659
G1 X107.646 Y53.934 E-.01635
G1 X108.065 Y53.934 E-.01659
G1 X108.065 Y54.347 E-.01635
G1 X108.484 Y54.347 E-.01659
G1 X108.484 Y53.934 E-.01635
G1 X108.902 Y53.934 E-.01655
G1 X108.902 Y54.347 E-.01635
G1 X109.321 Y54.347 E-.01659
G1 X109.321 Y53.934 E-.01635
G1 X109.74 Y53.934 E-.01659
G1 X109.74 Y54.347 E-.01635
G1 X110.159 Y54.347 E-.01659
G1 X110.159 Y53.934 E-.01635
G1 X110.578 Y53.934 E-.01659
G1 X110.578 Y54.348 E-.01639
G1 X110.997 Y54.348 E-.01659
G1 X110.997 Y53.934 E-.01639
G1 X111.416 Y53.934 E-.01659
G1 X111.416 Y54.348 E-.01639
G1 X111.835 Y54.348 E-.01659
G1 X111.835 Y53.934 E-.01639
G1 X112.254 Y53.934 E-.01659
G1 X112.254 Y54.496 E-.02225
;WIPE_END
G1 E-.4956 F1800
G1 X92.013 Y49.43 F54000
G1 E2.5 F1200
;TYPE:Support material interface
;WIDTH:0.36
G1 F2100
G1 X91.942 Y49.525 E.00313
G1 X91.942 Y52.867 E.08811
G1 X92.109 Y53.217 E.01022
G1 X92.109 Y56.226 E.07933
G1 X91.787 Y56.226 E.00849
G1 X91.787 Y48.323 E.20836
G1 X92.109 Y48.323 E.00849
G1 X92.109 Y49.304 E.02586
G1 X92.187 Y49.2 E.00343
G1 X92.469 Y49.121 E.00772
G1 X92.469 Y49.121 F54000
G1 X92.267 Y48.323
G1 F2100
G1 X92.626 Y48.323 E.00947
G1 X92.626 Y49.097 E.02041
G1 X93.143 Y49.044 E.0137
G1 X93.143 Y48.323 E.01901
G1 X93.66 Y48.323 E.01363
G1 X93.66 Y49.044 E.01901
G1 X94.177 Y49.044 E.01363
G1 X94.177 Y48.323 E.01901
G1 X94.694 Y48.323 E.01363
G1 X94.694 Y49.044 E.01901
G1 X95.211 Y49.044 E.01363
G1 X95.211 Y48.323 E.01901
G1 X95.728 Y48.323 E.01363
G1 X95.728 Y49.044 E.01901
G1 X96.245 Y49.045 E.01363
G1 X96.245 Y48.323 E.01904
G1 X96.762 Y48.323 E.01363
G1 X96.762 Y49.045 E.01904
G1 X97.279 Y49.045 E.01363
