; generated by PrusaSlicer 2.9.0 on 2025-01-27 at 21:48:25 UTC

; 

; external perimeters extrusion width = 0.42mm
; perimeters extrusion width = 0.44mm
; infill extrusion width = 0.44mm
; solid infill extrusion width = 0.44mm
; top infill extrusion width = 0.40mm
; first layer extrusion width = 0.42mm


; printing object y_axis_front_carriage_plate_printable.stl id:0 copy 0
; stop printing object y_axis_front_carriage_plate_printable.stl id:0 copy 0

;TYPE:Custom
G90 ; use absolute coordinates
M83 ; extruder relative mode
M104 S150 ; set temporary nozzle temp to prevent oozing during homing
M140 S60 ; set final bed temp
G4 S30 ; allow partial nozzle warmup
G28 ; home all axis
G1 Z50 F240
G1 X2.0 Y10 F3000
M104 S210 ; set final nozzle temp
M190 S60 ; wait for bed temp to stabilize
M109 S210 ; wait for nozzle temp to stabilize
G1 Z0.28 F240
G92 E0
G1 X2.0 Y140 E10 F1500 ; prime the nozzle
G1 X2.3 Y140 F5000
G92 E0
G1 X2.3 Y10 E10 F1200 ; prime the nozzle
G92 E0
G21 ; set units to millimeters
G90 ; use absolute coordinates
M83 ; use relative distances for extrusion
; Filament gcode
M107
;LAYER_CHANGE
;Z:0.2
;HEIGHT:0.2
G1 E-2.5 F1800
G1 Z.2 F54000
G1 X72.374 Y32.399
G1 Z.2
G1 E2.5 F1200
M204 S3500
;TYPE:Skirt/Brim
;WIDTH:0.42
G1 F2100
G1 X78.637 Y18.408 E.48062
G1 X79.709 Y16.826 E.05992
G1 X80.825 Y15.638 E.05111
G1 X82.491 Y14.371 E.06563
G1 X84.189 Y13.506 E.05975
G1 X85.521 Y13.059 E.04405
G1 X87.098 Y12.759 E.05033
G1 X88.4 Y12.681 E.0409
G1 X92.501 Y12.683 E.12858
G1 X93.902 Y12.784 E.04404
G1 X95.762 Y13.2 E.05976
G1 X97.073 Y13.705 E.04405
G1 X98.479 Y14.478 E.05031
G1 X99.985 Y15.646 E.05976
G1 X100.956 Y16.662 E.04406
G1 X101.792 Y17.791 E.04405
G1 X102.544 Y19.151 E.04873
G1 X139.839 Y102.605 E2.86604
G1 X140.368 Y104.423 E.05937
G1 X140.57 Y106.01 E.05016
G1 X140.589 Y115.75 E.30539
G1 X140.487 Y117.252 E.0472
G1 X140.211 Y118.631 E.0441
G1 X139.565 Y120.423 E.05973
G1 X138.9 Y121.659 E.04401
G1 X137.956 Y122.958 E.05035
G1 X114.814 Y148.373 E1.07773
G1 X113.282 Y149.742 E.06442
G1 X111.483 Y150.828 E.06589
G1 X110.649 Y151.189 E.02849
G1 X109.307 Y151.612 E.04412
G1 X107.926 Y151.862 E.044
G1 X106.727 Y151.937 E.03767
G1 X74.175 Y151.939 E1.02065
G1 X72.672 Y151.836 E.04724
G1 X70.809 Y151.419 E.05986
G1 X69.317 Y150.828 E.05032
G1 X67.679 Y149.858 E.05969
G1 X66.442 Y148.834 E.05035
G1 X43.212 Y123.373 E1.08065
G1 X42.293 Y122.246 E.0456
G1 X41.549 Y121.051 E.04414
G1 X40.962 Y119.775 E.04404
G1 X40.54 Y118.435 E.04405
G1 X40.289 Y117.053 E.04404
G1 X40.212 Y115.763 E.04052
G1 X40.212 Y106.63 E.28636
G1 X40.312 Y105.146 E.04664
G1 X40.727 Y103.28 E.05994
G1 X41.246 Y101.934 E.04523
G1 X72.35 Y32.454 E2.38683
G1 E-.5 F1800
;WIPE_START
G1 F43200
G1 X72.374 Y32.399 E-.00238
G1 X78.637 Y18.408 E-.60677
G1 X79.709 Y16.826 E-.07564
G1 X80.825 Y15.638 E-.06452
G1 X82.491 Y14.371 E-.08285
G1 X84.189 Y13.506 E-.07543
G1 X85.521 Y13.059 E-.05561
G1 X87.098 Y12.759 E-.06354
G1 X88.4 Y12.681 E-.05163
G1 X92.501 Y12.683 E-.16233
G1 X93.902 Y12.784 E-.0556
G1 X95.762 Y13.2 E-.07544
G1 X97.073 Y13.705 E-.05561
G1 X98.479 Y14.478 E-.06351
G1 X99.985 Y15.646 E-.07544
G1 X100.956 Y16.662 E-.05563
G1 X101.792 Y17.791 E-.05561
G1 X102.544 Y19.151 E-.06151
G1 X105.234 Y25.17 E-.26095
;WIPE_END
; printing object y_axis_front_carriage_plate_printable.stl id:0 copy 0
G1 X90.445 Y74.471 F54000
G1 E2.5 F1200
;TYPE:Perimeter
;WIDTH:0.419999
G1 F2100
G1 X89.853 Y74.436 E.01859
G1 X89.202 Y74.271 E.02106
G1 X88.438 Y73.887 E.02681
G1 X87.883 Y73.44 E.02234
G1 X87.452 Y72.923 E.0211
G1 X87.126 Y72.335 E.02108
G1 X86.916 Y71.696 E.02109
G1 X86.83 Y71.029 E.02109
G1 X86.87 Y70.358 E.02108
G1 X87.035 Y69.706 E.02109
G1 X87.319 Y69.097 E.02107
G1 X87.712 Y68.552 E.02107
G1 X88.201 Y68.089 E.02111
G1 X88.768 Y67.727 E.02109
G1 X89.392 Y67.478 E.02107
G1 X89.955 Y67.374 E.01795
G1 X90.51 Y67.334 E.01745
G1 X91.058 Y67.39 E.01727
G1 X91.599 Y67.54 E.0176
G1 X92.209 Y67.824 E.0211
G1 X92.754 Y68.217 E.02107
G1 X93.323 Y68.855 E.0268
G1 X93.675 Y69.475 E.02235
G1 X93.884 Y70.114 E.02108
G1 X93.971 Y70.781 E.02109
G1 X93.931 Y71.452 E.02108
G1 X93.763 Y72.112 E.02135
G1 X93.382 Y72.869 E.02657
G1 X92.935 Y73.423 E.02232
G1 X92.419 Y73.853 E.02106
G1 X91.83 Y74.179 E.02111
G1 X91.192 Y74.389 E.02106
G1 X90.525 Y74.476 E.02109
G1 X90.505 Y74.474 E.00063
G1 X90.505 Y74.474 F54000
G1 X90.433 Y74.096
G1 F2100
G1 X89.889 Y74.06 E.01709
G1 X89.307 Y73.909 E.01885
G1 X88.62 Y73.557 E.0242
G1 X88.132 Y73.157 E.01978
G1 X87.75 Y72.692 E.01887
G1 X87.462 Y72.164 E.01886
G1 X87.279 Y71.591 E.01886
G1 X87.205 Y70.994 E.01886
G1 X87.245 Y70.393 E.01889
G1 X87.397 Y69.811 E.01886
G1 X87.655 Y69.268 E.01885
G1 X88.01 Y68.783 E.01885
G1 X88.451 Y68.372 E.0189
G1 X88.96 Y68.052 E.01885
G1 X89.52 Y67.832 E.01886
G1 X90.275 Y67.714 E.02396
G1 X90.91 Y67.75 E.01994
G1 X91.494 Y67.902 E.01892
G1 X92.038 Y68.16 E.01888
G1 X92.523 Y68.515 E.01885
G1 X93.032 Y69.095 E.0242
G1 X93.339 Y69.646 E.01978
G1 X93.522 Y70.219 E.01886
G1 X93.596 Y70.816 E.01886
G1 X93.556 Y71.417 E.01889
G1 X93.401 Y72.006 E.0191
G1 X93.051 Y72.687 E.02401
G1 X92.652 Y73.173 E.01972
G1 X92.187 Y73.555 E.01887
G1 X91.659 Y73.843 E.01886
G1 X91.086 Y74.027 E.01887
G1 X90.493 Y74.1 E.01873
G1 X90.493 Y74.1 F54000
G1 X90.421 Y73.722
G1 F2100
G1 X89.924 Y73.685 E.01563
G1 X89.412 Y73.546 E.01663
G1 X88.801 Y73.226 E.02163
G1 X88.381 Y72.874 E.01718
G1 X88.048 Y72.461 E.01663
G1 X87.798 Y71.993 E.01664
G1 X87.641 Y71.486 E.01664
G1 X87.581 Y70.958 E.01666
G1 X87.621 Y70.429 E.01663
G1 X87.759 Y69.917 E.01663
G1 X87.991 Y69.439 E.01666
G1 X88.308 Y69.014 E.01662
G1 X88.7 Y68.655 E.01667
G1 X89.152 Y68.376 E.01665
G1 X89.647 Y68.187 E.01661
G1 X90.323 Y68.088 E.02142
G1 X90.875 Y68.125 E.01735
G1 X91.389 Y68.264 E.01669
G1 X91.866 Y68.496 E.01663
G1 X92.292 Y68.813 E.01665
G1 X92.742 Y69.336 E.02163
G1 X93.003 Y69.818 E.01719
G1 X93.16 Y70.324 E.01661
G1 X93.22 Y70.852 E.01666
G1 X93.18 Y71.381 E.01663
G1 X93.039 Y71.9 E.01686
G1 X92.721 Y72.505 E.02143
G1 X92.37 Y72.924 E.01714
G1 X91.956 Y73.257 E.01666
G1 X91.488 Y73.507 E.01664
G1 X90.981 Y73.665 E.01665
G1 X90.481 Y73.722 E.01578
G1 X90.481 Y73.722 F54000
G1 X90.41 Y73.347
;TYPE:External perimeter
G1 F2100
G1 X90.383 Y73.349 E.00085
G1 X89.925 Y73.303 E.01443
G1 X89.479 Y73.168 E.01461
G1 X88.983 Y72.896 E.01774
G1 X88.606 Y72.565 E.01573
G1 X88.327 Y72.2 E.0144
G1 X88.121 Y71.788 E.01444
G1 X87.996 Y71.346 E.0144
G1 X87.956 Y70.887 E.01445
G1 X88.003 Y70.43 E.0144
G1 X88.134 Y69.989 E.01442
G1 X88.346 Y69.58 E.01444
G1 X88.631 Y69.219 E.01442
G1 X88.978 Y68.917 E.01442
G1 X89.376 Y68.686 E.01443
G1 X89.815 Y68.532 E.01459
G1 X90.37 Y68.462 E.01754
G1 X90.87 Y68.506 E.01574
G1 X91.317 Y68.639 E.01462
G1 X91.725 Y68.851 E.01442
G1 X92.09 Y69.14 E.0146
G1 X92.451 Y69.576 E.01775
G1 X92.68 Y70.022 E.01572
G1 X92.805 Y70.464 E.0144
G1 X92.845 Y70.923 E.01445
G1 X92.798 Y71.381 E.01444
G1 X92.661 Y71.832 E.01478
G1 X92.391 Y72.323 E.01757
G1 X92.061 Y72.699 E.01569
G1 X91.695 Y72.978 E.01443
G1 X91.284 Y73.184 E.01441
G1 X90.841 Y73.309 E.01443
G1 X90.47 Y73.342 E.01168
G1 E-.5 F1800
;WIPE_START
G1 F43200
G1 X90.41 Y73.347 E-.00238
G1 X90.383 Y73.349 E-.00107
G1 X89.925 Y73.303 E-.01822
G1 X89.479 Y73.168 E-.01845
G1 X88.983 Y72.896 E-.02239
G1 X88.606 Y72.565 E-.01986
G1 X88.327 Y72.2 E-.01819
G1 X88.121 Y71.788 E-.01823
G1 X87.996 Y71.346 E-.01818
G1 X87.956 Y70.887 E-.01824
G1 X88.003 Y70.43 E-.01818
G1 X88.134 Y69.989 E-.01821
G1 X88.346 Y69.58 E-.01824
G1 X88.631 Y69.219 E-.01821
G1 X88.978 Y68.917 E-.01821
G1 X89.376 Y68.686 E-.01822
G1 X89.815 Y68.532 E-.01842
G1 X90.37 Y68.462 E-.02214
G1 X90.87 Y68.506 E-.01987
G1 X91.317 Y68.639 E-.01846
G1 X91.725 Y68.851 E-.0182
G1 X92.09 Y69.14 E-.01843
G1 X92.451 Y69.576 E-.02241
G1 X92.68 Y70.022 E-.01985
G1 X92.805 Y70.464 E-.01818
G1 X92.845 Y70.923 E-.01824
G1 X92.798 Y71.381 E-.01822
G1 X92.661 Y71.832 E-.01866
G1 X92.391 Y72.323 E-.02218
G1 X92.061 Y72.699 E-.0198
G1 X91.695 Y72.978 E-.01822
G1 X91.284 Y73.184 E-.0182
G1 X90.841 Y73.309 E-.01822
G1 X90.47 Y73.342 E-.01474
;WIPE_END
G1 E-1.39308 F1800
G1 X90.445 Y55.3 F54000
G1 E2.5 F1200
;TYPE:Perimeter
G1 F2100
G1 X89.757 Y55.257 E.02161
G1 X89.473 Y55.198 E.00909
G1 X88.812 Y54.983 E.02179
G1 X88.1 Y54.598 E.02538
G1 X87.507 Y54.107 E.02414
G1 X87.017 Y53.514 E.02412
G1 X86.648 Y52.839 E.02412
G1 X86.411 Y52.108 E.02409
G1 X86.315 Y51.344 E.02414
G1 X86.364 Y50.577 E.0241
G1 X86.556 Y49.831 E.02415
G1 X86.884 Y49.136 E.0241
G1 X87.337 Y48.514 E.02413
G1 X87.899 Y47.988 E.02414
G1 X88.549 Y47.576 E.02413
G1 X89.264 Y47.294 E.0241
G1 X90.227 Y47.139 E.03058
G1 X91.042 Y47.183 E.02559
G1 X91.903 Y47.415 E.02796
G1 X92.485 Y47.704 E.02037
G1 X93.107 Y48.157 E.02413
G1 X93.633 Y48.718 E.02411
G1 X94.044 Y49.368 E.02411
G1 X94.378 Y50.293 E.03084
G1 X94.486 Y51.096 E.0254
G1 X94.437 Y51.864 E.02413
G1 X94.245 Y52.609 E.02412
G1 X93.917 Y53.304 E.0241
G1 X93.464 Y53.926 E.02413
G1 X92.902 Y54.452 E.02414
G1 X92.253 Y54.864 E.0241
G1 X91.327 Y55.198 E.03086
G1 X90.525 Y55.306 E.02537
G1 X90.504 Y55.304 E.00066
G1 X90.504 Y55.304 F54000
G1 X90.433 Y54.926
G1 F2100
G1 X89.793 Y54.881 E.02012
G1 X88.929 Y54.624 E.02826
G1 X88.292 Y54.274 E.02279
G1 X87.757 Y53.824 E.02192
G1 X87.315 Y53.283 E.0219
G1 X86.984 Y52.668 E.0219
G1 X86.773 Y52.003 E.02187
G1 X86.69 Y51.309 E.02191
G1 X86.739 Y50.612 E.02191
G1 X86.918 Y49.937 E.0219
G1 X87.22 Y49.307 E.02191
G1 X87.635 Y48.745 E.0219
G1 X88.148 Y48.271 E.0219
G1 X88.741 Y47.901 E.02192
G1 X89.392 Y47.649 E.02189
G1 X90.274 Y47.514 E.02798
G1 X91.007 Y47.559 E.02303
G1 X91.765 Y47.766 E.02464
G1 X92.313 Y48.04 E.01921
G1 X92.875 Y48.455 E.0219
G1 X93.35 Y48.968 E.02192
G1 X93.72 Y49.56 E.02189
G1 X94.02 Y50.41 E.02826
G1 X94.111 Y51.131 E.02279
G1 X94.062 Y51.828 E.02191
G1 X93.883 Y52.503 E.0219
G1 X93.581 Y53.133 E.02191
G1 X93.166 Y53.695 E.0219
G1 X92.653 Y54.169 E.0219
G1 X92.061 Y54.539 E.02189
G1 X91.211 Y54.839 E.02826
G1 X90.493 Y54.93 E.02269
G1 X90.493 Y54.93 F54000
G1 X90.421 Y54.552
G1 F2100
G1 X89.828 Y54.506 E.01865
G1 X89.045 Y54.266 E.02568
G1 X88.483 Y53.949 E.02023
G1 X88.006 Y53.542 E.01966
G1 X87.613 Y53.052 E.01969
G1 X87.32 Y52.497 E.01968
G1 X87.135 Y51.897 E.01969
G1 X87.066 Y51.273 E.01968
G1 X87.115 Y50.647 E.01969
G1 X87.28 Y50.042 E.01966
G1 X87.556 Y49.478 E.01969
G1 X87.933 Y48.976 E.01968
G1 X88.397 Y48.553 E.01969
G1 X88.932 Y48.225 E.01968
G1 X89.519 Y48.003 E.01968
G1 X90.322 Y47.888 E.02543
G1 X90.972 Y47.934 E.02043
G1 X91.627 Y48.117 E.02132
G1 X92.142 Y48.376 E.01807
G1 X92.644 Y48.753 E.01968
G1 X93.067 Y49.217 E.01969
G1 X93.395 Y49.752 E.01968
G1 X93.661 Y50.526 E.02566
G1 X93.735 Y51.167 E.02023
G1 X93.686 Y51.793 E.01969
G1 X93.521 Y52.398 E.01966
G1 X93.245 Y52.962 E.01969
G1 X92.868 Y53.464 E.01968
G1 X92.404 Y53.887 E.01969
G1 X91.869 Y54.215 E.01968
G1 X91.094 Y54.481 E.02569
G1 X90.481 Y54.552 E.01935
G1 X90.481 Y54.552 F54000
G1 X90.41 Y54.179
;TYPE:External perimeter
G1 F2100
G1 X89.864 Y54.13 E.01719
G1 X89.162 Y53.907 E.02309
G1 X88.675 Y53.625 E.01764
G1 X88.255 Y53.259 E.01747
G1 X87.911 Y52.821 E.01746
G1 X87.656 Y52.326 E.01746
G1 X87.497 Y51.792 E.01747
G1 X87.441 Y51.238 E.01746
G1 X87.49 Y50.683 E.01747
G1 X87.642 Y50.147 E.01747
G1 X87.892 Y49.649 E.01747
G1 X88.231 Y49.207 E.01747
G1 X88.647 Y48.836 E.01748
G1 X89.124 Y48.55 E.01744
G1 X89.647 Y48.358 E.01747
G1 X90.37 Y48.262 E.02287
G1 X90.937 Y48.31 E.01784
G1 X91.49 Y48.468 E.01803
G1 X91.971 Y48.712 E.01691
G1 X92.413 Y49.051 E.01747
G1 X92.784 Y49.466 E.01745
G1 X93.07 Y49.944 E.01747
G1 X93.302 Y50.643 E.02309
G1 X93.36 Y51.202 E.01762
G1 X93.311 Y51.757 E.01747
G1 X93.158 Y52.293 E.01748
G1 X92.909 Y52.791 E.01746
G1 X92.57 Y53.233 E.01747
G1 X92.154 Y53.604 E.01748
G1 X91.677 Y53.89 E.01744
G1 X90.978 Y54.122 E.02309
G1 X90.47 Y54.174 E.01601
G1 E-.5 F1800
;WIPE_START
G1 F43200
G1 X90.41 Y54.179 E-.00238
G1 X89.864 Y54.13 E-.0217
G1 X89.162 Y53.907 E-.02916
G1 X88.675 Y53.625 E-.02228
G1 X88.255 Y53.259 E-.02205
G1 X87.911 Y52.821 E-.02205
G1 X87.656 Y52.326 E-.02204
G1 X87.497 Y51.792 E-.02205
G1 X87.441 Y51.238 E-.02204
G1 X87.49 Y50.683 E-.02205
G1 X87.642 Y50.147 E-.02205
G1 X87.892 Y49.649 E-.02206
G1 X88.231 Y49.207 E-.02205
G1 X88.647 Y48.836 E-.02206
G1 X89.124 Y48.55 E-.02202
G1 X89.647 Y48.358 E-.02205
G1 X90.37 Y48.262 E-.02887
G1 X90.937 Y48.31 E-.02252
G1 X91.49 Y48.468 E-.02277
G1 X91.971 Y48.712 E-.02135
G1 X92.413 Y49.051 E-.02205
G1 X92.784 Y49.466 E-.02203
G1 X93.07 Y49.944 E-.02205
G1 X93.302 Y50.643 E-.02915
G1 X93.36 Y51.202 E-.02225
G1 X93.311 Y51.757 E-.02205
G1 X93.158 Y52.293 E-.02206
G1 X92.909 Y52.791 E-.02204
G1 X92.57 Y53.233 E-.02205
G1 X92.154 Y53.604 E-.02206
G1 X91.677 Y53.89 E-.02202
G1 X90.978 Y54.122 E-.02915
G1 X90.47 Y54.174 E-.02021
;WIPE_END
G1 E-1.26523 F1800
G1 X90.356 Y29.296 F54000
G1 E2.5 F1200
;TYPE:Perimeter
G1 F2100
G1 X89.87 Y29.267 E.01527
G1 X89.068 Y29.04 E.02613
G1 X88.452 Y28.713 E.02187
G1 X87.945 Y28.296 E.02058
G1 X87.524 Y27.792 E.02059
G1 X87.205 Y27.219 E.02056
G1 X86.967 Y26.455 E.02509
G1 X86.915 Y25.944 E.0161
G1 X86.953 Y25.289 E.02057
G1 X87.087 Y24.744 E.0176
G1 X87.306 Y24.224 E.01769
G1 X87.593 Y23.759 E.01713
G1 X87.917 Y23.369 E.0159
G1 X88.345 Y22.998 E.01776
G1 X88.804 Y22.719 E.01684
G1 X89.413 Y22.475 E.02057
G1 X90.228 Y22.339 E.02591
G1 X90.929 Y22.373 E.02201
G1 X91.542 Y22.526 E.01981
G1 X92.053 Y22.755 E.01756
G1 X92.387 Y22.955 E.01221
G1 X92.818 Y23.302 E.01735
G1 X93.192 Y23.725 E.0177
G1 X93.472 Y24.175 E.01662
G1 X93.636 Y24.535 E.0124
G1 X93.848 Y25.289 E.02456
G1 X93.892 Y25.82 E.01671
G1 X93.813 Y26.526 E.02227
G1 X93.607 Y27.192 E.02186
G1 X93.293 Y27.768 E.02057
G1 X92.877 Y28.276 E.02059
G1 X92.373 Y28.696 E.02057
G1 X91.799 Y29.015 E.02059
G1 X91.176 Y29.221 E.02057
G1 X90.525 Y29.306 E.02058
G1 X90.416 Y29.299 E.00342
G1 X90.416 Y29.299 F54000
G1 X90.368 Y28.922
G1 F2100
G1 X89.905 Y28.892 E.01455
G1 X89.184 Y28.681 E.02355
G1 X88.644 Y28.388 E.01926
G1 X88.194 Y28.014 E.01835
G1 X87.822 Y27.561 E.01838
G1 X87.541 Y27.047 E.01837
G1 X87.339 Y26.39 E.02155
G1 X87.286 Y25.82 E.01795
G1 X87.362 Y25.15 E.02114
G1 X87.517 Y24.645 E.01656
G1 X87.757 Y24.173 E.0166
G1 X88.073 Y23.756 E.0164
G1 X88.446 Y23.404 E.01608
G1 X88.996 Y23.044 E.02061
G1 X89.541 Y22.83 E.01836
G1 X90.275 Y22.714 E.0233
G1 X90.894 Y22.748 E.01944
G1 X91.437 Y22.888 E.01758
G1 X91.992 Y23.147 E.0192
G1 X92.465 Y23.492 E.01836
G1 X92.864 Y23.92 E.01835
G1 X93.148 Y24.367 E.0166
G1 X93.352 Y24.883 E.0174
G1 X93.472 Y25.325 E.01436
G1 X93.507 Y25.938 E.01925
G1 X93.439 Y26.479 E.0171
G1 X93.252 Y27.064 E.01926
G1 X92.969 Y27.576 E.01834
G1 X92.594 Y28.027 E.01839
G1 X92.142 Y28.398 E.01833
G1 X91.628 Y28.679 E.01837
G1 X91.07 Y28.858 E.01837
G1 X90.489 Y28.93 E.01836
G1 X90.428 Y28.926 E.00192
G1 X90.428 Y28.926 F54000
G1 X90.379 Y28.549
G1 F2100
G1 X89.941 Y28.516 E.01377
G1 X89.301 Y28.323 E.02096
G1 X88.836 Y28.064 E.01669
G1 X88.443 Y27.731 E.01615
G1 X88.12 Y27.33 E.01614
G1 X87.877 Y26.876 E.01615
G1 X87.71 Y26.325 E.01805
G1 X87.663 Y25.82 E.0159
G1 X87.724 Y25.255 E.01782
G1 X87.877 Y24.764 E.01613
G1 X88.12 Y24.31 E.01615
G1 X88.443 Y23.909 E.01614
G1 X88.836 Y23.576 E.01615
G1 X89.284 Y23.323 E.01613
G1 X89.762 Y23.16 E.01583
G1 X90.323 Y23.088 E.01773
G1 X90.859 Y23.124 E.01684
G1 X91.358 Y23.258 E.0162
G1 X91.821 Y23.483 E.01614
G1 X92.234 Y23.79 E.01614
G1 X92.582 Y24.169 E.01613
G1 X92.852 Y24.607 E.01613
G1 X93.072 Y25.239 E.02098
G1 X93.135 Y25.766 E.01664
G1 X93.065 Y26.431 E.02097
G1 X92.898 Y26.936 E.01668
G1 X92.644 Y27.384 E.01615
G1 X92.311 Y27.777 E.01615
G1 X91.911 Y28.101 E.01614
G1 X91.457 Y28.343 E.01613
G1 X90.965 Y28.496 E.01615
G1 X90.454 Y28.555 E.01613
G1 X90.439 Y28.554 E.00047
G1 X90.439 Y28.554 F54000
G1 X90.391 Y28.179
;TYPE:External perimeter
G1 F2100
G1 X90.383 Y28.179 E.00025
G1 X89.936 Y28.133 E.01409
G1 X89.417 Y27.964 E.01711
G1 X88.999 Y27.718 E.01521
G1 X88.668 Y27.422 E.01392
G1 X88.399 Y27.069 E.01392
G1 X88.2 Y26.672 E.01392
G1 X88.082 Y26.259 E.01347
