; generated by PrusaSlicer 2.6.0-alpha6+MacOS-arm64 on 2023-04-20 at 09:58:33 UTC

; 

; external perimeters extrusion width = 0.42mm
; perimeters extrusion width = 0.44mm
; infill extrusion width = 0.44mm
; solid infill extrusion width = 0.44mm
; top infill extrusion width = 0.40mm
; first layer extrusion width = 0.42mm

M201 X500 Y500 Z100 E5000 ; sets maximum accelerations, mm/sec^2
M203 X500 Y500 Z10 E60 ; sets maximum feedrates, mm / sec
M204 S500 T1000 ; sets acceleration (S) and retract acceleration (R), mm/sec^2
M205 X8.00 Y8.00 Z0.40 E5.00 ; sets the jerk limits, mm/sec
M205 S0 T0 ; sets the minimum extruding and travel feed rate, mm/sec
;TYPE:Custom
G90 ; use absolute coordinates
M83 ; extruder relative mode
M104 S150 ; set temporary nozzle temp to prevent oozing during homing
M140 S62 ; set final bed temp
G4 S30 ; allow partial nozzle warmup
G28 ; home all axis
G1 Z50 F240
G1 X2.0 Y10 F3000
M104 S210 ; set final nozzle temp
M190 S62 ; wait for bed temp to stabilize
M109 S210 ; wait for nozzle temp to stabilize
G1 Z0.28 F240
G92 E0
G1 X2.0 Y140 E10 F1500 ; prime the nozzle
G1 X2.3 Y140 F5000
G92 E0
G1 X2.3 Y10 E10 F1200 ; prime the nozzle
G92 E0
G21 ; set units to millimeters
G90 ; use absolute coordinates
M83 ; use relative distances for extrusion
; Filament gcode
M107
;LAYER_CHANGE
;Z:0.2
;HEIGHT:0.2
;BEFORE_LAYER_CHANGE
G92 E0
;0.2


G1 E-4 F3600
G1 Z.2 F6000
;AFTER_LAYER_CHANGE
;0.2
G1 X19.357 Y18.453
G1 E4 F2400
;TYPE:Skirt/Brim
;WIDTH:0.42
G1 F6000
G1 X21.25 Y17.873 E.06208
G1 X141.25 Y17.873 E3.76252
G1 X142.833 Y18.267 E.05115
G1 X144.047 Y19.357 E.05116
G1 X144.627 Y21.25 E.06208
G1 X144.627 Y29.25 E.25083
G1 X144.233 Y30.833 E.05115
G1 X143.638 Y31.638 E.03139
G1 X31.638 Y143.638 E4.96627
G1 X30.24 Y144.479 E.05115
G1 X29.25 Y144.627 E.03139
G1 X21.25 Y144.627 E.25083
G1 X19.667 Y144.233 E.05115
G1 X18.453 Y143.143 E.05116
G1 X17.873 Y141.25 E.06208
G1 X17.873 Y21.25 E3.76252
G1 X18.267 Y19.667 E.05115
G1 X19.317 Y18.498 E.04927
; printing object ringing_tower.stl id:0 copy 0
G1 E-2.8 F3600
;WIPE_START
G1 F4800
G1 X20.92 Y17.98 E-1.2
;WIPE_END
G1 X26.686 Y66.164 F6000
G1 E4 F2400
;TYPE:Perimeter
;WIDTH:0.419999
G1 F6000
G1 X26.7 Y71.272 E.16016
G1 X26.796 Y71.552 E.00928
G1 X26.917 Y71.728 E.0067
G1 X28.186 Y73.189 E.06068
G1 X28.186 Y97.311 E.75633
G1 X26.796 Y98.948 E.06733
G1 X26.715 Y99.159 E.00709
G1 X26.686 Y99.391 E.00733
G1 X26.676 Y103.89 E.14106
G1 X26.041 Y103.805 E.02009
G1 X25.7 Y103.954 E.01167
G1 X22.314 Y106.325 E.12961
G1 X22.314 Y69.225 E1.16324
G1 X26.637 Y66.198 E.16547
G1 X26.756 Y65.625
;WIDTH:0.465122
G1 X26.796 Y65.578 E.00217
;WIDTH:0.510244
G1 X26.895 Y65.46 E.00599
;WIDTH:0.555366
G1 X26.995 Y65.343 E.00656
G1 X27.018 Y65.524 E.00777
;WIDTH:0.510244
G1 X27.04 Y65.706 E.00712
;WIDTH:0.465122
G1 X27.063 Y65.887 E.00641
;WIDTH:0.419999
G1 X27.071 Y71.207 E.1668
G1 X27.201 Y71.48 E.00948
G1 X28.563 Y73.048 E.06512
G1 X28.563 Y97.452 E.76517
G1 X27.129 Y99.125 E.06909
G1 X27.063 Y99.391 E.00859
G1 X27.063 Y104.031 E.14548
;WIDTH:0.461947
G1 X27.042 Y104.286 E.00891
;WIDTH:0.503895
G1 X27.021 Y104.54 E.00977
;WIDTH:0.545842
G1 X27 Y104.794 E.01066
G1 X26.878 Y104.627 E.00865
;WIDTH:0.503895
G1 X26.755 Y104.46 E.00795
;WIDTH:0.461947
G1 X26.633 Y104.292 E.00723
;WIDTH:0.419999
G1 X26.502 Y104.224 E.00463
G1 X26.121 Y104.173 E.01205
G1 X25.916 Y104.263 E.00702
G1 X21.937 Y107.049 E.1523
G1 X21.937 Y69.029 E1.19209
G1 X26.696 Y65.696 E.18217
;WIDTH:0.465122
G1 X26.718 Y65.671 E.00117
G1 X27.314 Y64.186
;WIDTH:0.419999
G1 X27.314 Y57.607 E.20628
G1 X27.195 Y57.147 E.0149
G1 X26.912 Y56.834 E.01323
G1 X22.314 Y53.615 E.17599
G1 X22.314 Y22.314 E.98142
G1 X52.637 Y22.314 E.95075
G1 X50.266 Y25.7 E.12961
G1 X50.18 Y25.852 E.00548
G1 X50.097 Y26.286 E.01385
G1 X50.27 Y26.807 E.01721
G1 X50.583 Y27.155 E.01468
G1 X51.107 Y27.314 E.01717
G1 X57.706 Y27.314 E.20691
G1 X57.869 Y27.3 E.00513
G1 X58.23 Y27.155 E.0122
G1 X58.542 Y26.807 E.01465
G1 X58.715 Y26.286 E.01721
G1 X58.685 Y26 E.00902
G1 X58.546 Y25.7 E.01037
G1 X56.175 Y22.314 E.12961
G1 X93.275 Y22.314 E1.16324
G1 X96.495 Y26.912 E.176
G1 X96.807 Y27.195 E.01321
G1 X97.267 Y27.314 E.0149
G1 X104.893 Y27.314 E.23911
G1 X105.056 Y27.3 E.00513
G1 X105.353 Y27.195 E.00988
G1 X105.666 Y26.912 E.01323
G1 X108.885 Y22.314 E.17599
G1 X140.186 Y22.314 E.98142
G1 X140.186 Y28.186 E.18411
G1 X89.691 Y28.186 E1.58323
G1 X88.831 Y27.326 E.03813
G1 X88.284 Y26.819 E.02338
G1 X88.056 Y26.721 E.00778
G1 X87.8 Y26.686 E.0081
G1 X82.7 Y26.686 E.15991
G1 X82.537 Y26.7 E.00513
G1 X82.216 Y26.819 E.01073
G1 X82.033 Y26.962 E.00728
G1 X80.809 Y28.186 E.05427
G1 X29.129 Y28.186 E1.62039
G1 X28.754 Y28.263 E.012
G1 X28.462 Y28.462 E.01108
G1 X28.263 Y28.754 E.01108
G1 X28.186 Y29.129 E.012
G1 X28.186 Y63.182 E1.06771
G1 X27.354 Y64.141 E.03981
G1 X27 Y65.233
;WIDTH:0.546494
G1 X26.979 Y65.086 E.00622
;WIDTH:0.504329
G1 X26.958 Y64.939 E.0057
;WIDTH:0.462164
G1 X26.937 Y64.792 E.00518
;WIDTH:0.419999
G1 X26.937 Y57.607 E.22528
G1 X26.865 Y57.331 E.00894
G1 X26.696 Y57.143 E.00793
G1 X21.937 Y53.811 E.18215
G1 X21.937 Y21.937 E.99939
G1 X53.361 Y21.937 E.98528
G1 X50.523 Y26.008 E.1556
G1 X50.474 Y26.268 E.0083
G1 X50.537 Y26.502 E.0076
G1 X50.792 Y26.842 E.01333
G1 X51.107 Y26.937 E.01032
G1 X57.706 Y26.937 E.20691
G1 X58.02 Y26.842 E.01029
G1 X58.208 Y26.633 E.00881
G1 X58.339 Y26.268 E.01216
G1 X58.321 Y26.096 E.00542
G1 X58.237 Y25.916 E.00623
G1 X55.451 Y21.937 E.1523
G1 X93.471 Y21.937 E1.19209
G1 X96.804 Y26.696 E.18217
G1 X96.991 Y26.865 E.0079
G1 X97.267 Y26.937 E.00894
G1 X104.893 Y26.937 E.23911
G1 X105.169 Y26.865 E.00894
G1 X105.357 Y26.696 E.00793
G1 X108.689 Y21.937 E.18215
G1 X140.563 Y21.937 E.99939
G1 X140.563 Y28.563 E.20775
G1 X89.535 Y28.563 E1.59994
G1 X88.091 Y27.143 E.0635
G1 X87.8 Y27.063 E.00946
G1 X82.7 Y27.063 E.15991
G1 X82.546 Y27.084 E.00487
G1 X82.3 Y27.229 E.00895
G1 X80.965 Y28.563 E.05917
G1 X29.129 Y28.563 E1.62528
G1 X28.904 Y28.609 E.0072
G1 X28.729 Y28.729 E.00665
G1 X28.609 Y28.904 E.00665
G1 X28.563 Y29.129 E.0072
G1 X28.563 Y63.323 E1.07213
G1 X27.201 Y64.891 E.06512
;WIDTH:0.462164
G1 X27.134 Y65.005 E.00461
;WIDTH:0.504329
G1 X27.067 Y65.119 E.00507
;WIDTH:0.546494
G1 X27.031 Y65.181 E.003
G1 E-2.8 F3600
;WIPE_START
G1 F4800
G1 X26.979 Y65.086 E-.07716
G1 X26.958 Y64.939 E-.1058
G1 X26.937 Y64.792 E-.1058
G1 X26.937 Y63.513 E-.91124
;WIPE_END
G1 X27.314 Y106.314 F6000
G1 E4 F2400
;WIDTH:0.419999
G1 F6000
G1 X28.186 Y107.318 E.0417
G1 X28.186 Y140.186 E1.03055
G1 X22.314 Y140.186 E.18411
G1 X22.314 Y109.863 E.95075
G1 X25.7 Y112.234 E.12961
G1 X25.852 Y112.321 E.00549
G1 X26.286 Y112.403 E.01385
G1 X26.807 Y112.23 E.01721
G1 X27.155 Y111.917 E.01468
G1 X27.3 Y111.556 E.0122
G1 X27.314 Y111.393 E.00513
G1 X27.314 Y106.374 E.15737
G1 X27.005 Y105.348
;WIDTH:0.555368
G1 X27.069 Y105.436 E.00464
;WIDTH:0.513664
G1 X27.133 Y105.524 E.00426
;WIDTH:0.471959
G1 X27.198 Y105.613 E.00393
;WIDTH:0.430254
G1 X28.364 Y106.947 E.05706
;WIDTH:0.419999
G1 X28.563 Y107.177 E.00954
G1 X28.563 Y140.563 E1.04679
G1 X21.937 Y140.563 E.20775
G1 X21.937 Y109.139 E.98528
G1 X25.916 Y111.925 E.1523
G1 X26.008 Y111.977 E.00331
G1 X26.268 Y112.026 E.0083
G1 X26.502 Y111.963 E.0076
G1 X26.842 Y111.708 E.01333
G1 X26.937 Y111.393 E.01032
G1 X26.937 Y107.48 E.12269
;WIDTH:0.430254
G1 X26.942 Y105.708 E.05707
;WIDTH:0.471959
G1 X26.963 Y105.588 E.00435
;WIDTH:0.513664
G1 X26.984 Y105.468 E.00477
;WIDTH:0.555368
G1 X26.994 Y105.407 E.00263
G1 X26.459 Y104.627
;TYPE:External perimeter
;WIDTH:0.419999
G1 X26.201 Y104.542 E.00852
G1 X26.133 Y104.572 E.00233
G1 X21.67 Y107.696 E.17081
G1 X21.56 Y107.709 E.00347
G1 X21.56 Y68.832 E1.21896
G1 X26.48 Y65.388 E.1883
G1 X26.56 Y65.233 E.00547
G1 X26.56 Y57.607 E.23911
G1 X26.48 Y57.452 E.00547
G1 X21.56 Y54.007 E.18832
G1 X21.56 Y21.56 E1.01735
G1 X54.021 Y21.56 E1.01779
G1 X54.021 Y21.652 E.00288
G1 X50.884 Y26.133 E.17151
G1 X50.867 Y26.163 E.00108
G1 X50.871 Y26.328 E.00517
G1 X51.002 Y26.528 E.0075
G1 X51.107 Y26.56 E.00344
G1 X57.706 Y26.56 E.20691
G1 X57.738 Y26.557 E.00101
G1 X57.873 Y26.459 E.00523
G1 X57.962 Y26.25 E.00712
G1 X57.928 Y26.133 E.00382
G1 X54.804 Y21.67 E.17081
G1 X54.791 Y21.56 E.00347
G1 X93.668 Y21.56 E1.21896
G1 X97.112 Y26.48 E.1883
G1 X97.267 Y26.56 E.00547
G1 X104.893 Y26.56 E.23911
G1 X105.048 Y26.48 E.00547
G1 X108.493 Y21.56 E.18832
G1 X140.94 Y21.56 E1.01735
G1 X140.94 Y28.94 E.23139
G1 X89.378 Y28.94 E1.61669
G1 X87.934 Y27.495 E.06405
G1 X87.8 Y27.44 E.00454
G1 X82.7 Y27.44 E.15991
G1 X82.566 Y27.495 E.00454
G1 X81.122 Y28.94 E.06405
G1 X29.129 Y28.94 E1.6302
G1 X28.995 Y28.995 E.00454
G1 X28.94 Y29.129 E.00454
G1 X28.94 Y63.464 E1.07655
G1 X27.486 Y65.138 E.06952
G1 X27.44 Y65.262 E.00415
G1 X27.44 Y71.109 E.18333
G1 X27.486 Y71.233 E.00415
G1 X28.94 Y72.907 E.06952
G1 X28.94 Y97.593 E.77401
G1 X27.486 Y99.267 E.06952
G1 X27.44 Y99.391 E.00415
G1 X27.44 Y105.238 E.18333
G1 X27.486 Y105.362 E.00415
G1 X28.94 Y107.036 E.06952
G1 X28.94 Y140.94 E1.06303
G1 X21.56 Y140.94 E.23139
G1 X21.56 Y108.479 E1.01779
G1 X21.652 Y108.479 E.00288
G1 X26.133 Y111.616 E.17151
G1 X26.163 Y111.633 E.00108
G1 X26.328 Y111.629 E.00517
G1 X26.528 Y111.498 E.0075
G1 X26.56 Y111.393 E.00344
G1 X26.56 Y104.794 E.20691
G1 X26.49 Y104.678 E.00425
G1 X26.514 Y104.361
G1 X27.005 Y105.348
;TYPE:Perimeter
;WIDTH:0.555368
G1 X27 Y104.794 E.02361
G1 E-2.8 F3600
;WIPE_START
G1 F4800
G1 X27.005 Y105.348 E-.39474
;WIPE_END
G1 E-.80526 F3600
G1 X28.065 Y108.038 F6000
G1 E4 F2400
;TYPE:Solid infill
;WIDTH:0.421002
G1 F6000
G1 X27.605 Y107.577 E.02047
G1 X27.604 Y108.112 E.01682
G1 X27.896 Y108.403 E.01296
G1 X27.896 Y108.937 E.01679
G1 X27.604 Y108.646 E.01296
G1 X27.604 Y109.181 E.01682
G1 X27.896 Y109.472 E.01296
G1 X27.896 Y110.007 E.01682
G1 X27.604 Y109.716 E.01296
G1 X27.604 Y110.251 E.01682
G1 X27.896 Y110.542 E.01296
G1 X27.896 Y111.076 E.01679
G1 X27.604 Y110.785 E.01296
G1 X27.604 Y111.32 E.01682
G1 X27.896 Y111.611 E.01296
G1 X27.896 Y112.146 E.01682
G1 X27.522 Y111.772 E.01663
G1 X27.398 Y112.082 E.0105
G1 X27.345 Y112.129 E.00223
G1 X27.896 Y112.68 E.0245
G1 X27.896 Y113.215 E.01682
G1 X27.063 Y112.382 E.03703
G1 X26.952 Y112.481 E.00468
G1 X26.726 Y112.58 E.00776
G1 X27.896 Y113.75 E.05202
G1 X27.896 Y114.284 E.01679
G1 X26.305 Y112.694 E.07071
G1 X25.929 Y112.655 E.01188
G1 X25.732 Y112.585 E.00657
G1 X25.568 Y112.492 E.00593
G1 X27.896 Y114.819 E.10348
G1 X27.896 Y115.354 E.01682
G1 X23.799 Y111.257 E.18215
G1 X22.604 Y110.421 E.04585
G1 X22.604 Y110.597 E.00553
G1 X27.896 Y115.888 E.23526
G1 X27.896 Y116.423 E.01682
G1 X22.604 Y111.132 E.23526
G1 X22.604 Y111.667 E.01682
G1 X27.896 Y116.958 E.23526
G1 X27.896 Y117.492 E.01679
G1 X22.604 Y112.201 E.23526
G1 X22.604 Y112.736 E.01682
G1 X27.896 Y118.027 E.23526
G1 X27.896 Y118.562 E.01682
G1 X22.604 Y113.271 E.23526
G1 X22.604 Y113.806 E.01682
G1 X27.896 Y119.097 E.23526
G1 X27.896 Y119.631 E.01679
G1 X22.604 Y114.34 E.23526
G1 X22.604 Y114.875 E.01682
G1 X27.896 Y120.166 E.23526
G1 X27.896 Y120.701 E.01682
G1 X22.604 Y115.41 E.23526
G1 X22.604 Y115.944 E.01679
G1 X27.896 Y121.235 E.23526
G1 X27.896 Y121.77 E.01682
G1 X22.604 Y116.479 E.23526
G1 X22.604 Y117.014 E.01682
G1 X27.896 Y122.305 E.23526
G1 X27.896 Y122.839 E.01679
G1 X22.604 Y117.548 E.23526
G1 X22.604 Y118.083 E.01682
G1 X27.896 Y123.374 E.23526
G1 X27.896 Y123.909 E.01682
G1 X22.604 Y118.618 E.23526
G1 X22.604 Y119.152 E.01679
G1 X27.896 Y124.443 E.23526
G1 X27.896 Y124.978 E.01682
G1 X22.604 Y119.687 E.23526
G1 X22.604 Y120.222 E.01682
G1 X27.896 Y125.513 E.23526
G1 X27.896 Y126.047 E.01679
G1 X22.604 Y120.756 E.23526
G1 X22.604 Y121.291 E.01682
G1 X27.896 Y126.582 E.23526
G1 X27.896 Y127.117 E.01682
G1 X22.604 Y121.826 E.23526
G1 X22.604 Y122.361 E.01682
G1 X27.896 Y127.652 E.23526
G1 X27.896 Y128.186 E.01679
G1 X22.604 Y122.895 E.23526
G1 X22.604 Y123.43 E.01682
G1 X27.896 Y128.721 E.23526
G1 X27.896 Y129.256 E.01682
G1 X22.604 Y123.965 E.23526
G1 X22.604 Y124.499 E.01679
G1 X27.896 Y129.79 E.23526
G1 X27.896 Y130.325 E.01682
G1 X22.604 Y125.034 E.23526
G1 X22.604 Y125.569 E.01682
G1 X27.896 Y130.86 E.23526
G1 X27.896 Y131.394 E.01679
G1 X22.604 Y126.103 E.23526
G1 X22.604 Y126.638 E.01682
G1 X27.896 Y131.929 E.23526
G1 X27.896 Y132.464 E.01682
G1 X22.604 Y127.173 E.23526
G1 X22.604 Y127.707 E.01679
G1 X27.896 Y132.998 E.23526
G1 X27.896 Y133.533 E.01682
G1 X22.604 Y128.242 E.23526
G1 X22.604 Y128.777 E.01682
G1 X27.896 Y134.068 E.23526
G1 X27.896 Y134.603 E.01682
G1 X22.604 Y129.312 E.23526
G1 X22.604 Y129.846 E.01679
G1 X27.896 Y135.137 E.23526
G1 X27.896 Y135.672 E.01682
G1 X22.604 Y130.381 E.23526
G1 X22.604 Y130.916 E.01682
G1 X27.896 Y136.207 E.23526
G1 X27.896 Y136.741 E.01679
G1 X22.604 Y131.45 E.23526
G1 X22.604 Y131.985 E.01682
G1 X27.896 Y137.276 E.23526
G1 X27.896 Y137.811 E.01682
G1 X22.604 Y132.52 E.23526
G1 X22.604 Y133.054 E.01679
G1 X27.896 Y138.345 E.23526
G1 X27.896 Y138.88 E.01682
G1 X22.604 Y133.589 E.23526
G1 X22.604 Y134.124 E.01682
G1 X27.896 Y139.415 E.23526
G1 X27.896 Y139.896 E.01512
G1 X27.842 Y139.896 E.0017
G1 X22.604 Y134.658 E.23288
G1 X22.604 Y135.193 E.01682
G1 X27.307 Y139.896 E.20909
G1 X26.772 Y139.896 E.01682
G1 X22.604 Y135.728 E.18531
G1 X22.604 Y136.262 E.01679
G1 X26.238 Y139.896 E.16157
G1 X25.703 Y139.896 E.01682
G1 X22.604 Y136.797 E.13778
G1 X22.604 Y137.332 E.01682
G1 X25.168 Y139.896 E.11399
G1 X24.633 Y139.896 E.01682
G1 X22.604 Y137.867 E.09021
G1 X22.604 Y138.401 E.01679
G1 X24.099 Y139.896 E.06647
G1 X23.564 Y139.896 E.01682
G1 X22.604 Y138.936 E.04268
G1 X22.604 Y139.471 E.01682
G1 X23.199 Y140.065 E.02643
G1 E-2.8 F3600
;WIPE_START
G1 F4800
G1 X22.604 Y139.471 E-.59903
G1 X22.604 Y138.936 E-.38119
G1 X22.822 Y139.154 E-.21978
;WIPE_END
G1 X26.565 Y67.144 F6000
G1 E4 F2400
;WIDTH:0.421807
G1 F6000
G1 X26.247 Y66.826 E.01417
G1 X25.931 Y67.046 E.01213
G1 X26.396 Y67.51 E.0207
G1 X26.396 Y68.046 E.01689
G1 X25.616 Y67.267 E.03473
G1 X25.301 Y67.488 E.01212
G1 X26.396 Y68.582 E.04876
G1 X26.396 Y69.118 E.01689
G1 X24.986 Y67.708 E.06282
G1 X24.671 Y67.929 E.01212
G1 X26.396 Y69.654 E.07686
G1 X26.396 Y70.19 E.01689
G1 X24.356 Y68.15 E.09089
G1 X24.041 Y68.37 E.0121
G1 X26.396 Y70.725 E.10493
G1 X26.396 Y71.116 E.01232
G1 X26.416 Y71.282 E.00527
G1 X23.725 Y68.591 E.1199
G1 X23.41 Y68.812 E.01212
G1 X27.894 Y73.296 E.19978
G1 X27.896 Y73.833 E.01692
G1 X23.095 Y69.032 E.2139
G1 X22.78 Y69.253 E.01212
G1 X27.896 Y74.369 E.22794
G1 X27.896 Y74.905 E.01689
G1 X22.604 Y69.614 E.23576
G1 X22.604 Y70.149 E.01685
G1 X27.896 Y75.44 E.23576
G1 X27.896 Y75.976 E.01689
G1 X22.604 Y70.685 E.23576
G1 X22.604 Y71.221 E.01689
G1 X27.896 Y76.512 E.23576
G1 X27.896 Y77.048 E.01689
G1 X22.604 Y71.757 E.23576
G1 X22.604 Y72.293 E.01689
G1 X27.896 Y77.584 E.23576
G1 X27.896 Y78.119 E.01685
G1 X22.604 Y72.828 E.23576
G1 X22.604 Y73.364 E.01689
G1 X27.896 Y78.655 E.23576
G1 X27.896 Y79.191 E.01689
G1 X22.604 Y73.9 E.23576
G1 X22.604 Y74.436 E.01689
G1 X27.896 Y79.727 E.23576
G1 X27.896 Y80.263 E.01689
G1 X22.604 Y74.972 E.23576
G1 X22.604 Y75.508 E.01689
G1 X27.896 Y80.799 E.23576
G1 X27.896 Y81.334 E.01685
G1 X22.604 Y76.043 E.23576
G1 X22.604 Y76.579 E.01689
G1 X27.896 Y81.87 E.23576
G1 X27.896 Y82.406 E.01689
G1 X22.604 Y77.115 E.23576
G1 X22.604 Y77.651 E.01689
G1 X27.896 Y82.942 E.23576
G1 X27.896 Y83.478 E.01689
G1 X22.604 Y78.187 E.23576
G1 X22.604 Y78.723 E.01689
G1 X27.896 Y84.014 E.23576
G1 X27.896 Y84.549 E.01685
G1 X22.604 Y79.258 E.23576
G1 X22.604 Y79.794 E.01689
G1 X27.896 Y85.085 E.23576
G1 X27.896 Y85.621 E.01689
G1 X22.604 Y80.33 E.23576
G1 X22.604 Y80.866 E.01689
G1 X27.896 Y86.157 E.23576
G1 X27.896 Y86.693 E.01689
G1 X22.604 Y81.402 E.23576
G1 X22.604 Y81.938 E.01689
G1 X27.896 Y87.229 E.23576
G1 X27.896 Y87.764 E.01685
G1 X22.604 Y82.473 E.23576
G1 X22.604 Y83.009 E.01689
G1 X27.896 Y88.3 E.23576
G1 X27.896 Y88.836 E.01689
G1 X22.604 Y83.545 E.23576
G1 X22.604 Y84.081 E.01689
G1 X27.896 Y89.372 E.23576
G1 X27.896 Y89.908 E.01689
G1 X22.604 Y84.617 E.23576
G1 X22.604 Y85.153 E.01689
