; generated by PrusaSlicer 2.6.0+MacOS-arm64 on 2023-07-26 at 16:50:15 UTC

; 

; external perimeters extrusion width = 0.42mm
; perimeters extrusion width = 0.44mm
; infill extrusion width = 0.44mm
; solid infill extrusion width = 0.44mm
; top infill extrusion width = 0.40mm
; support material extrusion width = 0.36mm
; first layer extrusion width = 0.42mm

M201 X3500 Y3500 Z150 E5000 ; sets maximum accelerations, mm/sec^2
M203 X500 Y500 Z10 E60 ; sets maximum feedrates, mm / sec
M204 S3500 T1000 ; sets acceleration (S) and retract acceleration (R), mm/sec^2
M205 X8.00 Y8.00 Z0.40 E5.00 ; sets the jerk limits, mm/sec
M205 S0 T0 ; sets the minimum extruding and travel feed rate, mm/sec
;TYPE:Custom
G90 ; use absolute coordinates
M83 ; extruder relative mode
M104 S150 ; set temporary nozzle temp to prevent oozing during homing
M140 S60 ; set final bed temp
G4 S30 ; allow partial nozzle warmup
G28 ; home all axis
G1 Z50 F240
G1 X2.0 Y10 F3000
M104 S205 ; set final nozzle temp
M190 S60 ; wait for bed temp to stabilize
M109 S205 ; wait for nozzle temp to stabilize
G1 Z0.28 F240
G92 E0
G1 X2.0 Y140 E10 F1500 ; prime the nozzle
G1 X2.3 Y140 F5000
G92 E0
G1 X2.3 Y10 E10 F1200 ; prime the nozzle
G92 E0
G21 ; set units to millimeters
G90 ; use absolute coordinates
M83 ; use relative distances for extrusion
; Filament gcode
M107
;LAYER_CHANGE
;Z:0.2
;HEIGHT:0.2
;BEFORE_LAYER_CHANGE
G92 E0
;0.2


G1 E-3.5 F4800
G1 Z.2 F54000
;AFTER_LAYER_CHANGE
;0.2
G1 X25.737 Y84.274
G1 E3.5 F2400
M204 S3500
;TYPE:Skirt/Brim
;WIDTH:0.42
G1 F1200
G1 X26.727 Y84.126 E.03139
G1 X52.07 Y84.126 E.79461
G1 X53.547 Y84.466 E.04752
G1 X59.185 Y87.21 E.1966
G1 X59.849 Y87.635 E.02472
G1 X61.124 Y88.714 E.05237
G1 X61.63 Y89.273 E.02364
G1 X62.711 Y90.897 E.06117
G1 X63.375 Y92.586 E.0569
G1 X63.678 Y94.486 E.06033
G1 X63.714 Y102.058 E.23742
G1 X63.507 Y103.778 E.05432
G1 X56.87 Y124.316 E.67674
G1 X56.261 Y125.921 E.05382
G1 X55.681 Y126.899 E.03565
G1 X54.462 Y128.336 E.05908
G1 X53.725 Y128.983 E.03075
G1 X52.169 Y129.993 E.05816
G1 X51.066 Y130.456 E.03751
G1 X49.073 Y130.901 E.06403
G1 X48.278 Y130.981 E.02505
G1 X42.819 Y130.887 E.17119
G1 X41.341 Y130.517 E.04777
G1 X38.928 Y129.284 E.08496
G1 X37.911 Y128.486 E.04053
G1 X36.6 Y126.971 E.06282
G1 X22.63 Y106.204 E.78475
G1 X22.297 Y105.506 E.02425
G1 X20.595 Y100.446 E.16739
G1 X20.42 Y99.374 E.03406
G1 X20.42 Y90.432 E.28037
G1 X20.815 Y88.849 E.05116
G1 X21.41 Y88.044 E.03139
G1 X24.339 Y85.115 E.12988
G1 X25.685 Y84.305 E.04926
G1 E-2.45 F4800
;WIPE_START
G1 F43200
G1 X26.727 Y84.126 E-.1116
G1 X35.617 Y84.126 E-.9384
;WIPE_END
G1 X27.062 Y88.089 F54000
G1 E3.5 F2400
G1 F1200
G1 X28.146 Y87.808 E.03511
G1 X38.128 Y87.797 E.31298
G1 X39.182 Y88.026 E.03382
G1 X40.075 Y88.452 E.03102
G1 X40.893 Y89.163 E.03398
G1 X41.577 Y88.551 E.02878
G1 X42.567 Y88.044 E.03487
G1 X43.595 Y87.806 E.03308
G1 X50.447 Y87.793 E.21484
G1 X51.238 Y87.916 E.0251
G1 X52.712 Y88.615 E.05115
G1 X53.666 Y89.511 E.04104
G1 X53.828 Y89.731 E.00857
G1 X54.997 Y89.743 E.03666
G1 X56.043 Y89.913 E.03323
G1 X57.239 Y90.379 E.04025
G1 X58.409 Y91.224 E.04525
G1 X59.253 Y92.261 E.04192
G1 X59.813 Y93.506 E.0428
G1 X60.035 Y94.902 E.04432
G1 X60.059 Y101.242 E.19879
G1 X59.939 Y102.92 E.05275
G1 X59.33 Y104.555 E.0547
G1 X59.043 Y104.994 E.01645
G1 X58.004 Y106.11 E.04781
G1 X56.836 Y106.819 E.04284
G1 X55.57 Y107.2 E.04145
G1 X53.511 Y107.23 E.06457
G1 X53.487 Y122.268 E.47151
G1 X53.178 Y123.717 E.04645
G1 X52.482 Y124.995 E.04563
G1 X51.623 Y125.895 E.03901
G1 X50.652 Y126.562 E.03694
G1 X49.66 Y127.005 E.03406
G1 X48.208 Y127.227 E.04606
G1 X47.845 Y127.196 E.01142
G1 X43.346 Y127.177 E.14106
G1 X42.426 Y126.931 E.02986
G1 X41.843 Y126.628 E.0206
G1 X41.277 Y126.368 E.01953
G1 X40.215 Y125.542 E.04218
G1 X39.436 Y124.481 E.04127
G1 X38.896 Y123.153 E.04495
G1 X38.717 Y122.175 E.03117
G1 X38.718 Y121.836 E.01063
G1 X32.701 Y111.081 E.3864
G1 X30.521 Y107.246 E.13831
G1 X29.583 Y107.174 E.0295
G1 X28.265 Y106.697 E.04395
G1 X26.84 Y105.716 E.05424
G1 X26.056 Y104.769 E.03855
G1 X25.567 Y103.769 E.0349
G1 X25.204 Y102.226 E.0497
G1 X25.208 Y100.351 E.05879
G1 X24.947 Y100.068 E.01207
G1 X24.52 Y99.368 E.02571
G1 X24.098 Y97.922 E.04723
G1 X24.096 Y91.9 E.18882
G1 X24.426 Y90.657 E.04032
G1 X25.034 Y89.628 E.03747
G1 X26.237 Y88.503 E.05164
G1 X27.008 Y88.116 E.02705
G1 X27.177 Y88.448 F54000
G1 F1200
G1 X28.218 Y88.179 E.03371
G1 X38.108 Y88.174 E.31009
G1 X39.04 Y88.376 E.0299
G1 X39.889 Y88.781 E.02949
G1 X40.897 Y89.672 E.04218
G1 X41.771 Y88.875 E.03709
G1 X42.717 Y88.39 E.03333
G1 X43.657 Y88.179 E.03021
G1 X50.408 Y88.168 E.21167
G1 X51.102 Y88.269 E.02199
G1 X52.523 Y88.943 E.04931
G1 X53.391 Y89.77 E.03759
G1 X53.63 Y90.106 E.01293
G1 X54.978 Y90.12 E.04227
G1 X55.962 Y90.281 E.03126
G1 X57.078 Y90.721 E.03761
G1 X58.166 Y91.513 E.04219
G1 X58.944 Y92.478 E.03887
G1 X59.445 Y93.591 E.03827
G1 X59.658 Y94.918 E.04214
G1 X59.682 Y101.237 E.19813
G1 X59.565 Y102.866 E.05121
G1 X59.003 Y104.367 E.05025
G1 X58.755 Y104.75 E.01431
G1 X57.784 Y105.803 E.04491
G1 X56.704 Y106.465 E.03972
G1 X55.488 Y106.831 E.03982
G1 X53.134 Y106.857 E.07381
G1 X53.11 Y122.248 E.48257
G1 X52.833 Y123.561 E.04207
G1 X52.163 Y124.793 E.04397
G1 X51.393 Y125.595 E.03486
G1 X50.48 Y126.226 E.0348
G1 X49.575 Y126.636 E.03115
G1 X48.217 Y126.849 E.0431
G1 X47.861 Y126.819 E.0112
G1 X43.418 Y126.807 E.13931
G1 X42.581 Y126.586 E.02714
G1 X42.006 Y126.289 E.02029
G1 X41.489 Y126.055 E.01779
G1 X40.503 Y125.296 E.03901
G1 X39.754 Y124.277 E.03965
G1 X39.263 Y123.066 E.04097
G1 X39.092 Y122.127 E.02993
G1 X39.097 Y121.741 E.0121
G1 X33.03 Y110.896 E.38963
G1 X30.748 Y106.883 E.14475
G1 X29.684 Y106.81 E.03344
G1 X28.458 Y106.372 E.04082
G1 X27.076 Y105.42 E.05262
G1 X26.384 Y104.582 E.03408
G1 X25.929 Y103.661 E.03221
G1 X25.576 Y102.161 E.04832
G1 X25.586 Y100.2 E.06149
G1 X25.258 Y99.854 E.01495
G1 X24.855 Y99.194 E.02425
G1 X24.468 Y97.844 E.04403
G1 X24.467 Y91.971 E.18414
G1 X24.765 Y90.823 E.03719
G1 X25.313 Y89.882 E.03414
G1 X26.433 Y88.826 E.04826
G1 X27.123 Y88.476 E.02426
G1 X27.292 Y88.808 F54000
G1 F1200
G1 X28.289 Y88.55 E.03229
G1 X38.05 Y88.547 E.30605
G1 X38.898 Y88.726 E.02717
G1 X39.701 Y89.109 E.02789
G1 X40.672 Y89.978 E.04086
G1 X40.899 Y90.294 E.0122
G1 X41.12 Y89.981 E.01201
G1 X41.967 Y89.198 E.03617
G1 X42.867 Y88.737 E.03171
G1 X43.718 Y88.551 E.02731
G1 X50.372 Y88.544 E.20863
G1 X50.968 Y88.623 E.01885
G1 X52.333 Y89.27 E.04736
G1 X53.114 Y90.027 E.0341
G1 X53.43 Y90.48 E.01732
G1 X54.96 Y90.497 E.04798
G1 X55.879 Y90.65 E.02921
G1 X56.916 Y91.062 E.03499
G1 X57.922 Y91.802 E.03916
G1 X58.634 Y92.695 E.03581
G1 X59.077 Y93.676 E.03375
G1 X59.281 Y94.935 E.03999
G1 X59.305 Y101.231 E.19741
G1 X59.191 Y102.812 E.0497
G1 X58.674 Y104.181 E.04588
G1 X58.465 Y104.509 E.01219
G1 X57.563 Y105.497 E.04195
G1 X56.571 Y106.111 E.03658
G1 X55.405 Y106.462 E.03818
G1 X52.758 Y106.482 E.083
G1 X52.733 Y122.227 E.49367
G1 X52.471 Y123.455 E.03937
G1 X51.845 Y124.588 E.04059
G1 X51.162 Y125.296 E.03084
G1 X50.307 Y125.891 E.03266
G1 X49.489 Y126.268 E.02824
G1 X48.226 Y126.471 E.04011
G1 X47.877 Y126.442 E.01098
G1 X43.489 Y126.435 E.13758
G1 X42.735 Y126.241 E.02441
G1 X42.168 Y125.948 E.02001
G1 X41.7 Y125.742 E.01603
G1 X40.755 Y125.015 E.03738
G1 X40.073 Y124.075 E.03641
G1 X39.631 Y122.98 E.03702
G1 X39.466 Y122.079 E.02872
G1 X39.477 Y121.648 E.01352
G1 X33.358 Y110.71 E.39297
G1 X30.974 Y106.518 E.15121
G1 X29.783 Y106.445 E.03741
G1 X28.651 Y106.047 E.03762
G1 X27.312 Y105.125 E.05097
G1 X26.712 Y104.394 E.02965
G1 X26.291 Y103.553 E.02949
G1 X25.948 Y102.097 E.0469
G1 X25.964 Y100.048 E.06425
G1 X25.568 Y99.639 E.01785
G1 X25.19 Y99.02 E.02274
G1 X24.838 Y97.767 E.04081
G1 X24.838 Y92.041 E.17953
G1 X25.106 Y90.987 E.0341
G1 X25.593 Y90.136 E.03074
G1 X26.63 Y89.149 E.04489
G1 X27.239 Y88.835 E.02148
G1 X27.408 Y89.168 F54000
G1 F1200
G1 X28.36 Y88.921 E.03084
G1 X38.029 Y88.924 E.30316
G1 X38.795 Y89.09 E.02457
G1 X39.512 Y89.436 E.02496
G1 X40.398 Y90.238 E.03747
G1 X40.9 Y91.007 E.02879
G1 X41.398 Y90.237 E.02875
G1 X42.163 Y89.522 E.03283
G1 X43.016 Y89.085 E.03005
G1 X43.776 Y88.924 E.02436
G1 X50.359 Y88.921 E.20641
G1 X50.889 Y88.993 E.01677
G1 X52.093 Y89.563 E.04177
G1 X52.838 Y90.284 E.03251
G1 X53.229 Y90.855 E.0217
G1 X54.941 Y90.874 E.05368
G1 X55.797 Y91.018 E.02722
G1 X56.714 Y91.381 E.03092
G1 X57.645 Y92.059 E.03611
G1 X58.302 Y92.874 E.03282
G1 X58.709 Y93.762 E.03063
G1 X58.904 Y94.951 E.03778
G1 X58.928 Y101.226 E.19675
G1 X58.828 Y102.705 E.04648
G1 X58.329 Y104.029 E.04436
G1 X58.176 Y104.266 E.00884
G1 X57.303 Y105.222 E.04059
G1 X56.395 Y105.777 E.03337
G1 X55.375 Y106.085 E.03341
G1 X52.381 Y106.107 E.09388
G1 X52.36 Y122.17 E.50364
G1 X52.126 Y123.3 E.03618
G1 X51.555 Y124.346 E.03737
G1 X50.931 Y124.998 E.0283
G1 X50.106 Y125.572 E.03151
G1 X49.357 Y125.914 E.02582
G1 X48.194 Y126.095 E.0369
G1 X47.898 Y126.065 E.00933
G1 X43.56 Y126.064 E.13601
G1 X42.851 Y125.882 E.02295
G1 X42.333 Y125.608 E.01837
G1 X41.873 Y125.406 E.01575
G1 X41.009 Y124.734 E.03432
G1 X40.393 Y123.875 E.03314
G1 X39.988 Y122.859 E.03429
G1 X39.841 Y122.034 E.02627
G1 X39.858 Y121.557 E.01497
G1 X33.686 Y110.525 E.39635
G1 X31.2 Y106.152 E.15772
G1 X29.88 Y106.08 E.04145
G1 X28.842 Y105.721 E.03444
G1 X27.584 Y104.863 E.04774
G1 X27.038 Y104.204 E.02683
G1 X26.652 Y103.443 E.02675
G1 X26.326 Y102.077 E.04403
G1 X26.342 Y99.893 E.06848
G1 X25.878 Y99.423 E.02071
G1 X25.526 Y98.845 E.02122
G1 X25.215 Y97.741 E.03596
G1 X25.215 Y92.065 E.17797
G1 X25.464 Y91.106 E.03107
G1 X25.874 Y90.388 E.02592
G1 X26.829 Y89.47 E.04153
G1 X27.355 Y89.195 E.01861
G1 X27.527 Y89.526 F54000
G1 F1200
G1 X28.385 Y89.298 E.02784
G1 X38.008 Y89.301 E.30172
G1 X38.691 Y89.453 E.02194
G1 X39.32 Y89.762 E.02197
G1 X40.124 Y90.498 E.03418
G1 X40.545 Y91.157 E.02452
G1 X40.76 Y91.851 E.02278
G1 X41.038 Y91.85 E.00872
G1 X41.248 Y91.167 E.0224
G1 X41.675 Y90.494 E.02499
G1 X42.359 Y89.845 E.02956
G1 X43.164 Y89.433 E.02835
G1 X43.831 Y89.298 E.02134
G1 X50.345 Y89.298 E.20424
G1 X50.808 Y89.362 E.01466
G1 X51.853 Y89.855 E.03623
G1 X52.561 Y90.541 E.03091
G1 X52.867 Y90.994 E.01714
G1 X52.964 Y91.23 E.008
G1 X54.894 Y91.248 E.06052
G1 X55.68 Y91.377 E.02497
G1 X56.514 Y91.702 E.02806
G1 X57.369 Y92.317 E.03302
G1 X57.971 Y93.056 E.02989
G1 X58.341 Y93.85 E.02747
G1 X58.527 Y94.968 E.03554
G1 X58.551 Y101.222 E.19609
G1 X58.465 Y102.599 E.04326
G1 X57.983 Y103.876 E.0428
G1 X57.888 Y104.022 E.00546
G1 X57.043 Y104.947 E.03928
G1 X56.221 Y105.441 E.03007
G1 X55.345 Y105.708 E.02871
G1 X52.004 Y105.733 E.10476
G1 X51.987 Y122.115 E.51365
G1 X51.78 Y123.147 E.033
G1 X51.264 Y124.105 E.03412
G1 X50.7 Y124.699 E.02568
G1 X49.903 Y125.253 E.03043
G1 X49.271 Y125.546 E.02184
G1 X48.207 Y125.717 E.03379
G1 X47.917 Y125.687 E.00914
G1 X43.63 Y125.693 E.13442
G1 X42.968 Y125.523 E.02143
G1 X42.499 Y125.27 E.01671
G1 X42.047 Y125.071 E.01548
G1 X41.264 Y124.456 E.03122
G1 X40.715 Y123.677 E.02988
G1 X40.347 Y122.739 E.03159
G1 X40.216 Y121.991 E.02381
G1 X40.24 Y121.467 E.01645
G1 X34.015 Y110.34 E.39977
G1 X31.425 Y105.785 E.16429
G1 X29.975 Y105.714 E.04552
G1 X29.031 Y105.394 E.03125
G1 X27.856 Y104.6 E.04446
G1 X27.363 Y104.012 E.02406
G1 X27.013 Y103.331 E.02401
G1 X26.703 Y102.056 E.04114
G1 X26.721 Y99.737 E.07271
G1 X26.188 Y99.206 E.02359
G1 X25.861 Y98.671 E.01966
G1 X25.592 Y97.715 E.03114
G1 X25.592 Y92.09 E.17637
G1 X25.822 Y91.229 E.02794
G1 X26.187 Y90.601 E.02277
G1 X27.03 Y89.79 E.03668
G1 X27.474 Y89.554 E.01577
G1 X27.649 Y89.883 F54000
G1 F1200
G1 X28.411 Y89.675 E.02477
G1 X37.987 Y89.679 E.30025
G1 X38.549 Y89.802 E.01804
G1 X39.089 Y90.061 E.01878
G1 X39.82 Y90.723 E.03092
G1 X40.212 Y91.336 E.02281
G1 X40.41 Y92.002 E.02179
G1 X40.426 Y96.83 E.15138
G1 X40.685 Y97.176 E.01355
G1 X40.953 Y97.829 E.02213
G1 X41.016 Y98.222 E.01248
G1 X40.997 Y98.875 E.02048
G1 X41.025 Y99.44 E.01774
G1 X40.974 Y99.865 E.01342
G1 X41.502 Y99.865 E.01656
G1 X41.513 Y98.902 E.0302
G1 X41.482 Y98.351 E.0173
G1 X41.5 Y98.188 E.00514
G1 X41.371 Y97.69 E.01613
G1 X41.386 Y92.01 E.17809
G1 X41.582 Y91.344 E.02177
G1 X41.954 Y90.748 E.02203
G1 X42.559 Y90.166 E.02632
G1 X43.267 Y89.796 E.02505
G1 X43.851 Y89.675 E.0187
G1 X50.332 Y89.675 E.20321
G1 X50.727 Y89.731 E.01251
G1 X51.613 Y90.148 E.0307
G1 X52.284 Y90.797 E.02927
G1 X52.539 Y91.181 E.01445
G1 X52.698 Y91.605 E.0142
G1 X54.85 Y91.623 E.06748
G1 X55.564 Y91.737 E.02267
G1 X56.316 Y92.024 E.02524
G1 X57.094 Y92.576 E.02991
G1 X57.641 Y93.24 E.02697
G1 X57.974 Y93.939 E.02428
G1 X58.15 Y94.985 E.03326
G1 X58.174 Y101.207 E.19509
G1 X58.102 Y102.494 E.04042
G1 X57.654 Y103.692 E.0401
G1 X57.597 Y103.781 E.00331
G1 X56.783 Y104.672 E.03784
G1 X56.087 Y105.089 E.02544
G1 X55.313 Y105.332 E.02544
G1 X51.627 Y105.359 E.11558
G1 X51.613 Y122.062 E.52371
G1 X51.433 Y122.996 E.02982
G1 X50.972 Y123.866 E.03087
G1 X50.468 Y124.401 E.02305
G1 X49.701 Y124.935 E.0293
G1 X49.182 Y125.179 E.01798
G1 X48.22 Y125.339 E.03058
G1 X47.935 Y125.31 E.00898
G1 X43.698 Y125.322 E.13285
G1 X43.126 Y125.179 E.01849
G1 X42.665 Y124.93 E.01643
G1 X42.222 Y124.736 E.01516
G1 X41.521 Y124.179 E.02807
G1 X41.038 Y123.481 E.02661
G1 X40.705 Y122.622 E.02889
G1 X40.592 Y121.95 E.02137
G1 X40.623 Y121.379 E.01793
G1 X34.343 Y110.155 E.40326
G1 X31.65 Y105.418 E.17085
G1 X30.02 Y105.339 E.05117
G1 X29.22 Y105.067 E.02649
G1 X28.127 Y104.337 E.04121
G1 X27.666 Y103.786 E.02253
G1 X27.374 Y103.219 E.02
G1 X27.08 Y102.035 E.03825
G1 X27.099 Y99.582 E.07691
G1 X26.471 Y98.956 E.0278
G1 X26.198 Y98.5 E.01666
G1 X25.969 Y97.689 E.02642
G1 X25.969 Y92.116 E.17474
G1 X26.178 Y91.353 E.0248
G1 X26.469 Y90.853 E.01814
G1 X27.233 Y90.109 E.03344
G1 X27.596 Y89.912 E.01295
G1 X27.774 Y90.24 F54000
G1 F1200
G1 X28.438 Y90.052 E.02164
G1 X37.967 Y90.056 E.29878
G1 X38.41 Y90.153 E.01422
G1 X38.858 Y90.361 E.01549
G1 X39.548 Y90.986 E.02919
G1 X39.86 Y91.473 E.01813
G1 X40.033 Y92.032 E.01835
G1 X40.05 Y96.961 E.15455
G1 X40.348 Y97.346 E.01527
G1 X40.585 Y97.915 E.01933
G1 X40.639 Y98.23 E.01002
G1 X40.619 Y98.879 E.02036
G1 X40.648 Y99.44 E.01761
G1 X40.597 Y99.823 E.01211
G1 X40.446 Y100.242 E.01396
G1 X42.037 Y100.242 E.04988
G1 X41.871 Y99.566 E.02183
G1 X41.89 Y98.899 E.02092
G1 X41.859 Y98.35 E.01724
G1 X41.885 Y98.164 E.00589
G1 X41.748 Y97.664 E.01625
G1 X41.755 Y92.091 E.17474
G1 X41.936 Y91.475 E.02013
G1 X42.234 Y91.001 E.01756
G1 X42.761 Y90.485 E.02313
G1 X43.373 Y90.159 E.02174
G1 X43.871 Y90.052 E.01597
G1 X50.317 Y90.052 E.20211
G1 X50.645 Y90.1 E.01039
G1 X51.375 Y90.442 E.02528
G1 X51.981 Y91.024 E.02634
G1 X52.211 Y91.37 E.01303
G1 X52.429 Y91.98 E.02031
G1 X54.806 Y91.998 E.07453
G1 X55.452 Y92.097 E.02049
G1 X56.12 Y92.347 E.02236
G1 X56.822 Y92.838 E.02686
G1 X57.313 Y93.427 E.02404
G1 X57.607 Y94.03 E.02103
G1 X57.773 Y95.002 E.03092
G1 X57.797 Y101.194 E.19415
G1 X57.738 Y102.391 E.03758
G1 X57.321 Y103.515 E.03759
G1 X56.563 Y104.365 E.03571
G1 X55.952 Y104.736 E.02241
G1 X55.227 Y104.963 E.02382
G1 X51.251 Y104.983 E.12467
G1 X51.239 Y122.012 E.53393
G1 X51.086 Y122.848 E.02665
G1 X50.678 Y123.629 E.02763
G1 X50.236 Y124.103 E.02032
G1 X49.499 Y124.616 E.02816
G1 X49.047 Y124.826 E.01563
G1 X48.233 Y124.962 E.02588
G1 X47.954 Y124.933 E.00879
G1 X43.766 Y124.95 E.13131
G1 X43.242 Y124.82 E.01693
G1 X42.834 Y124.593 E.01464
G1 X42.397 Y124.401 E.01497
G1 X41.78 Y123.903 E.02486
G1 X41.382 Y123.325 E.022
G1 X41.064 Y122.505 E.02758
G1 X40.967 Y121.912 E.01884
G1 X41.007 Y121.293 E.01945
G1 X34.672 Y109.969 E.40684
G1 X31.876 Y105.051 E.17738
G1 X30.065 Y104.964 E.05685
G1 X29.407 Y104.739 E.0218
G1 X28.398 Y104.073 E.03791
G1 X27.968 Y103.56 E.02099
G1 X27.734 Y103.105 E.01604
G1 X27.457 Y102.013 E.03532
G1 X27.477 Y99.426 E.08112
G1 X26.755 Y98.707 E.03195
G1 X26.536 Y98.331 E.01364
G1 X26.347 Y97.663 E.02177
G1 X26.347 Y92.143 E.17308
G1 X26.534 Y91.481 E.02157
G1 X26.779 Y91.067 E.01508
G1 X27.439 Y90.426 E.02885
G1 X27.722 Y90.269 E.01015
G1 X27.903 Y90.594 F54000
G1 F1200
G1 X28.466 Y90.429 E.01839
