; generated by PrusaSlicer 2.6.0+MacOS-arm64 on 2023-07-28 at 21:39:12 UTC

; 

; external perimeters extrusion width = 0.42mm
; perimeters extrusion width = 0.44mm
; infill extrusion width = 0.44mm
; solid infill extrusion width = 0.44mm
; top infill extrusion width = 0.40mm
; support material extrusion width = 0.36mm
; first layer extrusion width = 0.42mm

M201 X3500 Y3500 Z150 E5000 ; sets maximum accelerations, mm/sec^2
M203 X500 Y500 Z10 E60 ; sets maximum feedrates, mm / sec
M204 S3500 T1000 ; sets acceleration (S) and retract acceleration (R), mm/sec^2
M205 X8.00 Y8.00 Z0.40 E5.00 ; sets the jerk limits, mm/sec
M205 S0 T0 ; sets the minimum extruding and travel feed rate, mm/sec
;TYPE:Custom
G90 ; use absolute coordinates
M83 ; extruder relative mode
M104 S150 ; set temporary nozzle temp to prevent oozing during homing
M140 S60 ; set final bed temp
G4 S30 ; allow partial nozzle warmup
G28 ; home all axis
G1 Z50 F240
G1 X2.0 Y10 F3000
M104 S205 ; set final nozzle temp
M190 S60 ; wait for bed temp to stabilize
M109 S205 ; wait for nozzle temp to stabilize
G1 Z0.28 F240
G92 E0
G1 X2.0 Y140 E10 F1500 ; prime the nozzle
G1 X2.3 Y140 F5000
G92 E0
G1 X2.3 Y10 E10 F1200 ; prime the nozzle
G92 E0
G21 ; set units to millimeters
G90 ; use absolute coordinates
M83 ; use relative distances for extrusion
; Filament gcode
M107
;LAYER_CHANGE
;Z:0.2
;HEIGHT:0.2
;BEFORE_LAYER_CHANGE
G92 E0
;0.2


G1 E-3.5 F4800
G1 Z.2 F54000
;AFTER_LAYER_CHANGE
;0.2
G1 X34.898 Y57.597
G1 E3.5 F2400
M204 S3500
;TYPE:Skirt/Brim
;WIDTH:0.42
G1 F1200
G1 X50.892 Y48.913 E.57063
G1 X52.536 Y48.321 E.05479
G1 X53.127 Y48.186 E.01901
G1 X54.259 Y48.033 E.03582
G1 X56.006 Y48.056 E.05478
G1 X57.721 Y48.392 E.05479
G1 X58.297 Y48.58 E.019
G1 X59.853 Y49.298 E.05373
G1 X70.188 Y55.978 E.38584
G1 X71.615 Y56.985 E.05476
G1 X72.838 Y58.23 E.05472
G1 X73.509 Y59.153 E.03578
G1 X74.315 Y60.702 E.05475
G1 X74.831 Y62.369 E.05471
G1 X75.042 Y64.102 E.05474
G1 X75.042 Y64.707 E.01897
G1 X74.872 Y66.277 E.04951
G1 X68.415 Y95.238 E.93035
G1 X68.07 Y96.506 E.0412
G1 X67.359 Y98.107 E.05493
G1 X67.047 Y98.628 E.01904
G1 X65.972 Y100.011 E.05492
G1 X64.667 Y101.179 E.05491
G1 X63.298 Y102.039 E.05069
G1 X57.008 Y104.981 E.21772
G1 X55.285 Y105.481 E.05625
G1 X53.606 Y105.64 E.05288
G1 X52.223 Y105.54 E.04348
G1 X50.601 Y105.149 E.05231
G1 X48.958 Y104.407 E.05652
G1 X48.4 Y104.06 E.0206
G1 X47.259 Y103.168 E.04541
G1 X42.525 Y98.825 E.20143
G1 X41.587 Y97.755 E.04462
G1 X40.924 Y96.821 E.03591
G1 X40.414 Y95.874 E.03372
G1 X39.903 Y94.627 E.04225
G1 X30.698 Y68.705 E.86249
G1 X30.353 Y67.055 E.05285
G1 X30.299 Y65.31 E.05474
G1 X30.557 Y63.583 E.05475
G1 X30.718 Y63 E.01896
G1 X31.381 Y61.385 E.05474
G1 X32.323 Y59.915 E.05474
G1 X33.074 Y59.055 E.0358
G1 X34.405 Y57.924 E.05476
G1 X34.848 Y57.63 E.01667
; printing object KlackEnderPro2 Probe Retainer v0.5.stl id:0 copy 0
G1 E-2.45 F4800
;WIPE_START
G1 F43200
G1 X43.589 Y52.881 E-1.05
;WIPE_END
G1 X55.218 Y51.402 F54000
G1 E3.5 F2400
;TYPE:Support material
G1 F1200
G1 X55.855 Y51.43 E.01999
G1 X56.969 Y51.685 E.03583
G1 X58.02 Y52.134 E.03583
G1 X58.973 Y52.764 E.03582
G1 X59.798 Y53.554 E.03581
G1 X60.469 Y54.479 E.03583
G1 X60.964 Y55.508 E.0358
G1 X61.267 Y56.61 E.03583
G1 X61.368 Y57.747 E.03579
G1 X61.265 Y58.884 E.0358
G1 X61.171 Y59.222 E.011
G1 X61.426 Y59.39 E.00957
G1 X61.802 Y59.09 E.01508
G1 X62.807 Y58.549 E.03579
G1 X63.893 Y58.196 E.0358
G1 X65.025 Y58.043 E.03582
G1 X66.165 Y58.094 E.03578
G1 X67.278 Y58.348 E.03579
G1 X68.328 Y58.797 E.03581
G1 X69.281 Y59.426 E.0358
G1 X70.106 Y60.215 E.03579
G1 X70.777 Y61.138 E.03578
G1 X71.272 Y62.167 E.0358
G1 X71.576 Y63.268 E.03581
G1 X71.678 Y64.405 E.03579
G1 X71.576 Y65.542 E.03579
G1 X71.272 Y66.642 E.03578
G1 X70.777 Y67.671 E.0358
G1 X70.106 Y68.594 E.03578
G1 X69.281 Y69.383 E.03579
G1 X68.328 Y70.012 E.0358
G1 X67.278 Y70.461 E.03581
G1 X66.165 Y70.715 E.03579
G1 X65.826 Y70.73 E.01064
G1 X65.735 Y71.742 E.03186
G1 X65.431 Y72.841 E.03575
G1 X64.937 Y73.868 E.03573
G1 X64.267 Y74.79 E.03574
G1 X63.884 Y75.157 E.01663
G1 X64.447 Y75.847 E.02792
G1 X65.019 Y76.869 E.03672
G1 X65.341 Y77.777 E.03021
G1 X65.461 Y78.328 E.01768
G1 X65.508 Y79.471 E.03587
G1 X65.378 Y80.63 E.03657
G1 X65.157 Y81.666 E.03321
G1 X64.799 Y82.566 E.03037
G1 X64.724 Y82.7 E.00481
G1 X65.006 Y83.283 E.02031
G1 X65.311 Y84.386 E.03588
G1 X65.415 Y85.525 E.03586
G1 X65.313 Y86.665 E.03589
G1 X65.009 Y87.769 E.0359
G1 X64.511 Y88.8 E.0359
G1 X63.941 Y89.583 E.03037
G1 X64.31 Y90.088 E.01961
G1 X64.809 Y91.118 E.03589
G1 X65.116 Y92.221 E.0359
G1 X65.221 Y93.362 E.03593
G1 X65.119 Y94.503 E.03592
G1 X64.814 Y95.608 E.03594
G1 X64.317 Y96.64 E.03591
G1 X63.642 Y97.567 E.03595
G1 X62.813 Y98.357 E.0359
G1 X61.855 Y98.986 E.03593
G1 X60.801 Y99.433 E.0359
G1 X59.685 Y99.683 E.03586
G1 X58.542 Y99.731 E.03587
G1 X58.425 Y99.714 E.00371
G1 X57.831 Y100.461 E.02992
G1 X57.386 Y100.849 E.01851
G1 X56.936 Y101.222 E.01833
G1 X55.954 Y101.773 E.03531
G1 X54.869 Y102.129 E.0358
G1 X53.766 Y102.266 E.03485
G1 X53.127 Y102.236 E.02006
G1 X52.554 Y102.179 E.01805
G1 X51.485 Y101.89 E.03472
G1 X50.455 Y101.38 E.03604
G1 X49.542 Y100.68 E.03607
G1 X48.821 Y99.859 E.03426
G1 X48.483 Y99.33 E.01968
G1 X48.215 Y98.819 E.01809
G1 X48.009 Y98.301 E.01748
G1 X47.914 Y97.977 E.01059
G1 X47.475 Y97.89 E.01403
G1 X46.535 Y97.514 E.03174
G1 X45.634 Y96.986 E.03274
G1 X44.808 Y96.336 E.03296
G1 X44.169 Y95.578 E.03108
G1 X43.855 Y95.144 E.0168
G1 X43.535 Y94.584 E.02022
G1 X43.085 Y93.497 E.03689
G1 X42.913 Y92.548 E.03024
G1 X42.826 Y91.643 E.02851
G1 X42.956 Y90.455 E.03747
G1 X43.236 Y89.422 E.03356
G1 X43.518 Y88.791 E.02167
G1 X43.759 Y88.335 E.01617
G1 X44.251 Y87.628 E.02701
G1 X44.391 Y87.476 E.00648
G1 X43.848 Y86.855 E.02586
G1 X43.261 Y85.874 E.03584
G1 X42.859 Y84.804 E.03584
G1 X42.655 Y83.679 E.03585
G1 X42.655 Y82.536 E.03584
G1 X42.859 Y81.412 E.03582
G1 X43.261 Y80.342 E.03584
G1 X43.322 Y80.24 E.00373
G1 X43.266 Y80.146 E.00343
G1 X42.864 Y79.076 E.03584
G1 X42.659 Y77.951 E.03585
G1 X42.659 Y76.808 E.03584
G1 X42.863 Y75.683 E.03585
G1 X43.281 Y74.571 E.03725
G1 X42.864 Y73.46 E.03721
G1 X42.66 Y72.336 E.03582
G1 X42.66 Y71.647 E.0216
G1 X41.987 Y71.935 E.02295
G1 X40.874 Y72.19 E.0358
G1 X39.734 Y72.241 E.03578
G1 X38.602 Y72.088 E.03582
G1 X37.517 Y71.735 E.03577
G1 X36.511 Y71.195 E.0358
G1 X35.619 Y70.483 E.03579
G1 X34.867 Y69.624 E.0358
G1 X34.281 Y68.644 E.0358
G1 X33.88 Y67.575 E.0358
G1 X33.676 Y66.451 E.03582
G1 X33.676 Y65.309 E.03581
G1 X33.879 Y64.186 E.03578
G1 X34.281 Y63.117 E.03581
G1 X34.866 Y62.136 E.03581
G1 X35.618 Y61.276 E.03582
G1 X36.51 Y60.565 E.03577
G1 X37.516 Y60.023 E.03583
G1 X38.602 Y59.671 E.03579
G1 X39.734 Y59.518 E.03582
G1 X40.874 Y59.569 E.03578
G1 X41.987 Y59.823 E.03579
G1 X43.037 Y60.272 E.03581
G1 X43.494 Y60.574 E.01717
G1 X43.731 Y60.179 E.01444
G1 X44.482 Y59.32 E.03578
G1 X45.375 Y58.608 E.03581
G1 X46.38 Y58.068 E.03577
G1 X47.465 Y57.715 E.03577
G1 X48.657 Y57.554 E.03771
G1 X48.657 Y57.176 E.01185
G1 X48.86 Y56.053 E.03578
G1 X49.26 Y54.983 E.03582
G1 X49.845 Y54.002 E.03581
G1 X50.596 Y53.141 E.03582
G1 X51.488 Y52.428 E.0358
G1 X52.494 Y51.886 E.03583
G1 X53.581 Y51.533 E.03583
G1 X54.713 Y51.379 E.03582
G1 X55.161 Y51.399 E.01406
G1 X61.113 Y61.378 F54000
G1 F1200
G1 X61.392 Y61.378 E.00875
G1 X61.662 Y61.648 E.01197
G1 X61.662 Y66.379 E.14834
G1 X61.392 Y66.65 E.01199
G1 X55.304 Y66.65 E.19088
G1 X55.322 Y91.674 E.78461
G1 X55.298 Y91.816 E.00452
G1 X55.219 Y92.045 E.0076
G1 X55.036 Y92.311 E.01012
G1 X54.86 Y92.483 E.00772
G1 X54.573 Y92.525 E.00909
G1 X54.489 Y92.483 E.00294
G1 X53.925 Y92.513 E.01771
G1 X53.468 Y92.49 E.01435
G1 X53.128 Y92.363 E.01138
G1 X52.962 Y92.194 E.00743
G1 X52.822 Y91.666 E.01713
G1 X52.818 Y77.584 E.44153
G1 X52.863 Y61.647 E.4997
G1 X53.133 Y61.378 E.01195
G1 X61.056 Y61.378 E.24842
G1 X71.264 Y66.034 F54000
G1 F1200
G1 X71.264 Y63.589 E.07666
G1 X71.241 Y63.328 E.00822
G1 X70.953 Y62.287 E.03387
G1 X70.845 Y62.062 E.00783
G1 X70.845 Y66.747 E.14689
G1 X70.484 Y67.496 E.02607
G1 X70.426 Y67.576 E.0031
G1 X70.426 Y61.233 E.19888
G1 X70.007 Y60.656 E.02236
G1 X70.007 Y68.153 E.23506
G1 X69.849 Y68.37 E.00842
G1 X69.588 Y68.62 E.01133
G1 X69.588 Y60.189 E.26435
G1 X69.169 Y59.789 E.01816
G1 X69.169 Y69.02 E.28943
G1 X69.068 Y69.117 E.00439
G1 X68.75 Y69.327 E.01195
G1 X68.75 Y59.482 E.30868
G1 X68.331 Y59.206 E.01573
G1 X68.331 Y69.603 E.32599
G1 X68.166 Y69.712 E.0062
G1 X67.912 Y69.821 E.00867
G1 X67.912 Y58.988 E.33966
G1 X67.493 Y58.809 E.01429
G1 X67.493 Y70 E.35089
G1 X67.173 Y70.137 E.01091
G1 X67.074 Y70.159 E.00318
G1 X67.074 Y58.65 E.36086
G1 X66.655 Y58.554 E.01348
G1 X66.655 Y70.255 E.36688
G1 X66.237 Y70.351 E.01345
G1 X66.237 Y58.458 E.3729
G1 X66.119 Y58.432 E.00379
G1 X65.818 Y58.418 E.00945
G1 X65.818 Y70.391 E.37541
G1 X65.515 Y70.404 E.00951
G1 X65.399 Y71.684 E.0403
G1 X65.399 Y58.399 E.41654
G1 X64.98 Y58.391 E.01314
G1 X64.98 Y72.997 E.45796
G1 X64.644 Y73.693 E.02423
G1 X64.561 Y73.808 E.00445
G1 X64.561 Y58.448 E.4816
G1 X64.142 Y58.505 E.01326
G1 X64.142 Y74.386 E.49794
G1 X64.01 Y74.566 E.007
G1 X63.723 Y74.842 E.01248
G1 X63.723 Y58.608 E.50901
G1 X63.304 Y58.745 E.01382
G1 X63.304 Y97.42 E1.21263
G1 X62.885 Y97.819 E.01814
G1 X62.885 Y58.893 E1.2205
G1 X62.466 Y59.118 E.01491
G1 X62.466 Y98.179 E1.22473
G1 X62.047 Y98.454 E.01571
G1 X62.047 Y59.344 E1.22627
G1 X61.628 Y59.663 E.01651
G1 X61.628 Y61.134 E.04612
G1 X61.532 Y61.038 E.00426
G1 X61.209 Y61.038 E.01013
G1 X61.209 Y59.45 E.04979
G1 X64.98 Y87.236 F54000
G1 F1200
G1 X64.976 Y84.447 E.08745
G1 X64.687 Y83.403 E.03396
G1 X64.561 Y83.143 E.00906
G1 X64.561 Y87.916 E.14965
G1 X64.219 Y88.625 E.02468
G1 X64.142 Y88.731 E.00411
G1 X64.142 Y76.009 E.39889
G1 X63.723 Y75.496 E.02077
G1 X63.723 Y96.879 E.67045
G1 X64.024 Y96.465 E.01605
G1 X64.142 Y96.222 E.00847
G1 X64.142 Y90.519 E.17881
G1 X64.491 Y91.238 E.02506
G1 X64.561 Y91.49 E.0082
G1 X64.561 Y95.743 E.13335
G1 E-2.45 F4800
;WIPE_START
G1 F43200
G1 X64.561 Y91.49 E-.44893
G1 X64.491 Y91.238 E-.02761
G1 X64.142 Y90.519 E-.08436
G1 X64.142 Y95.153 E-.4891
;WIPE_END
G1 X64.98 Y81.654 F54000
G1 E3.5 F2400
G1 F1200
G1 X64.98 Y77.773 E.12169
G1 X64.709 Y77.009 E.02542
G1 X64.561 Y76.745 E.00949
G1 X64.561 Y82.644 E.18496
G1 X61.628 Y98.898 F54000
G1 F1200
G1 X61.628 Y66.894 E1.00346
G1 X61.532 Y66.989 E.00423
G1 X61.209 Y66.989 E.01013
G1 X61.209 Y98.891 E1.00026
G1 X60.79 Y99.069 E.01427
G1 X60.79 Y66.989 E1.00585
G1 X60.371 Y66.989 E.01314
G1 X60.371 Y99.181 E1.00936
G1 X59.952 Y99.276 E.01347
G1 X59.952 Y66.989 E1.01234
G1 X59.533 Y66.989 E.01314
G1 X59.533 Y99.35 E1.01466
G1 X59.114 Y99.367 E.01315
G1 X59.114 Y66.989 E1.01519
G1 X58.695 Y66.989 E.01314
G1 X58.695 Y99.385 E1.01575
G1 X58.559 Y99.39 E.00427
G1 X58.276 Y99.356 E.00894
G1 X58.276 Y66.989 E1.01484
G1 X57.857 Y66.989 E.01314
G1 X57.857 Y99.883 E1.03137
G1 X57.584 Y100.225 E.01372
G1 X57.438 Y100.353 E.00609
G1 X57.438 Y66.989 E1.0461
G1 X57.019 Y66.989 E.01314
G1 X57.019 Y100.712 E1.05736
G1 X56.743 Y100.941 E.01124
G1 X56.6 Y101.021 E.00514
G1 X56.6 Y66.989 E1.06705
G1 X56.181 Y66.989 E.01314
G1 X56.181 Y101.256 E1.07442
G1 X55.762 Y101.478 E.01487
G1 X55.762 Y66.989 E1.08138
G1 X55.643 Y66.989 E.00373
G1 X55.663 Y91.655 E.77339
G1 X55.624 Y91.911 E.00812
G1 X55.529 Y92.187 E.00915
G1 X55.343 Y92.462 E.01041
G1 X55.343 Y101.616 E.28702
G1 X54.924 Y101.754 E.01383
G1 X54.924 Y92.817 E.28021
G1 X54.505 Y92.871 E.01325
G1 X54.505 Y101.832 E.28097
G1 X54.086 Y101.884 E.01324
G1 X54.086 Y92.844 E.28344
G1 X53.667 Y92.84 E.01314
G1 X53.667 Y101.922 E.28476
G1 X53.248 Y101.902 E.01315
G1 X53.248 Y92.778 E.28608
G1 X53.144 Y92.723 E.00369
G1 X52.946 Y92.663 E.00649
G1 X52.829 Y92.543 E.00525
G1 X52.829 Y101.866 E.29232
G1 X52.615 Y101.844 E.00675
G1 X52.41 Y101.789 E.00665
G1 X52.41 Y52.317 E1.55116
G1 X52.628 Y52.199 E.00777
G1 X52.829 Y52.134 E.00662
G1 X52.829 Y61.201 E.28429
G1 X52.993 Y61.038 E.00725
G1 X53.248 Y61.038 E.008
G1 X53.248 Y51.998 E.28344
G1 X53.667 Y51.863 E.0138
G1 X53.667 Y61.038 E.28768
G1 X54.086 Y61.038 E.01314
G1 X54.086 Y51.807 E.28943
G1 X54.505 Y51.75 E.01326
G1 X54.505 Y61.038 E.29122
G1 X54.924 Y61.038 E.01314
G1 X54.924 Y51.728 E.29191
G1 X55.343 Y51.747 E.01315
G1 X55.343 Y61.038 E.29131
G1 X55.762 Y61.038 E.01314
G1 X55.762 Y51.766 E.29072
G1 X56.181 Y51.853 E.01342
G1 X56.181 Y61.038 E.28799
G1 X56.6 Y61.038 E.01314
G1 X56.6 Y51.948 E.28501
G1 X56.864 Y52.009 E.0085
G1 X57.019 Y52.075 E.00528
G1 X57.019 Y61.038 E.28103
G1 X57.438 Y61.038 E.01314
G1 X57.438 Y52.254 E.27542
G1 X57.857 Y52.433 E.01429
G1 X57.857 Y61.038 E.2698
G1 X58.276 Y61.038 E.01314
G1 X58.276 Y52.71 E.26112
G1 X58.695 Y52.987 E.01575
G1 X58.695 Y61.038 E.25243
G1 X59.114 Y61.038 E.01314
G1 X59.114 Y53.369 E.24046
G1 X59.533 Y53.77 E.01818
G1 X59.533 Y61.038 E.22788
G1 X59.952 Y61.038 E.01314
G1 X59.952 Y54.343 E.20992
G1 X60.177 Y54.653 E.01201
G1 X60.371 Y55.057 E.01405
G1 X60.371 Y61.038 E.18753
G1 X60.79 Y61.038 E.01314
G1 X60.79 Y55.538 E.17245
G1 E-2.45 F4800
;WIPE_START
G1 F43200
G1 X60.79 Y61.038 E-.58056
G1 X60.371 Y61.038 E-.04423
G1 X60.371 Y57.01 E-.42521
;WIPE_END
G1 X51.991 Y101.851 F54000
G1 E3.5 F2400
G1 F1200
G1 X51.991 Y52.543 E1.54602
G1 X51.676 Y52.712 E.01121
G1 X51.572 Y52.795 E.00417
G1 X51.572 Y101.554 E1.5288
G1 X51.153 Y101.347 E.01465
G1 X51.153 Y53.13 E1.51181
G1 X50.831 Y53.387 E.01292
G1 X50.734 Y53.498 E.00462
G1 X50.734 Y101.14 E1.49378
G1 X50.636 Y101.091 E.00344
G1 X50.315 Y100.845 E.01268
G1 X50.315 Y53.979 E1.46945
G1 X50.121 Y54.202 E.00927
G1 X49.896 Y54.578 E.01374
G1 X49.896 Y100.524 E1.4406
G1 X49.775 Y100.431 E.00478
G1 X49.477 Y100.092 E.01415
G1 X49.477 Y55.37 E1.40223
G1 X49.188 Y56.143 E.02588
G1 X49.058 Y56.862 E.02291
G1 X49.058 Y99.6 E1.34002
G1 X48.777 Y99.16 E.01637
G1 X48.639 Y98.898 E.00928
G1 X48.639 Y57.899 E1.28549
G1 X48.22 Y57.955 E.01325
G1 X48.22 Y97.817 E1.24985
G1 X48.181 Y97.684 E.00435
G1 X47.802 Y97.609 E.01211
G1 X47.802 Y58.012 E1.24154
G1 X47.541 Y58.047 E.00826
G1 X47.383 Y58.099 E.00522
G1 X47.383 Y97.488 E1.23501
G1 X46.964 Y97.32 E.01415
G1 X46.964 Y58.235 E1.22548
G1 X46.545 Y58.371 E.01381
G1 X46.545 Y97.131 E1.21529
G1 X46.126 Y96.888 E.01519
G1 X46.126 Y58.59 E1.20081
G1 X45.707 Y58.815 E.01491
G1 X45.707 Y96.611 E1.18507
G1 X45.288 Y96.282 E.0167
G1 X45.288 Y59.112 E1.16544
G1 X44.869 Y59.445 E.01678
G1 X44.869 Y95.882 E1.14246
G1 X44.45 Y95.385 E.02038
G1 X44.45 Y87.937 E.23353
G1 X44.031 Y88.548 E.02323
G1 X44.031 Y94.767 E.19499
G1 X43.84 Y94.434 E.01204
G1 X43.612 Y93.882 E.01873
G1 X43.612 Y89.414 E.14009
G1 X43.557 Y89.537 E.00422
G1 X43.291 Y90.519 E.0319
G1 X43.193 Y91.413 E.0282
G1 X43.193 Y93.138 E.05409
G1 X44.45 Y87.285 F54000
G1 F1200
G1 X44.45 Y59.872 E.85952
G1 X44.031 Y60.352 E.01998
G1 X44.031 Y86.5 E.81985
G1 X43.612 Y85.799 E.02561
G1 X43.612 Y61.04 E.7763
G1 X43.604 Y61.053 E.00048
G1 X43.193 Y60.782 E.01544
G1 X43.193 Y73.369 E.39466
G1 X43 Y72.305 E.03391
G1 X43 Y71.133 E.03675
G1 X42.774 Y71.23 E.00771
G1 X42.774 Y60.529 E.33552
G1 X42.355 Y60.35 E.01429
G1 X42.355 Y71.409 E.34675
G1 X41.936 Y71.588 E.01429
G1 X41.936 Y60.17 E.358
G1 X41.517 Y60.064 E.01355
G1 X41.517 Y71.695 E.36468
G1 X41.098 Y71.79 E.01347
G1 X41.098 Y59.968 E.37067
G1 X40.828 Y59.907 E.00868
G1 X40.679 Y59.9 E.00468
G1 X40.679 Y71.859 E.37497
G1 X40.26 Y71.878 E.01315
G1 X40.26 Y59.881 E.37616
G1 X39.841 Y59.862 E.01315
G1 X39.841 Y71.896 E.37732
G1 X39.749 Y71.901 E.00289
G1 X39.422 Y71.856 E.01035
G1 X39.422 Y59.902 E.37481
G1 X39.003 Y59.959 E.01326
G1 X39.003 Y71.8 E.37127
G1 X38.678 Y71.756 E.01028
G1 X38.584 Y71.725 E.0031
G1 X38.584 Y60.033 E.36659
G1 X38.165 Y60.169 E.01381
G1 X38.165 Y71.589 E.35807
G1 X37.746 Y71.453 E.01381
G1 X37.746 Y60.306 E.34951
G1 X37.65 Y60.337 E.00316
G1 X37.327 Y60.51 E.01149
G1 X37.327 Y71.248 E.33668
G1 X36.908 Y71.023 E.01491
G1 X36.908 Y60.736 E.32254
G1 X36.698 Y60.849 E.00748
G1 X36.489 Y61.016 E.00839
G1 X36.489 Y70.743 E.30498
G1 X36.07 Y70.409 E.0168
G1 X36.07 Y61.35 E.28404
