; generated by PrusaSlicer 2.6.0+MacOS-arm64 on 2023-07-26 at 15:14:03 UTC

; 

; external perimeters extrusion width = 0.42mm
; perimeters extrusion width = 0.44mm
; infill extrusion width = 0.44mm
; solid infill extrusion width = 0.44mm
; top infill extrusion width = 0.40mm
; support material extrusion width = 0.36mm
; first layer extrusion width = 0.42mm

M201 X3500 Y3500 Z150 E5000 ; sets maximum accelerations, mm/sec^2
M203 X500 Y500 Z10 E60 ; sets maximum feedrates, mm / sec
M204 S3500 T1000 ; sets acceleration (S) and retract acceleration (R), mm/sec^2
M205 X8.00 Y8.00 Z0.40 E5.00 ; sets the jerk limits, mm/sec
M205 S0 T0 ; sets the minimum extruding and travel feed rate, mm/sec
;TYPE:Custom
G90 ; use absolute coordinates
M83 ; extruder relative mode
M104 S150 ; set temporary nozzle temp to prevent oozing during homing
M140 S60 ; set final bed temp
G4 S30 ; allow partial nozzle warmup
G28 ; home all axis
G1 Z50 F240
G1 X2.0 Y10 F3000
M104 S205 ; set final nozzle temp
M190 S60 ; wait for bed temp to stabilize
M109 S205 ; wait for nozzle temp to stabilize
G1 Z0.28 F240
G92 E0
G1 X2.0 Y140 E10 F1500 ; prime the nozzle
G1 X2.3 Y140 F5000
G92 E0
G1 X2.3 Y10 E10 F1200 ; prime the nozzle
G92 E0
G21 ; set units to millimeters
G90 ; use absolute coordinates
M83 ; use relative distances for extrusion
; Filament gcode
M107
;LAYER_CHANGE
;Z:0.2
;HEIGHT:0.2
;BEFORE_LAYER_CHANGE
G92 E0
;0.2


G1 E-3.5 F4800
G1 Z.2 F54000
;AFTER_LAYER_CHANGE
;0.2
G1 X23.039 Y23.039
G1 E3.5 F2400
M204 S3500
;TYPE:Skirt/Brim
;WIDTH:0.42
G1 F1200
G1 X23.255 Y22.822 E.0096
G1 X24.654 Y21.981 E.05118
G1 X25.643 Y21.833 E.03135
G1 X50.987 Y21.833 E.79464
G1 X52.464 Y22.173 E.04752
G1 X58.102 Y24.916 E.19659
G1 X58.766 Y25.342 E.02474
G1 X60.041 Y26.42 E.05235
G1 X60.547 Y26.979 E.02364
G1 X61.628 Y28.604 E.06119
G1 X62.292 Y30.293 E.0569
G1 X62.595 Y32.193 E.06033
G1 X62.631 Y39.765 E.23742
G1 X62.424 Y41.484 E.05429
G1 X55.787 Y62.023 E.67677
G1 X55.177 Y63.628 E.05384
G1 X54.598 Y64.606 E.03564
G1 X53.379 Y66.042 E.05906
G1 X52.642 Y66.69 E.03077
G1 X51.085 Y67.7 E.05819
G1 X49.983 Y68.163 E.03748
G1 X47.99 Y68.608 E.06403
G1 X47.195 Y68.688 E.02505
G1 X41.736 Y68.593 E.17119
G1 X40.258 Y68.224 E.04776
G1 X37.845 Y66.991 E.08496
G1 X36.828 Y66.193 E.04053
G1 X35.517 Y64.677 E.06284
G1 X21.547 Y43.911 E.78473
G1 X21.213 Y43.213 E.02426
G1 X19.512 Y38.153 E.16738
G1 X19.337 Y37.081 E.03406
G1 X19.337 Y28.139 E.28037
G1 X19.731 Y26.555 E.05118
G1 X20.327 Y25.751 E.03138
G1 X22.996 Y23.081 E.11837
G1 E-2.45 F4800
;WIPE_START
G1 F43200
G1 X23.255 Y22.822 E-.03866
G1 X24.654 Y21.981 E-.1723
G1 X25.643 Y21.833 E-.10556
G1 X32.592 Y21.833 E-.73348
;WIPE_END
G1 X25.154 Y26.21 F54000
G1 E3.5 F2400
G1 F1200
G1 X25.979 Y25.795 E.02896
G1 X27.063 Y25.514 E.03511
G1 X37.045 Y25.504 E.31298
G1 X38.099 Y25.733 E.03382
G1 X38.992 Y26.159 E.03102
G1 X39.81 Y26.87 E.03398
G1 X40.493 Y26.257 E.02878
G1 X41.484 Y25.75 E.0349
G1 X42.512 Y25.513 E.03308
G1 X49.364 Y25.5 E.21484
G1 X50.155 Y25.623 E.0251
G1 X51.629 Y26.322 E.05115
G1 X52.583 Y27.218 E.04104
G1 X52.745 Y27.437 E.00854
G1 X53.914 Y27.45 E.03666
G1 X54.96 Y27.619 E.03322
G1 X56.156 Y28.086 E.04026
G1 X57.326 Y28.93 E.04523
G1 X58.17 Y29.967 E.04192
G1 X58.73 Y31.213 E.04283
G1 X58.952 Y32.609 E.04432
G1 X58.976 Y38.949 E.19879
G1 X58.856 Y40.627 E.05275
G1 X58.247 Y42.261 E.05468
G1 X57.96 Y42.7 E.01645
G1 X56.921 Y43.817 E.04783
G1 X55.753 Y44.525 E.04282
G1 X54.487 Y44.907 E.04146
G1 X52.428 Y44.937 E.06457
G1 X52.404 Y59.974 E.47148
G1 X52.095 Y61.424 E.04648
G1 X51.399 Y62.702 E.04563
G1 X50.54 Y63.601 E.03899
G1 X49.569 Y64.269 E.03695
G1 X48.577 Y64.711 E.03405
G1 X47.125 Y64.933 E.04606
G1 X46.762 Y64.902 E.01142
G1 X42.263 Y64.884 E.14106
G1 X41.343 Y64.637 E.02987
G1 X40.76 Y64.335 E.02059
G1 X40.194 Y64.075 E.01953
G1 X39.132 Y63.248 E.0422
G1 X38.353 Y62.188 E.04125
G1 X37.813 Y60.859 E.04498
G1 X37.634 Y59.882 E.03114
G1 X37.635 Y59.542 E.01066
G1 X31.618 Y48.788 E.38637
G1 X29.438 Y44.953 E.13831
G1 X28.499 Y44.881 E.02953
G1 X27.181 Y44.404 E.04395
G1 X25.757 Y43.422 E.05424
G1 X24.973 Y42.475 E.03855
G1 X24.484 Y41.475 E.0349
G1 X24.121 Y39.932 E.0497
G1 X24.124 Y38.057 E.05879
G1 X23.863 Y37.775 E.01205
G1 X23.436 Y37.075 E.02571
G1 X23.015 Y35.628 E.04725
G1 X23.013 Y29.607 E.18878
G1 X23.343 Y28.363 E.04035
G1 X23.951 Y27.334 E.03747
G1 X25.11 Y26.251 E.04974
G1 X25.35 Y26.533 F54000
G1 F1200
G1 X26.094 Y26.155 E.02617
G1 X27.134 Y25.885 E.03369
G1 X37.025 Y25.881 E.31013
G1 X37.956 Y26.082 E.02986
G1 X38.805 Y26.488 E.02951
G1 X39.814 Y27.378 E.04219
G1 X40.688 Y26.581 E.03709
G1 X41.634 Y26.097 E.03332
G1 X42.574 Y25.885 E.03021
G1 X49.325 Y25.875 E.21167
G1 X50.019 Y25.976 E.02199
G1 X51.44 Y26.65 E.04931
G1 X52.308 Y27.477 E.03759
G1 X52.547 Y27.812 E.0129
G1 X53.895 Y27.827 E.04227
G1 X54.878 Y27.988 E.03123
G1 X55.995 Y28.428 E.03764
G1 X57.083 Y29.22 E.04219
G1 X57.861 Y30.185 E.03887
G1 X58.362 Y31.297 E.03824
G1 X58.575 Y32.625 E.04217
G1 X58.599 Y38.943 E.1981
G1 X58.482 Y40.573 E.05124
G1 X57.92 Y42.074 E.05025
G1 X57.672 Y42.457 E.01431
G1 X56.701 Y43.509 E.04489
G1 X55.621 Y44.171 E.03972
G1 X54.404 Y44.538 E.03986
G1 X52.051 Y44.563 E.07378
G1 X52.027 Y59.954 E.48257
G1 X51.75 Y61.268 E.04211
G1 X51.08 Y62.499 E.04394
G1 X50.31 Y63.302 E.03488
G1 X49.397 Y63.933 E.0348
G1 X48.492 Y64.343 E.03115
G1 X47.134 Y64.556 E.0431
G1 X46.778 Y64.525 E.0112
G1 X42.335 Y64.513 E.13931
G1 X41.497 Y64.293 E.02717
G1 X40.923 Y63.995 E.02028
G1 X40.406 Y63.762 E.01778
G1 X39.42 Y63.003 E.03901
G1 X38.671 Y61.983 E.03968
G1 X38.18 Y60.773 E.04094
G1 X38.009 Y59.833 E.02996
G1 X38.014 Y59.447 E.0121
G1 X31.946 Y48.602 E.38965
G1 X29.665 Y44.589 E.14473
G1 X28.601 Y44.517 E.03344
G1 X27.375 Y44.079 E.04082
G1 X25.993 Y43.127 E.05262
G1 X25.301 Y42.289 E.03408
G1 X24.846 Y41.368 E.03221
G1 X24.493 Y39.868 E.04832
G1 X24.502 Y37.907 E.06149
G1 X24.174 Y37.56 E.01497
G1 X23.772 Y36.9 E.02423
G1 X23.385 Y35.55 E.04403
G1 X23.384 Y29.678 E.18411
G1 X23.682 Y28.53 E.03719
G1 X24.23 Y27.589 E.03414
G1 X25.306 Y26.574 E.04638
G1 X25.547 Y26.855 F54000
G1 F1200
G1 X26.209 Y26.515 E.02333
G1 X27.206 Y26.256 E.0323
G1 X36.967 Y26.254 E.30605
G1 X37.815 Y26.433 E.02717
G1 X38.618 Y26.816 E.02789
G1 X39.589 Y27.684 E.04084
G1 X39.816 Y28.001 E.01222
G1 X40.037 Y27.687 E.01204
G1 X40.884 Y26.905 E.03615
G1 X41.784 Y26.444 E.03171
G1 X42.634 Y26.258 E.02728
G1 X49.288 Y26.25 E.20863
G1 X49.885 Y26.33 E.01889
G1 X51.25 Y26.977 E.04736
G1 X52.031 Y27.734 E.0341
G1 X52.347 Y28.187 E.01732
G1 X53.877 Y28.204 E.04798
G1 X54.796 Y28.356 E.02921
G1 X55.833 Y28.769 E.035
G1 X56.839 Y29.509 E.03916
G1 X57.551 Y30.401 E.03579
G1 X57.994 Y31.382 E.03375
G1 X58.198 Y32.641 E.03999
G1 X58.222 Y38.938 E.19744
G1 X58.108 Y40.518 E.04967
G1 X57.591 Y41.888 E.04591
G1 X57.382 Y42.215 E.01217
G1 X56.48 Y43.203 E.04195
G1 X55.488 Y43.818 E.0366
G1 X54.322 Y44.169 E.03818
G1 X51.675 Y44.188 E.083
G1 X51.65 Y59.934 E.49371
G1 X51.388 Y61.161 E.03934
G1 X50.762 Y62.295 E.04061
G1 X50.079 Y63.003 E.03084
G1 X49.224 Y63.598 E.03266
G1 X48.406 Y63.975 E.02824
G1 X47.143 Y64.178 E.04011
G1 X46.794 Y64.148 E.01098
G1 X42.406 Y64.142 E.13758
G1 X41.652 Y63.948 E.02441
G1 X41.085 Y63.654 E.02003
G1 X40.617 Y63.449 E.01602
G1 X39.672 Y62.721 E.0374
G1 X38.99 Y61.781 E.03641
G1 X38.548 Y60.686 E.03702
G1 X38.383 Y59.786 E.02869
G1 X38.394 Y59.354 E.01355
G1 X32.275 Y48.417 E.39294
G1 X29.891 Y44.225 E.15121
G1 X28.7 Y44.152 E.03741
G1 X27.568 Y43.754 E.03762
G1 X26.229 Y42.831 E.05099
G1 X25.629 Y42.101 E.02963
G1 X25.208 Y41.259 E.02952
G1 X24.865 Y39.804 E.04687
G1 X24.881 Y37.755 E.06425
G1 X24.485 Y37.345 E.01787
G1 X24.107 Y36.726 E.02274
G1 X23.755 Y35.473 E.04081
G1 X23.755 Y29.747 E.17953
G1 X24.023 Y28.694 E.03407
G1 X24.51 Y27.842 E.03077
G1 X25.503 Y26.897 E.04298
G1 X25.746 Y27.177 F54000
G1 F1200
G1 X26.325 Y26.874 E.02049
G1 X27.277 Y26.627 E.03084
G1 X36.946 Y26.631 E.30316
G1 X37.712 Y26.796 E.02457
G1 X38.429 Y27.143 E.02498
G1 X39.315 Y27.945 E.03747
G1 X39.817 Y28.713 E.02877
G1 X40.315 Y27.944 E.02873
G1 X41.08 Y27.228 E.03285
G1 X41.932 Y26.791 E.03002
G1 X42.692 Y26.631 E.02435
G1 X49.276 Y26.627 E.20644
G1 X49.806 Y26.699 E.01677
G1 X51.01 Y27.269 E.04177
G1 X51.755 Y27.991 E.03253
G1 X52.146 Y28.562 E.0217
G1 X53.857 Y28.58 E.05365
G1 X54.714 Y28.725 E.02725
G1 X55.631 Y29.088 E.03092
G1 X56.562 Y29.765 E.03609
G1 X57.219 Y30.581 E.03285
G1 X57.626 Y31.469 E.03063
G1 X57.821 Y32.658 E.03778
G1 X57.845 Y38.933 E.19675
G1 X57.745 Y40.411 E.04645
G1 X57.246 Y41.735 E.04436
G1 X57.093 Y41.973 E.00887
G1 X56.219 Y42.929 E.04061
G1 X55.312 Y43.483 E.03332
G1 X54.292 Y43.792 E.03342
G1 X51.298 Y43.814 E.09388
G1 X51.277 Y59.877 E.50364
G1 X51.043 Y61.006 E.03615
G1 X50.472 Y62.053 E.03739
G1 X49.848 Y62.704 E.02827
G1 X49.022 Y63.279 E.03156
G1 X48.274 Y63.621 E.02579
G1 X47.111 Y63.801 E.0369
G1 X46.815 Y63.771 E.00933
G1 X42.477 Y63.771 E.13601
G1 X41.768 Y63.588 E.02296
G1 X41.25 Y63.315 E.01836
G1 X40.79 Y63.113 E.01575
G1 X39.926 Y62.441 E.03432
G1 X39.31 Y61.581 E.03317
G1 X38.905 Y60.565 E.03429
G1 X38.758 Y59.74 E.02627
G1 X38.775 Y59.263 E.01497
G1 X32.603 Y48.232 E.39633
G1 X30.117 Y43.858 E.15775
G1 X28.797 Y43.787 E.04145
G1 X27.759 Y43.428 E.03444
G1 X26.501 Y42.57 E.04774
G1 X25.955 Y41.911 E.02683
G1 X25.569 Y41.149 E.02678
G1 X25.243 Y39.783 E.04403
G1 X25.259 Y37.6 E.06845
G1 X24.795 Y37.129 E.02073
G1 X24.443 Y36.552 E.02119
G1 X24.132 Y35.448 E.03596
G1 X24.132 Y29.772 E.17797
G1 X24.381 Y28.813 E.03107
G1 X24.791 Y28.095 E.02592
G1 X25.703 Y27.218 E.03967
G1 X25.947 Y27.497 F54000
G1 F1200
G1 X26.444 Y27.233 E.01765
G1 X27.302 Y27.004 E.02784
G1 X36.925 Y27.008 E.30172
G1 X37.608 Y27.159 E.02193
G1 X38.237 Y27.469 E.02199
G1 X39.041 Y28.205 E.03418
G1 X39.462 Y28.863 E.02449
G1 X39.677 Y29.557 E.02278
G1 X39.955 Y29.557 E.00872
G1 X40.165 Y28.874 E.0224
G1 X40.592 Y28.2 E.02502
G1 X41.276 Y27.551 E.02956
G1 X42.081 Y27.139 E.02835
G1 X42.748 Y27.004 E.02134
G1 X49.262 Y27.004 E.20424
G1 X49.725 Y27.069 E.01466
G1 X50.77 Y27.562 E.03623
G1 X51.478 Y28.248 E.03091
G1 X51.784 Y28.7 E.01711
G1 X51.881 Y28.937 E.00803
G1 X53.811 Y28.955 E.06052
G1 X54.596 Y29.084 E.02494
G1 X55.431 Y29.408 E.02808
G1 X56.286 Y30.023 E.03302
G1 X56.888 Y30.762 E.02989
G1 X57.258 Y31.557 E.02749
G1 X57.444 Y32.675 E.03554
G1 X57.468 Y38.928 E.19606
G1 X57.382 Y40.305 E.04326
G1 X56.9 Y41.582 E.0428
G1 X56.805 Y41.729 E.00549
G1 X55.96 Y42.654 E.03928
G1 X55.138 Y43.148 E.03007
G1 X54.262 Y43.415 E.02871
G1 X50.921 Y43.44 E.10476
G1 X50.903 Y59.822 E.51365
G1 X50.697 Y60.853 E.03297
G1 X50.181 Y61.812 E.03415
G1 X49.617 Y62.406 E.02568
G1 X48.82 Y62.96 E.03043
G1 X48.187 Y63.253 E.02187
G1 X47.124 Y63.424 E.03376
G1 X46.834 Y63.394 E.00914
G1 X42.547 Y63.4 E.13442
G1 X41.885 Y63.229 E.02144
G1 X41.416 Y62.976 E.01671
G1 X40.964 Y62.778 E.01547
G1 X40.181 Y62.162 E.03124
G1 X39.632 Y61.383 E.02988
G1 X39.264 Y60.446 E.03156
G1 X39.133 Y59.697 E.02384
G1 X39.157 Y59.174 E.01642
G1 X32.932 Y48.047 E.39977
G1 X30.342 Y43.491 E.16432
G1 X28.892 Y43.421 E.04552
G1 X27.948 Y43.101 E.03125
G1 X26.773 Y42.307 E.04446
G1 X26.28 Y41.719 E.02406
G1 X25.93 Y41.038 E.02401
G1 X25.62 Y39.763 E.04114
G1 X25.637 Y37.444 E.07271
G1 X25.105 Y36.913 E.02357
G1 X24.778 Y36.378 E.01966
G1 X24.509 Y35.422 E.03114
G1 X24.509 Y29.797 E.17637
G1 X24.738 Y28.936 E.02793
G1 X25.104 Y28.308 E.02279
G1 X25.903 Y27.538 E.03479
G1 X26.15 Y27.815 F54000
G1 F1200
G1 X26.566 Y27.59 E.01483
G1 X27.328 Y27.381 E.02477
G1 X36.904 Y27.385 E.30025
G1 X37.465 Y27.509 E.01801
G1 X38.006 Y27.768 E.01881
G1 X38.737 Y28.43 E.03092
G1 X39.129 Y29.043 E.02281
G1 X39.327 Y29.709 E.02179
G1 X39.343 Y34.536 E.15135
G1 X39.602 Y34.883 E.01358
G1 X39.87 Y35.536 E.02213
G1 X39.933 Y35.928 E.01245
G1 X39.914 Y36.582 E.02051
G1 X39.942 Y37.146 E.01771
G1 X39.891 Y37.572 E.01345
G1 X40.419 Y37.572 E.01656
G1 X40.43 Y36.609 E.0302
G1 X40.399 Y36.057 E.01733
G1 X40.417 Y35.895 E.00511
G1 X40.287 Y35.397 E.01614
G1 X40.303 Y29.717 E.17809
G1 X40.499 Y29.05 E.0218
G1 X40.871 Y28.455 E.022
G1 X41.476 Y27.872 E.02634
G1 X42.184 Y27.503 E.02503
G1 X42.768 Y27.382 E.0187
G1 X49.249 Y27.382 E.20321
G1 X49.644 Y27.438 E.01251
G1 X50.53 Y27.854 E.03069
G1 X51.201 Y28.504 E.02929
G1 X51.456 Y28.888 E.01445
G1 X51.615 Y29.312 E.0142
G1 X53.767 Y29.33 E.06748
G1 X54.481 Y29.443 E.02267
G1 X55.233 Y29.73 E.02524
G1 X56.011 Y30.283 E.02993
G1 X56.558 Y30.946 E.02695
G1 X56.891 Y31.646 E.0243
G1 X57.067 Y32.692 E.03326
G1 X57.091 Y38.914 E.19509
G1 X57.019 Y40.201 E.04042
G1 X56.571 Y41.398 E.04007
G1 X56.514 Y41.488 E.00334
G1 X55.7 Y42.379 E.03784
G1 X55.004 Y42.795 E.02542
G1 X54.23 Y43.038 E.02544
G1 X50.544 Y43.065 E.11558
G1 X50.53 Y59.769 E.52374
G1 X50.35 Y60.702 E.02979
G1 X49.889 Y61.573 E.0309
G1 X49.385 Y62.108 E.02305
G1 X48.617 Y62.642 E.02933
G1 X48.099 Y62.886 E.01795
G1 X47.137 Y63.046 E.03058
G1 X46.852 Y63.017 E.00898
G1 X42.615 Y63.028 E.13285
G1 X42.042 Y62.886 E.01851
G1 X41.582 Y62.637 E.0164
G1 X41.139 Y62.442 E.01518
G1 X40.438 Y61.885 E.02807
G1 X39.955 Y61.188 E.02659
G1 X39.622 Y60.329 E.02889
G1 X39.509 Y59.657 E.02137
G1 X39.54 Y59.086 E.01793
G1 X33.26 Y47.861 E.40329
G1 X30.567 Y43.125 E.17082
G1 X28.937 Y43.046 E.05117
G1 X28.137 Y42.773 E.0265
G1 X27.044 Y42.044 E.04119
G1 X26.583 Y41.493 E.02253
G1 X26.29 Y40.925 E.02004
G1 X25.997 Y39.741 E.03824
G1 X26.016 Y37.288 E.07691
G1 X25.388 Y36.663 E.02778
G1 X25.115 Y36.206 E.01669
G1 X24.886 Y35.396 E.02639
G1 X24.886 Y29.823 E.17474
G1 X25.095 Y29.059 E.02483
G1 X25.385 Y28.559 E.01812
G1 X26.107 Y27.857 E.03157
G1 X26.356 Y28.132 F54000
G1 F1200
G1 X26.691 Y27.946 E.01201
G1 X27.355 Y27.759 E.02163
G1 X36.884 Y27.762 E.29878
G1 X37.327 Y27.86 E.01423
G1 X37.775 Y28.067 E.01547
G1 X38.465 Y28.692 E.02919
G1 X38.777 Y29.18 E.01816
G1 X38.95 Y29.739 E.01835
G1 X38.966 Y34.667 E.15451
G1 X39.265 Y35.053 E.01531
G1 X39.502 Y35.621 E.0193
G1 X39.555 Y35.937 E.01005
G1 X39.536 Y36.586 E.02036
G1 X39.565 Y37.147 E.01761
G1 X39.514 Y37.53 E.01211
G1 X39.363 Y37.949 E.01396
G1 X40.954 Y37.949 E.04988
G1 X40.788 Y37.273 E.02183
G1 X40.807 Y36.606 E.02092
G1 X40.776 Y36.057 E.01724
G1 X40.802 Y35.871 E.00589
G1 X40.664 Y35.37 E.01629
G1 X40.672 Y29.797 E.17474
G1 X40.853 Y29.182 E.0201
G1 X41.151 Y28.708 E.01756
G1 X41.678 Y28.191 E.02315
G1 X42.29 Y27.865 E.02174
G1 X42.788 Y27.759 E.01596
G1 X49.234 Y27.759 E.20211
G1 X49.562 Y27.807 E.01039
G1 X50.291 Y28.148 E.02523
G1 X50.898 Y28.73 E.02637
G1 X51.128 Y29.076 E.01303
G1 X51.346 Y29.687 E.02034
G1 X53.723 Y29.704 E.07453
G1 X54.369 Y29.804 E.0205
G1 X55.037 Y30.053 E.02235
G1 X55.739 Y30.545 E.02688
G1 X56.23 Y31.133 E.02402
G1 X56.524 Y31.737 E.02106
G1 X56.69 Y32.709 E.03092
G1 X56.714 Y38.901 E.19415
G1 X56.655 Y40.097 E.03755
G1 X56.238 Y41.222 E.03762
G1 X55.48 Y42.072 E.03571
G1 X54.869 Y42.442 E.0224
G1 X54.144 Y42.67 E.02383
G1 X50.168 Y42.69 E.12467
G1 X50.156 Y59.718 E.5339
G1 X50.003 Y60.554 E.02665
G1 X49.595 Y61.335 E.02763
G1 X49.153 Y61.81 E.02034
G1 X48.416 Y62.322 E.02814
G1 X47.963 Y62.533 E.01567
G1 X47.15 Y62.668 E.02584
G1 X46.87 Y62.64 E.00882
G1 X42.683 Y62.657 E.13128
G1 X42.159 Y62.526 E.01694
G1 X41.751 Y62.299 E.01464
G1 X41.314 Y62.107 E.01497
G1 X40.697 Y61.61 E.02484
G1 X40.299 Y61.032 E.022
G1 X39.981 Y60.211 E.02761
G1 X39.884 Y59.618 E.01884
G1 X39.924 Y59 E.01942
G1 X33.589 Y47.676 E.40684
G1 X30.792 Y42.758 E.17739
G1 X28.982 Y42.67 E.05682
G1 X28.324 Y42.445 E.0218
G1 X27.315 Y41.78 E.03789
G1 X26.885 Y41.266 E.02101
G1 X26.65 Y40.812 E.01603
G1 X26.374 Y39.72 E.03532
G1 X26.394 Y37.133 E.08112
G1 X25.672 Y36.414 E.03195
G1 X25.453 Y36.038 E.01364
G1 X25.263 Y35.37 E.02178
G1 X25.263 Y29.85 E.17308
G1 X25.451 Y29.187 E.02161
G1 X25.696 Y28.774 E.01506
G1 X26.313 Y28.174 E.02698
G1 X26.565 Y28.446 F54000
G1 F1200
G1 X26.82 Y28.301 E.0092
G1 X27.383 Y28.136 E.01839
G1 X36.861 Y28.139 E.29718
G1 X37.221 Y28.222 E.01158
G1 X37.586 Y28.395 E.01266
G1 X38.192 Y28.953 E.02583
G1 X38.424 Y29.315 E.01348
