; generated by PrusaSlicer 2.6.0+MacOS-arm64 on 2023-07-28 at 23:53:56 UTC

; 

; external perimeters extrusion width = 0.42mm
; perimeters extrusion width = 0.44mm
; infill extrusion width = 0.44mm
; solid infill extrusion width = 0.44mm
; top infill extrusion width = 0.40mm
; support material extrusion width = 0.36mm
; first layer extrusion width = 0.42mm

M201 X3500 Y3500 Z150 E5000 ; sets maximum accelerations, mm/sec^2
M203 X500 Y500 Z10 E60 ; sets maximum feedrates, mm / sec
M204 S3500 T1000 ; sets acceleration (S) and retract acceleration (R), mm/sec^2
M205 X8.00 Y8.00 Z0.40 E5.00 ; sets the jerk limits, mm/sec
M205 S0 T0 ; sets the minimum extruding and travel feed rate, mm/sec
;TYPE:Custom
G90 ; use absolute coordinates
M83 ; extruder relative mode
M104 S150 ; set temporary nozzle temp to prevent oozing during homing
M140 S60 ; set final bed temp
G4 S30 ; allow partial nozzle warmup
G28 ; home all axis
G1 Z50 F240
G1 X2.0 Y10 F3000
M104 S205 ; set final nozzle temp
M190 S60 ; wait for bed temp to stabilize
M109 S205 ; wait for nozzle temp to stabilize
G28
G29
G1 Z0.28 F240
G92 E0
G1 X2.0 Y140 E10 F1500 ; prime the nozzle
G1 X2.3 Y140 F5000
G92 E0
G1 X2.3 Y10 E10 F1200 ; prime the nozzle
G92 E0
G21 ; set units to millimeters
G90 ; use absolute coordinates
M83 ; use relative distances for extrusion
; Filament gcode
M107
;LAYER_CHANGE
;Z:0.2
;HEIGHT:0.2
;BEFORE_LAYER_CHANGE
G92 E0
;0.2


G1 E-3.5 F4800
G1 Z.2 F54000
;AFTER_LAYER_CHANGE
;0.2
G1 X63.074 Y66.963
G1 E3.5 F2400
M204 S3500
;TYPE:Skirt/Brim
;WIDTH:0.42
G1 F1200
G1 X68.56 Y62.847 E.21504
G1 X82.407 Y55.835 E.48666
G1 X84.09 Y55.345 E.05496
G1 X85.228 Y55.192 E.036
G1 X86.979 Y55.218 E.05491
G1 X88.7 Y55.558 E.055
G1 X90.33 Y56.201 E.05494
G1 X91.818 Y57.126 E.05494
G1 X93.116 Y58.301 E.0549
G1 X94.182 Y59.689 E.05487
G1 X94.981 Y61.244 E.05482
G1 X95.489 Y62.916 E.05479
G1 X95.701 Y64.864 E.06144
G1 X95.783 Y71.856 E.21924
G1 X95.391 Y77.186 E.16757
G1 X95.286 Y77.783 E.01901
G1 X88.977 Y99.951 E.72266
G1 X88.17 Y101.5 E.05476
G1 X87.499 Y102.423 E.03578
G1 X86.275 Y103.669 E.05476
G1 X85.802 Y104.046 E.01897
G1 X84.316 Y104.962 E.05473
G1 X83.266 Y105.41 E.03579
G1 X81.577 Y105.851 E.05473
G1 X79.427 Y105.977 E.06753
G1 X73.969 Y105.534 E.17169
G1 X67.938 Y104.075 E.19455
G1 X66.635 Y103.616 E.04332
G1 X65.249 Y102.901 E.0489
G1 X64.699 Y102.526 E.02087
G1 X63.843 Y101.81 E.03499
G1 X62.81 Y100.694 E.04768
G1 X61.877 Y99.342 E.05151
G1 X61.441 Y98.394 E.03272
G1 X60.956 Y96.564 E.05936
G1 X59.874 Y87.421 E.28867
G1 X59.856 Y73.626 E.43253
G1 X60.117 Y71.901 E.0547
G1 X60.681 Y70.25 E.0547
G1 X61.53 Y68.727 E.05467
G1 X61.886 Y68.238 E.01896
G1 X63.033 Y67.006 E.05278
; printing object KlackEnderPro2 Probe Retainer v0.7.stl id:0 copy 0
G1 E-2.45 F4800
;WIPE_START
G1 F43200
G1 X68.56 Y62.847 E-.73013
G1 X71.263 Y61.478 E-.31987
;WIPE_END
G1 X69.632 Y67.864 F54000
G1 E3.5 F2400
;TYPE:Support material
G1 F1200
G1 X69.632 Y70.395 E.07936
G1 X69.903 Y70.666 E.01202
G1 X75.944 Y70.666 E.18941
G1 X75.944 Y87.222 E.5191
G1 X76.215 Y87.493 E.01202
G1 X78.152 Y87.493 E.06073
G1 X78.423 Y87.943 E.01647
G1 X78.792 Y89.037 E.0362
G1 X78.896 Y89.994 E.03018
G1 X79.685 Y89.887 E.02496
G1 X80.826 Y89.938 E.03581
G1 X81.939 Y90.192 E.03579
G1 X82.988 Y90.64 E.03576
G1 X83.941 Y91.269 E.0358
G1 X84.767 Y92.058 E.03582
G1 X85.438 Y92.981 E.03578
G1 X85.934 Y94.01 E.03582
G1 X86.237 Y95.111 E.0358
G1 X86.34 Y96.248 E.0358
G1 X86.238 Y97.385 E.03579
G1 X85.934 Y98.486 E.03581
G1 X85.438 Y99.515 E.03582
G1 X84.767 Y100.438 E.03578
G1 X83.942 Y101.227 E.03579
G1 X82.989 Y101.856 E.0358
G1 X81.939 Y102.305 E.03581
G1 X80.826 Y102.559 E.03579
G1 X79.685 Y102.61 E.03581
G1 X78.554 Y102.456 E.03579
G1 X77.468 Y102.103 E.0358
G1 X77.209 Y101.964 E.00922
G1 X76.851 Y102.083 E.01183
G1 X75.734 Y102.249 E.03541
G1 X74.625 Y102.222 E.03478
G1 X73.559 Y102.011 E.03407
G1 X72.564 Y101.634 E.03336
G1 X71.667 Y101.119 E.03243
G1 X71.464 Y100.958 E.00812
G1 X70.897 Y101.032 E.01793
G1 X69.781 Y101.001 E.035
G1 X68.765 Y100.801 E.03247
G1 X67.8 Y100.446 E.03224
G1 X66.867 Y99.936 E.03334
G1 X66.011 Y99.22 E.03499
G1 X65.348 Y98.466 E.03148
G1 X64.691 Y97.475 E.03728
G1 X64.299 Y96.088 E.04519
G1 X64.233 Y95.458 E.01986
G1 X64.166 Y95.158 E.00964
G1 X64.097 Y93.982 E.03694
G1 X64.175 Y93.243 E.0233
G1 X64.363 Y92.548 E.02257
G1 X64.52 Y92.141 E.01368
G1 X64.772 Y91.582 E.01923
G1 X64.99 Y91.216 E.01336
G1 X64.441 Y90.588 E.02615
G1 X63.856 Y89.608 E.03579
G1 X63.455 Y88.54 E.03577
G1 X63.251 Y87.416 E.03582
G1 X63.251 Y86.275 E.03578
G1 X63.455 Y85.151 E.03582
G1 X63.856 Y84.083 E.03577
G1 X63.932 Y83.955 E.00467
G1 X63.856 Y83.828 E.00464
G1 X63.455 Y82.76 E.03577
G1 X63.251 Y81.636 E.03582
G1 X63.251 Y80.495 E.03578
G1 X63.455 Y79.371 E.03582
G1 X63.856 Y78.303 E.03577
G1 X64.244 Y77.653 E.02374
G1 X63.834 Y76.965 E.02511
G1 X63.434 Y75.895 E.03582
G1 X63.232 Y74.772 E.03578
G1 X63.234 Y73.631 E.03578
G1 X63.439 Y72.508 E.03579
G1 X63.841 Y71.441 E.03575
G1 X64.427 Y70.462 E.03577
G1 X65.178 Y69.604 E.03575
G1 X66.07 Y68.894 E.03575
G1 X67.074 Y68.354 E.03574
G1 X68.158 Y68.002 E.03574
G1 X69.288 Y67.849 E.03575
G1 X69.575 Y67.862 E.00901
G1 E-2.45 F4800
;WIPE_START
G1 F43200
G1 X69.288 Y67.849 E-.03033
G1 X68.158 Y68.002 E-.12037
G1 X67.074 Y68.354 E-.1203
G1 X66.07 Y68.894 E-.12033
G1 X65.178 Y69.604 E-.12034
G1 X64.427 Y70.462 E-.12036
G1 X63.841 Y71.441 E-.12044
G1 X63.439 Y72.508 E-.12036
G1 X63.234 Y73.631 E-.1205
G1 X63.233 Y74.168 E-.05667
;WIPE_END
G1 X85.859 Y98.12 F54000
G1 E3.5 F2400
G1 F1200
G1 X85.859 Y95.014 E.09739
G1 X85.615 Y94.13 E.02875
G1 X85.44 Y93.767 E.01264
G1 X85.44 Y98.73 E.15561
G1 X85.146 Y99.34 E.02123
G1 X85.021 Y99.512 E.00667
G1 X85.021 Y92.984 E.20468
G1 X84.602 Y92.408 E.02233
G1 X84.602 Y100.089 E.24083
G1 X84.511 Y100.214 E.00485
G1 X84.183 Y100.528 E.01424
G1 X84.183 Y91.969 E.26836
G1 X83.764 Y91.569 E.01816
G1 X83.764 Y100.928 E.29344
G1 X83.345 Y101.215 E.01592
G1 X83.345 Y91.282 E.31144
G1 X82.926 Y91.005 E.01575
G1 X82.926 Y101.491 E.32878
G1 X82.827 Y101.556 E.00371
G1 X82.507 Y101.693 E.01091
G1 X82.507 Y90.803 E.34145
G1 X82.088 Y90.624 E.01429
G1 X82.088 Y101.872 E.35267
G1 X81.834 Y101.981 E.00867
G1 X81.669 Y102.018 E.0053
G1 X81.669 Y90.478 E.36183
G1 X81.25 Y90.383 E.01347
G1 X81.25 Y102.114 E.36782
G1 X80.831 Y102.21 E.01348
G1 X80.831 Y90.287 E.37384
G1 X80.412 Y90.259 E.01317
G1 X80.412 Y102.238 E.37559
G1 X79.993 Y102.256 E.01315
G1 X79.993 Y90.24 E.37675
G1 X79.7 Y90.227 E.0092
G1 X79.574 Y90.244 E.00399
G1 X79.574 Y102.252 E.3765
G1 X79.155 Y102.196 E.01325
G1 X79.155 Y90.301 E.37296
G1 X78.736 Y90.358 E.01326
G1 X78.736 Y102.139 E.36938
G1 X78.63 Y102.124 E.00336
G1 X78.317 Y102.023 E.01031
G1 X78.317 Y88.691 E.41802
G1 X78.113 Y88.086 E.02002
G1 X77.96 Y87.832 E.0093
G1 X77.898 Y87.832 E.00194
G1 X77.898 Y101.886 E.44065
G1 X77.602 Y101.79 E.00976
G1 X77.479 Y101.724 E.00438
G1 X77.479 Y87.832 E.43557
G1 X77.06 Y87.832 E.01314
G1 X77.06 Y101.656 E.43344
G1 X76.772 Y101.751 E.00951
G1 X76.641 Y101.771 E.00416
G1 X76.641 Y87.832 E.43705
G1 X76.222 Y87.832 E.01314
G1 X76.222 Y101.833 E.43899
G1 X75.803 Y101.896 E.01329
G1 X75.803 Y87.561 E.44946
G1 X75.605 Y87.363 E.00878
G1 X75.605 Y71.005 E.51289
G1 X75.384 Y71.005 E.00693
G1 X75.384 Y101.901 E.96872
G1 X74.965 Y101.891 E.01314
G1 X74.965 Y71.005 E.96841
G1 X74.546 Y71.005 E.01314
G1 X74.546 Y101.86 E.96744
G1 X74.127 Y101.777 E.01339
G1 X74.127 Y71.005 E.96483
G1 X73.708 Y71.005 E.01314
G1 X73.708 Y101.694 E.96223
G1 X73.289 Y101.546 E.01393
G1 X73.289 Y71.005 E.95759
G1 X72.87 Y71.005 E.01314
G1 X72.87 Y101.387 E.95261
G1 X72.709 Y101.327 E.00539
G1 X72.451 Y101.178 E.00934
G1 X72.451 Y71.005 E.94605
G1 X72.033 Y71.005 E.01311
G1 X72.033 Y100.938 E.93853
G1 X71.858 Y100.837 E.00634
G1 X71.614 Y100.643 E.00977
G1 X71.614 Y71.005 E.92928
G1 X71.195 Y71.005 E.01314
G1 X71.195 Y100.651 E.92953
G1 X70.776 Y100.692 E.0132
G1 X70.776 Y71.005 E.93082
G1 X70.357 Y71.005 E.01314
G1 X70.357 Y100.686 E.93063
G1 X69.938 Y100.668 E.01315
G1 X69.938 Y71.005 E.93006
G1 X69.762 Y71.005 E.00552
G1 X69.519 Y70.761 E.0108
G1 X69.519 Y100.603 E.93567
G1 X69.1 Y100.521 E.01339
G1 X69.1 Y68.217 E1.01287
G1 X68.681 Y68.274 E.01326
G1 X68.681 Y100.408 E1.00754
G1 X68.262 Y100.254 E.014
G1 X68.262 Y68.331 E1.00092
G1 X67.843 Y68.461 E.01376
G1 X67.843 Y100.083 E.99149
G1 X67.424 Y99.854 E.01497
G1 X67.424 Y68.597 E.98004
G1 X67.208 Y68.668 E.00713
G1 X67.005 Y68.777 E.00722
G1 X67.005 Y99.61 E.96675
G1 X66.586 Y99.259 E.01714
G1 X66.586 Y69.002 E.94869
G1 X66.257 Y69.179 E.01171
G1 X66.167 Y69.251 E.00361
G1 X66.167 Y98.884 E.92912
G1 X65.748 Y98.406 E.01993
G1 X65.748 Y69.584 E.90369
G1 X65.413 Y69.851 E.01343
G1 X65.329 Y69.947 E.004
G1 X65.329 Y97.823 E.87403
G1 X65.003 Y97.332 E.01848
G1 X64.91 Y97.002 E.01075
G1 X64.91 Y92.102 E.15364
G1 X64.686 Y92.654 E.01868
G1 X64.509 Y93.305 E.02115
G1 X64.491 Y93.481 E.00555
G1 X64.491 Y96.143 E.08347
G1 X64.91 Y90.867 F54000
G1 F1200
G1 X64.91 Y70.426 E.64091
G1 X64.703 Y70.663 E.00987
G1 X64.491 Y71.016 E.01291
G1 X64.491 Y90.01 E.59554
G1 X64.163 Y89.461 E.02005
G1 X64.072 Y89.218 E.00814
G1 X64.072 Y84.472 E.14881
G1 X63.783 Y85.242 E.02579
G1 X63.653 Y85.959 E.02285
G1 X63.653 Y88.585 E.08234
G1 X64.072 Y83.859 F54000
G1 F1200
G1 X64.072 Y78.692 E.16201
G1 X63.783 Y79.462 E.02579
G1 X63.653 Y80.179 E.02285
G1 X63.653 Y82.805 E.08234
G1 X64.072 Y77.034 F54000
G1 F1200
G1 X64.072 Y71.79 E.16442
G1 X63.767 Y72.599 E.02711
G1 X63.653 Y73.224 E.01992
G1 X63.653 Y75.997 E.08695
G1 E-2.45 F4800
;WIPE_START
G1 F43200
G1 X63.653 Y73.224 E-.29271
G1 X63.767 Y72.599 E-.06706
G1 X64.072 Y71.79 E-.09126
G1 X64.072 Y77.034 E-.55353
;WIPE_END
G1 E-.04544 F4800
G1 X91.205 Y72.517 F54000
G1 E3.5 F2400
G1 F1200
G1 X91.703 Y73.539 E.03565
G1 X92.012 Y74.634 E.03567
G1 X92.12 Y75.768 E.03572
G1 X92.025 Y76.904 E.03574
G1 X91.728 Y78.007 E.03582
G1 X91.239 Y79.039 E.03581
G1 X90.572 Y79.968 E.03586
G1 X89.749 Y80.764 E.0359
G1 X88.796 Y81.399 E.03591
G1 X87.743 Y81.854 E.03597
G1 X86.626 Y82.112 E.03594
G1 X85.481 Y82.167 E.03594
G1 X84.343 Y82.014 E.036
G1 X83.252 Y81.661 E.03595
G1 X82.242 Y81.117 E.03597
G1 X81.345 Y80.401 E.03599
G1 X80.592 Y79.535 E.03598
G1 X80.007 Y78.55 E.03592
G1 X79.868 Y78.175 E.01254
G1 X79.868 Y76.773 E.04396
G1 X83.746 Y72.318 E.18519
G1 X91.058 Y72.318 E.22926
G1 X91.171 Y72.472 E.00599
G1 X91.724 Y77.369 F54000
G1 F1200
G1 X91.724 Y75.195 E.06816
G1 X91.677 Y74.697 E.01568
G1 X91.384 Y73.66 E.03379
G1 X91.305 Y73.499 E.00562
G1 X91.305 Y78.106 E.14445
G1 X90.945 Y78.866 E.02637
G1 X90.886 Y78.948 E.00317
G1 X90.886 Y72.658 E.19722
G1 X90.467 Y72.657 E.01314
G1 X90.467 Y79.532 E.21556
G1 X90.314 Y79.745 E.00822
G1 X90.049 Y80.002 E.01157
G1 X90.049 Y72.657 E.2303
G1 X89.63 Y72.657 E.01314
G1 X89.63 Y80.407 E.243
G1 X89.535 Y80.498 E.00412
G1 X89.211 Y80.714 E.01221
G1 X89.211 Y72.657 E.25262
G1 X88.792 Y72.657 E.01314
G1 X88.792 Y80.994 E.2614
G1 X88.633 Y81.1 E.00599
G1 X88.373 Y81.212 E.00888
G1 X88.373 Y72.657 E.26824
G1 X87.954 Y72.657 E.01314
G1 X87.954 Y81.393 E.27391
G1 X87.637 Y81.53 E.01083
G1 X87.535 Y81.554 E.00329
G1 X87.535 Y72.657 E.27896
G1 X87.116 Y72.657 E.01314
G1 X87.116 Y81.651 E.282
G1 X86.697 Y81.748 E.01348
G1 X86.697 Y72.657 E.28504
G1 X86.278 Y72.657 E.01314
G1 X86.278 Y81.789 E.28633
G1 X85.859 Y81.809 E.01315
G1 X85.859 Y72.657 E.28695
G1 X85.44 Y72.657 E.01314
G1 X85.44 Y81.819 E.28727
G1 X85.021 Y81.763 E.01325
G1 X85.021 Y72.657 E.28551
G1 X84.602 Y72.657 E.01314
G1 X84.602 Y81.707 E.28376
G1 X84.419 Y81.682 E.00579
G1 X84.183 Y81.606 E.00777
G1 X84.183 Y72.657 E.28059
G1 X83.901 Y72.657 E.00884
G1 X83.764 Y72.814 E.00653
G1 X83.764 Y81.47 E.2714
G1 X83.345 Y81.325 E.0139
G1 X83.345 Y73.295 E.25178
G1 X82.926 Y73.777 E.02002
G1 X82.926 Y81.1 E.22961
G1 X82.507 Y80.874 E.01493
G1 X82.507 Y74.258 E.20744
G1 X82.088 Y74.74 E.02002
G1 X82.088 Y80.56 E.18248
G1 X81.669 Y80.225 E.01682
G1 X81.669 Y75.221 E.1569
G1 X81.25 Y75.702 E.02
G1 X81.25 Y79.774 E.12767
G1 X80.831 Y79.273 E.02048
G1 X80.831 Y76.184 E.09685
G1 X80.412 Y76.665 E.02
G1 X80.412 Y78.899 E.07005
G1 E-2.45 F4800
;WIPE_START
G1 F43200
G1 X80.412 Y76.665 E-.23581
G1 X80.831 Y76.184 E-.06733
G1 X80.831 Y79.273 E-.32606
G1 X81.25 Y79.774 E-.06894
G1 X81.25 Y76.441 E-.35186
;WIPE_END
G1 X86.244 Y58.565 F54000
G1 E3.5 F2400
G1 F1200
G1 X86.823 Y58.592 E.01817
G1 X87.941 Y58.849 E.03597
G1 X88.994 Y59.303 E.03595
G1 X89.948 Y59.937 E.03592
G1 X90.772 Y60.732 E.0359
G1 X91.44 Y61.661 E.03588
G1 X91.931 Y62.694 E.03586
G1 X92.229 Y63.797 E.03582
G1 X92.325 Y64.934 E.03578
G1 X92.217 Y66.069 E.03575
G1 X91.908 Y67.165 E.0357
G1 X91.409 Y68.188 E.03569
G1 X91.259 Y68.394 E.00799
G1 X80.658 Y68.394 E.33239
G1 X80.234 Y67.691 E.02574
G1 X79.868 Y66.732 E.03218
G1 X79.868 Y65.664 E.03349
G1 X79.617 Y65.413 E.01113
G1 X79.612 Y64.358 E.03308
G1 X79.812 Y63.231 E.03589
G1 X80.21 Y62.158 E.03588
G1 X80.794 Y61.173 E.0359
G1 X81.546 Y60.307 E.03596
G1 X82.441 Y59.591 E.03594
G1 X83.451 Y59.047 E.03597
G1 X84.542 Y58.692 E.03597
G1 X85.679 Y58.539 E.03597
G1 X86.187 Y58.562 E.01594
G1 X91.724 Y67.155 F54000
G1 F1200
G1 X91.724 Y63.23 E.12307
G1 X91.611 Y62.812 E.01358
G1 X91.305 Y62.168 E.02236
G1 X91.305 Y67.627 E.17116
G1 X91.087 Y68.054 E.01503
G1 X90.886 Y68.054 E.0063
G1 X90.886 Y61.472 E.20637
G1 X90.467 Y60.91 E.02198
G1 X90.467 Y68.054 E.224
G1 X90.049 Y68.054 E.01311
G1 X90.049 Y60.506 E.23666
G1 X89.734 Y60.203 E.0137
G1 X89.63 Y60.133 E.00393
G1 X89.63 Y68.054 E.24836
G1 X89.211 Y68.054 E.01314
G1 X89.211 Y59.855 E.25707
G1 X88.792 Y59.585 E.01563
G1 X88.792 Y68.054 E.26554
G1 X88.373 Y68.054 E.01314
G1 X88.373 Y59.405 E.27118
G1 X87.954 Y59.224 E.01431
G1 X87.954 Y68.054 E.27686
G1 X87.535 Y68.054 E.01314
G1 X87.535 Y59.104 E.28062
G1 X87.116 Y59.007 E.01348
G1 X87.116 Y68.054 E.28366
G1 X86.697 Y68.054 E.01314
G1 X86.697 Y58.925 E.28623
G1 X86.278 Y58.906 E.01315
G1 X86.278 Y68.054 E.28683
G1 X85.859 Y68.054 E.01314
G1 X85.859 Y58.887 E.28742
G1 X85.694 Y58.879 E.00518
G1 X85.44 Y58.913 E.00804
G1 X85.44 Y68.054 E.28661
G1 X85.021 Y68.054 E.01314
G1 X85.021 Y58.97 E.28482
G1 X84.602 Y59.029 E.01327
G1 X84.602 Y68.054 E.28297
G1 X84.183 Y68.054 E.01314
G1 X84.183 Y59.165 E.27871
G1 X83.764 Y59.302 E.01382
G1 X83.764 Y68.054 E.27441
G1 X83.345 Y68.054 E.01314
G1 X83.345 Y59.489 E.26855
G1 X82.926 Y59.715 E.01493
G1 X82.926 Y68.054 E.26146
G1 X82.507 Y68.054 E.01314
G1 X82.507 Y59.973 E.25337
G1 X82.088 Y60.309 E.01684
G1 X82.088 Y68.054 E.24284
G1 X81.669 Y68.054 E.01314
G1 X81.669 Y60.684 E.23108
G1 X81.25 Y61.166 E.02002
G1 X81.25 Y68.054 E.21597
G1 X80.849 Y68.054 E.01257
G1 X80.831 Y68.024 E.0011
G1 X80.831 Y61.776 E.1959
G1 X80.517 Y62.305 E.01929
G1 X80.412 Y62.589 E.00949
G1 X80.412 Y67.206 E.14476
G1 X80.207 Y66.669 E.01802
G1 X80.207 Y65.524 E.0359
G1 X79.993 Y65.309 E.00951
G1 X79.993 Y63.23 E.06519
G1 E-2.45 F4800
;WIPE_START
G1 F43200
G1 X79.993 Y65.309 E-.21945
G1 X80.207 Y65.524 E-.03202
G1 X80.207 Y66.669 E-.12086
G1 X80.412 Y67.206 E-.06067
G1 X80.412 Y62.589 E-.48735
G1 X80.517 Y62.305 E-.03196
G1 X80.831 Y61.776 E-.06493
G1 X80.831 Y62.086 E-.03276
;WIPE_END
G1 X77.443 Y69.942 F54000
G1 E3.5 F2400
;TYPE:Perimeter
;WIDTH:0.419999
G1 F1200
G1 X77.402 Y69.731 E.00674
G1 X77.209 Y69.431 E.01118
G1 X76.82 Y69.186 E.01441
G1 X76.527 Y69.139 E.0093
G1 X71.158 Y69.139 E.16834
G1 X71.158 Y66.92 E.06958
G1 X78.342 Y66.92 E.22525
G1 X78.342 Y68.977 E.0645
G1 X78.41 Y69.328 E.01121
G1 X78.603 Y69.628 E.01118
G1 X78.962 Y69.863 E.01345
G1 X79.285 Y69.92 E.01028
G1 X91.342 Y69.92 E.37804
G1 X91.342 Y70.791 E.02731
G1 X83.48 Y70.791 E.24651
G1 X83.072 Y70.884 E.01312
G1 X82.769 Y71.115 E.01195
G1 X78.573 Y75.936 E.20039
G1 X78.342 Y76.555 E.02072
G1 X78.342 Y85.967 E.29511
G1 X77.47 Y85.967 E.02734
G1 X77.47 Y70.082 E.49806
G1 X77.454 Y70.001 E.00259
G1 X77.072 Y70.051 F54000
G1 F1200
G1 X77.069 Y69.918 E.00417
G1 X76.936 Y69.691 E.00825
G1 X76.703 Y69.544 E.00864
G1 X76.527 Y69.516 E.00559
G1 X70.781 Y69.516 E.18016
