; generated by PrusaSlicer 2.6.0+MacOS-arm64 on 2023-07-28 at 20:48:28 UTC

; 

; external perimeters extrusion width = 0.42mm
; perimeters extrusion width = 0.44mm
; infill extrusion width = 0.44mm
; solid infill extrusion width = 0.44mm
; top infill extrusion width = 0.40mm
; support material extrusion width = 0.36mm
; first layer extrusion width = 0.42mm

M201 X3500 Y3500 Z150 E5000 ; sets maximum accelerations, mm/sec^2
M203 X500 Y500 Z10 E60 ; sets maximum feedrates, mm / sec
M204 S3500 T1000 ; sets acceleration (S) and retract acceleration (R), mm/sec^2
M205 X8.00 Y8.00 Z0.40 E5.00 ; sets the jerk limits, mm/sec
M205 S0 T0 ; sets the minimum extruding and travel feed rate, mm/sec
;TYPE:Custom
G90 ; use absolute coordinates
M83 ; extruder relative mode
M104 S150 ; set temporary nozzle temp to prevent oozing during homing
M140 S60 ; set final bed temp
G4 S30 ; allow partial nozzle warmup
G28 ; home all axis
G1 Z50 F240
G1 X2.0 Y10 F3000
M104 S205 ; set final nozzle temp
M190 S60 ; wait for bed temp to stabilize
M109 S205 ; wait for nozzle temp to stabilize
G1 Z0.28 F240
G92 E0
G1 X2.0 Y140 E10 F1500 ; prime the nozzle
G1 X2.3 Y140 F5000
G92 E0
G1 X2.3 Y10 E10 F1200 ; prime the nozzle
G92 E0
G21 ; set units to millimeters
G90 ; use absolute coordinates
M83 ; use relative distances for extrusion
; Filament gcode
M107
;LAYER_CHANGE
;Z:0.2
;HEIGHT:0.2
;BEFORE_LAYER_CHANGE
G92 E0
;0.2


G1 E-3.5 F4800
G1 Z.2 F54000
;AFTER_LAYER_CHANGE
;0.2
G1 X63.598 Y61.709
G1 E3.5 F2400
M204 S3500
;TYPE:Skirt/Brim
;WIDTH:0.42
G1 F1200
G1 X64.929 Y60.579 E.05474
G1 X66.624 Y59.612 E.06119
G1 X81.321 Y52.826 E.50756
G1 X83.369 Y52.192 E.06722
G1 X84.501 Y52.039 E.03582
G1 X86.247 Y52.063 E.05475
G1 X87.96 Y52.398 E.05473
G1 X89.949 Y53.216 E.06743
G1 X99.195 Y58.559 E.33483
G1 X100.792 Y59.671 E.06102
G1 X102.016 Y60.916 E.05474
G1 X102.997 Y62.359 E.05471
G1 X103.493 Y63.388 E.03582
G1 X104.009 Y65.055 E.05471
G1 X104.22 Y66.788 E.05474
G1 X104.051 Y68.959 E.06828
G1 X97.849 Y96.92 E.89801
G1 X97.411 Y98.473 E.05059
G1 X95.67 Y103.135 E.15603
G1 X95.054 Y104.448 E.04547
G1 X94.072 Y105.893 E.05478
G1 X92.848 Y107.139 E.05476
G1 X92.374 Y107.517 E.01901
G1 X91.42 Y108.146 E.03583
G1 X89.835 Y108.882 E.05479
G1 X88.145 Y109.323 E.05476
G1 X86.403 Y109.455 E.05478
G1 X85.798 Y109.427 E.01899
G1 X84.075 Y109.138 E.05478
G1 X82.432 Y108.546 E.05476
G1 X81.19 Y107.863 E.04444
G1 X72.711 Y102.353 E.31706
G1 X71.431 Y101.251 E.05296
G1 X70.314 Y99.875 E.05557
G1 X69.985 Y99.344 E.01959
G1 X69.26 Y97.788 E.05382
G1 X61.173 Y71.211 E.87103
G1 X60.823 Y69.105 E.06694
G1 X60.823 Y67.963 E.03581
G1 X61.081 Y66.237 E.05472
G1 X61.242 Y65.653 E.01899
G1 X61.906 Y64.039 E.05472
G1 X62.491 Y63.059 E.03579
G1 X63.56 Y61.756 E.05284
; printing object KlackEnderPro2 Probe Retainer v0.4.stl id:0 copy 0
G1 E-2.45 F4800
;WIPE_START
G1 F43200
G1 X64.929 Y60.579 E-.19057
G1 X66.624 Y59.612 E-.20599
G1 X72.244 Y57.017 E-.65344
;WIPE_END
G1 X85.444 Y55.407 F54000
G1 E3.5 F2400
;TYPE:Support material
G1 F1200
G1 X86.095 Y55.437 E.02043
G1 X87.209 Y55.691 E.03583
G1 X88.259 Y56.14 E.03581
G1 X89.212 Y56.769 E.0358
G1 X90.037 Y57.558 E.03579
G1 X90.708 Y58.482 E.0358
G1 X91.203 Y59.511 E.0358
G1 X91.507 Y60.612 E.03581
G1 X91.582 Y61.452 E.02644
G1 X91.985 Y61.235 E.01435
G1 X93.071 Y60.882 E.0358
G1 X94.202 Y60.729 E.03578
G1 X95.343 Y60.78 E.03581
G1 X96.456 Y61.034 E.03579
G1 X97.506 Y61.483 E.03581
G1 X98.458 Y62.112 E.03578
G1 X99.284 Y62.901 E.03582
G1 X99.955 Y63.825 E.0358
G1 X100.45 Y64.853 E.03577
G1 X100.754 Y65.954 E.03581
G1 X100.856 Y67.091 E.03579
G1 X100.754 Y68.228 E.03579
G1 X100.45 Y69.328 E.03578
G1 X99.955 Y70.357 E.0358
G1 X99.284 Y71.281 E.0358
G1 X98.458 Y72.07 E.03582
G1 X97.506 Y72.699 E.03578
G1 X96.456 Y73.147 E.03579
G1 X95.443 Y73.378 E.03258
G1 X95.528 Y74.322 E.02972
G1 X95.427 Y75.457 E.03573
G1 X95.124 Y76.557 E.03577
G1 X94.63 Y77.585 E.03576
G1 X94.365 Y77.95 E.01414
G1 X94.601 Y78.802 E.02772
G1 X94.703 Y79.939 E.03579
G1 X94.601 Y81.077 E.03582
G1 X94.297 Y82.178 E.03581
G1 X94.033 Y82.727 E.0191
G1 X94.211 Y83.095 E.01282
G1 X94.517 Y84.199 E.03592
G1 X94.62 Y85.339 E.03589
G1 X94.517 Y86.48 E.03592
G1 X94.25 Y87.444 E.03136
G1 X94.374 Y87.879 E.01418
G1 X94.48 Y89.023 E.03602
G1 X94.374 Y90.167 E.03602
G1 X94.059 Y91.271 E.036
G1 X93.779 Y91.834 E.01972
G1 X94.248 Y92.805 E.03381
G1 X94.553 Y93.908 E.03588
G1 X94.655 Y95.048 E.03589
G1 X94.552 Y96.188 E.03589
G1 X94.247 Y97.292 E.03591
G1 X93.749 Y98.322 E.03587
G1 X93.075 Y99.247 E.03589
G1 X92.885 Y99.427 E.00821
G1 X92.911 Y99.715 E.00907
G1 X92.81 Y100.853 E.03582
G1 X92.506 Y101.954 E.03581
G1 X92.011 Y102.984 E.03583
G1 X91.339 Y103.909 E.03585
G1 X90.514 Y104.698 E.03579
G1 X89.56 Y105.328 E.03585
G1 X88.509 Y105.777 E.03583
G1 X87.395 Y106.031 E.03583
G1 X86.253 Y106.081 E.03584
G1 X85.121 Y105.927 E.03582
G1 X84.035 Y105.573 E.03581
G1 X83.03 Y105.031 E.0358
G1 X82.138 Y104.318 E.0358
G1 X81.387 Y103.458 E.0358
G1 X80.803 Y102.477 E.0358
G1 X80.403 Y101.408 E.03579
G1 X80.228 Y100.439 E.03087
G1 X80.003 Y100.526 E.00756
G1 X78.877 Y100.74 E.03594
G1 X77.73 Y100.743 E.03596
G1 X76.601 Y100.536 E.03599
G1 X75.53 Y100.124 E.03598
G1 X74.551 Y99.522 E.03603
G1 X73.7 Y98.75 E.03603
G1 X73.005 Y97.833 E.03608
G1 X72.49 Y96.805 E.03605
G1 X72.174 Y95.699 E.03607
G1 X72.067 Y94.553 E.03609
G1 X72.172 Y93.407 E.03608
G1 X72.487 Y92.3 E.03609
G1 X73.056 Y91.16 E.03995
G1 X72.426 Y90.107 E.03847
G1 X72.025 Y89.037 E.03583
G1 X71.821 Y87.913 E.03582
G1 X71.821 Y86.771 E.03581
G1 X72.025 Y85.647 E.03582
G1 X72.411 Y84.618 E.03446
G1 X72.028 Y83.598 E.03416
G1 X71.824 Y82.474 E.03582
G1 X71.824 Y81.332 E.03581
G1 X72.028 Y80.208 E.03582
G1 X72.299 Y79.487 E.02415
G1 X72.035 Y78.784 E.02355
G1 X71.831 Y77.659 E.03585
G1 X71.831 Y76.517 E.03581
G1 X72.036 Y75.392 E.03585
G1 X72.321 Y74.633 E.02542
G1 X71.397 Y74.844 E.02972
G1 X70.257 Y74.896 E.03578
G1 X69.125 Y74.742 E.03582
G1 X68.04 Y74.389 E.03577
G1 X67.034 Y73.848 E.03581
G1 X66.142 Y73.137 E.03577
G1 X65.391 Y72.277 E.0358
G1 X64.805 Y71.297 E.0358
G1 X64.404 Y70.228 E.0358
G1 X64.2 Y69.105 E.03579
G1 X64.2 Y67.963 E.03581
G1 X64.404 Y66.84 E.03579
G1 X64.805 Y65.771 E.0358
G1 X65.39 Y64.791 E.03579
G1 X66.142 Y63.931 E.03582
G1 X67.034 Y63.219 E.03579
G1 X68.04 Y62.678 E.03581
G1 X69.125 Y62.325 E.03577
G1 X70.257 Y62.172 E.03582
G1 X71.397 Y62.223 E.03578
G1 X72.51 Y62.477 E.03579
G1 X72.666 Y62.544 E.00532
G1 X73.018 Y61.955 E.02151
G1 X73.77 Y61.095 E.03582
G1 X74.663 Y60.384 E.03579
G1 X75.669 Y59.843 E.03581
G1 X76.756 Y59.491 E.03582
G1 X77.887 Y59.338 E.03578
G1 X79.027 Y59.39 E.03578
G1 X79.325 Y59.458 E.00958
G1 X79.503 Y58.986 E.01582
G1 X80.088 Y58.005 E.03581
G1 X80.839 Y57.145 E.0358
G1 X81.732 Y56.433 E.03581
G1 X82.737 Y55.892 E.03579
G1 X83.823 Y55.539 E.0358
G1 X84.955 Y55.385 E.03582
G1 X85.387 Y55.405 E.01356
G1 X82.311 Y65.394 F54000
G1 F1200
G1 X90.569 Y65.394 E.25892
G1 X90.84 Y65.664 E.01199
G1 X90.84 Y70.395 E.14834
G1 X90.569 Y70.666 E.01202
G1 X84.481 Y70.666 E.19088
G1 X84.501 Y95.66 E.78367
G1 X84.476 Y95.832 E.00545
G1 X84.397 Y96.061 E.0076
G1 X84.213 Y96.327 E.01014
G1 X84.037 Y96.499 E.00772
G1 X83.751 Y96.541 E.00906
G1 X83.667 Y96.499 E.00294
G1 X83.102 Y96.528 E.01774
G1 X82.646 Y96.505 E.01432
G1 X82.305 Y96.379 E.0114
G1 X82.14 Y96.21 E.00741
G1 X82 Y95.682 E.01713
G1 X81.996 Y81.6 E.44153
G1 X82.04 Y65.663 E.4997
G1 X82.271 Y65.433 E.01022
G1 E-2.45 F4800
;WIPE_START
G1 F43200
G1 X82.04 Y65.663 E-.03441
G1 X82.013 Y75.284 E-1.01559
;WIPE_END
G1 X100.104 Y69.656 F54000
G1 E3.5 F2400
G1 F1200
G1 X100.104 Y64.917 E.14859
G1 X99.685 Y64.047 E.03028
G1 X99.685 Y70.135 E.19088
G1 X99.266 Y70.728 E.02277
G1 X99.266 Y63.454 E.22807
G1 X99.027 Y63.125 E.01275
G1 X98.847 Y62.953 E.00781
G1 X98.847 Y71.229 E.25949
G1 X98.428 Y71.629 E.01816
G1 X98.428 Y62.553 E.28457
G1 X98.246 Y62.379 E.00789
G1 X98.009 Y62.222 E.00891
G1 X98.009 Y71.96 E.30533
G1 X97.59 Y72.236 E.01573
G1 X97.59 Y61.946 E.32264
G1 X97.344 Y61.783 E.00925
G1 X97.171 Y61.709 E.0059
G1 X97.171 Y72.472 E.33747
G1 X96.752 Y72.652 E.0143
G1 X96.752 Y61.53 E.34872
G1 X96.333 Y61.355 E.01424
G1 X96.333 Y72.827 E.3597
G1 X95.914 Y72.923 E.01348
G1 X95.914 Y61.259 E.36572
G1 X95.495 Y61.163 E.01348
G1 X95.495 Y73.018 E.37171
G1 X95.079 Y73.113 E.01338
G1 X95.188 Y74.322 E.03806
G1 X95.076 Y75.451 E.03557
G1 X95.076 Y61.108 E.44971
G1 X94.657 Y61.089 E.01315
G1 X94.657 Y76.744 E.49085
G1 X94.337 Y77.41 E.02317
G1 X94.238 Y77.546 E.00527
G1 X94.238 Y61.071 E.51656
G1 X93.819 Y61.124 E.01324
G1 X93.819 Y90.874 E.93279
G1 X94.039 Y90.104 E.02511
G1 X94.139 Y89.023 E.03404
G1 X94.039 Y87.942 E.03404
G1 X93.897 Y87.445 E.01621
G1 X94.181 Y86.419 E.03338
G1 X94.238 Y85.788 E.01987
G1 X94.238 Y83.83 E.06139
G1 E-2.45 F4800
;WIPE_START
G1 F43200
G1 X94.238 Y85.788 E-.20668
G1 X94.181 Y86.419 E-.06688
G1 X93.897 Y87.445 E-.11237
G1 X94.039 Y87.942 E-.05456
G1 X94.139 Y89.023 E-.11459
G1 X94.039 Y90.104 E-.11459
G1 X93.819 Y90.874 E-.08453
G1 X93.819 Y88.072 E-.2958
;WIPE_END
G1 X94.238 Y96.687 F54000
G1 E3.5 F2400
G1 F1200
G1 X94.238 Y94.2 E.07798
G1 X94.217 Y93.969 E.00727
G1 X93.929 Y92.925 E.03396
G1 X93.819 Y92.698 E.00791
G1 X93.819 Y97.397 E.14733
G1 X93.457 Y98.147 E.02611
G1 X93.4 Y98.224 E.003
G1 X93.4 Y61.18 E1.16149
G1 X93.147 Y61.215 E.00801
G1 X92.981 Y61.268 E.00546
G1 X92.981 Y99.087 E1.18579
G1 X94.238 Y81.754 F54000
G1 F1200
G1 X94.238 Y78.128 E.11369
G1 X92.562 Y101.111 F54000
G1 F1200
G1 X92.562 Y61.405 E1.24495
G1 X92.143 Y61.541 E.01381
G1 X92.143 Y101.926 E1.26624
G1 X91.724 Y102.797 E.03031
G1 X91.724 Y61.761 E1.28665
G1 X91.305 Y61.986 E.01491
G1 X91.305 Y103.378 E1.29782
G1 X91.083 Y103.685 E.01188
G1 X90.886 Y103.872 E.00852
G1 X90.886 Y70.828 E1.03607
G1 X90.71 Y71.005 E.00783
G1 X90.467 Y71.005 E.00762
G1 X90.467 Y104.273 E1.04309
G1 X90.301 Y104.432 E.00721
G1 X90.049 Y104.599 E.00948
G1 X90.049 Y71.005 E1.05332
G1 X89.63 Y71.005 E.01314
G1 X89.63 Y104.875 E1.06197
G1 X89.398 Y105.028 E.00871
G1 X89.211 Y105.108 E.00638
G1 X89.211 Y71.005 E1.06928
G1 X88.792 Y71.005 E.01314
G1 X88.792 Y105.287 E1.07489
G1 X88.373 Y105.46 E.01421
G1 X88.373 Y71.005 E1.08031
G1 X87.954 Y71.005 E.01314
G1 X87.954 Y105.555 E1.08329
G1 X87.535 Y105.651 E.01348
G1 X87.535 Y71.005 E1.0863
G1 X87.116 Y71.005 E.01314
G1 X87.116 Y105.703 E1.08793
G1 X86.697 Y105.722 E.01315
G1 X86.697 Y71.005 E1.08853
G1 X86.278 Y71.005 E.01314
G1 X86.278 Y105.74 E1.08909
G1 X85.859 Y105.685 E.01325
G1 X85.859 Y71.005 E1.08737
G1 X85.44 Y71.005 E.01314
G1 X85.44 Y105.628 E1.08558
G1 X85.197 Y105.595 E.00769
G1 X85.021 Y105.537 E.00581
G1 X85.021 Y71.005 E1.08273
G1 X84.821 Y71.005 E.00627
G1 X84.841 Y95.671 E.77339
G1 X84.802 Y95.927 E.00812
G1 X84.707 Y96.203 E.00915
G1 X84.602 Y96.368 E.00613
G1 X84.602 Y105.401 E.28322
G1 X84.183 Y105.264 E.01382
G1 X84.183 Y96.821 E.26472
G1 X83.764 Y96.882 E.01328
G1 X83.764 Y105.041 E.25582
G1 X83.345 Y104.815 E.01493
G1 X83.345 Y96.856 E.24955
G1 X82.926 Y96.86 E.01314
G1 X82.926 Y104.514 E.23999
G1 X82.507 Y104.179 E.01682
G1 X82.507 Y96.818 E.2308
G1 X82.123 Y96.679 E.0128
G1 X82.088 Y96.642 E.0016
G1 X82.088 Y103.745 E.22271
G1 X81.669 Y103.264 E.02
G1 X81.669 Y56.917 E1.45318
G1 X81.919 Y56.718 E.01002
G1 X82.088 Y56.627 E.00602
G1 X82.088 Y65.136 E.26679
G1 X82.171 Y65.054 E.00366
G1 X82.507 Y65.054 E.01054
G1 X82.507 Y56.401 E.27131
G1 X82.926 Y56.187 E.01475
G1 X82.926 Y65.054 E.27802
G1 X83.345 Y65.054 E.01314
G1 X83.345 Y56.051 E.28228
G1 X83.764 Y55.915 E.01381
G1 X83.764 Y65.054 E.28655
G1 X84.183 Y65.054 E.01314
G1 X84.183 Y55.833 E.28912
G1 X84.602 Y55.776 E.01326
G1 X84.602 Y65.054 E.29091
G1 X85.021 Y65.054 E.01314
G1 X85.021 Y55.728 E.29241
G1 X85.44 Y55.747 E.01315
G1 X85.44 Y65.054 E.29181
G1 X85.859 Y65.054 E.01314
G1 X85.859 Y55.766 E.29122
G1 X86.05 Y55.774 E.00599
G1 X86.278 Y55.826 E.00733
G1 X86.278 Y65.054 E.28934
G1 X86.697 Y65.054 E.01314
G1 X86.697 Y55.922 E.28633
G1 X87.116 Y56.02 E.01349
G1 X87.116 Y65.054 E.28325
G1 X87.535 Y65.054 E.01314
G1 X87.535 Y56.199 E.27764
G1 X87.954 Y56.378 E.01429
G1 X87.954 Y65.054 E.27203
G1 X88.373 Y65.054 E.01314
G1 X88.373 Y56.621 E.26441
G1 X88.792 Y56.898 E.01575
G1 X88.792 Y65.054 E.25573
G1 X89.211 Y65.054 E.01314
G1 X89.211 Y57.237 E.2451
G1 X89.63 Y57.638 E.01818
G1 X89.63 Y65.054 E.23252
G1 X90.049 Y65.054 E.01314
G1 X90.049 Y58.151 E.21644
G1 X90.416 Y58.657 E.0196
G1 X90.467 Y58.765 E.00374
G1 X90.467 Y65.054 E.19719
G1 X90.71 Y65.054 E.00762
G1 X90.886 Y65.231 E.00783
G1 X90.886 Y59.244 E.18772
G1 E-2.45 F4800
;WIPE_START
G1 F43200
G1 X90.886 Y65.231 E-.63196
G1 X90.71 Y65.054 E-.02635
G1 X90.467 Y65.054 E-.02565
G1 X90.467 Y61.586 E-.36604
;WIPE_END
G1 X81.25 Y102.896 F54000
G1 E3.5 F2400
G1 F1200
G1 X81.25 Y57.252 E1.43114
G1 X81.074 Y57.392 E.00705
G1 X80.831 Y57.67 E.01158
G1 X80.831 Y101.584 E1.37689
G1 X80.731 Y101.318 E.00891
G1 X80.489 Y99.973 E.04285
G1 X80.412 Y100.002 E.00258
G1 X80.412 Y58.15 E1.31224
G1 X79.993 Y58.826 E.02494
G1 X79.993 Y100.166 E1.29619
G1 X79.909 Y100.199 E.00283
G1 X79.574 Y100.262 E.01069
G1 X79.574 Y59.762 E1.26985
G1 X79.539 Y59.855 E.00312
G1 X79.155 Y59.767 E.01235
G1 X79.155 Y100.342 E1.2722
G1 X78.845 Y100.401 E.00989
G1 X78.736 Y100.401 E.00342
G1 X78.736 Y59.716 E1.27565
G1 X78.317 Y59.697 E.01315
G1 X78.317 Y100.402 E1.27628
G1 X77.898 Y100.403 E.01314
G1 X77.898 Y59.679 E1.27687
G1 X77.479 Y59.735 E.01325
G1 X77.479 Y100.352 E1.27352
G1 X77.06 Y100.275 E.01336
G1 X77.06 Y59.792 E1.26932
G1 X76.831 Y59.823 E.00725
G1 X76.641 Y59.884 E.00626
G1 X76.641 Y100.187 E1.26367
G1 X76.222 Y100.026 E.01407
G1 X76.222 Y60.02 E1.25436
G1 X75.803 Y60.156 E.01381
G1 X75.803 Y99.865 E1.24505
G1 X75.681 Y99.818 E.0041
G1 X75.384 Y99.636 E.01092
G1 X75.384 Y60.381 E1.23081
G1 X74.965 Y60.607 E.01493
G1 X74.965 Y99.378 E1.21564
G1 X74.756 Y99.249 E.0077
G1 X74.546 Y99.059 E.00888
G1 X74.546 Y60.911 E1.1961
G1 X74.127 Y61.245 E.0168
G1 X74.127 Y98.679 E1.17372
G1 X73.951 Y98.519 E.00746
G1 X73.708 Y98.199 E.0126
G1 X73.708 Y61.682 E1.14496
G1 X73.289 Y62.163 E.02
G1 X73.289 Y97.644 E1.11248
G1 X72.87 Y96.806 E.02938
G1 X72.87 Y92.292 E.14153
G1 X72.805 Y92.423 E.00459
G1 X72.507 Y93.469 E.0341
G1 X72.451 Y94.075 E.01908
G1 X72.451 Y96.052 E.06199
G1 X72.87 Y90.519 F54000
G1 F1200
G1 X72.87 Y62.864 E.8671
G1 X72.806 Y62.973 E.00396
G1 X72.451 Y62.821 E.01211
G1 X72.451 Y74.256 E.35854
G1 X72.033 Y74.351 E.01344
G1 X72.033 Y62.717 E.36478
G1 X71.614 Y62.621 E.01348
G1 X71.614 Y74.447 E.3708
G1 X71.351 Y74.507 E.00846
G1 X71.195 Y74.514 E.0049
G1 X71.195 Y62.554 E.375
G1 X70.776 Y62.535 E.01315
G1 X70.776 Y74.532 E.37616
G1 X70.357 Y74.551 E.01315
G1 X70.357 Y62.516 E.37735
G1 X69.938 Y62.558 E.0132
G1 X69.938 Y74.51 E.37475
G1 X69.519 Y74.453 E.01326
G1 X69.519 Y62.615 E.37117
G1 X69.201 Y62.658 E.01006
G1 X69.1 Y62.691 E.00333
G1 X69.1 Y74.377 E.36641
G1 X68.681 Y74.241 E.01381
G1 X68.681 Y62.827 E.35788
G1 X68.262 Y62.963 E.01381
G1 X68.262 Y74.105 E.34935
G1 X68.174 Y74.076 E.00291
G1 X67.843 Y73.898 E.01178
G1 X67.843 Y63.17 E.33637
G1 X67.424 Y63.395 E.01491
G1 X67.424 Y73.673 E.32226
G1 X67.222 Y73.564 E.0072
G1 X67.005 Y73.391 E.0087
G1 X67.005 Y63.677 E.30458
G1 X66.586 Y64.011 E.0168
G1 X66.586 Y73.057 E.28363
G1 X66.377 Y72.89 E.00839
G1 X66.167 Y72.65 E.01
G1 X66.167 Y64.418 E.25811
G1 X65.748 Y64.898 E.01998
G1 X65.748 Y72.17 E.22801
G1 X65.666 Y72.077 E.00389
G1 X65.329 Y71.512 E.02063
G1 X65.329 Y65.556 E.18675
G1 X65.112 Y65.919 E.01326
G1 X64.91 Y66.457 E.01802
G1 X64.91 Y71.093 E.14536
G1 E-2.45 F4800
;WIPE_START
G1 F43200
G1 X64.91 Y66.457 E-.48936
G1 X65.112 Y65.919 E-.06066
G1 X65.329 Y65.556 E-.04464
G1 X65.329 Y69.87 E-.45534
;WIPE_END
G1 X72.451 Y89.691 F54000
G1 E3.5 F2400
G1 F1200
G1 X72.451 Y85.476 E.13216
G1 X72.774 Y84.618 E.02875
G1 X72.451 Y83.76 E.02875
G1 X72.451 Y80.045 E.11648
G1 X72.661 Y79.487 E.01869
G1 X72.451 Y78.928 E.01872
G1 X72.451 Y74.769 E.1304
G1 E-2.45 F4800
;WIPE_START
G1 F43200
G1 X72.451 Y78.928 E-.43901
G1 X72.661 Y79.487 E-.06303
