; generated by PrusaSlicer 2.6.0+MacOS-arm64 on 2023-07-29 at 09:17:26 UTC

; 

; external perimeters extrusion width = 0.42mm
; perimeters extrusion width = 0.44mm
; infill extrusion width = 0.44mm
; solid infill extrusion width = 0.44mm
; top infill extrusion width = 0.40mm
; support material extrusion width = 0.36mm
; first layer extrusion width = 0.42mm

M201 X3500 Y3500 Z150 E5000 ; sets maximum accelerations, mm/sec^2
M203 X500 Y500 Z10 E60 ; sets maximum feedrates, mm / sec
M204 S3500 T1000 ; sets acceleration (S) and retract acceleration (R), mm/sec^2
M205 X8.00 Y8.00 Z0.40 E5.00 ; sets the jerk limits, mm/sec
M205 S0 T0 ; sets the minimum extruding and travel feed rate, mm/sec
;TYPE:Custom
G90 ; use absolute coordinates
M83 ; extruder relative mode
M104 S150 ; set temporary nozzle temp to prevent oozing during homing
M140 S60 ; set final bed temp
G4 S30 ; allow partial nozzle warmup
G28 ; home all axis
G1 Z50 F240
G1 X2.0 Y10 F3000
M104 S205 ; set final nozzle temp
M190 S60 ; wait for bed temp to stabilize
M109 S205 ; wait for nozzle temp to stabilize
G28
G29
G1 Z0.28 F240
G92 E0
G1 X2.0 Y140 E10 F1500 ; prime the nozzle
G1 X2.3 Y140 F5000
G92 E0
G1 X2.3 Y10 E10 F1200 ; prime the nozzle
G92 E0
G21 ; set units to millimeters
G90 ; use absolute coordinates
M83 ; use relative distances for extrusion
; Filament gcode
M107
;LAYER_CHANGE
;Z:0.2
;HEIGHT:0.2
;BEFORE_LAYER_CHANGE
G92 E0
;0.2


G1 E-3.5 F4800
G1 Z.2 F54000
;AFTER_LAYER_CHANGE
;0.2
G1 X27.414 Y60.565
G1 E3.5 F2400
M204 S3500
;TYPE:Skirt/Brim
;WIDTH:0.42
G1 F1200
G1 X35.414 Y56.944 E.27533
G1 X37.095 Y56.454 E.0549
G1 X38.229 Y56.301 E.03588
G1 X39.978 Y56.325 E.05484
G1 X40.58 Y56.407 E.01905
G1 X42.273 Y56.851 E.05488
G1 X43.324 Y57.302 E.03586
G1 X44.812 Y58.222 E.05485
G1 X45.285 Y58.601 E.019
G1 X46.508 Y59.851 E.05483
G1 X47.488 Y61.299 E.05482
G1 X48.193 Y62.898 E.05479
G1 X48.6 Y64.596 E.05475
G1 X48.712 Y65.979 E.0435
G1 X48.866 Y77.078 E.34803
G1 X48.648 Y79.154 E.06545
G1 X48.196 Y80.69 E.0502
G1 X40.848 Y97.802 E.58391
G1 X38.663 Y101.698 E.14006
G1 X37.595 Y103.078 E.05471
G1 X36.77 Y103.867 E.03579
G1 X35.345 Y104.875 E.05473
G1 X34.812 Y105.162 E.01898
G1 X33.187 Y105.799 E.05473
G1 X31.76 Y106.111 E.0458
G1 X25.64 Y106.915 E.19354
G1 X24.211 Y106.992 E.04487
G1 X22.475 Y106.811 E.05473
G1 X20.799 Y106.324 E.05472
G1 X20.243 Y106.086 E.01896
G1 X18.732 Y105.212 E.05473
G1 X17.402 Y104.081 E.05474
G1 X16.65 Y103.222 E.0358
G1 X15.631 Y101.615 E.05966
G1 X13.429 Y97.506 E.14617
G1 X12.682 Y95.445 E.06873
G1 X12.424 Y93.737 E.05416
G1 X12.345 Y78.03 E.49249
G1 X12.642 Y73.911 E.12948
G1 X12.971 Y72.434 E.04745
G1 X13.192 Y71.807 E.02084
G1 X14.012 Y70.212 E.05623
G1 X14.88 Y69.062 E.04518
G1 X18.715 Y64.812 E.17949
G1 X19.826 Y64 E.04315
G1 X27.36 Y60.59 E.25929
; printing object KlackEnderPro2 Probe Retainer v0.8.stl id:0 copy 0
G1 E-2.45 F4800
;WIPE_START
G1 F43200
G1 X35.414 Y56.944 E-.9332
G1 X36.476 Y56.634 E-.1168
;WIPE_END
G1 X39.288 Y59.675 F54000
G1 E3.5 F2400
;TYPE:Support material
G1 F1200
G1 X39.825 Y59.699 E.01685
G1 X40.941 Y59.955 E.0359
G1 X41.993 Y60.406 E.03589
G1 X42.947 Y61.038 E.03588
G1 X43.772 Y61.83 E.03586
G1 X44.442 Y62.756 E.03584
G1 X44.935 Y63.787 E.03583
G1 X45.236 Y64.889 E.03582
G1 X45.335 Y66.026 E.03578
G1 X45.229 Y67.163 E.0358
G1 X44.923 Y68.261 E.03574
G1 X44.426 Y69.287 E.03575
G1 X44.188 Y69.613 E.01266
G1 X33.733 Y69.613 E.32781
G1 X33.237 Y68.787 E.03021
G1 X32.833 Y67.72 E.03577
G1 X32.626 Y66.597 E.0358
G1 X32.623 Y65.455 E.03581
G1 X32.824 Y64.33 E.03583
G1 X33.223 Y63.259 E.03584
G1 X33.808 Y62.276 E.03587
G1 X34.559 Y61.413 E.03587
G1 X35.452 Y60.698 E.03587
G1 X36.46 Y60.155 E.0359
G1 X37.548 Y59.801 E.03587
G1 X38.682 Y59.647 E.03588
G1 X39.232 Y59.672 E.01726
G1 X44.953 Y67.523 F54000
G1 F1200
G1 X44.953 Y65.55 E.06186
G1 X44.9 Y64.949 E.01892
G1 X44.615 Y63.906 E.0339
G1 X44.534 Y63.735 E.00593
G1 X44.534 Y68.286 E.14269
G1 X44.115 Y69.138 E.02977
G1 X44.115 Y62.883 E.19612
G1 X43.696 Y62.304 E.02241
G1 X43.696 Y69.273 E.21851
G1 X43.277 Y69.273 E.01314
G1 X43.277 Y61.825 E.23353
G1 X42.858 Y61.423 E.01821
G1 X42.858 Y69.273 E.24613
G1 X42.439 Y69.273 E.01314
G1 X42.439 Y61.108 E.25601
G1 X42.02 Y60.831 E.01575
G1 X42.02 Y69.273 E.26469
G1 X41.601 Y69.273 E.01314
G1 X41.601 Y60.607 E.27172
G1 X41.182 Y60.427 E.0143
G1 X41.182 Y69.273 E.27736
G1 X40.763 Y69.273 E.01314
G1 X40.763 Y60.262 E.28253
G1 X40.344 Y60.166 E.01348
G1 X40.344 Y69.273 E.28554
G1 X39.925 Y69.273 E.01314
G1 X39.925 Y60.07 E.28855
G1 X39.78 Y60.037 E.00466
G1 X39.506 Y60.024 E.0086
G1 X39.506 Y69.273 E.29
G1 X39.087 Y69.273 E.01314
G1 X39.087 Y60.005 E.29059
G1 X38.668 Y59.992 E.01314
G1 X38.668 Y69.273 E.291
G1 X38.249 Y69.273 E.01314
G1 X38.249 Y60.048 E.28924
G1 X37.83 Y60.105 E.01326
G1 X37.83 Y69.273 E.28746
G1 X37.411 Y69.273 E.01314
G1 X37.411 Y60.202 E.28441
G1 X36.992 Y60.339 E.01382
G1 X36.992 Y69.273 E.28012
G1 X36.573 Y69.273 E.01314
G1 X36.573 Y60.479 E.27573
G1 X36.154 Y60.705 E.01493
G1 X36.154 Y69.273 E.26864
G1 X35.735 Y69.273 E.01314
G1 X35.735 Y60.931 E.26156
G1 X35.64 Y60.982 E.00338
G1 X35.316 Y61.242 E.01303
G1 X35.316 Y69.273 E.25181
G1 X34.897 Y69.273 E.01314
G1 X34.897 Y61.577 E.2413
G1 X34.795 Y61.659 E.0041
G1 X34.478 Y62.022 E.01511
G1 X34.478 Y69.273 E.22735
G1 X34.059 Y69.273 E.01314
G1 X34.059 Y62.516 E.21186
G1 X33.64 Y63.221 E.02571
G1 X33.64 Y68.799 E.17489
G1 X33.543 Y68.638 E.00589
G1 X33.221 Y67.787 E.02853
G1 X33.221 Y63.749 E.12661
G1 E-2.45 F4800
;WIPE_START
G1 F43200
G1 X33.221 Y67.787 E-.42623
G1 X33.543 Y68.638 E-.09604
G1 X33.64 Y68.799 E-.01984
G1 X33.64 Y63.987 E-.50789
;WIPE_END
G1 X44.58 Y73.863 F54000
G1 E3.5 F2400
G1 F1200
G1 X45.078 Y74.889 E.03576
G1 X45.384 Y75.989 E.0358
G1 X45.49 Y77.125 E.03577
G1 X45.39 Y78.263 E.03582
G1 X45.089 Y79.366 E.03585
G1 X44.595 Y80.397 E.03585
G1 X43.925 Y81.323 E.03584
G1 X43.099 Y82.115 E.03588
G1 X42.145 Y82.747 E.03588
G1 X41.093 Y83.197 E.03588
G1 X39.977 Y83.452 E.03589
G1 X38.834 Y83.504 E.03588
G1 X37.7 Y83.35 E.03588
G1 X36.612 Y82.995 E.03588
G1 X35.605 Y82.451 E.03589
G1 X34.712 Y81.737 E.03585
G1 X33.961 Y80.874 E.03587
G1 X33.377 Y79.891 E.03585
G1 X32.978 Y78.82 E.03584
G1 X32.805 Y77.851 E.03086
G1 X36.56 Y73.537 E.17933
G1 X44.342 Y73.537 E.244
G1 X44.547 Y73.817 E.01088
G1 X44.953 Y79.22 F54000
G1 F1200
G1 X44.953 Y75.705 E.11021
G1 X44.759 Y75.01 E.02262
G1 X44.534 Y74.545 E.0162
G1 X44.534 Y79.739 E.16285
G1 X44.302 Y80.223 E.01683
G1 X44.115 Y80.482 E.01002
G1 X44.115 Y73.876 E.20713
G1 X43.696 Y73.876 E.01314
G1 X43.696 Y81.061 E.22528
G1 X43.277 Y81.475 E.01847
G1 X43.277 Y73.876 E.23826
G1 X42.858 Y73.876 E.01314
G1 X42.858 Y81.868 E.25058
G1 X42.439 Y82.145 E.01575
G1 X42.439 Y73.876 E.25927
G1 X42.02 Y73.876 E.01314
G1 X42.02 Y82.423 E.26799
G1 X41.601 Y82.611 E.0144
G1 X41.601 Y73.876 E.27388
G1 X41.182 Y73.876 E.01314
G1 X41.182 Y82.79 E.27949
G1 X40.988 Y82.873 E.00662
G1 X40.763 Y82.925 E.00724
G1 X40.763 Y73.876 E.28373
G1 X40.344 Y73.876 E.01314
G1 X40.344 Y83.02 E.2867
G1 X39.925 Y83.115 E.01347
G1 X39.925 Y73.876 E.28968
G1 X39.506 Y73.876 E.01314
G1 X39.506 Y83.134 E.29028
G1 X39.087 Y83.153 E.01315
G1 X39.087 Y73.876 E.29087
G1 X38.668 Y73.876 E.01314
G1 X38.668 Y83.139 E.29043
G1 X38.249 Y83.082 E.01326
G1 X38.249 Y73.876 E.28865
G1 X37.83 Y73.876 E.01314
G1 X37.83 Y83.025 E.28686
G1 X37.411 Y82.898 E.01373
G1 X37.411 Y73.876 E.28288
G1 X36.992 Y73.876 E.01314
G1 X36.992 Y82.762 E.27861
G1 X36.746 Y82.682 E.00811
G1 X36.573 Y82.588 E.00617
G1 X36.573 Y74.039 E.26805
G1 X36.154 Y74.52 E.02
G1 X36.154 Y82.362 E.24588
G1 X35.735 Y82.121 E.01516
G1 X35.735 Y75.002 E.22321
G1 X35.316 Y75.483 E.02
G1 X35.316 Y81.786 E.19763
G1 X34.897 Y81.433 E.01718
G1 X34.897 Y75.965 E.17145
G1 X34.478 Y76.446 E.02
G1 X34.478 Y80.951 E.14125
G1 X34.237 Y80.674 E.01151
G1 X34.059 Y80.374 E.01094
G1 X34.059 Y76.927 E.10808
G1 X33.64 Y77.409 E.02002
G1 X33.64 Y79.625 E.06948
G1 X33.307 Y78.731 E.02991
G1 X33.221 Y78.25 E.01532
G1 X33.221 Y77.632 E.01938
G1 E-2.45 F4800
;WIPE_START
G1 F43200
G1 X33.221 Y78.25 E-.06523
G1 X33.307 Y78.731 E-.05158
G1 X33.64 Y79.625 E-.1007
G1 X33.64 Y77.409 E-.23391
G1 X34.059 Y76.927 E-.06741
G1 X34.059 Y80.374 E-.36385
G1 X34.237 Y80.674 E-.03682
G1 X34.478 Y80.951 E-.03876
G1 X34.478 Y80.082 E-.09174
;WIPE_END
G1 X20.76 Y71.614 F54000
G1 E3.5 F2400
G1 F1200
G1 X21.031 Y71.885 E.01202
G1 X26.366 Y71.885 E.16728
G1 X26.917 Y72.873 E.03547
G1 X27.265 Y73.968 E.03603
G1 X27.391 Y75.141 E.03699
G1 X27.532 Y75.334 E.00749
G1 X28.027 Y76.363 E.0358
G1 X28.331 Y77.464 E.03581
G1 X28.433 Y78.601 E.03579
G1 X28.331 Y79.738 E.03579
G1 X28.027 Y80.838 E.03578
G1 X27.531 Y81.867 E.03582
G1 X27.353 Y82.113 E.00952
G1 X27.695 Y82.584 E.01825
G1 X28.19 Y83.613 E.0358
G1 X28.494 Y84.715 E.03584
G1 X28.595 Y85.852 E.03579
G1 X28.564 Y86.202 E.01102
G1 X28.758 Y86.169 E.00617
G1 X28.758 Y88.441 E.07124
G1 X29.029 Y88.712 E.01202
G1 X32.412 Y88.712 E.10607
G1 X32.682 Y88.441 E.01199
G1 X32.682 Y86.141 E.07211
G1 X33.179 Y86.272 E.01612
G1 X33.694 Y86.464 E.01723
G1 X33.919 Y86.442 E.00709
G1 X34.517 Y86.985 E.02533
G1 X34.648 Y87.026 E.0043
G1 X35.664 Y87.553 E.03589
G1 X36.588 Y88.252 E.03633
G1 X37.115 Y88.806 E.02397
G1 X37.511 Y89.292 E.01966
G1 X38.107 Y90.329 E.0375
G1 X38.429 Y91.178 E.02847
G1 X38.569 Y91.981 E.02556
G1 X38.585 Y93.063 E.03393
G1 X38.768 Y93.631 E.01871
G1 X38.291 Y95.316 E.05491
G1 X37.799 Y96.35 E.0359
G1 X37.102 Y97.336 E.03786
G1 X36.691 Y97.714 E.01751
G1 X36.423 Y98.686 E.03161
G1 X35.929 Y99.715 E.03579
G1 X35.259 Y100.639 E.03579
G1 X34.434 Y101.428 E.03579
G1 X33.482 Y102.058 E.03579
G1 X32.433 Y102.508 E.03579
G1 X31.319 Y102.763 E.03583
G1 X30.178 Y102.815 E.03581
G1 X29.046 Y102.662 E.03582
G1 X28.123 Y102.363 E.03042
G1 X27.363 Y102.864 E.02854
G1 X26.313 Y103.313 E.03581
G1 X25.2 Y103.567 E.03579
G1 X24.06 Y103.618 E.03578
G1 X22.928 Y103.465 E.03582
G1 X21.843 Y103.112 E.03577
G1 X20.837 Y102.571 E.03581
G1 X19.945 Y101.859 E.03579
G1 X19.194 Y101 E.03578
G1 X18.608 Y100.02 E.0358
G1 X18.207 Y98.951 E.0358
G1 X18.031 Y97.98 E.03094
G1 X17.742 Y97.75 E.01158
G1 X16.991 Y96.891 E.03578
G1 X16.406 Y95.911 E.03579
G1 X16.005 Y94.842 E.0358
G1 X15.801 Y93.718 E.03582
G1 X15.801 Y92.577 E.03578
G1 X16.005 Y91.454 E.03579
G1 X16.406 Y90.385 E.0358
G1 X16.978 Y89.427 E.03498
G1 X16.491 Y88.614 E.02971
G1 X16.09 Y87.546 E.03577
G1 X15.885 Y86.423 E.03579
G1 X15.885 Y85.282 E.03578
G1 X16.088 Y84.159 E.03578
G1 X16.488 Y83.09 E.03579
G1 X16.923 Y82.36 E.02664
G1 X16.328 Y81.364 E.03638
G1 X15.926 Y80.295 E.03581
G1 X15.723 Y79.171 E.03581
G1 X15.722 Y78.03 E.03578
G1 X15.926 Y76.907 E.03579
G1 X16.093 Y76.463 E.01487
G1 X15.99 Y75.939 E.01674
G1 X15.941 Y75.424 E.01622
G1 X15.947 Y74.788 E.01994
G1 X16.002 Y74.254 E.01683
G1 X16.251 Y73.239 E.03277
G1 X16.729 Y72.217 E.03538
G1 X17.388 Y71.324 E.0348
G1 X17.967 Y70.781 E.02489
G1 X18.303 Y70.507 E.01359
G1 X19.215 Y69.961 E.03333
G1 X20.289 Y69.581 E.03572
G1 X20.76 Y69.515 E.01491
G1 X20.76 Y71.557 E.06403
G1 E-2.45 F4800
;WIPE_START
G1 F43200
G1 X20.76 Y69.515 E-.21554
G1 X20.289 Y69.581 E-.0502
G1 X19.215 Y69.961 E-.12025
G1 X18.303 Y70.507 E-.1122
G1 X17.967 Y70.781 E-.04576
G1 X17.388 Y71.324 E-.08379
G1 X16.729 Y72.217 E-.11715
G1 X16.251 Y73.239 E-.11909
G1 X16.002 Y74.254 E-.11032
G1 X15.947 Y74.788 E-.05666
G1 X15.945 Y74.968 E-.01904
;WIPE_END
G1 X38.249 Y94.842 F54000
G1 E3.5 F2400
G1 F1200
G1 X38.23 Y92.013 E.0887
G1 X38.1 Y91.268 E.02371
G1 X37.83 Y90.556 E.02388
G1 X37.83 Y95.495 E.15486
G1 X37.505 Y96.178 E.02372
G1 X37.411 Y96.311 E.00511
G1 X37.411 Y89.799 E.20418
G1 X37.231 Y89.485 E.01135
G1 X36.992 Y89.193 E.01183
G1 X36.992 Y96.904 E.24177
G1 X36.846 Y97.111 E.00794
G1 X36.573 Y97.362 E.01163
G1 X36.573 Y88.729 E.27068
G1 X36.361 Y88.506 E.00965
G1 X36.154 Y88.35 E.00813
G1 X36.154 Y98.386 E.31467
G1 X36.104 Y98.567 E.00589
G1 X35.735 Y99.335 E.02672
G1 X35.735 Y88.032 E.3544
G1 X35.482 Y87.841 E.00994
G1 X35.316 Y87.755 E.00586
G1 X35.316 Y99.982 E.38337
G1 X35.002 Y100.415 E.01677
G1 X34.897 Y100.515 E.00455
G1 X34.897 Y87.538 E.40688
G1 X34.478 Y87.329 E.01468
G1 X34.478 Y100.916 E.42601
G1 X34.222 Y101.162 E.01113
G1 X34.059 Y101.27 E.00613
G1 X34.059 Y87.028 E.44655
G1 X33.803 Y86.794 E.01087
G1 X33.64 Y86.806 E.00512
G1 X33.64 Y101.547 E.46219
G1 X33.32 Y101.758 E.01202
G1 X33.221 Y101.801 E.00338
G1 X33.221 Y86.65 E.47505
G1 X33.022 Y86.581 E.0066
G1 X33.022 Y88.582 E.06274
G1 X32.802 Y88.801 E.00973
G1 X32.802 Y101.98 E.41322
G1 X32.383 Y102.16 E.0143
G1 X32.383 Y89.051 E.41102
G1 X31.964 Y89.051 E.01314
G1 X31.964 Y102.267 E.41438
G1 X31.545 Y102.363 E.01348
G1 X31.545 Y89.051 E.41739
G1 X31.126 Y89.051 E.01314
G1 X31.126 Y102.432 E.41955
G1 X30.707 Y102.451 E.01315
G1 X30.707 Y89.051 E.42015
G1 X30.288 Y89.051 E.01314
G1 X30.288 Y102.47 E.42074
G1 X30.194 Y102.474 E.00295
G1 X29.869 Y102.431 E.01028
G1 X29.869 Y89.051 E.41952
G1 X29.45 Y89.051 E.01314
G1 X29.45 Y102.374 E.41773
G1 X29.122 Y102.33 E.01038
G1 X29.031 Y102.3 E.003
G1 X29.031 Y89.051 E.41541
G1 X28.888 Y89.051 E.00448
G1 X28.613 Y88.776 E.01219
G1 X28.613 Y102.165 E.4198
G1 X28.194 Y102.029 E.01381
G1 X28.194 Y85.168 E.52866
G1 X28.158 Y84.775 E.01237
G1 X27.871 Y83.733 E.03389
G1 X27.775 Y83.532 E.00698
G1 X27.775 Y102.186 E.58488
G1 X27.356 Y102.462 E.01573
G1 X27.356 Y82.405 E.62887
G1 X27.775 Y80.971 F54000
G1 F1200
G1 X27.775 Y76.724 E.13316
G1 X27.708 Y76.483 E.00784
G1 X27.356 Y75.751 E.02547
G1 X27.356 Y81.82 E.19029
G1 X26.937 Y102.862 F54000
G1 F1200
G1 X26.937 Y74.089 E.90216
G1 X26.604 Y73.009 E.03544
G1 X26.518 Y72.854 E.00556
G1 X26.518 Y102.856 E.94069
G1 X26.208 Y102.989 E.01058
G1 X26.099 Y103.014 E.00351
G1 X26.099 Y72.224 E.9654
G1 X25.68 Y72.224 E.01314
G1 X25.68 Y103.109 E.96838
G1 X25.261 Y103.205 E.01348
G1 X25.261 Y72.224 E.97139
G1 X24.842 Y72.224 E.01314
G1 X24.842 Y103.243 E.97258
G1 X24.423 Y103.262 E.01315
G1 X24.423 Y72.224 E.97317
G1 X24.004 Y72.224 E.01314
G1 X24.004 Y103.268 E.97336
G1 X23.585 Y103.211 E.01326
G1 X23.585 Y72.224 E.97158
G1 X23.166 Y72.224 E.01314
G1 X23.166 Y103.155 E.96982
G1 X23.004 Y103.133 E.00513
G1 X22.747 Y103.049 E.00848
G1 X22.747 Y72.224 E.9665
G1 X22.328 Y72.224 E.01314
G1 X22.328 Y102.913 E.96223
G1 X21.909 Y102.762 E.01396
G1 X21.909 Y72.224 E.9575
G1 X21.49 Y72.224 E.01314
G1 X21.49 Y102.537 E.95044
G1 X21.071 Y102.312 E.01491
G1 X21.071 Y72.224 E.94339
G1 X20.89 Y72.224 E.00568
G1 X20.652 Y71.986 E.01055
G1 X20.652 Y101.989 E.94072
G1 X20.233 Y101.655 E.0168
G1 X20.233 Y69.961 E.99374
G1 X19.814 Y70.109 E.01393
G1 X19.814 Y101.194 E.97465
G1 X19.469 Y100.799 E.01644
G1 X19.395 Y100.675 E.00453
G1 X19.395 Y70.258 E.9537
G1 X18.976 Y70.5 E.01517
G1 X18.976 Y99.974 E.92414
G1 X18.915 Y99.872 E.00373
G1 X18.557 Y98.918 E.03195
G1 X18.557 Y70.75 E.88319
G1 X18.138 Y71.086 E.01684
G1 X18.138 Y97.632 E.83233
G1 X17.978 Y97.504 E.00642
G1 X17.719 Y97.208 E.01233
G1 X17.719 Y71.479 E.80671
G1 X17.642 Y71.551 E.00331
G1 X17.3 Y72.015 E.01807
G1 X17.3 Y96.728 E.77486
G1 X16.881 Y96.045 E.02512
G1 X16.881 Y90.25 E.1817
G1 X16.713 Y90.533 E.01032
G1 X16.462 Y91.2 E.02235
G1 X16.462 Y95.578 E.13727
G1 X16.881 Y88.935 F54000
G1 F1200
G1 X16.881 Y83.093 E.18317
G1 X16.795 Y83.237 E.00526
G1 X16.462 Y84.126 E.02977
G1 X16.462 Y88.054 E.12316
G1 X16.881 Y81.959 F54000
G1 F1200
G1 X16.881 Y72.693 E.29053
G1 X16.572 Y73.352 E.02282
G1 X16.462 Y73.801 E.01449
G1 X16.462 Y81.239 E.23321
G1 E-2.45 F4800
;WIPE_START
G1 F43200
G1 X16.462 Y73.801 E-.78512
G1 X16.572 Y73.352 E-.0488
G1 X16.881 Y72.693 E-.07683
G1 X16.881 Y74.012 E-.13925
;WIPE_END
G1 X31.183 Y70.336 F54000
G1 E3.5 F2400
;TYPE:Perimeter
;WIDTH:0.419999
G1 F1200
G1 X31.224 Y70.547 E.00674
G1 X31.417 Y70.847 E.01118
G1 X31.777 Y71.082 E.01348
G1 X32.099 Y71.139 E.01025
G1 X44.156 Y71.139 E.37804
G1 X44.156 Y72.011 E.02734
G1 X36.295 Y72.011 E.24648
G1 X35.886 Y72.103 E.01314
G1 X35.584 Y72.334 E.01192
G1 X31.388 Y77.155 E.20039
G1 X31.156 Y77.774 E.02073
G1 X31.156 Y87.186 E.29511
G1 X30.284 Y87.186 E.02734
