; generated by PrusaSlicer 2.6.0+MacOS-arm64 on 2023-07-27 at 23:12:19 UTC

; 

; external perimeters extrusion width = 0.42mm
; perimeters extrusion width = 0.44mm
; infill extrusion width = 0.44mm
; solid infill extrusion width = 0.44mm
; top infill extrusion width = 0.40mm
; support material extrusion width = 0.36mm
; first layer extrusion width = 0.42mm

M201 X3500 Y3500 Z150 E5000 ; sets maximum accelerations, mm/sec^2
M203 X500 Y500 Z10 E60 ; sets maximum feedrates, mm / sec
M204 S3500 T1000 ; sets acceleration (S) and retract acceleration (R), mm/sec^2
M205 X8.00 Y8.00 Z0.40 E5.00 ; sets the jerk limits, mm/sec
M205 S0 T0 ; sets the minimum extruding and travel feed rate, mm/sec
;TYPE:Custom
G90 ; use absolute coordinates
M83 ; extruder relative mode
M104 S150 ; set temporary nozzle temp to prevent oozing during homing
M140 S60 ; set final bed temp
G4 S30 ; allow partial nozzle warmup
G28 ; home all axis
G1 Z50 F240
G1 X2.0 Y10 F3000
M104 S205 ; set final nozzle temp
M190 S60 ; wait for bed temp to stabilize
M109 S205 ; wait for nozzle temp to stabilize
G1 Z0.28 F240
G92 E0
G1 X2.0 Y140 E10 F1500 ; prime the nozzle
G1 X2.3 Y140 F5000
G92 E0
G1 X2.3 Y10 E10 F1200 ; prime the nozzle
G92 E0
G21 ; set units to millimeters
G90 ; use absolute coordinates
M83 ; use relative distances for extrusion
; Filament gcode
M107
;LAYER_CHANGE
;Z:0.2
;HEIGHT:0.2
;BEFORE_LAYER_CHANGE
G92 E0
;0.2


G1 E-3.5 F4800
G1 Z.2 F54000
;AFTER_LAYER_CHANGE
;0.2
G1 X33.382 Y48.231
G1 E3.5 F2400
M204 S3500
;TYPE:Skirt/Brim
;WIDTH:0.42
G1 F1200
G1 X39.342 Y44.106 E.22726
G1 X40.248 Y43.662 E.03163
G1 X41.716 Y43.199 E.04826
G1 X42.732 Y43.043 E.03223
G1 X68.691 Y43.043 E.81393
G1 X70.274 Y43.437 E.05115
G1 X71.079 Y44.032 E.03139
G1 X74.007 Y46.961 E.12985
G1 X74.848 Y48.359 E.05115
G1 X74.997 Y49.349 E.03139
G1 X74.997 Y56.788 E.23324
G1 X74.602 Y58.371 E.05116
G1 X74.093 Y59.087 E.02754
G1 X56.138 Y78.407 E.82697
G1 X53.139 Y81.419 E.13327
G1 X51.743 Y82.262 E.05113
G1 X50.762 Y82.412 E.03112
G1 X18.179 Y82.514 E1.02162
G1 X16.203 Y82.103 E.06328
G1 X14.801 Y81.529 E.0475
G1 X14.218 Y81.201 E.02097
G1 X13.095 Y80.411 E.04305
G1 X12.44 Y79.807 E.02794
G1 X11.382 Y78.481 E.05319
G1 X10.539 Y76.84 E.05784
G1 X10.103 Y75.386 E.04759
G1 X9.91 Y73.66 E.05445
G1 X9.908 Y68.619 E.15806
G1 X10.029 Y67.522 E.0346
G1 X10.352 Y66.072 E.04658
G1 X10.875 Y64.903 E.04015
G1 X12.016 Y63.274 E.06236
G1 X12.86 Y62.435 E.03731
G1 X33.333 Y48.265 E.78067
G1 E-2.45 F4800
;WIPE_START
G1 F43200
G1 X39.342 Y44.106 E-.77139
G1 X40.248 Y43.662 E-.1065
G1 X41.716 Y43.199 E-.16248
G1 X41.806 Y43.185 E-.00963
;WIPE_END
G1 X34.843 Y52.068 F54000
G1 E3.5 F2400
G1 F1200
G1 X35.042 Y51.989 E.00671
G1 X35.462 Y51.927 E.01331
G1 X36.349 Y51.334 E.03345
G1 X40.407 Y47.846 E.16778
G1 X41.199 Y47.293 E.03029
G1 X43.148 Y46.707 E.06381
G1 X67.106 Y46.71 E.75119
G1 X68.178 Y46.934 E.03434
G1 X69.106 Y47.376 E.03223
G1 X70.179 Y48.306 E.04452
G1 X70.93 Y49.43 E.04238
G1 X71.303 Y50.687 E.04111
G1 X71.252 Y55.743 E.15854
G1 X70.885 Y56.804 E.0352
G1 X70.371 Y57.607 E.02989
G1 X69.403 Y58.554 E.04246
G1 X68.452 Y59.097 E.03434
G1 X67.268 Y59.409 E.03839
G1 X65.171 Y59.426 E.06575
G1 X64.996 Y59.572 E.00715
G1 X64.221 Y60.01 E.02791
G1 X62.805 Y60.409 E.04613
G1 X54.851 Y60.431 E.24939
G1 X53.372 Y60.047 E.04791
G1 X53.366 Y74.6 E.4563
G1 X53.153 Y75.589 E.03172
G1 X52.697 Y76.546 E.03324
G1 X51.775 Y77.602 E.04395
G1 X51.033 Y78.164 E.02918
G1 X49.214 Y78.753 E.05995
G1 X29.845 Y78.819 E.6073
G1 X24.532 Y78.864 E.16659
G1 X18.673 Y78.883 E.18371
G1 X16.703 Y78.347 E.06401
G1 X15.961 Y77.954 E.02633
G1 X14.937 Y77.075 E.04231
G1 X14.447 Y76.418 E.0257
G1 X14.036 Y75.701 E.02591
G1 X13.574 Y73.685 E.06485
G1 X13.57 Y68.73 E.15536
G1 X13.992 Y66.963 E.05696
G1 X14.38 Y66.279 E.02466
G1 X14.882 Y65.64 E.02548
G1 X16.115 Y64.695 E.04871
G1 X16.682 Y64.446 E.01942
G1 X33.722 Y52.514 E.65224
G1 X34.788 Y52.09 E.03597
G1 X34.925 Y52.44 F54000
G1 F1200
G1 X35.158 Y52.349 E.00784
G1 X35.598 Y52.289 E.01392
G1 X36.578 Y51.635 E.03694
G1 X40.646 Y48.138 E.1682
G1 X41.39 Y47.619 E.02844
G1 X43.175 Y47.084 E.05843
G1 X67.087 Y47.087 E.74974
G1 X68.039 Y47.285 E.03049
G1 X68.879 Y47.678 E.02908
G1 X69.913 Y48.575 E.04292
G1 X70.577 Y49.567 E.03743
G1 X70.925 Y50.712 E.03752
G1 X70.875 Y55.708 E.15665
G1 X70.555 Y56.62 E.0303
G1 X70.091 Y57.353 E.0272
G1 X69.157 Y58.267 E.04097
G1 X68.289 Y58.756 E.03124
G1 X67.242 Y59.032 E.03395
G1 X65.027 Y59.05 E.06945
G1 X64.79 Y59.255 E.00983
G1 X64.096 Y59.653 E.02508
G1 X62.728 Y60.039 E.04457
G1 X54.876 Y60.053 E.24619
G1 X53.487 Y59.686 E.04505
G1 X52.995 Y59.421 E.01752
G1 X52.993 Y74.542 E.47411
G1 X52.802 Y75.45 E.02909
G1 X52.395 Y76.319 E.03009
G1 X51.504 Y77.339 E.04246
G1 X50.832 Y77.843 E.02634
G1 X49.184 Y78.377 E.05432
G1 X29.843 Y78.442 E.60643
G1 X24.529 Y78.487 E.16662
G1 X18.698 Y78.506 E.18283
G1 X16.823 Y77.989 E.06098
G1 X16.189 Y77.653 E.0225
G1 X15.226 Y76.832 E.03968
G1 X14.756 Y76.202 E.02464
G1 X14.377 Y75.539 E.02394
G1 X13.951 Y73.664 E.06029
G1 X13.948 Y68.751 E.15404
G1 X14.333 Y67.126 E.05236
G1 X14.701 Y66.478 E.02337
G1 X15.163 Y65.892 E.0234
G1 X16.324 Y65.01 E.04572
G1 X16.866 Y64.778 E.01849
G1 X33.92 Y52.836 E.65278
G1 X34.869 Y52.462 E.03198
G1 X35.006 Y52.813 F54000
G1 F1200
G1 X35.271 Y52.71 E.00891
G1 X35.731 Y52.653 E.01453
G1 X36.806 Y51.936 E.04052
G1 X40.884 Y48.431 E.1686
G1 X41.58 Y47.946 E.0266
G1 X43.202 Y47.461 E.05308
G1 X67.068 Y47.464 E.7483
G1 X67.902 Y47.637 E.02671
G1 X68.653 Y47.981 E.0259
G1 X69.647 Y48.843 E.04125
G1 X70.226 Y49.706 E.03258
G1 X70.548 Y50.739 E.03393
G1 X70.499 Y55.672 E.15468
G1 X70.225 Y56.437 E.02548
G1 X69.811 Y57.1 E.02451
G1 X68.912 Y57.979 E.03942
G1 X68.127 Y58.415 E.02815
G1 X67.215 Y58.655 E.02957
G1 X64.88 Y58.674 E.07321
G1 X64.582 Y58.94 E.01252
G1 X63.97 Y59.297 E.02221
G1 X62.65 Y59.669 E.043
G1 X54.901 Y59.676 E.24296
G1 X53.611 Y59.329 E.04188
G1 X52.618 Y58.765 E.03581
G1 X52.62 Y74.484 E.49286
G1 X52.438 Y75.35 E.02775
G1 X52.066 Y76.132 E.02715
G1 X51.235 Y77.074 E.03939
G1 X50.632 Y77.522 E.02355
G1 X49.154 Y78 E.0487
G1 X29.841 Y78.065 E.60555
G1 X24.526 Y78.11 E.16665
G1 X18.723 Y78.129 E.18195
G1 X16.945 Y77.632 E.05788
G1 X16.417 Y77.352 E.01874
G1 X15.515 Y76.589 E.03704
G1 X15.078 Y76.005 E.02287
G1 X14.719 Y75.376 E.02271
G1 X14.328 Y73.643 E.0557
G1 X14.325 Y68.773 E.1527
G1 X14.674 Y67.289 E.0478
G1 X15.021 Y66.677 E.02206
G1 X15.443 Y66.146 E.02127
G1 X16.53 Y65.326 E.04269
G1 X17.048 Y65.111 E.01758
G1 X34.117 Y53.158 E.65336
G1 X34.95 Y52.834 E.02802
G1 X35.084 Y53.185 F54000
G1 F1200
G1 X35.381 Y53.071 E.00997
G1 X35.862 Y53.019 E.01517
G1 X37.035 Y52.237 E.0442
G1 X41.123 Y48.723 E.16902
G1 X41.771 Y48.273 E.02474
G1 X43.23 Y47.838 E.04774
G1 X67.048 Y47.841 E.7468
G1 X67.768 Y47.99 E.02305
G1 X68.428 Y48.285 E.02267
G1 X69.381 Y49.112 E.03956
G1 X69.875 Y49.847 E.02777
G1 X70.17 Y50.766 E.03026
G1 X70.122 Y55.635 E.15267
G1 X69.894 Y56.256 E.02074
G1 X69.53 Y56.847 E.02176
G1 X68.667 Y57.691 E.03785
G1 X67.967 Y58.073 E.025
G1 X67.188 Y58.278 E.02526
G1 X64.73 Y58.298 E.07707
G1 X64.374 Y58.625 E.01516
G1 X63.801 Y58.959 E.0208
G1 X62.574 Y59.299 E.03992
G1 X54.927 Y59.299 E.23977
G1 X53.735 Y58.972 E.03876
G1 X53.115 Y58.614 E.02245
G1 X52.775 Y58.299 E.01453
G1 X52.24 Y58.299 E.01677
G1 X52.247 Y74.428 E.50571
G1 X52.087 Y75.21 E.02503
G1 X51.738 Y75.945 E.02551
G1 X50.968 Y76.807 E.03624
G1 X50.433 Y77.2 E.02081
G1 X49.123 Y77.623 E.04316
G1 X29.839 Y77.688 E.60464
G1 X24.523 Y77.733 E.16669
G1 X18.749 Y77.751 E.18104
G1 X17.067 Y77.274 E.05482
G1 X16.644 Y77.051 E.01499
G1 X15.803 Y76.345 E.03443
G1 X15.399 Y75.807 E.0211
G1 X15.06 Y75.214 E.02142
G1 X14.705 Y73.623 E.05111
G1 X14.702 Y68.794 E.15141
G1 X15.016 Y67.45 E.04327
G1 X15.326 Y66.9 E.0198
G1 X15.723 Y66.4 E.02002
G1 X16.735 Y65.643 E.03963
G1 X17.228 Y65.445 E.01666
G1 X34.314 Y53.48 E.65402
G1 X35.028 Y53.206 E.02398
G1 X35.161 Y53.557 F54000
G1 F1200
G1 X35.489 Y53.433 E.01099
G1 X35.991 Y53.387 E.01581
G1 X37.263 Y52.538 E.04795
G1 X41.361 Y49.016 E.16942
G1 X41.961 Y48.6 E.02289
G1 X43.257 Y48.215 E.04239
G1 X67.029 Y48.218 E.74535
G1 X67.633 Y48.343 E.01934
G1 X68.247 Y48.617 E.02108
G1 X69.113 Y49.378 E.03615
G1 X69.546 Y50.032 E.02459
G1 X69.802 Y50.85 E.02687
G1 X69.757 Y55.535 E.1469
G1 X69.547 Y56.107 E.01911
G1 X69.222 Y56.628 E.01925
G1 X68.464 Y57.373 E.03332
G1 X67.808 Y57.73 E.02342
G1 X67.118 Y57.907 E.02233
G1 X64.579 Y57.922 E.07961
G1 X64.165 Y58.311 E.01781
G1 X63.632 Y58.621 E.01933
G1 X62.549 Y58.922 E.03524
G1 X54.953 Y58.922 E.23817
G1 X53.861 Y58.616 E.03556
G1 X53.326 Y58.301 E.01947
G1 X52.927 Y57.922 E.01725
G1 X51.863 Y57.922 E.03336
G1 X51.87 Y74.408 E.51691
G1 X51.723 Y75.109 E.02246
G1 X51.41 Y75.756 E.02254
G1 X50.702 Y76.539 E.0331
G1 X50.236 Y76.877 E.01805
G1 X49.093 Y77.246 E.03766
G1 X29.837 Y77.311 E.60376
G1 X24.521 Y77.356 E.16669
G1 X18.775 Y77.374 E.18016
G1 X17.19 Y76.918 E.05171
G1 X16.87 Y76.748 E.01136
G1 X16.091 Y76.1 E.03177
G1 X15.708 Y75.59 E.02
G1 X15.402 Y75.052 E.01941
G1 X15.082 Y73.602 E.04656
G1 X15.079 Y68.815 E.15009
G1 X15.358 Y67.611 E.03875
G1 X15.647 Y67.098 E.01846
G1 X16.001 Y66.655 E.01778
G1 X16.938 Y65.962 E.03654
G1 X17.406 Y65.781 E.01573
G1 X34.511 Y53.803 E.65474
G1 X35.104 Y53.578 E.01989
G1 X35.235 Y53.93 F54000
G1 F1200
G1 X35.594 Y53.796 E.01201
G1 X36.117 Y53.756 E.01645
G1 X37.491 Y52.839 E.05179
G1 X41.599 Y49.308 E.16985
G1 X42.15 Y48.927 E.021
G1 X43.284 Y48.592 E.03707
G1 X67.009 Y48.596 E.74388
G1 X67.533 Y48.707 E.01679
G1 X68.064 Y48.948 E.01828
G1 X68.842 Y49.641 E.03267
G1 X69.215 Y50.214 E.02144
G1 X69.433 Y50.931 E.0235
G1 X69.391 Y55.436 E.14126
G1 X69.2 Y55.958 E.01743
G1 X68.915 Y56.408 E.0167
G1 X68.26 Y57.054 E.02884
G1 X67.649 Y57.387 E.02182
G1 X67.05 Y57.536 E.01935
G1 X64.426 Y57.545 E.08227
G1 X63.955 Y57.997 E.02047
G1 X63.463 Y58.283 E.01784
G1 X62.523 Y58.545 E.0306
G1 X54.979 Y58.545 E.23654
G1 X54.032 Y58.279 E.03084
G1 X53.538 Y57.988 E.01798
G1 X53.081 Y57.545 E.01996
G1 X51.486 Y57.545 E.05001
G1 X51.493 Y74.387 E.52807
G1 X51.36 Y75.006 E.01985
G1 X51.085 Y75.564 E.01951
G1 X50.438 Y76.269 E.03
G1 X50.041 Y76.554 E.01532
G1 X49.063 Y76.869 E.03222
G1 X29.835 Y76.933 E.60288
G1 X24.518 Y76.978 E.16672
G1 X18.801 Y76.997 E.17925
G1 X17.315 Y76.561 E.04856
G1 X17.094 Y76.445 E.00783
G1 X16.378 Y75.855 E.02909
G1 X16.03 Y75.393 E.01814
G1 X15.744 Y74.891 E.01812
G1 X15.459 Y73.582 E.042
G1 X15.456 Y68.836 E.14881
G1 X15.701 Y67.771 E.03426
G1 X15.952 Y67.321 E.01616
G1 X16.28 Y66.91 E.01649
G1 X17.138 Y66.283 E.03332
G1 X17.582 Y66.118 E.01485
G1 X34.707 Y54.126 E.6555
G1 X35.179 Y53.951 E.01578
G1 X35.307 Y54.302 F54000
G1 F1200
G1 X35.695 Y54.161 E.01294
G1 X36.241 Y54.127 E.01715
G1 X37.72 Y53.14 E.05575
G1 X41.837 Y49.601 E.17022
G1 X42.339 Y49.255 E.01912
G1 X43.311 Y48.969 E.03177
G1 X66.988 Y48.973 E.74238
G1 X67.431 Y49.07 E.01422
G1 X67.879 Y49.278 E.01549
G1 X68.569 Y49.903 E.02919
G1 X68.882 Y50.392 E.0182
G1 X69.063 Y51.01 E.02019
G1 X69.026 Y55.34 E.13577
G1 X68.87 Y55.774 E.01446
G1 X68.608 Y56.189 E.01539
G1 X68.056 Y56.736 E.02437
G1 X67.492 Y57.044 E.02015
G1 X66.986 Y57.164 E.01631
G1 X64.274 Y57.168 E.08503
G1 X63.711 Y57.708 E.02446
G1 X63.297 Y57.944 E.01494
G1 X62.497 Y58.168 E.02605
G1 X55.005 Y58.168 E.23491
G1 X54.199 Y57.94 E.02626
G1 X53.783 Y57.7 E.01506
G1 X53.234 Y57.168 E.02397
G1 X51.109 Y57.168 E.06663
G1 X51.116 Y74.368 E.53929
G1 X51.011 Y74.86 E.01577
G1 X50.759 Y75.372 E.01789
G1 X50.177 Y75.997 E.02678
G1 X49.848 Y76.229 E.01262
G1 X49.032 Y76.492 E.02688
G1 X29.833 Y76.556 E.60197
G1 X24.515 Y76.601 E.16675
G1 X18.828 Y76.62 E.17831
G1 X17.441 Y76.206 E.04538
G1 X17.318 Y76.14 E.00438
G1 X16.665 Y75.609 E.02639
G1 X16.338 Y75.176 E.01701
G1 X16.087 Y74.731 E.01602
G1 X15.836 Y73.562 E.03749
G1 X15.833 Y68.857 E.14752
G1 X16.044 Y67.929 E.02984
G1 X16.256 Y67.544 E.01378
G1 X16.558 Y67.166 E.01517
G1 X17.335 Y66.606 E.03003
G1 X17.755 Y66.457 E.01397
G1 X34.902 Y54.449 E.65636
G1 X35.25 Y54.323 E.0116
G1 X35.375 Y54.674 F54000
G1 F1200
G1 X35.793 Y54.526 E.0139
G1 X36.361 Y54.5 E.01783
G1 X37.948 Y53.441 E.05982
G1 X42.075 Y49.893 E.17064
G1 X42.527 Y49.583 E.01719
G1 X43.337 Y49.346 E.02646
G1 X66.965 Y49.35 E.74084
G1 X67.325 Y49.433 E.01158
G1 X67.69 Y49.605 E.01265
G1 X68.296 Y50.163 E.02583
G1 X68.528 Y50.525 E.01348
G1 X68.693 Y51.09 E.01846
G1 X68.66 Y55.242 E.13019
G1 X68.523 Y55.626 E.01278
G1 X68.302 Y55.967 E.01274
G1 X67.851 Y56.418 E.02
G1 X67.335 Y56.699 E.01842
G1 X66.925 Y56.791 E.01317
G1 X64.123 Y56.791 E.08785
G1 X63.469 Y57.418 E.02841
G1 X63.134 Y57.603 E.012
G1 X62.471 Y57.791 E.02161
G1 X55.032 Y57.791 E.23324
G1 X54.363 Y57.6 E.02181
G1 X54.027 Y57.412 E.01207
G1 X53.387 Y56.791 E.02796
G1 X50.731 Y56.791 E.08328
G1 X50.738 Y74.347 E.55046
G1 X50.648 Y74.755 E.0131
G1 X50.436 Y75.176 E.01478
G1 X49.918 Y75.722 E.0236
G1 X49.656 Y75.903 E.00998
G1 X49.002 Y76.115 E.02156
G1 X29.83 Y76.179 E.60113
G1 X24.513 Y76.224 E.16672
G1 X18.856 Y76.243 E.17737
G1 X17.569 Y75.85 E.04219
G1 X16.951 Y75.362 E.02469
G1 X16.66 Y74.979 E.01508
G1 X16.429 Y74.571 E.0147
G1 X16.213 Y73.543 E.03294
G1 X16.21 Y68.877 E.1463
G1 X16.388 Y68.086 E.02542
G1 X16.562 Y67.766 E.01142
G1 X16.836 Y67.423 E.01376
G1 X17.528 Y66.931 E.02662
G1 X17.924 Y66.799 E.01309
G1 X35.097 Y54.773 E.65735
G1 X35.319 Y54.694 E.00739
G1 X35.44 Y55.046 F54000
G1 F1200
G1 X35.887 Y54.892 E.01482
G1 X36.479 Y54.874 E.01857
G1 X38.177 Y53.742 E.06399
G1 X42.313 Y50.186 E.17102
G1 X42.715 Y49.912 E.01525
G1 X43.364 Y49.723 E.02119
G1 X66.943 Y49.727 E.7393
G1 X67.182 Y49.782 E.00769
G1 X67.502 Y49.933 E.01109
G1 X68.02 Y50.421 E.02231
G1 X68.176 Y50.662 E.009
G1 X68.316 Y51.118 E.01496
G1 X68.294 Y55.145 E.12627
G1 X68.175 Y55.478 E.01109
G1 X68.022 Y55.714 E.00882
G1 X67.606 Y56.131 E.01847
G1 X67.184 Y56.353 E.01495
G1 X66.906 Y56.414 E.00892
G1 X63.969 Y56.414 E.09209
G1 X63.26 Y57.103 E.031
G1 X63.005 Y57.248 E.0092
G1 X62.443 Y57.414 E.01837
G1 X55.06 Y57.414 E.23149
G1 X54.493 Y57.246 E.01854
G1 X54.237 Y57.098 E.00927
G1 X53.542 Y56.414 E.03057
G1 X50.354 Y56.414 E.09996
G1 X50.361 Y74.327 E.56165
G1 X50.301 Y74.607 E.00898
G1 X50.113 Y74.98 E.0131
G1 X49.662 Y75.444 E.02029
G1 X49.468 Y75.576 E.00736
G1 X48.971 Y75.738 E.01639
G1 X29.828 Y75.802 E.60022
G1 X24.51 Y75.847 E.16675
G1 X18.884 Y75.866 E.1764
G1 X17.732 Y75.506 E.03784
G1 X17.236 Y75.113 E.01984
G1 X16.982 Y74.782 E.01308
G1 X16.772 Y74.411 E.01337
G1 X16.59 Y73.524 E.02839
G1 X16.587 Y68.898 E.14505
G1 X16.733 Y68.239 E.02116
G1 X16.868 Y67.987 E.00896
G1 X17.113 Y67.68 E.01232
G1 X17.718 Y67.258 E.02313
G1 X18.091 Y67.142 E.01225
G1 X35.291 Y55.098 E.65836
G1 X35.383 Y55.066 E.00305
G1 X35.5 Y55.417 F54000
G1 F1200
G1 X35.975 Y55.26 E.01569
G1 X36.595 Y55.25 E.01944
G1 X38.405 Y54.043 E.06821
G1 X42.55 Y50.479 E.1714
G1 X42.902 Y50.24 E.01334
G1 X43.39 Y50.1 E.01592
G1 X66.921 Y50.104 E.7378
G1 X67.038 Y50.131 E.00376
G1 X67.311 Y50.261 E.00948
G1 X67.743 Y50.677 E.0188
G1 X67.826 Y50.805 E.00478
G1 X67.939 Y51.149 E.01135
G1 X67.928 Y55.049 E.12228
G1 X67.828 Y55.33 E.00935
G1 X67.742 Y55.461 E.00491
G1 X67.361 Y55.842 E.01689
G1 X67.038 Y56.005 E.01134
G1 X66.887 Y56.037 E.00484
G1 X63.814 Y56.037 E.09635
G1 X63.047 Y56.792 E.03375
G1 X62.87 Y56.896 E.00644
G1 X62.413 Y57.037 E.015
G1 X55.09 Y57.037 E.22961
G1 X54.629 Y56.893 E.01514
G1 X54.452 Y56.788 E.00645
G1 X53.698 Y56.037 E.03337
G1 X49.977 Y56.037 E.11667
G1 X49.984 Y74.309 E.57291
G1 X49.953 Y74.459 E.0048
G1 X49.79 Y74.782 E.01134
G1 X49.411 Y75.162 E.01683
G1 X49.282 Y75.247 E.00484
G1 X48.939 Y75.361 E.01133
G1 X29.826 Y75.425 E.59928
G1 X24.507 Y75.47 E.16678
G1 X18.911 Y75.488 E.17546
G1 X17.935 Y75.187 E.03202
G1 X17.52 Y74.864 E.01649
G1 X17.29 Y74.564 E.01185
G1 X17.116 Y74.254 E.01115
G1 X16.967 Y73.506 E.02391
G1 X16.964 Y68.917 E.14388
G1 X17.079 Y68.39 E.01691
G1 X17.174 Y68.207 E.00646
G1 X17.389 Y67.938 E.0108
G1 X17.902 Y67.588 E.01947
G1 X18.253 Y67.489 E.01143
G1 X35.449 Y55.447 E.65823
