; generated by PrusaSlicer 2.6.0+MacOS-arm64 on 2023-07-28 at 17:07:23 UTC

; 

; external perimeters extrusion width = 0.42mm
; perimeters extrusion width = 0.44mm
; infill extrusion width = 0.44mm
; solid infill extrusion width = 0.44mm
; top infill extrusion width = 0.40mm
; support material extrusion width = 0.36mm
; first layer extrusion width = 0.42mm

M201 X3500 Y3500 Z150 E5000 ; sets maximum accelerations, mm/sec^2
M203 X500 Y500 Z10 E60 ; sets maximum feedrates, mm / sec
M204 S3500 T1000 ; sets acceleration (S) and retract acceleration (R), mm/sec^2
M205 X8.00 Y8.00 Z0.40 E5.00 ; sets the jerk limits, mm/sec
M205 S0 T0 ; sets the minimum extruding and travel feed rate, mm/sec
;TYPE:Custom
G90 ; use absolute coordinates
M83 ; extruder relative mode
M104 S150 ; set temporary nozzle temp to prevent oozing during homing
M140 S60 ; set final bed temp
G4 S30 ; allow partial nozzle warmup
G28 ; home all axis
G1 Z50 F240
G1 X2.0 Y10 F3000
M104 S205 ; set final nozzle temp
M190 S60 ; wait for bed temp to stabilize
M109 S205 ; wait for nozzle temp to stabilize
G1 Z0.28 F240
G92 E0
G1 X2.0 Y140 E10 F1500 ; prime the nozzle
G1 X2.3 Y140 F5000
G92 E0
G1 X2.3 Y10 E10 F1200 ; prime the nozzle
G92 E0
G21 ; set units to millimeters
G90 ; use absolute coordinates
M83 ; use relative distances for extrusion
; Filament gcode
M107
;LAYER_CHANGE
;Z:0.2
;HEIGHT:0.2
;BEFORE_LAYER_CHANGE
G92 E0
;0.2


G1 E-3.5 F4800
G1 Z.2 F54000
;AFTER_LAYER_CHANGE
;0.2
G1 X61.51 Y66.268
G1 E3.5 F2400
M204 S3500
;TYPE:Skirt/Brim
;WIDTH:0.42
G1 F1200
G1 X62.908 Y65.428 E.05114
G1 X63.898 Y65.279 E.03139
G1 X89.241 Y65.279 E.79461
G1 X90.718 Y65.62 E.04753
G1 X96.356 Y68.363 E.19659
G1 X97.02 Y68.789 E.02474
G1 X98.295 Y69.867 E.05235
G1 X98.801 Y70.426 E.02364
G1 X99.882 Y72.049 E.06114
G1 X100.545 Y73.736 E.05683
G1 X100.849 Y75.637 E.06036
G1 X100.894 Y82.369 E.21108
G1 X100.778 Y84.417 E.06432
G1 X100.593 Y85.27 E.02737
G1 X100.149 Y86.624 E.04468
G1 X91.808 Y104.909 E.63015
G1 X90.667 Y106.23 E.05473
G1 X89.727 Y106.816 E.03473
G1 X88.914 Y107.085 E.02685
G1 X88.244 Y107.153 E.02112
G1 X84.096 Y107.153 E.13006
G1 X83.454 Y107.092 E.02022
G1 X82.506 Y106.777 E.03132
G1 X81.318 Y106.08 E.04319
G1 X61.895 Y89.922 E.79217
G1 X60.789 Y88.81 E.04918
G1 X60.298 Y88.164 E.02544
G1 X59.688 Y87.09 E.03873
G1 X59.357 Y86.33 E.02599
G1 X57.766 Y81.599 E.1565
G1 X57.592 Y80.526 E.03408
G1 X57.592 Y71.585 E.28034
G1 X57.986 Y70.002 E.05115
G1 X58.581 Y69.197 E.03139
G1 X61.467 Y66.311 E.12797
G1 E-2.45 F4800
;WIPE_START
G1 F43200
G1 X62.908 Y65.428 E-.17839
G1 X63.898 Y65.279 E-.10568
G1 X71.154 Y65.279 E-.76593
;WIPE_END
G1 X63.671 Y69.51 F54000
G1 E3.5 F2400
G1 F1200
G1 X63.759 Y69.449 E.00336
G1 X65.337 Y68.959 E.05181
G1 X75.309 Y68.951 E.31267
G1 X76.385 Y69.191 E.03457
G1 X77.337 Y69.666 E.03336
G1 X78.05 Y70.319 E.03031
G1 X78.421 Y69.953 E.01634
G1 X79.228 Y69.417 E.03038
G1 X80.678 Y68.968 E.04759
G1 X87.952 Y68.98 E.22807
G1 X88.947 Y69.256 E.03238
G1 X89.841 Y69.737 E.03183
G1 X90.871 Y70.705 E.04432
G1 X91 Y70.88 E.00682
G1 X92.067 Y70.889 E.03346
G1 X93.095 Y71.035 E.03256
G1 X94.836 Y71.781 E.05939
G1 X95.886 Y72.697 E.04369
G1 X96.683 Y73.873 E.04454
G1 X97.048 Y74.909 E.03444
G1 X97.201 Y76.02 E.03516
G1 X97.197 Y83.524 E.23528
G1 X96.927 Y84.745 E.03921
G1 X96.42 Y85.843 E.03792
G1 X95.621 Y86.858 E.0405
G1 X94.669 Y87.622 E.03827
G1 X94.004 Y87.958 E.02336
G1 X92.306 Y88.411 E.0551
G1 X88.117 Y88.395 E.13134
G1 X87.783 Y88.514 E.01112
G1 X86.868 Y88.668 E.02909
G1 X83.32 Y88.67 E.11125
G1 X81.913 Y88.768 E.04422
G1 X74.675 Y88.768 E.22694
G1 X73.643 Y88.673 E.03249
G1 X70.061 Y88.667 E.11231
G1 X69.032 Y88.459 E.03292
G1 X66.364 Y88.239 E.08394
G1 X65.372 Y87.815 E.03383
G1 X64.234 Y87.063 E.04277
G1 X63.27 Y85.985 E.04534
G1 X62.791 Y85.062 E.03261
G1 X62.387 Y83.478 E.05126
G1 X62.387 Y81.512 E.06164
G1 X62.118 Y81.221 E.01243
G1 X61.692 Y80.523 E.02564
G1 X61.269 Y79.075 E.0473
G1 X61.281 Y72.961 E.1917
G1 X61.571 Y71.873 E.0353
G1 X62.011 Y71.037 E.02962
G1 X62.991 Y69.978 E.04524
G1 X63.621 Y69.544 E.02399
G1 X63.833 Y69.855 F54000
G1 F1200
G1 X63.947 Y69.777 E.00433
G1 X65.419 Y69.328 E.04825
G1 X75.288 Y69.329 E.30944
G1 X76.237 Y69.539 E.03048
G1 X77.143 Y69.991 E.03175
G1 X78.061 Y70.846 E.03933
G1 X78.647 Y70.256 E.02607
G1 X79.414 Y69.746 E.02888
G1 X80.706 Y69.345 E.04242
G1 X87.876 Y69.35 E.22481
G1 X88.825 Y69.614 E.03089
G1 X89.639 Y70.056 E.02904
G1 X90.595 Y70.964 E.04134
G1 X90.799 Y71.256 E.01117
G1 X92.026 Y71.264 E.03847
G1 X93.017 Y71.405 E.03139
G1 X94.658 Y72.115 E.05606
G1 X95.618 Y72.963 E.04016
G1 X96.335 Y74.021 E.04007
G1 X96.685 Y75.016 E.03307
G1 X96.826 Y76.057 E.03294
G1 X96.82 Y83.503 E.23346
G1 X96.563 Y84.641 E.03658
G1 X96.088 Y85.663 E.03534
G1 X95.34 Y86.606 E.03774
G1 X94.451 Y87.315 E.03565
G1 X93.853 Y87.612 E.02094
G1 X92.234 Y88.04 E.05251
G1 X88.05 Y88.017 E.13119
G1 X87.701 Y88.146 E.01167
G1 X86.851 Y88.291 E.02704
G1 X83.306 Y88.293 E.11115
G1 X81.906 Y88.391 E.044
G1 X74.683 Y88.391 E.22647
G1 X73.661 Y88.296 E.03218
G1 X70.081 Y88.29 E.11225
G1 X69.085 Y88.085 E.03188
G1 X66.483 Y87.879 E.08184
G1 X65.564 Y87.489 E.0313
G1 X64.498 Y86.793 E.03992
G1 X63.567 Y85.751 E.04381
G1 X63.151 Y84.947 E.02838
G1 X62.764 Y83.454 E.04836
G1 X62.764 Y81.36 E.06566
G1 X62.429 Y81.006 E.01528
G1 X62.027 Y80.348 E.02418
G1 X61.646 Y79.048 E.04248
G1 X61.658 Y72.987 E.19004
G1 X61.929 Y71.994 E.03227
G1 X62.331 Y71.237 E.02687
G1 X63.252 Y70.251 E.0423
G1 X63.783 Y69.888 E.02017
G1 X63.994 Y70.2 F54000
G1 F1200
G1 X64.133 Y70.106 E.00526
G1 X65.5 Y69.697 E.04474
G1 X75.267 Y69.706 E.30624
G1 X76.131 Y69.901 E.02777
G1 X76.948 Y70.314 E.0287
G1 X78.071 Y71.377 E.04848
G1 X78.872 Y70.559 E.0359
G1 X79.6 Y70.075 E.02741
G1 X80.735 Y69.722 E.03727
G1 X87.8 Y69.721 E.22152
G1 X88.703 Y69.971 E.02938
G1 X89.435 Y70.374 E.0262
G1 X90.318 Y71.221 E.03836
G1 X90.596 Y71.632 E.01556
G1 X92.011 Y71.641 E.04437
G1 X92.939 Y71.774 E.02939
G1 X94.432 Y72.419 E.05099
G1 X95.32 Y73.195 E.03698
G1 X96.009 Y74.212 E.03852
G1 X96.323 Y75.12 E.03012
G1 X96.449 Y76.069 E.03002
G1 X96.447 Y83.442 E.23118
G1 X96.213 Y84.501 E.03401
G1 X95.756 Y85.483 E.03396
G1 X95.059 Y86.353 E.03495
G1 X94.233 Y87.006 E.03301
G1 X93.705 Y87.265 E.01844
G1 X92.163 Y87.669 E.04998
G1 X87.981 Y87.64 E.13113
G1 X87.618 Y87.777 E.01217
G1 X86.834 Y87.914 E.02495
G1 X83.305 Y87.916 E.11065
G1 X82.995 Y87.924 E.00972
G1 X81.898 Y88.014 E.03451
G1 X74.692 Y88.014 E.22594
G1 X73.679 Y87.919 E.0319
G1 X70.102 Y87.913 E.11215
G1 X69.138 Y87.711 E.03088
G1 X66.6 Y87.52 E.0798
G1 X65.754 Y87.163 E.02879
G1 X64.762 Y86.522 E.03703
G1 X63.864 Y85.518 E.04223
G1 X63.51 Y84.831 E.02423
G1 X63.141 Y83.429 E.04546
G1 X63.141 Y81.206 E.0697
G1 X62.739 Y80.791 E.01812
G1 X62.362 Y80.173 E.0227
G1 X62.024 Y79.022 E.03761
G1 X62.035 Y73.014 E.18838
G1 X62.286 Y72.116 E.02924
G1 X62.651 Y71.438 E.02414
G1 X63.511 Y70.525 E.03933
G1 X63.944 Y70.234 E.01636
G1 X64.152 Y70.546 F54000
G1 F1200
G1 X64.318 Y70.436 E.00624
G1 X65.528 Y70.074 E.0396
G1 X75.244 Y70.083 E.30464
G1 X76.022 Y70.263 E.02504
G1 X76.75 Y70.637 E.02566
G1 X77.681 Y71.526 E.04036
G1 X78.066 Y72.156 E.02315
G1 X78.484 Y71.493 E.02457
G1 X79.127 Y70.837 E.0288
G1 X79.784 Y70.406 E.02464
G1 X80.817 Y70.091 E.03386
G1 X87.724 Y70.091 E.21656
G1 X88.58 Y70.328 E.02785
G1 X89.229 Y70.69 E.0233
G1 X90.04 Y71.476 E.03541
G1 X90.391 Y72.008 E.01998
G1 X91.995 Y72.018 E.05029
G1 X92.86 Y72.144 E.02741
G1 X94.207 Y72.722 E.04596
G1 X95.053 Y73.462 E.03524
G1 X95.681 Y74.4 E.03539
G1 X95.959 Y75.223 E.02724
G1 X96.072 Y76.082 E.02717
G1 X96.075 Y83.381 E.22886
G1 X95.849 Y84.399 E.0327
G1 X95.425 Y85.301 E.03125
G1 X94.78 Y86.099 E.03217
G1 X94.018 Y86.696 E.03035
G1 X93.559 Y86.917 E.01597
G1 X92.094 Y87.297 E.04745
G1 X89.718 Y87.263 E.07451
G1 X87.909 Y87.263 E.05672
G1 X87.533 Y87.41 E.01266
G1 X86.817 Y87.536 E.02279
G1 X83.3 Y87.539 E.11027
G1 X82.974 Y87.548 E.01023
G1 X81.89 Y87.637 E.0341
G1 X74.701 Y87.637 E.22541
G1 X73.697 Y87.542 E.03162
G1 X70.123 Y87.536 E.11206
G1 X69.192 Y87.336 E.02986
G1 X66.717 Y87.16 E.0778
G1 X65.942 Y86.837 E.02633
G1 X65.026 Y86.251 E.03409
G1 X64.162 Y85.285 E.04064
G1 X63.869 Y84.714 E.02012
G1 X63.518 Y83.404 E.04252
G1 X63.518 Y81.05 E.07381
G1 X63.049 Y80.575 E.02093
G1 X62.697 Y79.997 E.02122
G1 X62.401 Y78.995 E.03276
G1 X62.412 Y73.042 E.18665
G1 X62.642 Y72.242 E.0261
G1 X62.97 Y71.641 E.02147
G1 X63.769 Y70.801 E.03635
G1 X64.102 Y70.58 E.01253
G1 X64.308 Y70.893 F54000
G1 F1200
G1 X64.502 Y70.766 E.00727
G1 X65.555 Y70.451 E.03446
G1 X75.222 Y70.46 E.3031
G1 X75.911 Y70.624 E.02221
G1 X76.551 Y70.958 E.02264
G1 X77.399 Y71.778 E.03699
G1 X77.723 Y72.326 E.01996
G1 X77.937 Y73.027 E.02298
G1 X78.217 Y73.027 E.00878
G1 X78.446 Y72.263 E.02501
G1 X78.77 Y71.74 E.01929
G1 X79.354 Y71.138 E.0263
G1 X79.922 Y70.758 E.02143
G1 X80.901 Y70.459 E.0321
G1 X87.648 Y70.461 E.21155
G1 X88.456 Y70.685 E.02629
G1 X89.02 Y71.005 E.02033
G1 X89.761 Y71.73 E.0325
G1 X90.064 Y72.199 E.01751
G1 X90.142 Y72.383 E.00627
G1 X91.979 Y72.395 E.0576
G1 X92.781 Y72.513 E.02542
G1 X93.983 Y73.027 E.04099
G1 X94.754 Y73.693 E.03194
G1 X95.353 Y74.588 E.03377
G1 X95.595 Y75.323 E.02426
G1 X95.696 Y76.117 E.0251
G1 X95.698 Y83.36 E.2271
G1 X95.498 Y84.259 E.02888
G1 X95.116 Y85.084 E.02851
G1 X94.53 Y85.816 E.0294
G1 X93.802 Y86.386 E.02899
G1 X93.445 Y86.557 E.01241
G1 X92.073 Y86.92 E.0445
G1 X89.721 Y86.886 E.07375
G1 X87.835 Y86.886 E.05913
G1 X87.445 Y87.042 E.01317
G1 X86.8 Y87.159 E.02055
G1 X83.295 Y87.162 E.1099
G1 X82.954 Y87.171 E.0107
G1 X81.882 Y87.26 E.03373
G1 X74.71 Y87.26 E.22487
G1 X73.716 Y87.165 E.03131
G1 X70.144 Y87.159 E.112
G1 X69.245 Y86.962 E.02886
G1 X66.832 Y86.8 E.07583
G1 X66.131 Y86.51 E.02379
G1 X65.251 Y85.948 E.03274
G1 X64.46 Y85.053 E.03745
G1 X64.227 Y84.596 E.01608
G1 X63.896 Y83.379 E.03954
G1 X63.895 Y80.893 E.07795
G1 X63.359 Y80.359 E.02372
G1 X63.032 Y79.823 E.01969
G1 X62.77 Y78.917 E.02957
G1 X62.789 Y73.071 E.1833
G1 X62.997 Y72.37 E.02293
G1 X63.287 Y71.846 E.01878
G1 X64.026 Y71.079 E.0334
G1 X64.258 Y70.926 E.00871
G1 X64.461 Y71.241 F54000
G1 F1200
G1 X64.683 Y71.097 E.0083
G1 X65.582 Y70.828 E.02942
G1 X75.158 Y70.832 E.30025
G1 X75.762 Y70.971 E.01943
G1 X76.311 Y71.25 E.01931
G1 X77.088 Y71.993 E.03371
G1 X77.386 Y72.497 E.01836
G1 X77.582 Y73.164 E.0218
G1 X77.598 Y77.982 E.15107
G1 X77.857 Y78.33 E.0136
G1 X78.137 Y79.031 E.02367
G1 X78.189 Y79.41 E.01199
G1 X78.168 Y80.029 E.01942
G1 X78.196 Y80.6 E.01792
G1 X78.157 Y80.916 E.00998
G1 X78.665 Y80.916 E.01593
G1 X78.685 Y80.069 E.02656
G1 X78.653 Y79.503 E.01777
G1 X78.671 Y79.341 E.00511
G1 X78.542 Y78.843 E.01613
G1 X78.542 Y73.265 E.17489
G1 X78.781 Y72.439 E.02696
G1 X79.079 Y71.957 E.01777
G1 X79.611 Y71.416 E.02379
G1 X80.059 Y71.11 E.01701
G1 X80.984 Y70.828 E.03032
G1 X87.62 Y70.838 E.20807
G1 X88.329 Y71.041 E.02312
G1 X88.81 Y71.319 E.01742
G1 X89.48 Y71.982 E.02955
G1 X89.732 Y72.38 E.01477
G1 X89.871 Y72.759 E.01266
G1 X91.963 Y72.772 E.06559
G1 X92.7 Y72.882 E.02336
G1 X93.805 Y73.361 E.03776
G1 X94.486 Y73.96 E.02844
G1 X95.004 Y74.732 E.02915
G1 X95.224 Y75.39 E.02175
G1 X95.319 Y76.13 E.02339
G1 X95.325 Y83.299 E.22478
G1 X95.135 Y84.157 E.02755
G1 X94.785 Y84.902 E.02581
G1 X94.251 Y85.561 E.02659
G1 X93.588 Y86.075 E.0263
G1 X93.33 Y86.197 E.00895
G1 X92.052 Y86.542 E.04151
G1 X89.724 Y86.509 E.073
G1 X87.759 Y86.509 E.06161
G1 X87.355 Y86.676 E.01371
G1 X86.782 Y86.782 E.01827
G1 X83.29 Y86.785 E.10949
G1 X82.933 Y86.794 E.0112
G1 X81.874 Y86.883 E.03332
G1 X74.719 Y86.883 E.22434
G1 X73.734 Y86.788 E.03103
G1 X70.163 Y86.782 E.11197
G1 X69.447 Y86.631 E.02294
G1 X69.337 Y86.59 E.00368
G1 X66.946 Y86.439 E.07512
G1 X66.319 Y86.182 E.02125
G1 X65.477 Y85.645 E.03131
G1 X64.784 Y84.859 E.03286
G1 X64.586 Y84.477 E.01349
G1 X64.266 Y83.304 E.03812
G1 X64.273 Y80.737 E.08049
G1 X63.642 Y80.109 E.02791
G1 X63.369 Y79.652 E.01669
G1 X63.141 Y78.841 E.02641
G1 X63.166 Y73.101 E.17998
G1 X63.351 Y72.502 E.01966
G1 X63.603 Y72.053 E.01614
G1 X64.28 Y71.358 E.03042
G1 X64.41 Y71.273 E.00487
G1 X64.61 Y71.589 F54000
G1 F1200
G1 X64.862 Y71.43 E.00934
G1 X65.61 Y71.205 E.02449
G1 X75.137 Y71.209 E.29871
G1 X75.616 Y71.319 E.01541
G1 X76.074 Y71.545 E.01601
G1 X76.779 Y72.211 E.03041
G1 X77.032 Y72.628 E.01529
G1 X77.213 Y73.244 E.02013
G1 X77.221 Y78.113 E.15266
G1 X77.519 Y78.498 E.01527
G1 X77.768 Y79.108 E.02066
G1 X77.812 Y79.415 E.00972
G1 X77.79 Y80.032 E.01936
G1 X77.818 Y80.596 E.01771
G1 X77.709 Y81.293 E.02212
G1 X79.153 Y81.293 E.04528
G1 X79.046 Y80.762 E.01698
G1 X79.062 Y80.062 E.02195
G1 X79.03 Y79.503 E.01756
G1 X79.056 Y79.317 E.00589
G1 X78.919 Y78.816 E.01629
G1 X78.919 Y73.294 E.17314
G1 X79.134 Y72.572 E.02362
G1 X79.362 Y72.207 E.01349
G1 X79.866 Y71.694 E.02255
G1 X80.246 Y71.439 E.01435
G1 X81.011 Y71.205 E.02508
G1 X87.591 Y71.215 E.20631
G1 X88.199 Y71.396 E.01989
G1 X88.563 Y71.605 E.01316
G1 X89.173 Y72.203 E.02678
G1 X89.401 Y72.562 E.01333
G1 X89.599 Y73.134 E.01898
G1 X91.947 Y73.149 E.07362
G1 X92.618 Y73.251 E.02128
G1 X93.624 Y73.693 E.03445
G1 X94.216 Y74.224 E.02493
G1 X94.655 Y74.877 E.02467
G1 X94.853 Y75.458 E.01925
G1 X94.942 Y76.143 E.02166
G1 X94.952 Y83.237 E.22243
G1 X94.771 Y84.055 E.02627
G1 X94.476 Y84.685 E.02181
G1 X94.002 Y85.277 E.02378
G1 X93.374 Y85.764 E.02492
G1 X93.215 Y85.838 E.0055
G1 X92.03 Y86.165 E.03854
G1 X89.726 Y86.131 E.07225
G1 X87.681 Y86.131 E.06412
G1 X87.263 Y86.309 E.01424
G1 X86.763 Y86.405 E.01596
G1 X83.285 Y86.408 E.10905
G1 X82.912 Y86.418 E.0117
G1 X81.866 Y86.505 E.03291
G1 X74.732 Y86.505 E.22368
G1 X74.085 Y86.43 E.02042
G1 X73.741 Y86.411 E.0108
G1 X70.184 Y86.405 E.11153
G1 X69.546 Y86.266 E.02047
G1 X69.423 Y86.217 E.00415
G1 X67.058 Y86.078 E.07428
G1 X66.507 Y85.855 E.01864
G1 X65.702 Y85.341 E.02995
G1 X65.106 Y84.662 E.02833
G1 X64.943 Y84.354 E.01093
G1 X64.643 Y83.279 E.03499
G1 X64.651 Y80.58 E.08463
G1 X63.926 Y79.86 E.03204
G1 X63.707 Y79.484 E.01364
G1 X63.518 Y78.815 E.0218
G1 X63.534 Y73.186 E.17649
G1 X63.706 Y72.631 E.01822
G1 X63.891 Y72.298 E.01194
G1 X64.559 Y71.621 E.02982
G1 X64.785 Y71.92 F54000
G1 F1200
G1 X65.038 Y71.764 E.00932
G1 X65.638 Y71.582 E.01966
G1 X75.115 Y71.586 E.29714
G1 X75.475 Y71.669 E.01158
G1 X75.84 Y71.842 E.01266
G1 X76.474 Y72.433 E.02718
G1 X76.677 Y72.76 E.01207
G1 X76.844 Y73.324 E.01844
G1 X76.844 Y78.247 E.15436
G1 X77.182 Y78.67 E.01698
G1 X77.399 Y79.19 E.01767
G1 X77.434 Y79.42 E.00729
G1 X77.413 Y80.035 E.01929
G1 X77.441 Y80.596 E.01761
G1 X77.388 Y80.938 E.01085
G1 X77.248 Y81.309 E.01243
G1 X77.008 Y81.67 E.01359
G1 X79.767 Y81.67 E.08651
G1 X79.464 Y80.937 E.02487
G1 X79.424 Y80.748 E.00606
G1 X79.439 Y80.056 E.0217
G1 X79.408 Y79.505 E.0173
G1 X79.443 Y79.295 E.00668
G1 X79.296 Y78.788 E.01655
G1 X79.296 Y73.323 E.17135
G1 X79.486 Y72.709 E.02015
G1 X79.645 Y72.457 E.00934
G1 X80.12 Y71.973 E.02126
G1 X80.43 Y71.769 E.01164
G1 X81.039 Y71.582 E.01997
G1 X87.561 Y71.592 E.20449
G1 X88.067 Y71.749 E.01661
G1 X88.318 Y71.893 E.00907
G1 X88.87 Y72.428 E.0241
G1 X89.053 Y72.708 E.01049
G1 X89.225 Y73.206 E.01652
G1 X89.249 Y73.509 E.00953
G1 X91.932 Y73.526 E.08413
G1 X92.493 Y73.608 E.01778
G1 X93.398 Y73.996 E.03087
G1 X93.919 Y74.457 E.02181
G1 X94.308 Y75.026 E.02161
G1 X94.481 Y75.527 E.01662
G1 X94.565 Y76.156 E.0199
G1 X94.58 Y83.176 E.22011
G1 X94.408 Y83.953 E.02495
G1 X94.166 Y84.469 E.01787
G1 X93.751 Y84.995 E.02101
G1 X93.19 Y85.434 E.02234
G1 X93.095 Y85.48 E.00331
G1 X92.007 Y85.788 E.03545
G1 X89.729 Y85.754 E.07143
G1 X87.601 Y85.754 E.06672
G1 X87.168 Y85.944 E.01483
G1 X86.744 Y86.028 E.01355
G1 X83.28 Y86.031 E.10861
G1 X82.891 Y86.041 E.0122
G1 X81.858 Y86.128 E.0325
G1 X74.744 Y86.128 E.22305
G1 X74.118 Y86.054 E.01976
G1 X73.752 Y86.034 E.01149
G1 X70.206 Y86.028 E.11118
G1 X69.649 Y85.903 E.0179
G1 X69.514 Y85.844 E.00462
G1 X67.168 Y85.716 E.07367
G1 X66.695 Y85.527 E.01597
G1 X65.928 Y85.038 E.02852
G1 X65.427 Y84.463 E.02391
G1 X65.299 Y84.229 E.00836
G1 X65.02 Y83.253 E.03183
