; generated by PrusaSlicer 2.6.0+MacOS-arm64 on 2023-07-27 at 08:58:28 UTC

; 

; external perimeters extrusion width = 0.42mm
; perimeters extrusion width = 0.44mm
; infill extrusion width = 0.44mm
; solid infill extrusion width = 0.44mm
; top infill extrusion width = 0.40mm
; support material extrusion width = 0.36mm
; first layer extrusion width = 0.42mm

M201 X3500 Y3500 Z150 E5000 ; sets maximum accelerations, mm/sec^2
M203 X500 Y500 Z10 E60 ; sets maximum feedrates, mm / sec
M204 S3500 T1000 ; sets acceleration (S) and retract acceleration (R), mm/sec^2
M205 X8.00 Y8.00 Z0.40 E5.00 ; sets the jerk limits, mm/sec
M205 S0 T0 ; sets the minimum extruding and travel feed rate, mm/sec
;TYPE:Custom
G90 ; use absolute coordinates
M83 ; extruder relative mode
M104 S150 ; set temporary nozzle temp to prevent oozing during homing
M140 S60 ; set final bed temp
G4 S30 ; allow partial nozzle warmup
G28 ; home all axis
G1 Z50 F240
G1 X2.0 Y10 F3000
M104 S205 ; set final nozzle temp
M190 S60 ; wait for bed temp to stabilize
M109 S205 ; wait for nozzle temp to stabilize
G1 Z0.28 F240
G92 E0
G1 X2.0 Y140 E10 F1500 ; prime the nozzle
G1 X2.3 Y140 F5000
G92 E0
G1 X2.3 Y10 E10 F1200 ; prime the nozzle
G92 E0
G21 ; set units to millimeters
G90 ; use absolute coordinates
M83 ; use relative distances for extrusion
; Filament gcode
M107
;LAYER_CHANGE
;Z:0.2
;HEIGHT:0.2
;BEFORE_LAYER_CHANGE
G92 E0
;0.2


G1 E-3.5 F4800
G1 Z.2 F54000
;AFTER_LAYER_CHANGE
;0.2
G1 X45.76 Y49.817
G1 E3.5 F2400
M204 S3500
;TYPE:Skirt/Brim
;WIDTH:0.42
G1 F1200
G1 X46.39 Y49.332 E.02493
G1 X47.682 Y48.602 E.04653
G1 X49.112 Y48.03 E.04829
G1 X50.887 Y47.721 E.05649
G1 X72.436 Y47.748 E.67565
G1 X73.514 Y47.918 E.03422
G1 X74.865 Y48.303 E.04405
G1 X75.685 Y48.672 E.02819
G1 X76.826 Y49.383 E.04215
G1 X77.519 Y49.956 E.02819
G1 X78.41 Y50.941 E.04164
G1 X79.379 Y52.388 E.0546
G1 X79.704 Y53.075 E.02383
G1 X80.07 Y54.147 E.03552
G1 X80.234 Y54.89 E.02386
G1 X80.348 Y56.287 E.04395
G1 X80.344 Y73.985 E.55491
G1 X80.242 Y74.997 E.03189
G1 X79.949 Y76.19 E.03852
G1 X79.439 Y77.552 E.0456
G1 X78.74 Y78.678 E.04155
G1 X77.37 Y80.138 E.06278
G1 X76.45 Y80.832 E.03613
G1 X74.356 Y81.783 E.07211
G1 X73.632 Y81.987 E.02358
G1 X72.137 Y82.188 E.0473
G1 X50.832 Y82.19 E.668
G1 X49.691 Y82.097 E.03589
G1 X48.524 Y81.785 E.03788
G1 X46.882 Y81.009 E.05694
G1 X46.024 Y80.429 E.03247
G1 X44.922 Y79.342 E.04853
G1 X44.083 Y78.253 E.0431
G1 X43.626 Y77.455 E.02883
G1 X42.955 Y75.557 E.06312
G1 X42.716 Y73.709 E.05843
G1 X42.744 Y55.682 E.56522
G1 X42.909 Y54.618 E.03376
G1 X43.447 Y52.981 E.05403
G1 X43.931 Y52.031 E.03343
G1 X44.913 Y50.645 E.05326
G1 X45.717 Y49.859 E.03525
G1 E-2.45 F4800
;WIPE_START
G1 F43200
G1 X46.39 Y49.332 E-.09023
G1 X47.682 Y48.602 E-.15664
G1 X49.112 Y48.03 E-.16257
G1 X50.887 Y47.721 E-.19018
G1 X55.154 Y47.726 E-.45038
;WIPE_END
G1 X47.843 Y52.907 F54000
G1 E3.5 F2400
G1 F1200
G1 X49.329 Y51.871 E.0568
G1 X51.122 Y51.384 E.05826
G1 X72.086 Y51.39 E.65731
G1 X74.2 Y52.055 E.06949
G1 X74.926 Y52.582 E.02813
G1 X75.504 Y53.175 E.02596
G1 X76.374 Y54.647 E.05361
G1 X76.588 Y55.411 E.02488
G1 X76.674 Y56.121 E.02242
G1 X76.703 Y66.835 E.33593
G1 X76.693 Y73.764 E.21725
G1 X76.277 Y75.572 E.05817
G1 X75.857 Y76.315 E.02676
G1 X75.327 Y76.98 E.02666
G1 X73.779 Y78.055 E.05909
G1 X71.93 Y78.535 E.0599
G1 X51.262 Y78.544 E.64803
G1 X50.218 Y78.42 E.03296
G1 X49.229 Y78.08 E.03279
G1 X47.814 Y77.042 E.05502
G1 X46.811 Y75.564 E.056
G1 X46.38 Y73.76 E.05816
G1 X46.379 Y56.189 E.55093
G1 X46.576 Y55.091 E.03498
G1 X47.007 Y54.029 E.03594
G1 X47.794 Y52.942 E.04208
G1 X48.072 Y53.194 F54000
G1 F1200
G1 X49.46 Y52.226 E.05306
G1 X51.148 Y51.762 E.05489
G1 X72.057 Y51.767 E.65559
G1 X74.055 Y52.404 E.06575
G1 X74.668 Y52.857 E.0239
G1 X75.192 Y53.388 E.02339
G1 X76.036 Y54.816 E.05201
G1 X76.215 Y55.47 E.02126
G1 X76.297 Y56.133 E.02095
G1 X76.326 Y66.836 E.33559
G1 X76.316 Y73.742 E.21653
G1 X75.935 Y75.411 E.05368
G1 X75.553 Y76.092 E.02448
G1 X75.05 Y76.723 E.0253
G1 X73.593 Y77.726 E.05546
G1 X71.906 Y78.158 E.0546
G1 X51.294 Y78.168 E.64627
G1 X50.321 Y78.057 E.03071
G1 X49.379 Y77.733 E.03123
G1 X48.065 Y76.759 E.05128
G1 X47.144 Y75.384 E.05189
G1 X46.757 Y73.738 E.05302
G1 X46.757 Y56.206 E.5497
G1 X46.943 Y55.179 E.03272
G1 X47.347 Y54.194 E.03338
G1 X48.037 Y53.243 E.03684
G1 X48.341 Y53.466 F54000
G1 F1200
G1 X49.647 Y52.555 E.04993
G1 X51.173 Y52.139 E.04959
G1 X72.027 Y52.144 E.65386
G1 X73.857 Y52.726 E.06021
G1 X74.41 Y53.133 E.02153
G1 X74.907 Y53.636 E.02217
G1 X75.68 Y54.941 E.04756
G1 X75.843 Y55.531 E.01919
G1 X75.922 Y56.168 E.02013
G1 X75.949 Y66.836 E.33449
G1 X75.938 Y73.721 E.21587
G1 X75.593 Y75.25 E.04915
G1 X75.231 Y75.894 E.02316
G1 X74.773 Y76.466 E.02298
G1 X73.466 Y77.369 E.04981
G1 X71.882 Y77.781 E.05132
G1 X51.326 Y77.792 E.64452
G1 X50.385 Y77.685 E.02969
G1 X49.531 Y77.387 E.02836
G1 X48.318 Y76.477 E.04755
G1 X47.477 Y75.205 E.04781
G1 X47.134 Y73.717 E.04788
G1 X47.134 Y56.224 E.54848
G1 X47.31 Y55.267 E.03051
G1 X47.686 Y54.359 E.03081
G1 X48.305 Y53.514 E.03284
G1 X48.608 Y53.738 F54000
G1 F1200
G1 X48.64 Y53.694 E.00171
G1 X49.832 Y52.885 E.04517
G1 X51.197 Y52.516 E.04433
G1 X71.998 Y52.521 E.6522
G1 X73.659 Y53.049 E.05465
G1 X74.174 Y53.427 E.02003
G1 X74.622 Y53.884 E.02007
G1 X75.323 Y55.066 E.04309
G1 X75.475 Y55.617 E.01792
G1 X75.546 Y56.202 E.01848
G1 X75.572 Y66.837 E.33345
G1 X75.561 Y73.7 E.21518
G1 X75.25 Y75.091 E.04469
G1 X74.927 Y75.67 E.02079
G1 X74.497 Y76.208 E.02159
G1 X73.281 Y77.039 E.04618
G1 X71.858 Y77.404 E.04606
G1 X51.336 Y77.415 E.64345
G1 X50.489 Y77.322 E.02672
G1 X49.684 Y77.041 E.02673
G1 X48.572 Y76.197 E.04377
G1 X47.836 Y75.086 E.04179
G1 X47.511 Y73.695 E.04479
G1 X47.511 Y56.241 E.54726
G1 X47.677 Y55.357 E.0282
G1 X48.025 Y54.527 E.02822
G1 X48.572 Y53.786 E.02888
G1 X48.874 Y54.011 F54000
G1 F1200
G1 X48.922 Y53.946 E.00253
G1 X50.015 Y53.216 E.04121
G1 X51.222 Y52.893 E.03918
G1 X71.969 Y52.898 E.65051
G1 X73.461 Y53.371 E.04908
G1 X73.938 Y53.722 E.01857
G1 X74.336 Y54.131 E.01789
G1 X74.966 Y55.191 E.03866
G1 X75.108 Y55.704 E.01669
G1 X75.17 Y56.235 E.01676
G1 X75.195 Y66.837 E.33242
G1 X75.184 Y73.679 E.21453
G1 X74.907 Y74.932 E.04024
G1 X74.606 Y75.473 E.01941
G1 X74.22 Y75.95 E.01924
G1 X73.154 Y76.683 E.04056
G1 X71.834 Y77.027 E.04277
G1 X51.346 Y77.038 E.64239
G1 X50.553 Y76.949 E.02502
G1 X49.839 Y76.696 E.02375
G1 X48.828 Y75.918 E.04
G1 X48.171 Y74.909 E.03775
G1 X47.888 Y73.675 E.0397
G1 X47.888 Y56.26 E.54604
G1 X48.043 Y55.448 E.02592
G1 X48.363 Y54.696 E.02562
G1 X48.838 Y54.059 E.02491
G1 X49.138 Y54.286 F54000
G1 F1200
G1 X49.203 Y54.201 E.00336
G1 X50.196 Y53.548 E.03726
G1 X51.246 Y53.27 E.03406
G1 X71.94 Y53.275 E.64885
G1 X73.264 Y53.694 E.04354
G1 X73.679 Y53.996 E.01609
G1 X74.051 Y54.378 E.01672
G1 X74.61 Y55.316 E.03424
G1 X74.741 Y55.789 E.01539
G1 X74.794 Y56.267 E.01508
G1 X74.818 Y66.838 E.33145
G1 X74.807 Y73.658 E.21384
G1 X74.563 Y74.774 E.03582
G1 X74.302 Y75.249 E.01699
G1 X73.945 Y75.691 E.01781
G1 X72.97 Y76.352 E.03693
G1 X71.81 Y76.65 E.03755
G1 X51.356 Y76.661 E.64132
G1 X50.657 Y76.586 E.02204
G1 X49.995 Y76.351 E.02203
G1 X49.086 Y75.642 E.03615
G1 X48.507 Y74.735 E.03374
G1 X48.265 Y73.654 E.03473
G1 X48.265 Y56.277 E.54484
G1 X48.398 Y55.577 E.02234
G1 X48.7 Y54.865 E.02425
G1 X49.102 Y54.334 E.02088
G1 X49.4 Y54.563 F54000
G1 F1200
G1 X49.481 Y54.457 E.00418
G1 X50.374 Y53.882 E.0333
G1 X51.27 Y53.647 E.02904
G1 X71.912 Y53.653 E.64722
G1 X73.066 Y54.017 E.03794
G1 X73.444 Y54.291 E.01464
G1 X73.764 Y54.624 E.01448
G1 X74.254 Y55.443 E.02992
G1 X74.368 Y55.847 E.01316
G1 X74.418 Y56.298 E.01423
G1 X74.441 Y66.838 E.33048
G1 X74.43 Y73.638 E.21321
G1 X74.219 Y74.619 E.03146
G1 X73.997 Y75.026 E.01454
G1 X73.67 Y75.431 E.01632
G1 X72.788 Y76.02 E.03325
G1 X71.787 Y76.273 E.03237
G1 X51.366 Y76.284 E.64029
G1 X50.721 Y76.214 E.02034
G1 X50.153 Y76.008 E.01894
G1 X49.347 Y75.368 E.03227
G1 X48.844 Y74.564 E.02974
G1 X48.642 Y73.635 E.02981
G1 X48.642 Y56.296 E.54365
G1 X48.764 Y55.67 E.02
G1 X49.037 Y55.036 E.02164
G1 X49.363 Y54.61 E.01682
G1 X49.66 Y54.841 F54000
G1 F1200
G1 X49.757 Y54.715 E.00499
G1 X50.549 Y54.217 E.02933
G1 X51.293 Y54.024 E.0241
G1 X71.883 Y54.03 E.64559
G1 X72.871 Y54.341 E.03248
G1 X73.184 Y54.566 E.01209
G1 X73.478 Y54.87 E.01326
G1 X73.898 Y55.57 E.0256
G1 X74 Y55.934 E.01185
G1 X74.042 Y56.328 E.01242
G1 X74.064 Y66.839 E.32957
G1 X74.053 Y73.618 E.21255
G1 X73.874 Y74.465 E.02714
G1 X73.692 Y74.803 E.01204
G1 X73.394 Y75.172 E.01487
G1 X72.662 Y75.663 E.02764
G1 X71.763 Y75.896 E.02912
G1 X51.375 Y75.907 E.63925
G1 X50.828 Y75.851 E.01724
G1 X50.313 Y75.664 E.01718
G1 X49.609 Y75.095 E.02838
G1 X49.205 Y74.45 E.02386
G1 X49.019 Y73.614 E.02685
G1 X49.019 Y56.315 E.5424
G1 X49.13 Y55.765 E.01759
G1 X49.372 Y55.21 E.01898
G1 X49.623 Y54.888 E.0128
G1 X49.917 Y55.121 F54000
G1 F1200
G1 X50.031 Y54.977 E.00576
G1 X50.721 Y54.553 E.02539
G1 X51.316 Y54.401 E.01925
G1 X71.854 Y54.407 E.64395
G1 X72.676 Y54.664 E.027
G1 X72.949 Y54.861 E.01056
G1 X73.19 Y55.115 E.01098
G1 X73.542 Y55.697 E.02133
G1 X73.633 Y56.02 E.01052
G1 X73.666 Y56.356 E.01059
G1 X73.687 Y66.839 E.32869
G1 X73.676 Y73.599 E.21196
G1 X73.527 Y74.314 E.0229
G1 X73.387 Y74.581 E.00945
G1 X73.12 Y74.912 E.01333
G1 X72.483 Y75.33 E.02389
G1 X71.739 Y75.519 E.02407
G1 X51.384 Y75.53 E.63822
G1 X50.891 Y75.479 E.01554
G1 X50.476 Y75.323 E.0139
G1 X49.875 Y74.826 E.02445
G1 X49.544 Y74.283 E.01994
G1 X49.396 Y73.594 E.0221
G1 X49.396 Y56.335 E.54114
G1 X49.494 Y55.863 E.01511
G1 X49.707 Y55.386 E.01638
G1 X49.879 Y55.168 E.00871
G1 X50.17 Y55.404 F54000
G1 F1200
G1 X50.301 Y55.242 E.00653
G1 X50.889 Y54.892 E.02146
G1 X51.339 Y54.778 E.01456
G1 X71.825 Y54.784 E.64232
G1 X72.48 Y54.988 E.02151
G1 X72.713 Y55.156 E.00901
G1 X72.901 Y55.357 E.00863
G1 X73.187 Y55.827 E.01725
G1 X73.259 Y56.075 E.0081
G1 X73.29 Y56.384 E.00974
G1 X73.31 Y66.839 E.32781
G1 X73.299 Y73.58 E.21136
G1 X73.179 Y74.167 E.01879
G1 X73.08 Y74.36 E.0068
G1 X72.846 Y74.651 E.01171
G1 X72.307 Y74.996 E.02007
G1 X71.717 Y75.142 E.01906
G1 X51.392 Y75.153 E.63728
G1 X50.999 Y75.117 E.01237
G1 X50.64 Y74.982 E.01203
G1 X50.145 Y74.561 E.02037
G1 X49.886 Y74.12 E.01604
G1 X49.773 Y73.576 E.01742
G1 X49.773 Y56.356 E.53992
G1 X49.858 Y55.964 E.01258
G1 X50.039 Y55.566 E.01371
G1 X50.132 Y55.45 E.00466
G1 X50.419 Y55.689 F54000
G1 F1200
G1 X50.567 Y55.511 E.00726
G1 X51.052 Y55.232 E.01754
G1 X51.362 Y55.155 E.01002
G1 X71.797 Y55.161 E.64073
G1 X72.289 Y55.314 E.01616
G1 X72.452 Y55.428 E.00624
G1 X72.613 Y55.601 E.00741
G1 X72.832 Y55.957 E.01311
G1 X72.892 Y56.162 E.0067
G1 X72.914 Y56.409 E.00778
G1 X72.933 Y66.84 E.32706
G1 X72.922 Y73.561 E.21073
G1 X72.829 Y74.025 E.01484
G1 X72.773 Y74.141 E.00404
G1 X72.574 Y74.388 E.00995
G1 X72.136 Y74.658 E.01613
G1 X71.695 Y74.765 E.01423
G1 X51.397 Y74.776 E.63643
G1 X51.105 Y74.754 E.00918
G1 X50.806 Y74.642 E.01001
G1 X50.421 Y74.302 E.0161
G1 X50.23 Y73.964 E.01217
G1 X50.15 Y73.559 E.01294
G1 X50.15 Y56.376 E.53876
G1 X50.21 Y56.102 E.00879
G1 X50.38 Y55.735 E.01268
G1 X50.702 Y55.929 F54000
G1 F1200
G1 X50.827 Y55.786 E.00596
G1 X51.21 Y55.575 E.01371
G1 X51.384 Y55.532 E.00562
G1 X71.768 Y55.538 E.63913
G1 X72.097 Y55.64 E.0108
G1 X72.216 Y55.724 E.00457
G1 X72.321 Y55.84 E.00491
G1 X72.48 Y56.094 E.0094
G1 X72.518 Y56.218 E.00407
G1 X72.537 Y56.418 E.0063
G1 X72.556 Y66.84 E.32678
G1 X72.545 Y73.543 E.21017
G1 X72.475 Y73.895 E.01125
G1 X72.303 Y74.123 E.00895
G1 X71.972 Y74.318 E.01205
G1 X71.674 Y74.388 E.0096
G1 X51.404 Y74.398 E.63555
G1 X51.165 Y74.38 E.00751
G1 X50.982 Y74.307 E.00618
G1 X50.699 Y74.046 E.01207
G1 X50.593 Y73.859 E.00674
G1 X50.527 Y73.539 E.01024
G1 X50.527 Y56.396 E.53751
G1 X50.561 Y56.239 E.00504
G1 X50.678 Y55.983 E.00883
G1 X51.021 Y56.139 F54000
G1 F1200
G1 X51.074 Y56.071 E.0027
G1 X51.407 Y55.909 E.01161
G1 X71.739 Y55.915 E.6375
G1 X71.955 Y55.996 E.00723
G1 X72.132 Y56.24 E.00945
G1 X72.16 Y56.428 E.00596
G1 X72.178 Y66.84 E.32646
G1 X72.168 Y73.522 E.20951
G1 X72.119 Y73.758 E.00756
G1 X72.074 Y73.82 E.0024
G1 X71.808 Y73.977 E.00968
G1 X71.655 Y74.011 E.00491
G1 X51.412 Y74.021 E.63471
G1 X51.231 Y74.007 E.00569
G1 X51.172 Y73.98 E.00203
G1 X50.981 Y73.796 E.00832
G1 X50.955 Y73.75 E.00166
G1 X50.905 Y73.517 E.00747
G1 X50.904 Y56.416 E.53619
G1 X50.996 Y56.194 E.00753
; printing object KlackEnderPro2 Probe Block 5.2mm v0.3.stl id:0 copy 0
G1 E-2.45 F4800
;WIPE_START
G1 F43200
G1 X51.074 Y56.071 E-.01537
G1 X51.407 Y55.909 E-.03909
G1 X60.838 Y55.912 E-.99554
;WIPE_END
G1 X71.011 Y64.199 F54000
G1 E3.5 F2400
;TYPE:Perimeter
;WIDTH:0.419999
G1 F1200
G1 X71.012 Y67.08 E.09033
;WIDTH:0.461265
G1 X70.992 Y67.313 E.00813
;WIDTH:0.502531
G1 X70.971 Y67.547 E.00898
;WIDTH:0.543796
G1 X70.951 Y67.78 E.00974
G1 X70.962 Y68.483 E.02928
;WIDTH:0.55108
G1 X70.948 Y69.073 E.02494
G1 X70.97 Y69.271 E.00842
;WIDTH:0.507387
G1 X70.992 Y69.469 E.00769
;WIDTH:0.463693
G1 X71.013 Y69.667 E.00697
;WIDTH:0.419999
G1 X71.015 Y72.858 E.10005
G1 X52.057 Y72.868 E.59441
G1 X52.057 Y57.062 E.49559
G1 X71.007 Y57.059 E.59416
G1 X71.011 Y64.139 E.22199
G1 E-2.45 F4800
;WIPE_START
G1 F43200
G1 X71.012 Y67.08 E-.31044
G1 X70.992 Y67.313 E-.02468
G1 X70.971 Y67.547 E-.0248
G1 X70.951 Y67.78 E-.02468
G1 X70.962 Y68.483 E-.07421
G1 X70.948 Y69.073 E-.0623
G1 X70.97 Y69.271 E-.02103
G1 X70.992 Y69.469 E-.02103
G1 X71.013 Y69.667 E-.02102
G1 X71.015 Y72.858 E-.33683
G1 X69.793 Y72.859 E-.12898
;WIPE_END
G1 X71.392 Y73.235 F54000
G1 E3.5 F2400
G1 F1200
G1 X51.68 Y73.246 E.61805
G1 X51.68 Y56.685 E.51926
G1 X71.384 Y56.682 E.6178
G1 X71.392 Y73.175 E.51713
G1 X71.613 Y73.612 F54000
;TYPE:External perimeter
G1 F1200
G1 X51.372 Y73.619 E.63464
G1 X51.303 Y73.492 E.00453
G1 X51.303 Y56.545 E.53136
G1 X51.351 Y56.376 E.00551
G1 X51.482 Y56.308 E.00463
G1 X71.618 Y56.305 E.63135
G1 X71.702 Y56.321 E.00268
G1 X71.761 Y56.446 E.00433
G1 X71.769 Y73.406 E.53177
G1 X71.768 Y73.505 E.0031
G1 X71.662 Y73.578 E.00404
G1 X71.317 Y73.342 F54000
G1 E-2.45 F4800
;WIPE_START
G1 F43200
G1 X61.715 Y73.598 E-1.05
;WIPE_END
G1 X67.501 Y64.529 F54000
G1 E3.5 F2400
;TYPE:Perimeter
G1 F1200
G1 X67.731 Y64.682 E.00866
G1 X67.91 Y64.855 E.00781
G1 X68.504 Y65.117 E.02036
G1 X69.042 Y65.476 E.02028
G1 X69.51 Y65.924 E.02031
G1 X69.893 Y66.446 E.0203
G1 X70.18 Y67.025 E.02026
;WIDTH:0.448147
G1 X70.284 Y67.333 E.01095
;WIDTH:0.476295
G1 X70.388 Y67.641 E.01171
;WIDTH:0.510046
G1 X70.419 Y67.722 E.00337
;WIDTH:0.543796
G1 X70.451 Y67.802 E.00359
G1 X70.486 Y68.373 E.02383
;WIDTH:0.544083
G1 X70.451 Y68.945 E.02388
G1 X70.379 Y69.152 E.00913
;WIDTH:0.502722
G1 X70.308 Y69.358 E.00833
;WIDTH:0.461361
G1 X70.236 Y69.565 E.00763
;WIDTH:0.419999
G1 X69.975 Y70.16 E.02037
G1 X69.616 Y70.697 E.02025
G1 X69.245 Y71.089 E.01692
G1 X68.645 Y71.549 E.02371
G1 X68.066 Y71.835 E.02025
G1 X67.443 Y72.016 E.02034
G1 X66.802 Y72.088 E.02022
G1 X66.152 Y72.045 E.02042
G1 X65.526 Y71.892 E.02021
G1 X64.932 Y71.63 E.02036
G1 X64.395 Y71.272 E.02024
G1 X63.926 Y70.824 E.02034
G1 X63.543 Y70.301 E.02033
G1 X63.257 Y69.722 E.02025
G1 X63.2 Y69.565 E.00524
G1 X63.058 Y69.02 E.01766
G1 X63.005 Y68.455 E.01779
G1 X63.047 Y67.81 E.02027
G1 X63.2 Y67.182 E.02027
G1 X63.462 Y66.587 E.02038
G1 X63.82 Y66.05 E.02024
G1 X64.268 Y65.582 E.02031
G1 X64.791 Y65.198 E.02034
G1 X65.453 Y64.848 E.02348
G1 X65.661 Y64.623 E.00961
G1 X66.102 Y64.363 E.01605
G1 X66.368 Y64.298 E.00859
G1 X66.902 Y64.274 E.01676
G1 X67.304 Y64.397 E.01318
G1 X67.451 Y64.496 E.00556
G1 X67.303 Y64.845 F54000
G1 F1200
G1 X67.547 Y65.022 E.00945
G1 X67.67 Y65.181 E.0063
G1 X68.006 Y65.3 E.01118
G1 X68.429 Y65.507 E.01477
G1 X68.901 Y65.848 E.01826
G1 X69.307 Y66.266 E.01827
G1 X69.633 Y66.747 E.01822
G1 X69.872 Y67.279 E.01829
G1 X70.014 Y67.841 E.01817
G1 X70.059 Y68.373 E.01674
G1 X70.014 Y68.906 E.01677
G1 X69.872 Y69.468 E.01817
G1 X69.633 Y70 E.01829
G1 X69.307 Y70.481 E.01822
G1 X68.901 Y70.899 E.01827
G1 X68.429 Y71.24 E.01826
G1 X67.906 Y71.494 E.01823
G1 X67.346 Y71.652 E.01824
