; generated by PrusaSlicer 2.6.0+MacOS-arm64 on 2023-07-29 at 13:55:04 UTC

; 

; external perimeters extrusion width = 0.42mm
; perimeters extrusion width = 0.44mm
; infill extrusion width = 0.44mm
; solid infill extrusion width = 0.44mm
; top infill extrusion width = 0.40mm
; support material extrusion width = 0.36mm
; first layer extrusion width = 0.42mm

M201 X3500 Y3500 Z150 E5000 ; sets maximum accelerations, mm/sec^2
M203 X500 Y500 Z10 E60 ; sets maximum feedrates, mm / sec
M204 S3500 T1000 ; sets acceleration (S) and retract acceleration (R), mm/sec^2
M205 X8.00 Y8.00 Z0.40 E5.00 ; sets the jerk limits, mm/sec
M205 S0 T0 ; sets the minimum extruding and travel feed rate, mm/sec
;TYPE:Custom
G90 ; use absolute coordinates
M83 ; extruder relative mode
M104 S150 ; set temporary nozzle temp to prevent oozing during homing
M140 S60 ; set final bed temp
G4 S30 ; allow partial nozzle warmup
G28 ; home all axis
G1 Z50 F240
G1 X2.0 Y10 F3000
M104 S205 ; set final nozzle temp
M190 S60 ; wait for bed temp to stabilize
M109 S205 ; wait for nozzle temp to stabilize
G28
G29
G1 Z0.28 F240
G92 E0
G1 X2.0 Y140 E10 F1500 ; prime the nozzle
G1 X2.3 Y140 F5000
G92 E0
G1 X2.3 Y10 E10 F1200 ; prime the nozzle
G92 E0
G21 ; set units to millimeters
G90 ; use absolute coordinates
M83 ; use relative distances for extrusion
; Filament gcode
M107
;LAYER_CHANGE
;Z:0.2
;HEIGHT:0.2
;BEFORE_LAYER_CHANGE
G92 E0
;0.2


G1 E-3.5 F4800
G1 Z.2 F54000
;AFTER_LAYER_CHANGE
;0.2
G1 X46.714 Y33.364
G1 E3.5 F2400
M204 S3500
;TYPE:Skirt/Brim
;WIDTH:0.42
G1 F1200
G1 X47.902 Y32.086 E.05471
G1 X48.795 Y31.374 E.03581
G1 X50.306 Y30.499 E.05475
G1 X50.862 Y30.261 E.01896
G1 X52.538 Y29.774 E.05472
G1 X53.67 Y29.62 E.03582
G1 X54.758 Y29.615 E.03411
G1 X80.248 Y32.063 E.8029
G1 X81.089 Y32.256 E.02705
G1 X86.047 Y34.086 E.16571
G1 X86.85 Y34.507 E.02843
G1 X87.544 Y35.065 E.02792
G1 X87.971 Y35.588 E.02117
G1 X94.979 Y46.071 E.39537
G1 X95.711 Y47.511 E.05065
G1 X96.23 Y49.184 E.05492
G1 X96.455 Y51.204 E.06373
G1 X96.513 Y60.849 E.30242
G1 X96.396 Y62.314 E.04608
G1 X96.287 Y62.911 E.01903
G1 X95.767 Y64.583 E.0549
G1 X94.957 Y66.135 E.05489
G1 X93.881 Y67.516 E.05489
G1 X92.577 Y68.681 E.05483
G1 X91.086 Y69.594 E.05482
G1 X89.456 Y70.226 E.05481
G1 X88.341 Y70.476 E.03583
G1 X86.6 Y70.603 E.05473
G1 X70.174 Y70.105 E.51526
G1 X68.38 Y69.715 E.05756
G1 X67.317 Y69.29 E.03589
G1 X65.747 Y68.331 E.05768
G1 X65.211 Y67.888 E.0218
G1 X64.19 Y66.829 E.04612
G1 X46.635 Y45.2 E.87342
G1 X45.509 Y43.278 E.06984
G1 X44.947 Y41.626 E.05471
G1 X44.689 Y39.899 E.05475
G1 X44.689 Y38.758 E.03578
G1 X44.947 Y37.031 E.05475
G1 X45.108 Y36.448 E.01896
G1 X45.772 Y34.834 E.05472
G1 X46.681 Y33.414 E.05286
; printing object KlackEnderPro2 Probe Dock 5.1mm v0.7.stl id:0 copy 0
G1 E-2.45 F4800
;WIPE_START
G1 F43200
G1 X47.902 Y32.086 E-.19042
G1 X48.795 Y31.374 E-.12056
G1 X50.306 Y30.499 E-.18431
G1 X50.862 Y30.261 E-.06384
G1 X52.538 Y29.774 E-.18423
G1 X53.67 Y29.62 E-.12059
G1 X54.758 Y29.615 E-.11485
G1 X55.429 Y29.679 E-.0712
;WIPE_END
G1 X54.606 Y32.989 F54000
G1 E3.5 F2400
;TYPE:Support material
G1 F1200
G1 X55.263 Y33.018 E.02062
G1 X56.376 Y33.272 E.03579
G1 X57.426 Y33.721 E.03581
G1 X58.379 Y34.35 E.0358
G1 X59.019 Y34.962 E.02776
G1 X58.327 Y34.962 E.0217
G1 X58.057 Y35.233 E.01199
G1 X58.057 Y40.615 E.16875
G1 X58.327 Y40.885 E.01197
G1 X60.559 Y40.885 E.06998
G1 X60.512 Y41.052 E.00544
G1 X59.47 Y41.052 E.03267
G1 X59.2 Y41.32 E.01193
G1 X59.179 Y43.543 E.0697
G1 X58.379 Y44.307 E.03468
G1 X57.426 Y44.936 E.0358
G1 X56.376 Y45.385 E.03581
G1 X55.263 Y45.639 E.03579
G1 X54.123 Y45.69 E.03578
G1 X52.992 Y45.537 E.03578
G1 X51.906 Y45.184 E.0358
G1 X50.9 Y44.643 E.03581
G1 X50.008 Y43.931 E.03579
G1 X49.257 Y43.072 E.03578
G1 X48.671 Y42.092 E.0358
G1 X48.27 Y41.023 E.0358
G1 X48.066 Y39.899 E.03582
G1 X48.066 Y38.758 E.03578
G1 X48.27 Y37.635 E.03579
G1 X48.671 Y36.566 E.0358
G1 X49.257 Y35.586 E.0358
G1 X50.008 Y34.726 E.0358
G1 X50.9 Y34.014 E.03579
G1 X51.906 Y33.473 E.03581
G1 X52.992 Y33.12 E.0358
G1 X54.123 Y32.967 E.03578
G1 X54.55 Y32.986 E.0134
G1 X58.794 Y43.676 F54000
G1 F1200
G1 X58.794 Y41.225 E.07685
G1 X58.375 Y41.225 E.01314
G1 X58.375 Y43.842 E.08205
G1 X58.167 Y44.041 E.00903
G1 X57.956 Y44.18 E.00792
G1 X57.956 Y40.994 E.09989
G1 X57.717 Y40.755 E.0106
G1 X57.717 Y35.092 E.17756
G1 X57.956 Y34.853 E.0106
G1 X57.956 Y34.477 E.01179
G1 X57.537 Y34.201 E.01573
G1 X57.537 Y44.456 E.32154
G1 X57.265 Y44.636 E.01023
G1 X57.118 Y44.699 E.00501
G1 X57.118 Y33.958 E.33678
G1 X56.699 Y33.779 E.01429
G1 X56.699 Y44.878 E.348
G1 X56.28 Y45.057 E.01429
G1 X56.28 Y33.6 E.35923
G1 X55.861 Y33.503 E.01348
G1 X55.861 Y45.155 E.36534
G1 X55.442 Y45.25 E.01347
G1 X55.442 Y33.407 E.37133
G1 X55.218 Y33.356 E.0072
G1 X55.023 Y33.347 E.00612
G1 X55.023 Y45.31 E.37509
G1 X54.604 Y45.329 E.01315
G1 X54.604 Y33.328 E.37628
G1 X54.185 Y33.31 E.01315
G1 X54.185 Y45.348 E.37744
G1 X53.766 Y45.3 E.01322
G1 X53.766 Y33.358 E.37443
G1 X53.348 Y33.414 E.01322
G1 X53.348 Y45.243 E.37089
G1 X53.067 Y45.205 E.00889
G1 X52.929 Y45.16 E.00455
G1 X52.929 Y33.498 E.36565
G1 X52.51 Y33.634 E.01381
G1 X52.51 Y45.024 E.35713
G1 X52.091 Y44.887 E.01382
G1 X52.091 Y33.77 E.34857
G1 X51.672 Y33.984 E.01475
G1 X51.672 Y44.673 E.33515
G1 X51.253 Y44.447 E.01493
G1 X51.253 Y34.21 E.32097
G1 X51.088 Y34.298 E.00586
G1 X50.834 Y34.501 E.01019
G1 X50.834 Y44.156 E.30273
G1 X50.415 Y43.822 E.0168
G1 X50.415 Y34.836 E.28175
G1 X50.243 Y34.972 E.00688
G1 X49.996 Y35.256 E.0118
G1 X49.996 Y43.402 E.25541
G1 X49.577 Y42.922 E.01998
G1 X49.577 Y35.735 E.22534
G1 X49.158 Y36.413 E.02499
G1 X49.158 Y42.244 E.18283
G1 X48.978 Y41.944 E.01097
G1 X48.739 Y41.306 E.02136
G1 X48.739 Y36.868 E.13915
G1 E-2.45 F4800
;WIPE_START
G1 F43200
G1 X48.739 Y41.306 E-.46846
G1 X48.978 Y41.944 E-.07191
G1 X49.158 Y42.244 E-.03693
G1 X49.158 Y37.766 E-.4727
;WIPE_END
G1 X66.272 Y46.46 F54000
G1 E3.5 F2400
G1 F1200
G1 X66.748 Y46.486 E.01495
G1 X66.797 Y46.52 E.00187
G1 X71.121 Y54.154 E.27509
G1 X70.55 Y55.187 E.03701
G1 X70.313 Y55.459 E.01131
G1 X70.461 Y55.719 E.00938
G1 X70.685 Y55.677 E.00715
G1 X71.429 Y55.683 E.02333
G1 X71.888 Y55.707 E.01441
G1 X72.005 Y55.734 E.00376
G1 X76.289 Y63.389 E.27505
G1 X75.715 Y64.432 E.03733
G1 X74.963 Y65.296 E.03591
G1 X74.05 Y65.987 E.0359
G1 X73.017 Y66.476 E.03583
G1 X71.905 Y66.744 E.03586
G1 X70.762 Y66.779 E.03585
G1 X69.636 Y66.58 E.03585
G1 X68.573 Y66.155 E.03589
G1 X67.618 Y65.519 E.03598
G1 X66.812 Y64.7 E.03603
G1 X66.222 Y63.781 E.03424
G1 X65.955 Y63.159 E.02122
G1 X65.789 Y62.643 E.017
G1 X65.668 Y62.05 E.01898
G1 X65.613 Y61.504 E.01721
G1 X65.614 Y60.908 E.01869
G1 X65.675 Y60.351 E.01757
G1 X65.807 Y59.721 E.02018
G1 X66.188 Y58.72 E.03358
G1 X66.978 Y57.482 E.04605
G1 X65.614 Y57.523 E.04279
G1 X64.492 Y57.325 E.03572
G1 X63.434 Y56.901 E.03574
G1 X62.484 Y56.27 E.03576
G1 X61.681 Y55.455 E.03587
G1 X61.092 Y54.54 E.03412
G1 X60.825 Y53.918 E.02122
G1 X60.66 Y53.408 E.01681
G1 X60.538 Y52.811 E.01911
G1 X60.482 Y52.273 E.01696
G1 X60.483 Y51.67 E.01891
G1 X60.543 Y51.125 E.01719
G1 X60.677 Y50.482 E.02059
G1 X61.06 Y49.481 E.0336
G1 X61.671 Y48.526 E.03555
G1 X62.464 Y47.716 E.03554
G1 X63.404 Y47.084 E.03552
G1 X64.454 Y46.656 E.03555
G1 X65.55 Y46.454 E.03494
G1 X66.216 Y46.46 E.02088
G1 E-2.45 F4800
;WIPE_START
G1 F43200
G1 X65.55 Y46.454 E-.0703
G1 X64.454 Y46.656 E-.11764
G1 X63.404 Y47.084 E-.11969
G1 X62.464 Y47.716 E-.11956
G1 X61.671 Y48.526 E-.11965
G1 X61.06 Y49.481 E-.11967
G1 X60.677 Y50.482 E-.11313
G1 X60.543 Y51.125 E-.06933
G1 X60.483 Y51.67 E-.05788
G1 X60.482 Y52.273 E-.06365
G1 X60.538 Y52.811 E-.0571
G1 X60.58 Y53.019 E-.0224
;WIPE_END
G1 X75.553 Y64.359 F54000
G1 E3.5 F2400
G1 F1200
G1 X75.553 Y62.77 E.04982
G1 X75.134 Y62.021 E.02691
G1 X75.134 Y64.582 E.0803
G1 X74.715 Y65.057 E.01986
G1 X74.715 Y61.272 E.11868
G1 X74.296 Y60.523 E.02691
G1 X74.296 Y65.375 E.15213
G1 X73.877 Y65.692 E.01647
G1 X73.877 Y59.775 E.18552
G1 X73.458 Y59.026 E.02691
G1 X73.458 Y65.891 E.21525
G1 X73.039 Y66.09 E.01454
G1 X73.039 Y58.277 E.24497
G1 X72.62 Y57.529 E.02688
G1 X72.62 Y66.223 E.27259
G1 X72.201 Y66.324 E.01351
G1 X72.201 Y56.78 E.29925
G1 X71.782 Y56.041 E.02664
G1 X71.782 Y66.408 E.32505
G1 X71.364 Y66.421 E.01311
G1 X71.364 Y56.021 E.32608
G1 X70.945 Y56.018 E.01314
G1 X70.945 Y66.434 E.32659
G1 X70.787 Y66.439 E.00496
G1 X70.526 Y66.393 E.00831
G1 X70.526 Y56.052 E.32423
G1 X70.286 Y56.097 E.00766
G1 X70.107 Y55.782 E.01136
G1 X70.107 Y66.319 E.33038
G1 X69.688 Y66.235 E.0134
G1 X69.688 Y52.287 E.43733
G1 X69.269 Y51.551 E.02655
G1 X69.269 Y66.068 E.45517
G1 X68.85 Y65.9 E.01415
G1 X68.85 Y50.815 E.47298
G1 X68.431 Y50.079 E.02655
G1 X68.431 Y65.653 E.48831
G1 X68.012 Y65.374 E.01578
G1 X68.012 Y49.343 E.50264
G1 X67.593 Y48.607 E.02655
G1 X67.593 Y65.01 E.5143
G1 X67.174 Y64.584 E.01873
G1 X67.174 Y57.806 E.21252
G1 X66.755 Y58.463 E.02443
G1 X66.755 Y63.983 E.17308
G1 X66.522 Y63.621 E.0135
G1 X66.336 Y63.185 E.01486
G1 X66.336 Y58.808 E.13724
G1 X70.526 Y54.884 F54000
G1 F1200
G1 X70.526 Y53.785 E.03446
G1 X70.107 Y53.036 E.02691
G1 X70.107 Y55.437 E.07528
G1 X67.174 Y57.306 F54000
G1 F1200
G1 X67.174 Y47.871 E.29583
G1 X66.755 Y47.135 E.02655
G1 X66.755 Y57.149 E.31398
G1 X66.336 Y57.162 E.01314
G1 X66.336 Y46.804 E.32477
G1 X65.917 Y46.797 E.01314
G1 X65.917 Y57.175 E.32539
G1 X65.639 Y57.183 E.00872
G1 X65.498 Y57.158 E.00449
G1 X65.498 Y46.809 E.32449
G1 X65.079 Y46.886 E.01336
G1 X65.079 Y57.084 E.31975
G1 X64.66 Y57.01 E.01334
G1 X64.66 Y46.963 E.31502
G1 X64.549 Y46.984 E.00354
G1 X64.241 Y47.11 E.01043
G1 X64.241 Y56.859 E.30567
G1 X63.822 Y56.691 E.01415
G1 X63.822 Y47.28 E.29508
G1 X63.564 Y47.385 E.00873
G1 X63.403 Y47.494 E.0061
G1 X63.403 Y56.473 E.28153
G1 X62.984 Y56.195 E.01577
G1 X62.984 Y47.776 E.26397
G1 X62.682 Y47.978 E.01139
G1 X62.565 Y48.098 E.00525
G1 X62.565 Y55.869 E.24365
G1 X62.146 Y55.444 E.01871
G1 X62.146 Y48.526 E.21691
G1 X61.938 Y48.739 E.00933
G1 X61.727 Y49.068 E.01225
G1 X61.727 Y54.9 E.18286
G1 X61.393 Y54.38 E.01938
G1 X61.308 Y54.183 E.00673
G1 X61.308 Y49.781 E.13802
G1 X61.004 Y50.578 E.02675
G1 X60.889 Y51.128 E.01762
G1 X60.889 Y53.565 E.07641
G1 E-2.45 F4800
;WIPE_START
G1 F43200
G1 X60.889 Y51.128 E-.25724
G1 X61.004 Y50.578 E-.05931
G1 X61.308 Y49.781 E-.09004
G1 X61.308 Y54.183 E-.46466
G1 X61.393 Y54.38 E-.02265
G1 X61.727 Y54.9 E-.06524
G1 X61.727 Y54.039 E-.09086
;WIPE_END
G1 X71.935 Y35.929 F54000
G1 E3.5 F2400
G1 F1200
G1 X72.481 Y36.017 E.01734
G1 X73.458 Y36.424 E.03318
G1 X73.458 Y40.615 E.13141
G1 X73.728 Y40.885 E.01197
G1 X76.333 Y40.885 E.08168
G1 X76.345 Y41.052 E.00525
G1 X73.885 Y41.052 E.07713
G1 X73.615 Y41.323 E.01199
G1 X73.615 Y42.505 E.03706
G1 X73.885 Y42.775 E.01197
G1 X75.678 Y42.775 E.05622
G1 X75.384 Y43.39 E.02137
G1 X74.888 Y44.101 E.02718
G1 X74.277 Y44.713 E.02711
G1 X73.655 Y45.15 E.02383
G1 X68.487 Y45.15 E.16204
G1 X68.224 Y44.982 E.00979
G1 X67.563 Y44.426 E.02708
G1 X66.761 Y43.379 E.04135
G1 X66.571 Y43.012 E.01296
G1 X66.485 Y42.775 E.00791
G1 X68.267 Y42.775 E.05587
G1 X68.538 Y42.505 E.01199
G1 X68.538 Y41.323 E.03706
G1 X68.267 Y41.052 E.01202
G1 X65.746 Y41.052 E.07904
G1 X65.751 Y40.885 E.00524
G1 X67.711 Y40.885 E.06145
G1 X67.982 Y40.615 E.01199
G1 X67.982 Y36.871 E.11739
G1 X68.905 Y36.295 E.03411
G1 X70.078 Y35.918 E.03863
G1 X71.282 Y35.825 E.03786
G1 X71.88 Y35.92 E.01898
G1 E-2.45 F4800
;WIPE_START
G1 F43200
G1 X71.282 Y35.825 E-.06391
G1 X70.078 Y35.918 E-.12747
G1 X68.905 Y36.295 E-.13005
G1 X67.982 Y36.871 E-.11484
G1 X67.982 Y40.615 E-.3952
G1 X67.711 Y40.885 E-.04038
G1 X66.023 Y40.885 E-.17815
;WIPE_END
G1 X75.134 Y43.452 F54000
G1 E3.5 F2400
G1 F1200
G1 X75.134 Y43.115 E.01057
G1 X74.715 Y43.115 E.01314
G1 X74.715 Y43.755 E.02007
G1 X74.627 Y43.882 E.00484
G1 X74.296 Y44.213 E.01468
G1 X74.296 Y43.115 E.03443
G1 X73.877 Y43.115 E.01314
G1 X73.877 Y44.579 E.0459
G1 X73.547 Y44.811 E.01265
G1 X73.458 Y44.811 E.00279
G1 X73.458 Y42.828 E.06218
G1 X73.275 Y42.645 E.00811
G1 X73.275 Y41.182 E.04587
G1 X73.41 Y41.047 E.00599
G1 X73.118 Y40.755 E.01295
G1 X73.118 Y36.65 E.12871
G1 X73.039 Y36.617 E.00268
G1 X73.039 Y44.811 E.25692
G1 X72.62 Y44.811 E.01314
G1 X72.62 Y36.443 E.26237
G1 X72.387 Y36.346 E.00791
G1 X72.201 Y36.316 E.00591
G1 X72.201 Y44.811 E.26635
G1 X71.782 Y44.811 E.01314
G1 X71.782 Y36.248 E.26849
G1 X71.364 Y36.182 E.01327
G1 X71.364 Y44.811 E.27056
G1 X70.945 Y44.811 E.01314
G1 X70.945 Y36.192 E.27024
G1 X70.526 Y36.224 E.01318
G1 X70.526 Y44.811 E.26924
G1 X70.107 Y44.811 E.01314
G1 X70.107 Y36.266 E.26792
G1 X69.688 Y36.4 E.01379
G1 X69.688 Y44.811 E.26372
G1 X69.269 Y44.811 E.01314
G1 X69.269 Y36.535 E.25949
G1 X69.049 Y36.605 E.00724
G1 X68.85 Y36.73 E.00737
G1 X68.85 Y44.811 E.25337
G1 X68.586 Y44.811 E.00828
G1 X68.431 Y44.711 E.00578
G1 X68.431 Y43.091 E.05079
G1 X68.408 Y43.115 E.00104
G1 X68.012 Y43.115 E.01242
G1 X68.012 Y44.36 E.03904
G1 X67.81 Y44.19 E.00828
G1 X67.593 Y43.907 E.01118
G1 X67.593 Y43.115 E.02483
G1 X67.174 Y43.115 E.01314
G1 X67.174 Y43.638 E.0164
G1 E-2.45 F4800
;WIPE_START
G1 F43200
G1 X67.174 Y43.115 E-.05521
G1 X67.593 Y43.115 E-.04423
G1 X67.593 Y43.907 E-.0836
G1 X67.81 Y44.19 E-.03764
G1 X68.012 Y44.36 E-.02787
G1 X68.012 Y43.115 E-.13142
G1 X68.408 Y43.115 E-.0418
G1 X68.431 Y43.091 E-.00351
G1 X68.431 Y44.711 E-.171
G1 X68.586 Y44.811 E-.01947
G1 X68.85 Y44.811 E-.02787
G1 X68.85 Y40.961 E-.40638
;WIPE_END
G1 X68.431 Y40.976 F54000
G1 E3.5 F2400
G1 F1200
G1 X68.431 Y36.791 E.13122
G1 E-2.45 F4800
;WIPE_START
G1 F43200
G1 X68.431 Y40.976 E-.44175
;WIPE_END
G1 E-.60825 F4800
G1 X86.894 Y44.881 F54000
G1 E3.5 F2400
G1 F1200
G1 X87.541 Y44.907 E.0203
G1 X88.657 Y45.158 E.03587
G1 X89.711 Y45.605 E.0359
G1 X90.668 Y46.233 E.03589
G1 X91.497 Y47.022 E.03588
G1 X92.172 Y47.948 E.03593
G1 X92.67 Y48.979 E.0359
G1 X92.975 Y50.083 E.03591
G1 X93.078 Y51.224 E.03592
G1 X92.974 Y52.365 E.03592
G1 X92.668 Y53.469 E.03592
G1 X92.169 Y54.5 E.03591
G1 X91.494 Y55.424 E.03588
G1 X90.87 Y56.017 E.02699
G1 X91.555 Y56.668 E.02963
G1 X92.229 Y57.593 E.03589
G1 X92.727 Y58.625 E.03593
G1 X93.033 Y59.728 E.03589
G1 X93.136 Y60.869 E.03592
G1 X93.033 Y62.01 E.03592
G1 X92.727 Y63.113 E.03589
G1 X92.228 Y64.144 E.03591
G1 X91.554 Y65.069 E.03589
G1 X90.725 Y65.858 E.03588
G1 X89.768 Y66.485 E.03587
G1 X88.716 Y66.931 E.03583
G1 X87.601 Y67.181 E.03583
G1 X86.46 Y67.229 E.03581
G1 X85.33 Y67.072 E.03577
G1 X84.247 Y66.715 E.03575
G1 X83.245 Y66.172 E.03573
G1 X82.638 Y65.685 E.0244
G1 X82.699 Y65.652 E.00217
G1 X82.812 Y65.52 E.00545
G1 X82.853 Y65.399 E.00401
G1 X82.911 Y65.32 E.00307
G1 X82.955 Y65.209 E.00374
G1 X82.995 Y64.862 E.01095
G1 X83.002 Y46.899 E.56322
G1 X83.14 Y46.5 E.01324
G1 X83.376 Y46.268 E.01038
G1 X83.488 Y46.117 E.00589
G1 X84.445 Y46.128 E.03001
G1 X84.573 Y46.145 E.00405
G1 X84.879 Y46.083 E.00979
G1 X85.043 Y46.008 E.00565
G1 X85.238 Y45.879 E.00733
G1 X85.554 Y45.502 E.01542
G1 X85.692 Y45.097 E.01342
G1 X85.71 Y44.957 E.00443
G1 X86.402 Y44.86 E.02191
G1 X86.838 Y44.879 E.01368
G1 X92.731 Y62.461 F54000
G1 F1200
G1 X92.731 Y60.163 E.07205
G1 X92.698 Y59.789 E.01177
G1 X92.409 Y58.745 E.03396
G1 X92.312 Y58.546 E.00694
G1 X92.312 Y63.191 E.14564
G1 X91.893 Y64.028 E.02935
G1 X91.893 Y57.709 E.19813
G1 X91.474 Y57.134 E.02231
G1 X91.474 Y64.602 E.23415
G1 X91.298 Y64.844 E.00938
G1 X91.055 Y65.075 E.01051
G1 X91.055 Y56.662 E.26378
G1 X90.636 Y56.263 E.01814
G1 X90.636 Y65.473 E.28877
G1 X90.513 Y65.591 E.00534
G1 X90.217 Y65.785 E.0111
G1 X90.217 Y46.343 E.60959
G1 X89.799 Y46.068 E.01569
G1 X89.799 Y66.059 E.6268
G1 X89.608 Y66.184 E.00716
G1 X89.38 Y66.281 E.00777
G1 X89.38 Y45.833 E.64113
G1 X88.961 Y45.655 E.01427
G1 X88.961 Y66.459 E.65229
G1 X88.542 Y66.622 E.0141
G1 X88.542 Y45.48 E.66289
G1 X88.123 Y45.386 E.01346
G1 X88.123 Y66.716 E.66879
G1 X87.704 Y66.811 E.01347
G1 X87.704 Y45.292 E.67471
G1 X87.496 Y45.245 E.00669
G1 X87.285 Y45.237 E.00662
G1 X87.285 Y66.855 E.67782
G1 X86.866 Y66.872 E.01315
G1 X86.866 Y45.22 E.67888
G1 X86.447 Y45.202 E.01315
