; generated by PrusaSlicer 2.6.0+MacOS-arm64 on 2023-07-27 at 16:23:36 UTC

; 

; external perimeters extrusion width = 0.42mm
; perimeters extrusion width = 0.44mm
; infill extrusion width = 0.44mm
; solid infill extrusion width = 0.44mm
; top infill extrusion width = 0.40mm
; support material extrusion width = 0.36mm
; first layer extrusion width = 0.42mm

M201 X3500 Y3500 Z150 E5000 ; sets maximum accelerations, mm/sec^2
M203 X500 Y500 Z10 E60 ; sets maximum feedrates, mm / sec
M204 S3500 T1000 ; sets acceleration (S) and retract acceleration (R), mm/sec^2
M205 X8.00 Y8.00 Z0.40 E5.00 ; sets the jerk limits, mm/sec
M205 S0 T0 ; sets the minimum extruding and travel feed rate, mm/sec
;TYPE:Custom
G90 ; use absolute coordinates
M83 ; extruder relative mode
M104 S150 ; set temporary nozzle temp to prevent oozing during homing
M140 S60 ; set final bed temp
G4 S30 ; allow partial nozzle warmup
G28 ; home all axis
G1 Z50 F240
G1 X2.0 Y10 F3000
M104 S205 ; set final nozzle temp
M190 S60 ; wait for bed temp to stabilize
M109 S205 ; wait for nozzle temp to stabilize
G1 Z0.28 F240
G92 E0
G1 X2.0 Y140 E10 F1500 ; prime the nozzle
G1 X2.3 Y140 F5000
G92 E0
G1 X2.3 Y10 E10 F1200 ; prime the nozzle
G92 E0
G21 ; set units to millimeters
G90 ; use absolute coordinates
M83 ; use relative distances for extrusion
; Filament gcode
M107
;LAYER_CHANGE
;Z:0.2
;HEIGHT:0.2
;BEFORE_LAYER_CHANGE
G92 E0
;0.2


G1 E-3.5 F4800
G1 Z.2 F54000
;AFTER_LAYER_CHANGE
;0.2
G1 X14.547 Y81.646
G1 E3.5 F2400
M204 S3500
;TYPE:Skirt/Brim
;WIDTH:0.42
G1 F1200
G1 X16.322 Y81.337 E.05649
G1 X37.871 Y81.364 E.67565
G1 X38.949 Y81.534 E.03422
G1 X40.3 Y81.919 E.04405
G1 X41.12 Y82.289 E.02821
G1 X42.261 Y82.999 E.04214
G1 X42.954 Y83.572 E.02819
G1 X43.845 Y84.557 E.04164
G1 X44.814 Y86.004 E.0546
G1 X45.139 Y86.691 E.02383
G1 X45.505 Y87.764 E.03555
G1 X45.669 Y88.507 E.02386
G1 X45.783 Y89.903 E.04392
G1 X45.779 Y107.601 E.55491
G1 X45.677 Y108.614 E.03192
G1 X45.384 Y109.806 E.03849
G1 X44.874 Y111.168 E.0456
G1 X44.175 Y112.294 E.04155
G1 X42.805 Y113.755 E.0628
G1 X41.885 Y114.448 E.03611
G1 X39.791 Y115.399 E.07211
G1 X39.067 Y115.603 E.02358
G1 X37.572 Y115.804 E.0473
G1 X16.267 Y115.807 E.668
G1 X15.126 Y115.713 E.0359
G1 X13.96 Y115.401 E.03785
G1 X12.317 Y114.626 E.05696
G1 X11.459 Y114.045 E.03249
G1 X10.357 Y112.958 E.04853
G1 X9.518 Y111.869 E.0431
G1 X9.061 Y111.071 E.02883
G1 X8.39 Y109.173 E.06312
G1 X8.151 Y107.326 E.05839
G1 X8.179 Y89.298 E.56526
G1 X8.344 Y88.235 E.03373
G1 X8.882 Y86.597 E.05406
G1 X9.366 Y85.647 E.03343
G1 X10.348 Y84.261 E.05326
G1 X11.195 Y83.433 E.03714
G1 X11.825 Y82.949 E.02491
G1 X13.117 Y82.219 E.04653
G1 X14.491 Y81.669 E.0464
G1 E-2.45 F4800
;WIPE_START
G1 F43200
G1 X16.322 Y81.337 E-.19642
G1 X24.409 Y81.347 E-.85358
;WIPE_END
G1 X15.476 Y85.294 F54000
G1 E3.5 F2400
G1 F1200
G1 X16.557 Y85.001 E.03512
G1 X37.521 Y85.006 E.65731
G1 X39.636 Y85.671 E.06952
G1 X40.361 Y86.198 E.0281
G1 X40.939 Y86.792 E.02599
G1 X41.809 Y88.263 E.05359
G1 X42.023 Y89.027 E.02488
G1 X42.109 Y89.737 E.02242
G1 X42.138 Y100.451 E.33593
G1 X42.128 Y107.38 E.21725
G1 X41.712 Y109.188 E.05817
G1 X41.292 Y109.931 E.02676
G1 X40.762 Y110.597 E.02669
G1 X39.214 Y111.672 E.05909
G1 X37.365 Y112.152 E.0599
G1 X16.697 Y112.16 E.64803
G1 X15.653 Y112.037 E.03296
G1 X14.664 Y111.696 E.0328
G1 X13.249 Y110.658 E.05502
G1 X12.246 Y109.181 E.05598
G1 X11.815 Y107.376 E.05819
G1 X11.815 Y89.805 E.55093
G1 X12.011 Y88.708 E.03494
G1 X12.442 Y87.645 E.03597
G1 X13.221 Y86.564 E.04178
G1 X14.764 Y85.488 E.05898
G1 X15.418 Y85.31 E.02125
G1 X15.517 Y85.671 F54000
G1 F1200
G1 X16.583 Y85.378 E.03466
G1 X37.492 Y85.384 E.65559
G1 X39.49 Y86.021 E.06575
G1 X40.103 Y86.473 E.02388
G1 X40.627 Y87.004 E.02339
G1 X41.471 Y88.433 E.05204
G1 X41.65 Y89.087 E.02126
G1 X41.732 Y89.75 E.02095
G1 X41.761 Y100.452 E.33555
G1 X41.751 Y107.358 E.21653
G1 X41.37 Y109.027 E.05368
G1 X40.988 Y109.708 E.02448
G1 X40.485 Y110.339 E.0253
G1 X39.029 Y111.342 E.05544
G1 X37.341 Y111.775 E.05464
G1 X16.729 Y111.784 E.64627
G1 X15.756 Y111.673 E.03071
G1 X14.814 Y111.349 E.03123
G1 X13.5 Y110.375 E.05128
G1 X12.579 Y109 E.05189
G1 X12.192 Y107.355 E.05299
G1 X12.192 Y89.822 E.54973
G1 X12.378 Y88.795 E.03272
G1 X12.782 Y87.81 E.03338
G1 X13.507 Y86.811 E.0387
G1 X14.895 Y85.843 E.05306
G1 X15.46 Y85.687 E.01838
G1 X15.556 Y86.042 F54000
G1 F1200
G1 X16.608 Y85.755 E.03419
G1 X37.462 Y85.761 E.65386
G1 X39.292 Y86.343 E.06021
G1 X39.845 Y86.749 E.02151
G1 X40.342 Y87.253 E.02219
G1 X41.115 Y88.558 E.04756
G1 X41.278 Y89.147 E.01916
G1 X41.357 Y89.785 E.02016
G1 X41.384 Y100.453 E.33449
G1 X41.374 Y107.337 E.21584
G1 X41.028 Y108.867 E.04918
G1 X40.667 Y109.51 E.02312
G1 X40.208 Y110.082 E.023
G1 X38.901 Y110.986 E.04983
G1 X37.317 Y111.398 E.05132
G1 X16.761 Y111.409 E.64452
G1 X15.82 Y111.301 E.0297
G1 X14.967 Y111.003 E.02833
G1 X13.753 Y110.094 E.04755
G1 X12.912 Y108.821 E.04784
G1 X12.569 Y107.334 E.04785
G1 X12.569 Y89.84 E.54851
G1 X12.745 Y88.884 E.03048
G1 X13.121 Y87.976 E.03081
G1 X13.792 Y87.06 E.0356
G1 X15.082 Y86.171 E.04912
G1 X15.499 Y86.058 E.01355
G1 X15.595 Y86.413 F54000
G1 F1200
G1 X16.632 Y86.132 E.03369
G1 X37.433 Y86.138 E.6522
G1 X39.094 Y86.665 E.05464
G1 X39.609 Y87.044 E.02005
G1 X40.057 Y87.5 E.02004
G1 X40.758 Y88.682 E.04309
G1 X40.911 Y89.234 E.01796
G1 X40.981 Y89.819 E.01847
G1 X41.007 Y100.453 E.33342
G1 X40.997 Y107.316 E.21518
G1 X40.685 Y108.708 E.04473
G1 X40.362 Y109.287 E.02079
G1 X39.932 Y109.824 E.02157
G1 X38.716 Y110.655 E.04618
G1 X37.293 Y111.02 E.04606
G1 X16.771 Y111.031 E.64345
G1 X15.924 Y110.938 E.02672
G1 X15.119 Y110.657 E.02673
G1 X14.007 Y109.813 E.04377
G1 X13.271 Y108.702 E.04179
G1 X12.946 Y107.312 E.04476
G1 X12.946 Y89.858 E.54726
G1 X13.112 Y88.973 E.02823
G1 X13.46 Y88.143 E.02822
G1 X14.075 Y87.31 E.03247
G1 X15.267 Y86.501 E.04517
G1 X15.537 Y86.428 E.00877
G1 X15.632 Y86.784 F54000
G1 F1200
G1 X16.657 Y86.509 E.03327
G1 X37.404 Y86.515 E.65051
G1 X38.896 Y86.987 E.04907
G1 X39.373 Y87.338 E.01857
G1 X39.771 Y87.747 E.01789
G1 X40.401 Y88.807 E.03866
G1 X40.543 Y89.32 E.01669
G1 X40.605 Y89.851 E.01676
G1 X40.63 Y100.454 E.33245
G1 X40.619 Y107.295 E.2145
G1 X40.342 Y108.548 E.04024
G1 X40.041 Y109.089 E.01941
G1 X39.656 Y109.566 E.01922
G1 X38.589 Y110.299 E.04059
G1 X37.269 Y110.643 E.04277
G1 X16.781 Y110.654 E.64239
G1 X15.988 Y110.566 E.02502
G1 X15.274 Y110.312 E.02376
G1 X14.263 Y109.535 E.03998
G1 X13.606 Y108.525 E.03778
G1 X13.323 Y107.291 E.0397
G1 X13.323 Y89.876 E.54604
G1 X13.478 Y89.065 E.02589
G1 X13.798 Y88.312 E.02565
G1 X14.357 Y87.563 E.0293
G1 X15.45 Y86.832 E.04123
G1 X15.574 Y86.799 E.00402
G1 X15.668 Y87.155 F54000
G1 F1200
G1 X16.681 Y86.886 E.03286
G1 X37.375 Y86.892 E.64885
G1 X38.699 Y87.31 E.04353
G1 X39.114 Y87.613 E.01611
G1 X39.486 Y87.994 E.0167
G1 X40.045 Y88.932 E.03424
G1 X40.176 Y89.406 E.01542
G1 X40.229 Y89.883 E.01505
G1 X40.253 Y100.454 E.33145
G1 X40.242 Y107.275 E.21387
G1 X39.998 Y108.391 E.03582
G1 X39.737 Y108.865 E.01697
G1 X39.38 Y109.307 E.01781
G1 X38.405 Y109.968 E.03693
G1 X37.245 Y110.266 E.03755
G1 X16.791 Y110.277 E.64132
G1 X16.093 Y110.203 E.02201
G1 X15.43 Y109.967 E.02207
G1 X14.521 Y109.258 E.03615
G1 X13.942 Y108.351 E.03374
G1 X13.7 Y107.271 E.0347
G1 X13.7 Y89.894 E.54484
G1 X13.833 Y89.193 E.02237
G1 X14.135 Y88.481 E.02425
G1 X14.638 Y87.817 E.02612
G1 X15.613 Y87.176 E.03659
G1 X15.809 Y87.498 F54000
G1 F1200
G1 X16.705 Y87.263 E.02904
G1 X37.347 Y87.269 E.64722
G1 X38.502 Y87.633 E.03797
G1 X38.879 Y87.908 E.01463
G1 X39.199 Y88.24 E.01446
G1 X39.689 Y89.059 E.02992
G1 X39.803 Y89.464 E.01319
G1 X39.853 Y89.915 E.01423
G1 X39.876 Y100.455 E.33048
G1 X39.865 Y107.255 E.21321
G1 X39.654 Y108.235 E.03143
G1 X39.432 Y108.642 E.01454
G1 X39.105 Y109.048 E.01635
G1 X38.223 Y109.636 E.03324
G1 X37.222 Y109.889 E.03237
G1 X16.801 Y109.9 E.64029
G1 X16.157 Y109.83 E.02031
G1 X15.588 Y109.624 E.01897
G1 X14.782 Y108.984 E.03227
G1 X14.279 Y108.18 E.02974
G1 X14.077 Y107.251 E.02981
G1 X14.077 Y89.912 E.54365
G1 X14.199 Y89.286 E.02
G1 X14.472 Y88.653 E.02161
G1 X14.916 Y88.073 E.0229
G1 X15.758 Y87.531 E.0314
G1 X15.959 Y87.849 F54000
G1 F1200
G1 X16.728 Y87.64 E.02499
G1 X37.318 Y87.646 E.64559
G1 X38.306 Y87.957 E.03248
G1 X38.619 Y88.182 E.01209
G1 X38.913 Y88.487 E.01328
G1 X39.333 Y89.186 E.02557
G1 X39.435 Y89.55 E.01185
G1 X39.478 Y89.945 E.01246
G1 X39.499 Y100.455 E.32953
G1 X39.488 Y107.235 E.21258
G1 X39.309 Y108.081 E.02711
G1 X39.127 Y108.419 E.01204
G1 X38.829 Y108.789 E.0149
G1 X38.097 Y109.28 E.02764
G1 X37.198 Y109.512 E.02911
G1 X16.81 Y109.523 E.63925
G1 X16.263 Y109.468 E.01724
G1 X15.748 Y109.281 E.01718
G1 X15.044 Y108.711 E.0284
G1 X14.64 Y108.067 E.02384
G1 X14.454 Y107.23 E.02688
G1 X14.454 Y89.931 E.5424
G1 X14.565 Y89.382 E.01756
G1 X14.807 Y88.826 E.01901
G1 X15.192 Y88.332 E.01964
G1 X15.908 Y87.881 E.02653
G1 X16.105 Y88.201 F54000
G1 F1200
G1 X16.156 Y88.17 E.00187
G1 X16.752 Y88.017 E.01929
G1 X37.289 Y88.023 E.64392
G1 X38.111 Y88.281 E.02701
G1 X38.384 Y88.477 E.01054
G1 X38.625 Y88.731 E.01098
G1 X38.977 Y89.313 E.02133
G1 X39.068 Y89.636 E.01052
G1 X39.101 Y89.972 E.01059
G1 X39.122 Y100.455 E.32869
G1 X39.111 Y107.215 E.21196
G1 X38.962 Y107.93 E.0229
G1 X38.822 Y108.198 E.00948
G1 X38.555 Y108.528 E.01331
G1 X37.918 Y108.947 E.02391
G1 X37.174 Y109.135 E.02406
G1 X16.819 Y109.146 E.63822
G1 X16.326 Y109.095 E.01554
G1 X15.911 Y108.94 E.01389
G1 X15.31 Y108.443 E.02445
G1 X14.979 Y107.899 E.01997
G1 X14.831 Y107.211 E.02207
G1 X14.831 Y89.951 E.54118
G1 X14.929 Y89.479 E.01511
G1 X15.142 Y89.003 E.01635
G1 X15.466 Y88.593 E.01638
G1 X16.054 Y88.232 E.02163
G1 X16.246 Y88.555 F54000
G1 F1200
G1 X16.324 Y88.508 E.00286
G1 X16.774 Y88.395 E.01455
G1 X37.261 Y88.4 E.64236
G1 X37.915 Y88.605 E.02149
G1 X38.148 Y88.772 E.00899
G1 X38.336 Y88.974 E.00865
G1 X38.622 Y89.443 E.01722
G1 X38.694 Y89.692 E.00813
G1 X38.725 Y90.001 E.00974
G1 X38.745 Y100.456 E.32781
G1 X38.734 Y107.196 E.21133
G1 X38.614 Y107.783 E.01879
G1 X38.516 Y107.977 E.00681
G1 X38.281 Y108.267 E.0117
G1 X37.742 Y108.612 E.02007
G1 X37.152 Y108.758 E.01906
G1 X16.827 Y108.769 E.63728
G1 X16.434 Y108.733 E.01237
G1 X16.075 Y108.599 E.01201
G1 X15.58 Y108.178 E.02037
G1 X15.321 Y107.737 E.01604
G1 X15.208 Y107.192 E.01745
G1 X15.208 Y89.972 E.53992
G1 X15.293 Y89.58 E.01258
G1 X15.474 Y89.182 E.01371
G1 X15.736 Y88.858 E.01306
G1 X16.194 Y88.585 E.01672
G1 X16.381 Y88.91 F54000
G1 F1200
G1 X16.487 Y88.849 E.00383
G1 X16.797 Y88.772 E.01002
G1 X37.232 Y88.777 E.64073
G1 X37.724 Y88.931 E.01616
G1 X37.887 Y89.045 E.00624
G1 X38.048 Y89.217 E.00739
G1 X38.267 Y89.573 E.01311
G1 X38.327 Y89.778 E.0067
G1 X38.349 Y90.025 E.00778
G1 X38.368 Y100.456 E.32706
G1 X38.357 Y107.178 E.21076
G1 X38.264 Y107.641 E.01481
G1 X38.208 Y107.758 E.00407
G1 X38.009 Y108.004 E.00992
G1 X37.571 Y108.275 E.01615
G1 X37.13 Y108.381 E.01422
G1 X16.832 Y108.392 E.63643
G1 X16.54 Y108.37 E.00918
G1 X16.241 Y108.258 E.01001
G1 X15.856 Y107.918 E.0161
G1 X15.665 Y107.58 E.01217
G1 X15.585 Y107.175 E.01294
G1 X15.585 Y89.992 E.53876
G1 X15.645 Y89.718 E.00879
G1 X15.806 Y89.362 E.01225
G1 X16.002 Y89.127 E.00959
G1 X16.329 Y88.94 E.01181
G1 X16.508 Y89.267 F54000
G1 F1200
G1 X16.645 Y89.192 E.0049
G1 X16.819 Y89.149 E.00562
G1 X37.204 Y89.154 E.63916
G1 X37.532 Y89.256 E.01077
G1 X37.651 Y89.34 E.00457
G1 X37.756 Y89.457 E.00493
G1 X37.915 Y89.71 E.00937
G1 X37.953 Y89.834 E.00407
G1 X37.972 Y90.034 E.0063
G1 X37.991 Y100.456 E.32678
G1 X37.98 Y107.159 E.21017
G1 X37.91 Y107.512 E.01128
G1 X37.738 Y107.739 E.00893
G1 X37.407 Y107.935 E.01206
G1 X37.109 Y108.004 E.00959
G1 X16.839 Y108.015 E.63555
G1 X16.6 Y107.996 E.00752
G1 X16.417 Y107.923 E.00618
G1 X16.134 Y107.663 E.01205
G1 X16.028 Y107.475 E.00677
G1 X15.962 Y107.155 E.01024
G1 X15.962 Y90.013 E.53748
G1 X15.996 Y89.856 E.00504
G1 X16.137 Y89.545 E.01071
G1 X16.262 Y89.402 E.00596
G1 X16.456 Y89.296 E.00693
G1 X16.628 Y89.625 F54000
G1 F1200
G1 X16.842 Y89.526 E.00739
G1 X37.174 Y89.531 E.6375
G1 X37.39 Y89.613 E.00724
G1 X37.567 Y89.856 E.00943
G1 X37.595 Y90.044 E.00596
G1 X37.613 Y100.457 E.32649
G1 X37.603 Y107.138 E.20948
G1 X37.554 Y107.375 E.00759
G1 X37.509 Y107.437 E.0024
G1 X37.243 Y107.594 E.00968
G1 X37.09 Y107.627 E.00491
G1 X16.847 Y107.638 E.63471
G1 X16.667 Y107.623 E.00566
G1 X16.607 Y107.597 E.00205
G1 X16.416 Y107.412 E.00834
G1 X16.39 Y107.366 E.00166
G1 X16.34 Y107.134 E.00744
G1 X16.339 Y90.033 E.53619
G1 X16.466 Y89.733 E.01021
G1 X16.575 Y89.653 E.00424
; printing object KlackEnderPro2 Probe Block 5.2mm v0.4.stl id:0 copy 0
G1 E-2.45 F4800
;WIPE_START
G1 F43200
G1 X16.842 Y89.526 E-.03121
G1 X26.494 Y89.528 E-1.01879
;WIPE_END
G1 X36.446 Y97.398 F54000
G1 E3.5 F2400
;TYPE:Perimeter
;WIDTH:0.419999
G1 F1200
G1 X36.447 Y100.488 E.09688
;WIDTH:0.467731
G1 X36.423 Y100.733 E.0087
;WIDTH:0.515462
G1 X36.4 Y100.977 E.00963
;WIDTH:0.563193
G1 X36.376 Y101.222 E.01065
G1 X36.385 Y101.438 E.00935
;WIDTH:0.544343
G1 X36.397 Y102.15 E.02969
;WIDTH:0.5516
G1 X36.382 Y102.748 E.0253
G1 X36.404 Y102.948 E.00851
;WIDTH:0.507733
G1 X36.427 Y103.149 E.00782
;WIDTH:0.463866
G1 X36.449 Y103.35 E.00708
;WIDTH:0.419999
G1 X36.45 Y106.475 E.09798
G1 X33.425 Y106.476 E.09485
;WIDTH:0.462616
G1 X33.246 Y106.455 E.00629
;WIDTH:0.505233
G1 X33.067 Y106.434 E.00693
;WIDTH:0.54785
G1 X32.888 Y106.413 E.00757
;WIDTH:0.590467
G1 X32.71 Y106.391 E.00817
G1 X32.104 Y106.404 E.0276
;WIDTH:0.590795
G1 X31.497 Y106.392 E.02766
G1 X31.318 Y106.413 E.00821
;WIDTH:0.548096
G1 X31.139 Y106.435 E.00758
;WIDTH:0.505397
G1 X30.96 Y106.456 E.00693
;WIDTH:0.462698
G1 X30.781 Y106.478 E.00629
;WIDTH:0.419999
G1 X23.226 Y106.482 E.23688
;WIDTH:0.463302
G1 X23.047 Y106.46 E.0063
;WIDTH:0.506605
G1 X22.868 Y106.439 E.00695
;WIDTH:0.549908
G1 X22.689 Y106.417 E.0076
;WIDTH:0.59321
G1 X22.51 Y106.395 E.00825
G1 X21.904 Y106.408 E.02773
;WIDTH:0.593537
G1 X21.297 Y106.396 E.0278
G1 X21.118 Y106.418 E.00826
;WIDTH:0.550153
G1 X20.939 Y106.439 E.0076
;WIDTH:0.506768
G1 X20.76 Y106.461 E.00696
;WIDTH:0.463384
G1 X20.581 Y106.483 E.00631
;WIDTH:0.419999
G1 X17.492 Y106.485 E.09685
G1 X17.492 Y103.358 E.09804
;WIDTH:0.459397
G1 X17.512 Y103.18 E.0062
;WIDTH:0.498794
G1 X17.532 Y103.002 E.00679
;WIDTH:0.538191
G1 X17.551 Y102.823 E.00741
;WIDTH:0.577595
G1 X17.571 Y102.645 E.00796
G1 X17.571 Y101.435 E.05379
G1 X17.551 Y101.256 E.00801
;WIDTH:0.538196
G1 X17.532 Y101.078 E.00737
;WIDTH:0.498797
G1 X17.512 Y100.9 E.00679
;WIDTH:0.459398
G1 X17.492 Y100.722 E.0062
;WIDTH:0.419999
G1 X17.492 Y90.678 E.31492
G1 X36.442 Y90.676 E.59416
G1 X36.446 Y97.338 E.20888
G1 E-2.45 F4800
;WIPE_START
G1 F43200
G1 X36.447 Y100.488 E-.3325
G1 X36.423 Y100.733 E-.02598
G1 X36.4 Y100.977 E-.02587
G1 X36.376 Y101.222 E-.02598
G1 X36.385 Y101.438 E-.02282
G1 X36.397 Y102.15 E-.07517
G1 X36.382 Y102.748 E-.06314
G1 X36.404 Y102.948 E-.02124
G1 X36.427 Y103.149 E-.02136
G1 X36.449 Y103.35 E-.02134
G1 X36.45 Y106.475 E-.32986
G1 X35.647 Y106.475 E-.08474
;WIPE_END
G1 X36.827 Y106.851 F54000
G1 E3.5 F2400
G1 F1200
G1 X17.115 Y106.862 E.61805
G1 X17.115 Y90.301 E.51926
G1 X36.819 Y90.299 E.6178
G1 X36.827 Y106.791 E.51709
G1 X37.048 Y107.228 F54000
;TYPE:External perimeter
G1 F1200
G1 X16.807 Y107.235 E.63464
G1 X16.738 Y107.108 E.00453
G1 X16.738 Y90.161 E.53136
G1 X16.786 Y89.993 E.00548
G1 X16.917 Y89.924 E.00464
G1 X37.053 Y89.922 E.63135
G1 X37.138 Y89.937 E.00271
G1 X37.196 Y90.063 E.00435
G1 X37.204 Y107.022 E.53174
G1 X37.203 Y107.121 E.0031
G1 X37.097 Y107.194 E.00404
G1 X36.752 Y106.959 F54000
G1 E-2.45 F4800
;WIPE_START
G1 F43200
G1 X27.15 Y107.214 E-1.05
;WIPE_END
G1 X31.444 Y97.838 F54000
G1 E3.5 F2400
;TYPE:Perimeter
G1 F1200
G1 X31.829 Y97.697 E.01286
G1 X32.358 Y97.694 E.01659
G1 X32.9 Y97.906 E.01825
G1 X33.088 Y98.021 E.00691
G1 X33.461 Y98.483 E.01862
G1 X33.581 Y98.584 E.00492
G1 X34.055 Y98.822 E.01663
G1 X34.585 Y99.21 E.02059
G1 X35.039 Y99.684 E.02058
G1 X35.402 Y100.228 E.02051
G1 X35.669 Y100.832 E.02071
;WIDTH:0.467731
