; generated by PrusaSlicer 2.6.0+MacOS-arm64 on 2023-07-27 at 17:10:27 UTC

; 

; external perimeters extrusion width = 0.42mm
; perimeters extrusion width = 0.44mm
; infill extrusion width = 0.44mm
; solid infill extrusion width = 0.44mm
; top infill extrusion width = 0.40mm
; support material extrusion width = 0.36mm
; first layer extrusion width = 0.42mm

M201 X3500 Y3500 Z150 E5000 ; sets maximum accelerations, mm/sec^2
M203 X500 Y500 Z10 E60 ; sets maximum feedrates, mm / sec
M204 S3500 T1000 ; sets acceleration (S) and retract acceleration (R), mm/sec^2
M205 X8.00 Y8.00 Z0.40 E5.00 ; sets the jerk limits, mm/sec
M205 S0 T0 ; sets the minimum extruding and travel feed rate, mm/sec
;TYPE:Custom
G90 ; use absolute coordinates
M83 ; extruder relative mode
M104 S150 ; set temporary nozzle temp to prevent oozing during homing
M140 S60 ; set final bed temp
G4 S30 ; allow partial nozzle warmup
G28 ; home all axis
G1 Z50 F240
G1 X2.0 Y10 F3000
M104 S205 ; set final nozzle temp
M190 S60 ; wait for bed temp to stabilize
M109 S205 ; wait for nozzle temp to stabilize
G1 Z0.28 F240
G92 E0
G1 X2.0 Y140 E10 F1500 ; prime the nozzle
G1 X2.3 Y140 F5000
G92 E0
G1 X2.3 Y10 E10 F1200 ; prime the nozzle
G92 E0
G21 ; set units to millimeters
G90 ; use absolute coordinates
M83 ; use relative distances for extrusion
; Filament gcode
M107
;LAYER_CHANGE
;Z:0.2
;HEIGHT:0.2
;BEFORE_LAYER_CHANGE
G92 E0
;0.2


G1 E-3.5 F4800
G1 Z.2 F54000
;AFTER_LAYER_CHANGE
;0.2
G1 X14.411 Y59.04
G1 E3.5 F2400
M204 S3500
;TYPE:Skirt/Brim
;WIDTH:0.42
G1 F1200
G1 X16.186 Y58.731 E.05649
G1 X37.735 Y58.757 E.67565
G1 X38.812 Y58.927 E.03419
G1 X40.164 Y59.313 E.04408
G1 X40.984 Y59.682 E.02819
G1 X42.124 Y60.392 E.04211
G1 X42.818 Y60.965 E.02822
G1 X43.709 Y61.951 E.04167
G1 X44.678 Y63.397 E.05458
G1 X45.003 Y64.085 E.02386
G1 X45.369 Y65.157 E.03552
G1 X45.532 Y65.9 E.02385
G1 X45.647 Y67.296 E.04392
G1 X45.643 Y84.995 E.55494
G1 X45.541 Y86.007 E.03189
G1 X45.248 Y87.199 E.03849
G1 X44.738 Y88.561 E.0456
G1 X44.038 Y89.688 E.0416
G1 X42.669 Y91.148 E.06275
G1 X41.749 Y91.842 E.03613
G1 X39.654 Y92.792 E.07213
G1 X38.93 Y92.997 E.02359
G1 X37.436 Y93.198 E.04727
G1 X16.131 Y93.2 E.668
G1 X14.989 Y93.107 E.03593
G1 X13.823 Y92.795 E.03785
G1 X12.181 Y92.019 E.05694
G1 X11.323 Y91.439 E.03247
G1 X10.221 Y90.351 E.04856
G1 X9.382 Y89.263 E.04308
G1 X8.925 Y88.465 E.02883
G1 X8.254 Y86.567 E.06312
G1 X8.015 Y84.719 E.05843
G1 X8.043 Y66.691 E.56526
G1 X8.208 Y65.628 E.03373
G1 X8.746 Y63.991 E.05403
G1 X9.23 Y63.04 E.03346
G1 X10.212 Y61.654 E.05326
G1 X11.059 Y60.827 E.03712
G1 X11.689 Y60.342 E.02493
G1 X12.981 Y59.612 E.04653
G1 X14.355 Y59.062 E.0464
G1 E-2.45 F4800
;WIPE_START
G1 F43200
G1 X16.186 Y58.731 E-.1964
G1 X24.273 Y58.741 E-.8536
;WIPE_END
G1 X15.34 Y62.688 F54000
G1 E3.5 F2400
G1 F1200
G1 X16.421 Y62.394 E.03513
G1 X37.385 Y62.4 E.65731
G1 X39.499 Y63.065 E.06949
G1 X40.225 Y63.591 E.02811
G1 X40.803 Y64.185 E.02599
G1 X41.673 Y65.656 E.05359
G1 X41.887 Y66.421 E.02491
G1 X41.973 Y67.131 E.02242
G1 X42.002 Y77.845 E.33593
G1 X41.991 Y84.773 E.21722
G1 X41.576 Y86.581 E.05816
G1 X41.156 Y87.325 E.02679
G1 X40.626 Y87.99 E.02666
G1 X39.078 Y89.065 E.05909
G1 X37.229 Y89.545 E.0599
G1 X16.561 Y89.554 E.64803
G1 X15.517 Y89.43 E.03296
G1 X14.527 Y89.09 E.03282
G1 X13.113 Y88.051 E.05502
G1 X12.11 Y86.574 E.05598
G1 X11.678 Y84.77 E.05816
G1 X11.678 Y67.199 E.55093
G1 X11.875 Y66.101 E.03498
G1 X12.306 Y65.039 E.03594
G1 X13.085 Y63.957 E.0418
G1 X14.628 Y62.881 E.05898
G1 X15.282 Y62.703 E.02125
G1 X15.381 Y63.065 F54000
G1 F1200
G1 X16.447 Y62.771 E.03467
G1 X37.355 Y62.777 E.65556
G1 X39.354 Y63.414 E.06578
G1 X39.966 Y63.867 E.02387
G1 X40.491 Y64.397 E.02339
G1 X41.335 Y65.826 E.05204
G1 X41.514 Y66.48 E.02126
G1 X41.596 Y67.143 E.02095
G1 X41.625 Y77.845 E.33555
G1 X41.614 Y84.752 E.21656
G1 X41.234 Y86.421 E.05367
G1 X40.851 Y87.102 E.0245
G1 X40.349 Y87.733 E.02528
G1 X38.892 Y88.735 E.05544
G1 X37.205 Y89.168 E.05461
G1 X16.593 Y89.178 E.64627
G1 X15.62 Y89.067 E.03071
G1 X14.678 Y88.743 E.03123
G1 X13.364 Y87.768 E.0513
G1 X12.442 Y86.393 E.05191
G1 X12.055 Y84.748 E.05299
G1 X12.055 Y67.216 E.5497
G1 X12.242 Y66.188 E.03276
G1 X12.646 Y65.203 E.03338
G1 X13.371 Y64.204 E.0387
G1 X14.759 Y63.236 E.05306
G1 X15.323 Y63.081 E.01834
G1 X15.42 Y63.435 F54000
G1 F1200
G1 X16.471 Y63.148 E.03416
G1 X37.326 Y63.154 E.65389
G1 X39.156 Y63.736 E.06021
G1 X39.709 Y64.142 E.02151
G1 X40.206 Y64.646 E.02219
G1 X40.978 Y65.951 E.04754
G1 X41.142 Y66.54 E.01917
G1 X41.22 Y67.178 E.02015
G1 X41.248 Y77.846 E.33449
G1 X41.237 Y84.731 E.21587
G1 X40.891 Y86.26 E.04915
G1 X40.53 Y86.903 E.02312
G1 X40.072 Y87.476 E.023
G1 X38.765 Y88.379 E.04981
G1 X37.181 Y88.791 E.05132
G1 X16.625 Y88.802 E.64452
G1 X15.684 Y88.694 E.0297
G1 X14.83 Y88.397 E.02835
G1 X13.617 Y87.487 E.04755
G1 X12.776 Y86.214 E.04784
G1 X12.433 Y84.727 E.04785
G1 X12.432 Y67.233 E.54851
G1 X12.609 Y66.277 E.03048
G1 X12.985 Y65.369 E.03081
G1 X13.656 Y64.453 E.0356
G1 X14.946 Y63.565 E.0491
G1 X15.362 Y63.451 E.01352
G1 X15.458 Y63.806 F54000
G1 F1200
G1 X16.496 Y63.525 E.03372
G1 X37.297 Y63.531 E.6522
G1 X38.958 Y64.058 E.05464
G1 X39.473 Y64.437 E.02005
G1 X39.921 Y64.894 E.02007
G1 X40.622 Y66.076 E.04309
G1 X40.774 Y66.627 E.01792
G1 X40.845 Y67.212 E.01848
G1 X40.871 Y77.847 E.33345
G1 X40.86 Y84.71 E.21518
G1 X40.549 Y86.101 E.04469
G1 X40.226 Y86.68 E.02079
G1 X39.795 Y87.218 E.02161
G1 X38.58 Y88.049 E.04615
G1 X37.157 Y88.414 E.04606
G1 X16.635 Y88.425 E.64345
G1 X15.787 Y88.331 E.02675
G1 X14.983 Y88.051 E.02669
G1 X13.871 Y87.206 E.04379
G1 X13.135 Y86.095 E.04179
G1 X12.81 Y84.705 E.04476
G1 X12.81 Y67.251 E.54726
G1 X12.976 Y66.367 E.0282
G1 X13.324 Y65.536 E.02825
G1 X13.939 Y64.704 E.03244
G1 X15.131 Y63.895 E.04517
G1 X15.4 Y63.822 E.00874
G1 X15.496 Y64.177 F54000
G1 F1200
G1 X16.521 Y63.903 E.03327
G1 X37.268 Y63.908 E.65051
G1 X38.759 Y64.381 E.04905
G1 X39.237 Y64.731 E.01858
G1 X39.635 Y65.14 E.01789
G1 X40.265 Y66.201 E.03869
G1 X40.407 Y66.713 E.01666
G1 X40.469 Y67.245 E.01679
G1 X40.494 Y77.847 E.33242
G1 X40.483 Y84.689 E.21453
G1 X40.206 Y85.942 E.04024
G1 X39.905 Y86.482 E.01938
G1 X39.519 Y86.96 E.01926
G1 X38.453 Y87.692 E.04055
G1 X37.133 Y88.037 E.04278
G1 X16.645 Y88.048 E.64239
G1 X15.851 Y87.959 E.02505
G1 X15.138 Y87.706 E.02372
G1 X14.127 Y86.928 E.04
G1 X13.47 Y85.919 E.03775
G1 X13.187 Y84.684 E.03973
G1 X13.187 Y67.269 E.54604
G1 X13.342 Y66.458 E.02589
G1 X13.661 Y65.705 E.02564
G1 X14.221 Y64.956 E.02932
G1 X15.314 Y64.226 E.04121
G1 X15.438 Y64.193 E.00402
G1 X15.532 Y64.548 F54000
G1 F1200
G1 X16.545 Y64.28 E.03285
G1 X37.239 Y64.285 E.64885
G1 X38.562 Y64.704 E.04351
G1 X38.978 Y65.006 E.01612
G1 X39.349 Y65.388 E.0167
G1 X39.908 Y66.326 E.03424
G1 X40.039 Y66.799 E.01539
G1 X40.093 Y67.276 E.01505
G1 X40.117 Y77.848 E.33148
G1 X40.106 Y84.668 E.21384
G1 X39.862 Y85.784 E.03582
G1 X39.6 Y86.259 E.01701
G1 X39.244 Y86.701 E.01779
G1 X38.269 Y87.362 E.03693
G1 X37.109 Y87.66 E.03755
G1 X16.655 Y87.671 E.64132
G1 X15.956 Y87.596 E.02204
G1 X15.294 Y87.361 E.02203
G1 X14.385 Y86.652 E.03615
G1 X13.806 Y85.745 E.03374
G1 X13.564 Y84.664 E.03473
G1 X13.564 Y67.287 E.54484
G1 X13.697 Y66.587 E.02234
G1 X13.999 Y65.875 E.02425
G1 X14.502 Y65.21 E.02614
G1 X15.477 Y64.57 E.03657
G1 X15.673 Y64.891 F54000
G1 F1200
G1 X16.569 Y64.657 E.02904
G1 X37.21 Y64.662 E.64718
G1 X38.365 Y65.026 E.03797
G1 X38.742 Y65.301 E.01463
G1 X39.063 Y65.634 E.0145
G1 X39.552 Y66.453 E.02991
G1 X39.666 Y66.857 E.01316
G1 X39.717 Y67.308 E.01423
G1 X39.74 Y77.848 E.33048
G1 X39.729 Y84.648 E.21321
G1 X39.518 Y85.628 E.03143
G1 X39.296 Y86.035 E.01454
G1 X38.969 Y86.441 E.01635
G1 X38.087 Y87.03 E.03325
G1 X37.086 Y87.283 E.03237
G1 X16.665 Y87.294 E.64029
G1 X16.02 Y87.224 E.02034
G1 X15.452 Y87.018 E.01894
G1 X14.646 Y86.377 E.03229
G1 X14.143 Y85.574 E.02971
G1 X13.941 Y84.644 E.02984
G1 X13.941 Y67.306 E.54362
G1 X14.063 Y66.68 E.02
G1 X14.336 Y66.046 E.02164
G1 X14.78 Y65.467 E.02288
G1 X15.622 Y64.924 E.03141
G1 X15.823 Y65.242 F54000
G1 F1200
G1 X16.592 Y65.034 E.02498
G1 X37.182 Y65.039 E.64559
G1 X38.17 Y65.35 E.03248
G1 X38.483 Y65.575 E.01209
G1 X38.777 Y65.88 E.01328
G1 X39.196 Y66.579 E.02555
G1 X39.299 Y66.944 E.01189
G1 X39.341 Y67.338 E.01242
G1 X39.363 Y77.848 E.32953
G1 X39.352 Y84.628 E.21258
G1 X39.173 Y85.475 E.02714
G1 X38.991 Y85.813 E.01204
G1 X38.693 Y86.182 E.01487
G1 X37.961 Y86.673 E.02764
G1 X37.061 Y86.906 E.02915
G1 X16.674 Y86.917 E.63922
G1 X16.126 Y86.861 E.01727
G1 X15.611 Y86.674 E.01718
G1 X14.908 Y86.105 E.02836
G1 X14.504 Y85.46 E.02386
G1 X14.318 Y84.623 E.02688
G1 X14.318 Y67.325 E.54237
G1 X14.428 Y66.775 E.01759
G1 X14.671 Y66.22 E.019
G1 X15.056 Y65.725 E.01966
G1 X15.772 Y65.274 E.02653
G1 X15.969 Y65.594 F54000
G1 F1200
G1 X16.02 Y65.563 E.00187
G1 X16.615 Y65.411 E.01925
G1 X37.153 Y65.416 E.64395
G1 X37.975 Y65.674 E.02701
G1 X38.248 Y65.871 E.01056
G1 X38.489 Y66.124 E.01096
G1 X38.84 Y66.706 E.02131
G1 X38.932 Y67.029 E.01053
G1 X38.965 Y67.366 E.01062
G1 X38.986 Y77.849 E.32869
G1 X38.975 Y84.609 E.21196
G1 X38.826 Y85.324 E.0229
G1 X38.686 Y85.591 E.00945
G1 X38.419 Y85.922 E.01333
G1 X37.782 Y86.34 E.02389
G1 X37.038 Y86.529 E.02407
G1 X16.683 Y86.539 E.63822
G1 X16.19 Y86.489 E.01554
G1 X15.775 Y86.333 E.0139
G1 X15.174 Y85.836 E.02445
G1 X14.843 Y85.293 E.01994
G1 X14.695 Y84.604 E.0221
G1 X14.695 Y67.345 E.54114
G1 X14.793 Y66.873 E.01511
G1 X15.005 Y66.396 E.01637
G1 X15.33 Y65.987 E.01638
G1 X15.918 Y65.626 E.02163
G1 X16.11 Y65.948 F54000
G1 F1200
G1 X16.188 Y65.901 E.00286
G1 X16.638 Y65.788 E.01455
G1 X37.124 Y65.793 E.64232
G1 X37.779 Y65.998 E.02152
G1 X38.012 Y66.166 E.00901
G1 X38.2 Y66.367 E.00863
G1 X38.486 Y66.837 E.01725
G1 X38.558 Y67.085 E.0081
G1 X38.589 Y67.394 E.00974
G1 X38.608 Y77.849 E.32781
G1 X38.598 Y84.59 E.21136
G1 X38.478 Y85.176 E.01875
G1 X38.379 Y85.37 E.00683
G1 X38.145 Y85.66 E.01168
G1 X37.606 Y86.005 E.02007
G1 X37.016 Y86.151 E.01906
G1 X16.691 Y86.162 E.63728
G1 X16.298 Y86.126 E.01237
G1 X15.939 Y85.992 E.01201
G1 X15.444 Y85.571 E.02037
G1 X15.185 Y85.13 E.01604
G1 X15.072 Y84.586 E.01742
G1 X15.072 Y67.366 E.53992
G1 X15.157 Y66.974 E.01258
G1 X15.338 Y66.575 E.01374
G1 X15.6 Y66.251 E.01306
G1 X16.058 Y65.979 E.0167
G1 X16.244 Y66.303 F54000
G1 F1200
G1 X16.351 Y66.242 E.00386
G1 X16.661 Y66.165 E.01002
G1 X37.096 Y66.171 E.64073
G1 X37.588 Y66.324 E.01616
G1 X37.751 Y66.438 E.00624
G1 X37.912 Y66.611 E.00741
G1 X38.131 Y66.967 E.01311
G1 X38.191 Y67.172 E.0067
G1 X38.213 Y67.418 E.00774
G1 X38.231 Y77.849 E.32706
G1 X38.221 Y84.571 E.21076
G1 X38.128 Y85.035 E.01484
G1 X38.071 Y85.151 E.00405
G1 X37.873 Y85.397 E.0099
G1 X37.435 Y85.668 E.01615
G1 X36.994 Y85.774 E.01422
G1 X16.696 Y85.785 E.63643
G1 X16.404 Y85.763 E.00918
G1 X16.105 Y85.651 E.01001
G1 X15.719 Y85.312 E.01611
G1 X15.529 Y84.974 E.01216
G1 X15.449 Y84.568 E.01297
G1 X15.449 Y67.386 E.53873
G1 X15.509 Y67.111 E.00883
G1 X15.67 Y66.756 E.01222
G1 X15.866 Y66.52 E.00962
G1 X16.192 Y66.333 E.01178
G1 X16.372 Y66.66 F54000
G1 F1200
G1 X16.509 Y66.585 E.0049
G1 X16.683 Y66.542 E.00562
G1 X37.067 Y66.548 E.63913
G1 X37.396 Y66.65 E.0108
G1 X37.515 Y66.734 E.00457
G1 X37.62 Y66.85 E.00491
G1 X37.779 Y67.103 E.00937
G1 X37.817 Y67.228 E.0041
G1 X37.836 Y67.428 E.0063
G1 X37.854 Y77.85 E.32677
G1 X37.844 Y84.552 E.21014
G1 X37.774 Y84.905 E.01128
G1 X37.602 Y85.133 E.00895
G1 X37.271 Y85.328 E.01205
G1 X36.973 Y85.397 E.00959
G1 X16.703 Y85.408 E.63555
G1 X16.464 Y85.39 E.00751
G1 X16.281 Y85.316 E.00619
G1 X15.997 Y85.056 E.01207
G1 X15.892 Y84.869 E.00672
G1 X15.826 Y84.548 E.01028
G1 X15.826 Y67.406 E.53748
G1 X15.86 Y67.249 E.00504
G1 X16.001 Y66.939 E.01068
G1 X16.126 Y66.796 E.00596
G1 X16.32 Y66.689 E.00695
G1 X16.492 Y67.019 F54000
G1 F1200
G1 X16.706 Y66.919 E.00741
G1 X37.038 Y66.925 E.6375
G1 X37.253 Y67.006 E.0072
G1 X37.431 Y67.25 E.00947
G1 X37.459 Y67.438 E.00596
G1 X37.477 Y77.85 E.32646
G1 X37.467 Y84.532 E.20951
G1 X37.418 Y84.768 E.00756
G1 X37.373 Y84.83 E.0024
G1 X37.106 Y84.987 E.00971
G1 X36.954 Y85.02 E.00488
G1 X16.711 Y85.031 E.63471
G1 X16.53 Y85.017 E.00569
G1 X16.471 Y84.99 E.00203
G1 X16.28 Y84.805 E.00834
G1 X16.254 Y84.76 E.00163
G1 X16.203 Y84.527 E.00748
G1 X16.203 Y67.426 E.53619
G1 X16.33 Y67.127 E.01019
G1 X16.439 Y67.047 E.00424
; printing object KlackEnderPro2 Probe Block 5.2mm v0.5.stl id:0 copy 0
G1 E-2.45 F4800
;WIPE_START
G1 F43200
G1 X16.706 Y66.919 E-.03125
G1 X26.357 Y66.922 E-1.01875
;WIPE_END
G1 X36.31 Y76.493 F54000
G1 E3.5 F2400
;TYPE:Perimeter
;WIDTH:0.419999
G1 F1200
G1 X36.311 Y78.14 E.05164
;WIDTH:0.469867
G1 X36.286 Y78.503 E.01292
;WIDTH:0.519734
G1 X36.262 Y78.867 E.01446
G1 X36.273 Y79.59 E.02867
;WIDTH:0.497425
G1 X36.274 Y80.316 E.02744
;WIDTH:0.496936
G1 X36.293 Y80.571 E.00965
;WIDTH:0.458468
G1 X36.312 Y80.826 E.00884
;WIDTH:0.419999
G1 X36.314 Y83.868 E.09538
G1 X33.259 Y83.87 E.09579
;WIDTH:0.46788
G1 X32.896 Y83.846 E.01285
;WIDTH:0.515761
G1 X32.533 Y83.822 E.0143
G1 X31.811 Y83.834 E.02839
;WIDTH:0.493472
G1 X31.085 Y83.849 E.0272
;WIDTH:0.464025
G1 X30.575 Y83.871 E.01787
;WIDTH:0.419999
G1 X23.11 Y83.875 E.23406
;WIDTH:0.469244
G1 X22.747 Y83.851 E.0129
;WIDTH:0.518489
G1 X22.383 Y83.826 E.01443
G1 X21.661 Y83.838 E.02855
;WIDTH:0.496201
G1 X20.934 Y83.854 E.02741
;WIDTH:0.465158
G1 X20.424 Y83.876 E.01792
;WIDTH:0.419999
G1 X17.356 Y83.878 E.09619
G1 X17.356 Y80.829 E.0956
;WIDTH:0.455974
G1 X17.374 Y80.586 E.00837
;WIDTH:0.491949
G1 X17.392 Y80.343 E.0091
;WIDTH:0.527924
G1 X17.41 Y80.101 E.00979
G1 X17.399 Y79.376 E.02924
;WIDTH:0.505443
G1 X17.38 Y78.648 E.02801
;WIDTH:0.46889
G1 X17.356 Y78.138 E.01808
;WIDTH:0.419999
G1 X17.356 Y68.072 E.31561
G1 X36.306 Y68.069 E.59416
G1 X36.31 Y76.433 E.26225
G1 E-2.45 F4800
;WIPE_START
G1 F43200
G1 X36.311 Y78.14 E-.18018
G1 X36.286 Y78.503 E-.03841
G1 X36.262 Y78.867 E-.03851
G1 X36.273 Y79.59 E-.07633
G1 X36.274 Y80.316 E-.07663
G1 X36.293 Y80.571 E-.02699
G1 X36.312 Y80.826 E-.02699
G1 X36.314 Y83.868 E-.3211
G1 X33.805 Y83.87 E-.26486
;WIPE_END
G1 X36.691 Y84.245 F54000
G1 E3.5 F2400
G1 F1200
G1 X16.979 Y84.255 E.61805
G1 X16.979 Y67.695 E.51923
G1 X36.683 Y67.692 E.6178
G1 X36.691 Y84.185 E.51713
G1 X36.912 Y84.622 F54000
;TYPE:External perimeter
G1 F1200
G1 X16.67 Y84.629 E.63467
G1 X16.602 Y84.501 E.00454
G1 X16.602 Y67.554 E.53136
G1 X16.65 Y67.386 E.00548
G1 X16.78 Y67.318 E.0046
G1 X36.917 Y67.315 E.63138
G1 X37.001 Y67.33 E.00268
G1 X37.06 Y67.456 E.00436
G1 X37.068 Y84.415 E.53174
G1 X37.067 Y84.514 E.0031
G1 X36.961 Y84.588 E.00405
G1 X36.616 Y84.352 F54000
G1 E-2.45 F4800
;WIPE_START
G1 F43200
G1 X27.014 Y84.608 E-1.05
;WIPE_END
G1 X30.625 Y75.841 F54000
G1 E3.5 F2400
;TYPE:Perimeter
G1 F1200
G1 X30.883 Y75.509 E.01318
G1 X31.18 Y75.278 E.0118
G1 X31.693 Y75.09 E.01713
G1 X32.223 Y75.087 E.01662
G1 X32.602 Y75.207 E.01246
G1 X32.944 Y75.425 E.01272
G1 X33.199 Y75.68 E.01131
G1 X33.34 Y75.893 E.00801
G1 X33.919 Y76.178 E.02023
G1 X34.337 Y76.471 E.01601
G1 X34.824 Y76.937 E.02113
G1 X35.222 Y77.481 E.02113
G1 X35.519 Y78.084 E.02108
;WIDTH:0.46554
G1 X35.729 Y78.724 E.02367
;WIDTH:0.492637
G1 X35.757 Y78.806 E.00324
;WIDTH:0.519734
G1 X35.786 Y78.888 E.00345
G1 X35.819 Y79.397 E.02022
;WIDTH:0.520032
G1 X35.786 Y80.079 E.02709
G1 X35.715 Y80.296 E.00906
;WIDTH:0.486688
G1 X35.645 Y80.512 E.00838
;WIDTH:0.453344
G1 X35.575 Y80.729 E.00778
;WIDTH:0.419999
G1 X35.304 Y81.344 E.02107
G1 X34.93 Y81.903 E.02109
G1 X34.463 Y82.39 E.02116
G1 X33.919 Y82.788 E.02113
G1 X33.316 Y83.085 E.02108
;WIDTH:0.457156
G1 X32.998 Y83.197 E.01161
;WIDTH:0.494312
G1 X32.68 Y83.31 E.01267
;WIDTH:0.515761
G1 X32.512 Y83.35 E.00679
G1 X32.003 Y83.384 E.02006
;WIDTH:0.516092
G1 X31.321 Y83.35 E.02687
G1 X30.996 Y83.246 E.01343
;WIDTH:0.468046
G1 X30.671 Y83.141 E.01207
;WIDTH:0.419999
G1 X30.057 Y82.87 E.02104
G1 X29.497 Y82.496 E.02111
G1 X29.01 Y82.029 E.02116
G1 X28.904 Y81.903 E.00516
G1 X28.612 Y81.486 E.01596
G1 X28.315 Y80.882 E.0211
G1 X28.126 Y80.236 E.0211
G1 X28.054 Y79.564 E.02119
