; generated by PrusaSlicer 2.6.0+MacOS-arm64 on 2023-07-28 at 19:56:40 UTC

; 

; external perimeters extrusion width = 0.42mm
; perimeters extrusion width = 0.44mm
; infill extrusion width = 0.44mm
; solid infill extrusion width = 0.44mm
; top infill extrusion width = 0.40mm
; support material extrusion width = 0.36mm
; first layer extrusion width = 0.42mm

M201 X3500 Y3500 Z150 E5000 ; sets maximum accelerations, mm/sec^2
M203 X500 Y500 Z10 E60 ; sets maximum feedrates, mm / sec
M204 S3500 T1000 ; sets acceleration (S) and retract acceleration (R), mm/sec^2
M205 X8.00 Y8.00 Z0.40 E5.00 ; sets the jerk limits, mm/sec
M205 S0 T0 ; sets the minimum extruding and travel feed rate, mm/sec
;TYPE:Custom
G90 ; use absolute coordinates
M83 ; extruder relative mode
M104 S150 ; set temporary nozzle temp to prevent oozing during homing
M140 S60 ; set final bed temp
G4 S30 ; allow partial nozzle warmup
G28 ; home all axis
G1 Z50 F240
G1 X2.0 Y10 F3000
M104 S205 ; set final nozzle temp
M190 S60 ; wait for bed temp to stabilize
M109 S205 ; wait for nozzle temp to stabilize
G1 Z0.28 F240
G92 E0
G1 X2.0 Y140 E10 F1500 ; prime the nozzle
G1 X2.3 Y140 F5000
G92 E0
G1 X2.3 Y10 E10 F1200 ; prime the nozzle
G92 E0
G21 ; set units to millimeters
G90 ; use absolute coordinates
M83 ; use relative distances for extrusion
; Filament gcode
M107
;LAYER_CHANGE
;Z:0.2
;HEIGHT:0.2
;BEFORE_LAYER_CHANGE
G92 E0
;0.2


G1 E-3.5 F4800
G1 Z.2 F54000
;AFTER_LAYER_CHANGE
;0.2
G1 X67.823 Y63.039
G1 E3.5 F2400
M204 S3500
;TYPE:Skirt/Brim
;WIDTH:0.42
G1 F1200
G1 X70.081 Y62.284 E.07465
G1 X91.482 Y62.284 E.67101
G1 X92.782 Y62.516 E.0414
G1 X97.739 Y64.346 E.16568
G1 X98.462 Y64.705 E.02531
G1 X99.403 Y65.442 E.03748
G1 X100.177 Y66.544 E.04222
G1 X100.618 Y67.705 E.03894
G1 X100.709 Y68.416 E.02247
G1 X100.74 Y75.501 E.22215
G1 X100.676 Y76.202 E.02207
G1 X96.9 Y96.356 E.64291
G1 X96.401 Y97.723 E.04563
G1 X96.209 Y98.045 E.01175
G1 X94.92 Y99.341 E.05731
G1 X94.537 Y99.572 E.01402
G1 X93.33 Y100.039 E.04058
G1 X92.309 Y100.163 E.03225
G1 X87.7 Y100.113 E.14452
G1 X86.432 Y99.765 E.04123
G1 X85.494 Y99.203 E.03429
G1 X84.668 Y98.385 E.03645
G1 X68.068 Y78.092 E.82204
G1 X67.422 Y76.657 E.04934
G1 X66.406 Y71.805 E.15543
G1 X66.327 Y71.037 E.02421
G1 X66.327 Y66.038 E.15674
G1 X66.722 Y64.362 E.05399
G1 X67.784 Y63.085 E.05208
G1 X68.085 Y63.356 F54000
G1 F1200
G1 X68.188 Y63.241 E.00484
G1 X70.081 Y62.661 E.06208
G1 X91.482 Y62.661 E.67101
G1 X92.651 Y62.87 E.03723
G1 X97.609 Y64.699 E.16569
G1 X98.259 Y65.022 E.02276
G1 X99.132 Y65.705 E.03475
G1 X99.851 Y66.734 E.03936
G1 X100.248 Y67.779 E.03505
G1 X100.333 Y68.447 E.02111
G1 X100.363 Y75.502 E.22121
G1 X100.305 Y76.133 E.01987
G1 X96.53 Y96.287 E.6429
G1 X96.077 Y97.53 E.04148
G1 X95.885 Y97.852 E.01175
G1 X94.725 Y99.018 E.05157
G1 X94.342 Y99.249 E.01402
G1 X93.257 Y99.669 E.03648
G1 X92.309 Y99.785 E.02995
G1 X87.761 Y99.741 E.14261
G1 X86.577 Y99.417 E.03849
G1 X85.733 Y98.911 E.03085
G1 X84.96 Y98.146 E.0341
G1 X68.371 Y77.869 E.82143
G1 X67.791 Y76.578 E.04438
G1 X66.775 Y71.728 E.15537
G1 X66.704 Y71.037 E.02178
G1 X66.704 Y66.038 E.15674
G1 X67.098 Y64.455 E.05115
G1 X68.045 Y63.4 E.04445
; printing object KlackEnderPro2 Probe Dock 5.1mm v0.6 (1).stl id:0 copy 0
G1 E-2.45 F4800
;WIPE_START
G1 F43200
G1 X68.188 Y63.241 E-.02257
G1 X70.081 Y62.661 E-.20899
G1 X77.835 Y62.661 E-.81844
;WIPE_END
G1 X89.661 Y73.188 F54000
G1 E3.5 F2400
;TYPE:Perimeter
;WIDTH:0.419999
G1 F1200
G1 X95.161 Y73.192 E.17245
G1 X95.726 Y73.004 E.01867
G1 X95.755 Y72.958 E.0017
G1 X95.749 Y75.219 E.07089
G1 X94.033 Y75.194 E.05381
G1 X91.477 Y75.194 E.08014
G1 X91.194 Y75.237 E.00898
G1 X90.33 Y75.521 E.02852
G1 X90.015 Y75.772 E.01263
G1 X89.923 Y75.907 E.00512
G1 X89.804 Y76.338 E.01402
G1 X89.813 Y76.502 E.00515
G1 X89.92 Y77.028 E.01683
G1 X90.161 Y77.363 E.01294
G1 X90.369 Y77.504 E.00788
G1 X90.793 Y77.602 E.01364
G1 X92.065 Y77.575 E.03989
G1 X92.033 Y77.965 E.01227
G1 X92.031 Y95.154 E.53895
G1 X88.627 Y95.179 E.10673
G1 X88.683 Y94.478 E.02205
G1 X88.619 Y94.053 E.01348
G1 X88.566 Y93.942 E.00386
G1 X81.844 Y81.93 E.43159
G1 X78.977 Y76.89 E.1818
G1 X79.371 Y77.142 E.01466
G1 X79.879 Y77.29 E.01659
G1 X85.401 Y77.29 E.17314
G1 X85.704 Y77.24 E.00963
G1 X85.943 Y77.119 E.0084
G1 X86.884 Y76.441 E.03637
G1 X87.672 Y75.63 E.03545
G1 X88.305 Y74.7 E.03527
G1 X88.69 Y73.814 E.03029
G1 X88.822 Y73.176 E.02043
G1 X89.601 Y73.188 E.02443
G1 E-2.45 F4800
;WIPE_START
G1 F43200
G1 X95.161 Y73.192 E-.58689
G1 X95.726 Y73.004 E-.06285
G1 X95.755 Y72.958 E-.00574
G1 X95.749 Y75.219 E-.23866
G1 X94.273 Y75.197 E-.15586
;WIPE_END
G1 X90.44 Y69.075 F54000
G1 E3.5 F2400
G1 F1200
G1 X90.418 Y69.207 E.0042
G1 X90.418 Y69.973 E.02402
G1 X86.546 Y69.973 E.1214
G1 X86.546 Y67.102 E.09002
G1 X90.418 Y67.102 E.1214
G1 X90.418 Y68.078 E.0306
G1 X90.468 Y68.382 E.00966
G1 X90.621 Y68.642 E.00946
G1 X90.468 Y68.902 E.00946
G1 X90.45 Y69.016 E.00362
G1 X90.814 Y69.126 F54000
G1 F1200
G1 X90.795 Y69.207 E.00261
G1 X90.795 Y70.35 E.03584
G1 X86.169 Y70.35 E.14504
G1 X86.169 Y66.725 E.11366
G1 X90.795 Y66.725 E.14504
G1 X90.795 Y68.078 E.04242
G1 X90.813 Y68.218 E.00443
G1 X90.965 Y68.482 E.00955
;WIDTH:0.421822
G1 X91.311 Y68.642 E.01201
G1 X90.965 Y68.803 E.01202
;WIDTH:0.419999
G1 X90.857 Y68.949 E.00569
G1 X90.828 Y69.067 E.00381
G1 E-2.45 F4800
;WIPE_START
G1 F43200
G1 X90.795 Y69.207 E-.01518
G1 X90.795 Y70.35 E-.12065
G1 X86.169 Y70.35 E-.4883
G1 X86.169 Y66.725 E-.38264
G1 X86.579 Y66.725 E-.04323
;WIPE_END
G1 X76.452 Y73.168 F54000
G1 E3.5 F2400
G1 F1200
G1 X76.562 Y73.668 E.01605
G1 X76.761 Y74.283 E.02027
G1 X77.075 Y74.87 E.02087
G1 X77.577 Y75.525 E.02587
G1 X77.401 Y75.472 E.00576
G1 X74.89 Y75.472 E.07873
G1 X74.732 Y75.383 E.00569
G1 X74.402 Y75.311 E.01059
G1 X72.262 Y75.233 E.06714
G1 X72.278 Y73.191 E.06403
G1 X75.916 Y73.188 E.11407
G1 X76.392 Y73.171 E.01493
G1 E-2.45 F4800
;WIPE_START
G1 F43200
G1 X76.562 Y73.668 E-.05545
G1 X76.761 Y74.283 E-.06823
G1 X77.075 Y74.87 E-.07027
G1 X77.577 Y75.525 E-.08711
G1 X77.401 Y75.472 E-.0194
G1 X74.89 Y75.472 E-.26505
G1 X74.732 Y75.383 E-.01914
G1 X74.402 Y75.311 E-.03565
G1 X72.262 Y75.233 E-.22604
G1 X72.277 Y73.304 E-.20366
;WIPE_END
G1 X89.804 Y72.811 F54000
G1 E3.5 F2400
G1 F1200
G1 X95.161 Y72.815 E.16796
G1 X95.5 Y72.702 E.0112
;WIDTH:0.438082
G1 X95.728 Y72.346 E.01389
G1 X95.733 Y72.249 E.00319
;WIDTH:0.432279
G1 X95.73 Y69.207 E.09849
;WIDTH:0.457443
G1 X95.699 Y68.977 E.008
G1 X95.432 Y68.815 E.01076
;WIDTH:0.426737
G1 X95.165 Y68.653 E.00997
G1 X95.527 Y68.67 E.01157
;WIDTH:0.457443
G1 X95.89 Y68.688 E.01253
G1 X96.087 Y68.727 E.00692
G1 X96.113 Y69.206 E.01653
;WIDTH:0.432279
G1 X96.123 Y72.249 E.09852
;WIDTH:0.438082
G1 X96.132 Y73.017 E.02524
;WIDTH:0.419999
G1 X96.137 Y74.475 E.04571
G1 X96.122 Y75.469 E.03117
G1 X96.054 Y75.601 E.00466
G1 X94.032 Y75.571 E.06341
G1 X91.477 Y75.571 E.08011
G1 X91.307 Y75.597 E.00539
G1 X90.466 Y75.876 E.02778
G1 X90.252 Y76.091 E.00951
G1 X90.181 Y76.35 E.00842
G1 X90.228 Y76.74 E.01232
G1 X90.314 Y76.968 E.00764
G1 X90.536 Y77.166 E.00933
G1 X90.791 Y77.225 E.00821
G1 X91.861 Y77.217 E.03355
G1 X92.53 Y77.147 E.02109
G1 X92.467 Y77.334 E.00619
G1 X92.41 Y77.965 E.01987
G1 X92.408 Y95.418 E.54723
G1 X92.29 Y95.529 E.00508
G1 X88.523 Y95.556 E.11811
G1 X88.263 Y95.462 E.00867
G1 X88.233 Y95.375 E.00289
G1 X88.307 Y94.447 E.02919
G1 X88.237 Y94.126 E.0103
G1 X81.515 Y82.114 E.43159
G1 X78.564 Y76.926 E.18714
;WIDTH:0.440524
G1 X78.162 Y76.26 E.02572
G1 X77.717 Y75.945 E.01803
;WIDTH:0.420466
G1 X77.401 Y75.849 E.01037
;WIDTH:0.419999
G1 X74.775 Y75.849 E.08234
G1 X74.697 Y75.793 E.00301
G1 X74.388 Y75.688 E.01023
G1 X72.091 Y75.604 E.07207
G1 X71.918 Y75.495 E.00641
G1 X71.884 Y75.4 E.00316
G1 X71.904 Y72.815 E.08105
G1 X76.218 Y72.809 E.13526
G1 X76.937 Y72.751 E.02262
G1 X76.807 Y73.022 E.00942
G1 X76.923 Y73.56 E.01726
G1 X77.098 Y74.113 E.01819
G1 X77.375 Y74.641 E.01869
G1 X77.753 Y75.136 E.01953
;WIDTH:0.434698
G1 X78.342 Y75.892 E.03122
G1 X78.744 Y76.221 E.01692
;WIDTH:0.420529
G1 X79.135 Y76.543 E.0159
;WIDTH:0.419999
G1 X79.575 Y76.824 E.01637
G1 X79.879 Y76.913 E.00993
G1 X85.499 Y76.905 E.17621
G1 X85.726 Y76.81 E.00772
G1 X86.617 Y76.175 E.03431
G1 X87.363 Y75.414 E.03341
G1 X87.963 Y74.54 E.03324
G1 X88.279 Y73.862 E.02345
G1 X88.393 Y73.387 E.01532
G1 X88.48 Y72.885 E.01597
G1 X88.383 Y72.773 E.00465
G1 X89.102 Y72.811 E.02258
G1 X89.744 Y72.811 E.02013
G1 E-2.45 F4800
;WIPE_START
G1 F43200
G1 X95.161 Y72.815 E-.57179
G1 X95.5 Y72.702 E-.03772
G1 X95.728 Y72.346 E-.04462
G1 X95.733 Y72.249 E-.01025
G1 X95.73 Y69.207 E-.3211
G1 X95.699 Y68.977 E-.0245
G1 X95.432 Y68.815 E-.03297
G1 X95.375 Y68.78 E-.00705
;WIPE_END
G1 X91.172 Y69.207 F54000
G1 E3.5 F2400
;TYPE:External perimeter
G1 F1200
G1 X91.172 Y70.727 E.04766
G1 X85.792 Y70.727 E.16869
G1 X85.792 Y66.348 E.1373
G1 X91.172 Y66.348 E.16869
G1 X91.172 Y68.078 E.05424
G1 X91.229 Y68.212 E.00457
G1 X91.359 Y68.266 E.00441
G1 X95.893 Y68.292 E.14216
G1 X96.329 Y68.384 E.01397
G1 X96.456 Y68.522 E.00588
G1 X96.492 Y68.75 E.00724
G1 X96.515 Y74.481 E.17969
G1 X96.471 Y75.635 E.03621
G1 X96.312 Y75.888 E.00937
G1 X96.094 Y75.979 E.00741
G1 X94.035 Y75.948 E.06457
G1 X91.477 Y75.948 E.0802
G1 X90.689 Y76.187 E.02582
G1 X90.575 Y76.288 E.00478
G1 X90.601 Y76.686 E.01251
G1 X90.662 Y76.8 E.00405
G1 X90.789 Y76.848 E.00426
G1 X91.822 Y76.842 E.03239
G1 X92.701 Y76.75 E.02771
G1 X93.111 Y76.777 E.01288
G1 X92.842 Y77.369 E.02039
G1 X92.787 Y77.965 E.01877
G1 X92.785 Y95.357 E.54531
G1 X92.746 Y95.642 E.00902
G1 X92.423 Y95.896 E.01288
G1 X88.37 Y95.935 E.12708
G1 X87.959 Y95.732 E.01437
G1 X87.85 Y95.424 E.01024
G1 X87.931 Y94.417 E.03168
G1 X87.908 Y94.31 E.00343
G1 X81.186 Y82.298 E.43159
G1 X78.236 Y77.112 E.18707
G1 X77.876 Y76.523 E.02164
G1 X77.747 Y76.42 E.00518
G1 X77.401 Y76.226 E.01244
G1 X74.654 Y76.226 E.08613
G1 X74.375 Y76.065 E.0101
G1 X71.976 Y75.977 E.07527
G1 X71.606 Y75.745 E.01369
G1 X71.506 Y75.464 E.00935
G1 X71.53 Y72.438 E.09488
G1 X75.915 Y72.434 E.13749
G1 X77.661 Y72.339 E.05483
G1 X79.117 Y72.339 E.04565
G1 X79.358 Y72.368 E.00761
;WIDTH:0.417181
G1 X79.358 Y72.69 E.01002
;WIDTH:0.42
G1 X79.117 Y72.716 E.0076
G1 X77.664 Y72.716 E.04556
G1 X77.276 Y72.737 E.01218
G1 X77.176 Y72.944 E.00721
G1 X77.284 Y73.452 E.01628
G1 X77.434 Y73.943 E.0161
G1 X77.674 Y74.412 E.01652
G1 X78.555 Y75.562 E.04542
G1 X79.338 Y76.226 E.03219
G1 X79.879 Y76.536 E.01955
G1 X85.401 Y76.536 E.17314
G1 X85.51 Y76.502 E.00358
G1 X86.35 Y75.908 E.03226
G1 X87.054 Y75.198 E.03135
G1 X87.621 Y74.381 E.03118
G1 X87.951 Y73.662 E.0248
G1 X88.104 Y72.898 E.02443
G1 X87.928 Y72.722 E.0078
G1 X86.16 Y72.716 E.05543
G1 X85.919 Y72.69 E.0076
;WIDTH:0.417192
G1 X85.919 Y72.368 E.01002
;WIDTH:0.419999
G1 X86.148 Y72.339 E.00724
G1 X87.604 Y72.339 E.04565
G1 X89.102 Y72.433 E.04706
G1 X95.161 Y72.438 E.18998
G1 X95.274 Y72.4 E.00374
G1 X95.35 Y72.249 E.0053
G1 X95.35 Y69.207 E.09538
G1 X95.335 Y69.132 E.0024
G1 X95.163 Y69.018 E.00647
G1 X91.361 Y69.018 E.11921
G1 X91.229 Y69.072 E.00447
G1 X91.195 Y69.151 E.0027
G1 X90.786 Y69.31 F54000
G1 X91.311 Y68.642
;TYPE:Perimeter
;WIDTH:0.421822
G1 F1200
G1 X91.361 Y68.642 E.00158
;WIDTH:0.417504
G1 X95.165 Y68.653 E.11848
G1 E-2.45 F4800
;WIPE_START
G1 F43200
G1 X91.361 Y68.642 E-.40154
G1 X91.311 Y68.642 E-.00528
;WIPE_END
G1 E-.64318 F4800
G1 X95.038 Y73.313 F54000
G1 E3.5 F2400
;TYPE:Solid infill
;WIDTH:0.420917
G1 F1200
G1 X95.467 Y73.742 E.01907
G1 X95.465 Y74.274 E.01672
G1 X94.673 Y73.482 E.0352
G1 X94.138 Y73.481 E.01682
G1 X95.462 Y74.806 E.05887
G1 X95.462 Y74.924 E.00371
G1 X95.04 Y74.918 E.01327
G1 X93.602 Y73.48 E.06392
G1 X93.067 Y73.479 E.01682
G1 X94.498 Y74.91 E.06361
G1 X93.956 Y74.903 E.01704
G1 X92.532 Y73.479 E.0633
G1 X91.996 Y73.478 E.01685
G1 X93.422 Y74.903 E.06336
G1 X92.887 Y74.903 E.01682
G1 X91.461 Y73.477 E.06339
G1 X90.925 Y73.476 E.01685
G1 X92.352 Y74.903 E.06343
G1 X91.818 Y74.903 E.01678
G1 X90.39 Y73.475 E.06347
G1 X89.855 Y73.475 E.01682
G1 X91.298 Y74.918 E.06414
G1 X90.883 Y75.037 E.01357
G1 X89.319 Y73.474 E.0695
G1 X89.055 Y73.473 E.0083
G1 X89.004 Y73.693 E.0071
G1 X90.473 Y75.162 E.0653
G1 X90.1 Y75.324 E.01278
G1 X88.894 Y74.118 E.05361
G1 X88.725 Y74.483 E.01264
G1 X89.811 Y75.569 E.04827
G1 X89.625 Y75.849 E.01057
G1 X89.612 Y75.905 E.00181
G1 X88.554 Y74.847 E.04703
G1 X88.345 Y75.172 E.01214
G1 X89.705 Y76.532 E.06045
G1 E-2.45 F4800
;WIPE_START
G1 F43200
G1 X88.345 Y75.172 E-.20302
G1 X88.554 Y74.847 E-.04079
G1 X89.612 Y75.905 E-.15794
G1 X89.625 Y75.849 E-.00607
G1 X89.811 Y75.569 E-.03548
G1 X88.725 Y74.483 E-.16212
G1 X88.894 Y74.118 E-.04246
G1 X90.1 Y75.324 E-.18003
G1 X90.473 Y75.162 E-.04293
G1 X89.273 Y73.962 E-.17916
;WIPE_END
G1 X91.425 Y77.718 F54000
G1 E3.5 F2400
G1 F1200
G1 X91.754 Y78.047 E.01462
G1 X91.754 Y78.581 E.01678
G1 X90.895 Y77.722 E.03818
G1 X91.923 Y79.285 F54000
G1 F1200
G1 X90.493 Y77.855 E.06356
G1 X90.238 Y77.764 E.00851
G1 X89.965 Y77.58 E.01035
G1 X89.706 Y77.252 E.01314
G1 X89.651 Y77.138 E.00398
G1 X89.603 Y76.964 E.00567
G1 X88.124 Y75.486 E.06572
G1 X87.903 Y75.8 E.01207
G1 X91.753 Y79.649 E.17111
G1 X91.753 Y80.184 E.01682
G1 X87.648 Y76.079 E.18247
G1 X87.381 Y76.347 E.01189
G1 X91.752 Y80.718 E.19429
G1 X91.752 Y81.252 E.01678
G1 X87.114 Y76.614 E.20616
G1 X87.005 Y76.724 E.00487
G1 X86.82 Y76.855 E.00712
G1 X91.751 Y81.786 E.21918
G1 X91.751 Y82.32 E.01678
G1 X86.507 Y77.076 E.23309
G1 X86.194 Y77.297 E.01204
G1 X91.75 Y82.854 E.24698
G1 X91.75 Y83.388 E.01678
G1 X85.851 Y77.489 E.26221
G1 X85.613 Y77.562 E.00782
G1 X85.407 Y77.58 E.0065
G1 X91.75 Y83.923 E.28194
G1 X91.749 Y84.457 E.01678
G1 X84.873 Y77.58 E.30566
G1 X84.338 Y77.58 E.01682
G1 X91.749 Y84.991 E.32942
G1 X91.748 Y85.525 E.01678
G1 X83.804 Y77.58 E.35313
G1 X83.269 Y77.58 E.01682
G1 X91.748 Y86.059 E.37689
G1 X91.747 Y86.593 E.01678
G1 X82.735 Y77.58 E.4006
G1 X82.2 Y77.58 E.01682
G1 X91.747 Y87.127 E.42436
G1 X91.747 Y87.662 E.01682
G1 X81.666 Y77.58 E.44812
G1 X81.131 Y77.58 E.01682
G1 X91.746 Y88.196 E.47185
G1 X91.746 Y88.73 E.01678
G1 X80.596 Y77.58 E.49561
G1 X80.062 Y77.581 E.01678
G1 X91.745 Y89.264 E.5193
G1 X91.745 Y89.798 E.01678
G1 X79.937 Y77.991 E.52484
G1 X80.643 Y79.23 E.04482
G1 X91.744 Y90.332 E.49346
G1 X91.744 Y90.866 E.01678
G1 X81.348 Y80.47 E.4621
G1 X82.053 Y81.71 E.04483
G1 X91.744 Y91.401 E.43076
G1 X91.743 Y91.935 E.01678
G1 X82.734 Y82.926 E.40045
G1 X83.413 Y84.139 E.04369
G1 X91.743 Y92.469 E.37026
G1 X91.742 Y93.003 E.01678
G1 X84.092 Y85.353 E.34004
G1 X84.772 Y86.567 E.04373
G1 X91.742 Y93.537 E.30981
G1 X91.742 Y94.071 E.01678
G1 X85.451 Y87.781 E.27961
G1 X86.13 Y88.994 E.04369
G1 X91.741 Y94.605 E.24941
G1 X91.741 Y94.866 E.0082
G1 X91.469 Y94.868 E.00855
G1 X86.809 Y90.208 E.20713
G1 X87.489 Y91.422 E.04373
G1 X90.938 Y94.871 E.15331
G1 X90.407 Y94.875 E.01669
G1 X88.168 Y92.636 E.09952
G1 X88.84 Y93.842 E.04339
G1 X89.877 Y94.879 E.04609
G1 X89.346 Y94.883 E.01669
G1 X88.775 Y94.312 E.02538
G1 E-2.45 F4800
;WIPE_START
G1 F43200
G1 X89.346 Y94.883 E-.08524
G1 X89.877 Y94.879 E-.05605
G1 X88.84 Y93.842 E-.1548
G1 X88.168 Y92.636 E-.14573
G1 X90.407 Y94.875 E-.33423
G1 X90.938 Y94.871 E-.05605
G1 X89.478 Y93.411 E-.2179
;WIPE_END
G1 X76.761 Y74.552 F54000
G1 E3.5 F2400
;WIDTH:0.457153
G1 F1200
G1 X75.683 Y73.473 E.05253
G1 X75.098 Y73.474 E.02015
G1 X76.805 Y75.182 E.08317
G1 X76.22 Y75.182 E.02015
G1 X74.514 Y73.476 E.0831
G1 X73.93 Y73.478 E.02012
G1 X75.634 Y75.182 E.083
G1 X75.048 Y75.182 E.02018
G1 X73.346 Y73.479 E.08293
G1 X72.761 Y73.481 E.02015
G1 X74.297 Y75.016 E.0748
G1 X73.689 Y74.994 E.02096
G1 X72.563 Y73.868 E.05485
G1 X72.559 Y74.45 E.02005
G1 X73.257 Y75.148 E.034
G1 E-2.45 F4800
;WIPE_START
G1 F43200
G1 X72.559 Y74.45 E-.1042
G1 X72.563 Y73.868 E-.06143
G1 X73.689 Y74.994 E-.16809
G1 X74.297 Y75.016 E-.06422
G1 X72.761 Y73.481 E-.22922
G1 X73.346 Y73.479 E-.06175
G1 X75.048 Y75.182 E-.25415
G1 X75.634 Y75.182 E-.06186
G1 X75.332 Y74.88 E-.04508
;WIPE_END
G1 X90.297 Y68.049 F54000
G1 E3.5 F2400
;WIDTH:0.45016
G1 F1200
