; generated by PrusaSlicer 2.6.0+MacOS-arm64 on 2023-07-27 at 08:37:55 UTC

; 

; external perimeters extrusion width = 0.42mm
; perimeters extrusion width = 0.44mm
; infill extrusion width = 0.44mm
; solid infill extrusion width = 0.44mm
; top infill extrusion width = 0.40mm
; support material extrusion width = 0.36mm
; first layer extrusion width = 0.42mm

M201 X3500 Y3500 Z150 E5000 ; sets maximum accelerations, mm/sec^2
M203 X500 Y500 Z10 E60 ; sets maximum feedrates, mm / sec
M204 S3500 T1000 ; sets acceleration (S) and retract acceleration (R), mm/sec^2
M205 X8.00 Y8.00 Z0.40 E5.00 ; sets the jerk limits, mm/sec
M205 S0 T0 ; sets the minimum extruding and travel feed rate, mm/sec
;TYPE:Custom
G90 ; use absolute coordinates
M83 ; extruder relative mode
M104 S150 ; set temporary nozzle temp to prevent oozing during homing
M140 S60 ; set final bed temp
G4 S30 ; allow partial nozzle warmup
G28 ; home all axis
G1 Z50 F240
G1 X2.0 Y10 F3000
M104 S205 ; set final nozzle temp
M190 S60 ; wait for bed temp to stabilize
M109 S205 ; wait for nozzle temp to stabilize
G1 Z0.28 F240
G92 E0
G1 X2.0 Y140 E10 F1500 ; prime the nozzle
G1 X2.3 Y140 F5000
G92 E0
G1 X2.3 Y10 E10 F1200 ; prime the nozzle
G92 E0
G21 ; set units to millimeters
G90 ; use absolute coordinates
M83 ; use relative distances for extrusion
; Filament gcode
M107
;LAYER_CHANGE
;Z:0.2
;HEIGHT:0.2
;BEFORE_LAYER_CHANGE
G92 E0
;0.2


G1 E-3.5 F4800
G1 Z.2 F54000
;AFTER_LAYER_CHANGE
;0.2
G1 X15.243 Y50.512
G1 E3.5 F2400
M204 S3500
;TYPE:Skirt/Brim
;WIDTH:0.42
G1 F1200
G1 X16.315 Y50.188 E.03511
G1 X18.064 Y49.988 E.0552
G1 X21.665 Y49.982 E.11291
G1 X23.55 Y50.018 E.05911
G1 X25.615 Y50.415 E.06593
G1 X26.794 Y50.936 E.04042
G1 X28.443 Y52.083 E.06298
G1 X29.097 Y52.681 E.02779
G1 X51.117 Y78.844 E1.0722
G1 X51.7 Y79.844 E.03629
G1 X52.323 Y81.527 E.05627
G1 X52.534 Y82.701 E.0374
G1 X52.534 Y108.808 E.81857
G1 X52.14 Y110.391 E.05115
G1 X51.545 Y111.196 E.03139
G1 X48.616 Y114.125 E.12988
G1 X47.218 Y114.965 E.05114
G1 X46.228 Y115.114 E.03139
G1 X38.789 Y115.114 E.23324
G1 X36.717 Y114.404 E.06867
G1 X13.548 Y96.411 E.91978
G1 X10.309 Y93.218 E.14261
G1 X9.466 Y91.822 E.05113
G1 X9.316 Y90.841 E.03112
G1 X9.182 Y58.741 E1.00648
G1 X9.311 Y57.567 E.03703
G1 X9.624 Y56.286 E.04135
G1 X10.205 Y54.866 E.04811
G1 X11.327 Y53.163 E.06394
G1 X11.928 Y52.514 E.02773
G1 X13.057 Y51.594 E.04566
G1 X13.607 Y51.245 E.02042
G1 X14.889 Y50.619 E.04473
G1 X15.185 Y50.529 E.0097
G1 E-2.45 F4800
;WIPE_START
G1 F43200
G1 X16.315 Y50.188 E-.12459
G1 X18.064 Y49.988 E-.18582
G1 X21.665 Y49.982 E-.38011
G1 X23.55 Y50.018 E-.19901
G1 X25.043 Y50.305 E-.16047
;WIPE_END
G1 X16.569 Y53.916 F54000
G1 E3.5 F2400
G1 F1200
G1 X18.111 Y53.651 E.04906
G1 X23.086 Y53.656 E.15599
G1 X24.941 Y54.154 E.06022
G1 X25.622 Y54.584 E.02525
G1 X26.276 Y55.153 E.02718
G1 X27.105 Y56.332 E.04519
G1 X27.282 Y56.737 E.01386
G1 X47.96 Y80.809 E.99499
G1 X48.524 Y81.816 E.03619
G1 X48.87 Y83.242 E.04601
G1 X48.87 Y107.246 E.75263
G1 X48.569 Y108.481 E.03986
G1 X47.963 Y109.562 E.03886
G1 X47.046 Y110.487 E.04084
G1 X45.928 Y111.141 E.04061
G1 X44.646 Y111.451 E.04135
G1 X39.814 Y111.367 E.15153
G1 X38.698 Y110.963 E.03721
G1 X37.819 Y110.364 E.03335
G1 X36.982 Y109.466 E.03849
G1 X36.426 Y108.432 E.03681
G1 X36.155 Y107.259 E.03775
G1 X36.146 Y105.283 E.06196
G1 X36.005 Y105.113 E.00693
G1 X35.566 Y104.335 E.02801
G1 X35.146 Y102.769 E.05084
G1 X35.146 Y95.042 E.24227
G1 X35.408 Y93.79 E.04011
G1 X35.546 Y93.457 E.0113
G1 X17.151 Y93.448 E.57676
G1 X15.971 Y93.171 E.038
G1 X14.877 Y92.562 E.03926
G1 X13.935 Y91.632 E.0415
G1 X13.287 Y90.528 E.04014
G1 X12.974 Y89.268 E.04071
G1 X12.91 Y69.925 E.60649
G1 X12.864 Y64.596 E.16709
G1 X12.965 Y57.969 E.20781
G1 X13.432 Y56.64 E.04417
G1 X14.24 Y55.434 E.04552
G1 X15.313 Y54.525 E.04409
G1 X16.515 Y53.942 E.04189
G1 X16.68 Y54.282 F54000
G1 F1200
G1 X18.126 Y54.028 E.04603
G1 X23.061 Y54.033 E.15473
G1 X24.765 Y54.488 E.0553
G1 X25.386 Y54.878 E.02299
G1 X26.011 Y55.422 E.02598
G1 X26.784 Y56.531 E.04239
G1 X26.957 Y56.938 E.01387
G1 X47.662 Y81.041 E.99628
G1 X48.164 Y81.932 E.03207
G1 X48.493 Y83.265 E.04305
G1 X48.493 Y107.223 E.75119
G1 X48.209 Y108.365 E.0369
G1 X47.676 Y109.316 E.03418
G1 X46.832 Y110.175 E.03776
G1 X45.81 Y110.782 E.03727
G1 X44.627 Y111.074 E.03821
G1 X39.911 Y111.002 E.14788
G1 X38.888 Y110.637 E.03406
G1 X38.079 Y110.09 E.03062
G1 X37.302 Y109.265 E.03553
G1 X36.77 Y108.277 E.03518
G1 X36.528 Y107.198 E.03467
G1 X36.523 Y105.14 E.06453
G1 X36.321 Y104.907 E.00967
G1 X35.923 Y104.212 E.02511
G1 X35.523 Y102.743 E.04774
G1 X35.523 Y95.062 E.24083
G1 X35.771 Y93.896 E.03738
G1 X36.162 Y93.08 E.02837
G1 X17.214 Y93.075 E.5941
G1 X16.129 Y92.827 E.0349
G1 X15.122 Y92.274 E.03602
G1 X14.246 Y91.417 E.03842
G1 X13.645 Y90.408 E.03682
G1 X13.351 Y89.243 E.03767
G1 X13.287 Y69.923 E.60577
G1 X13.241 Y64.595 E.16706
G1 X13.331 Y58.064 E.20479
G1 X13.76 Y56.828 E.04102
G1 X14.505 Y55.703 E.04231
G1 X15.5 Y54.854 E.04101
G1 X16.626 Y54.308 E.03924
G1 X16.789 Y54.647 F54000
G1 F1200
G1 X16.848 Y54.619 E.00205
G1 X18.141 Y54.406 E.04109
G1 X23.037 Y54.41 E.15351
G1 X24.59 Y54.823 E.05039
G1 X25.15 Y55.173 E.02071
G1 X25.745 Y55.691 E.02474
G1 X26.461 Y56.728 E.03951
G1 X26.631 Y57.137 E.01389
G1 X47.364 Y81.273 E.99764
G1 X47.805 Y82.049 E.02799
G1 X48.116 Y83.289 E.04008
G1 X48.116 Y107.199 E.74968
G1 X47.85 Y108.248 E.03393
G1 X47.388 Y109.071 E.02959
G1 X46.616 Y109.866 E.03475
G1 X45.69 Y110.424 E.0339
G1 X44.607 Y110.697 E.03502
G1 X39.949 Y110.625 E.14607
G1 X39.079 Y110.311 E.029
G1 X38.337 Y109.814 E.028
G1 X37.621 Y109.061 E.03258
G1 X37.132 Y108.168 E.03192
G1 X36.9 Y107.136 E.03317
G1 X36.9 Y104.994 E.06716
G1 X36.636 Y104.699 E.01241
G1 X36.28 Y104.087 E.0222
G1 X35.9 Y102.717 E.04458
G1 X35.9 Y95.082 E.23939
G1 X36.135 Y93.999 E.03475
G1 X36.522 Y93.208 E.02761
G1 X36.943 Y92.703 E.02061
G1 X17.275 Y92.703 E.61668
G1 X16.284 Y92.483 E.03183
G1 X15.365 Y91.984 E.03279
G1 X14.555 Y91.2 E.03535
G1 X14.003 Y90.286 E.03348
G1 X13.728 Y89.218 E.03458
G1 X13.664 Y69.92 E.60508
G1 X13.618 Y64.594 E.167
G1 X13.698 Y58.157 E.20184
G1 X14.089 Y57.014 E.03788
G1 X14.771 Y55.972 E.03905
G1 X15.726 Y55.157 E.03936
G1 X16.734 Y54.673 E.03506
G1 X16.895 Y55.013 F54000
G1 F1200
G1 X16.984 Y54.972 E.00307
G1 X18.156 Y54.783 E.03722
G1 X23.012 Y54.787 E.15226
G1 X24.415 Y55.159 E.04551
G1 X24.914 Y55.467 E.01839
G1 X25.479 Y55.959 E.02349
G1 X26.138 Y56.922 E.03659
G1 X26.304 Y57.335 E.01396
G1 X47.067 Y81.506 E.99909
G1 X47.446 Y82.168 E.02392
G1 X47.739 Y83.313 E.03706
G1 X47.739 Y107.174 E.74814
G1 X47.491 Y108.129 E.03094
G1 X47.099 Y108.827 E.0251
G1 X46.397 Y109.557 E.03175
G1 X45.567 Y110.066 E.03053
G1 X44.586 Y110.319 E.03177
G1 X40.045 Y110.259 E.14239
G1 X39.267 Y109.984 E.02587
G1 X38.594 Y109.537 E.02533
G1 X37.939 Y108.858 E.02958
G1 X37.476 Y108.01 E.03029
G1 X37.278 Y107.115 E.02874
G1 X37.278 Y104.846 E.07114
G1 X36.951 Y104.491 E.01513
G1 X36.618 Y103.918 E.02078
G1 X36.278 Y102.692 E.03989
G1 X36.278 Y95.102 E.23798
G1 X36.484 Y94.144 E.03072
G1 X36.849 Y93.398 E.02604
G1 X37.278 Y92.908 E.02042
G1 X37.278 Y92.326 E.01825
G1 X17.297 Y92.326 E.62649
G1 X16.394 Y92.121 E.02903
G1 X15.569 Y91.667 E.02953
G1 X14.864 Y90.983 E.0308
G1 X14.36 Y90.163 E.03018
G1 X14.105 Y89.193 E.03145
G1 X14.041 Y69.918 E.60436
G1 X13.995 Y64.592 E.167
G1 X14.064 Y58.25 E.19886
G1 X14.437 Y57.159 E.03615
G1 X15.07 Y56.204 E.03592
G1 X15.949 Y55.461 E.03609
G1 X16.841 Y55.039 E.03094
G1 X17 Y55.38 F54000
G1 F1200
G1 X17.118 Y55.325 E.00408
G1 X18.17 Y55.16 E.03339
G1 X22.988 Y55.164 E.15107
G1 X24.242 Y55.495 E.04066
G1 X24.679 Y55.762 E.01606
G1 X25.213 Y56.227 E.0222
G1 X25.813 Y57.115 E.0336
G1 X25.975 Y57.531 E.014
G1 X46.77 Y81.738 E1.0006
G1 X47.088 Y82.289 E.01995
G1 X47.362 Y83.338 E.03399
G1 X47.362 Y107.149 E.74658
G1 X47.134 Y108.008 E.02787
G1 X46.785 Y108.619 E.02206
G1 X46.144 Y109.278 E.02882
G1 X45.443 Y109.709 E.0258
G1 X44.564 Y109.942 E.02851
G1 X40.139 Y109.893 E.13875
G1 X39.453 Y109.655 E.02277
G1 X38.85 Y109.26 E.0226
G1 X38.229 Y108.615 E.02807
G1 X37.821 Y107.856 E.02702
G1 X37.655 Y107.095 E.02442
G1 X37.655 Y104.696 E.07522
G1 X37.266 Y104.282 E.01781
G1 X36.956 Y103.749 E.01933
G1 X36.655 Y102.666 E.03524
G1 X36.655 Y95.122 E.23654
G1 X36.832 Y94.289 E.0267
G1 X37.175 Y93.588 E.02447
G1 X37.655 Y93.053 E.02254
G1 X37.655 Y91.949 E.03462
G1 X17.319 Y91.949 E.63762
G1 X16.506 Y91.76 E.02617
G1 X15.812 Y91.377 E.02485
G1 X15.17 Y90.762 E.02788
G1 X14.717 Y90.036 E.02683
G1 X14.482 Y89.166 E.02826
G1 X14.418 Y69.916 E.60357
G1 X14.372 Y64.59 E.167
G1 X14.431 Y58.342 E.19591
G1 X14.767 Y57.344 E.03302
G1 X15.335 Y56.473 E.0326
G1 X16.173 Y55.766 E.03438
G1 X16.946 Y55.405 E.02675
G1 X17.103 Y55.747 F54000
G1 F1200
G1 X17.251 Y55.679 E.00511
G1 X18.183 Y55.537 E.02956
G1 X22.963 Y55.541 E.14987
G1 X24.071 Y55.831 E.03591
G1 X24.444 Y56.058 E.01369
G1 X24.946 Y56.495 E.02087
G1 X25.487 Y57.305 E.03054
G1 X25.645 Y57.725 E.01407
G1 X46.471 Y81.97 E1.00213
G1 X46.748 Y82.454 E.01749
G1 X46.985 Y83.362 E.02942
G1 X46.985 Y107.123 E.74501
G1 X46.777 Y107.884 E.02474
G1 X46.496 Y108.374 E.01771
G1 X45.922 Y108.972 E.02599
G1 X45.315 Y109.353 E.02247
G1 X44.541 Y109.565 E.02516
G1 X40.23 Y109.526 E.13517
G1 X39.637 Y109.325 E.01963
G1 X39.104 Y108.98 E.01991
G1 X38.548 Y108.413 E.0249
G1 X38.166 Y107.701 E.02533
G1 X38.032 Y107.076 E.02004
G1 X38.032 Y104.543 E.07942
G1 X37.58 Y104.072 E.02047
G1 X37.294 Y103.58 E.01784
G1 X37.032 Y102.64 E.0306
G1 X37.032 Y95.141 E.23513
G1 X37.181 Y94.433 E.02269
G1 X37.502 Y93.779 E.02284
G1 X38.032 Y93.201 E.02459
G1 X38.032 Y91.572 E.05108
G1 X17.34 Y91.572 E.64878
G1 X16.662 Y91.416 E.02181
G1 X16.054 Y91.087 E.02168
G1 X15.448 Y90.506 E.02632
G1 X15.072 Y89.908 E.02215
G1 X14.859 Y89.139 E.02502
G1 X14.795 Y69.914 E.60279
G1 X14.749 Y64.589 E.16697
G1 X14.798 Y58.431 E.19309
G1 X15.096 Y57.529 E.02979
G1 X15.635 Y56.704 E.0309
G1 X16.394 Y56.072 E.03097
G1 X17.048 Y55.772 E.02256
G1 X17.206 Y56.114 F54000
G1 F1200
G1 X17.383 Y56.033 E.0061
G1 X18.196 Y55.914 E.02576
G1 X22.939 Y55.918 E.14871
G1 X23.901 Y56.169 E.03117
G1 X24.209 Y56.354 E.01127
G1 X24.678 Y56.762 E.01949
G1 X25.159 Y57.492 E.02741
G1 X25.313 Y57.918 E.0142
G1 X46.174 Y82.203 E1.0038
G1 X46.391 Y82.576 E.01353
G1 X46.608 Y83.387 E.02632
G1 X46.608 Y107.097 E.74341
G1 X46.42 Y107.759 E.02158
G1 X46.208 Y108.13 E.0134
G1 X45.666 Y108.694 E.02453
G1 X45.185 Y108.998 E.01784
G1 X44.515 Y109.188 E.02184
G1 X40.323 Y109.159 E.13144
G1 X39.781 Y108.976 E.01794
G1 X39.359 Y108.702 E.01578
G1 X38.838 Y108.169 E.02337
G1 X38.512 Y107.55 E.02194
G1 X38.409 Y107.057 E.01579
G1 X38.409 Y104.391 E.08359
G1 X37.869 Y103.828 E.02446
G1 X37.633 Y103.414 E.01494
G1 X37.409 Y102.614 E.02605
G1 X37.409 Y95.162 E.23365
G1 X37.545 Y94.538 E.02002
G1 X37.826 Y93.973 E.01979
G1 X38.409 Y93.351 E.02673
G1 X38.409 Y91.195 E.0676
G1 X17.361 Y91.195 E.65995
G1 X16.818 Y91.072 E.01746
G1 X16.257 Y90.768 E.02001
G1 X15.727 Y90.251 E.02321
G1 X15.427 Y89.778 E.01756
G1 X15.236 Y89.111 E.02175
G1 X15.172 Y69.912 E.60197
G1 X15.126 Y64.587 E.16697
G1 X15.166 Y58.519 E.19026
G1 X15.427 Y57.711 E.02662
G1 X15.9 Y56.973 E.02748
G1 X16.575 Y56.404 E.02768
G1 X17.151 Y56.14 E.01987
G1 X17.305 Y56.481 F54000
G1 F1200
G1 X17.512 Y56.388 E.00712
G1 X18.208 Y56.291 E.02203
G1 X22.915 Y56.295 E.14758
G1 X23.733 Y56.508 E.0265
G1 X23.975 Y56.65 E.0088
G1 X24.41 Y57.029 E.01809
G1 X24.829 Y57.676 E.02417
G1 X24.98 Y58.109 E.01438
G1 X45.878 Y82.437 E1.00558
G1 X46.034 Y82.702 E.00964
G1 X46.231 Y83.413 E.02313
G1 X46.231 Y107.069 E.74172
G1 X46.065 Y107.631 E.01837
G1 X45.92 Y107.885 E.00917
G1 X45.409 Y108.417 E.02313
G1 X45.052 Y108.645 E.01328
G1 X44.489 Y108.81 E.01839
G1 X40.411 Y108.792 E.12786
G1 X39.962 Y108.644 E.01482
G1 X39.61 Y108.419 E.0131
G1 X39.158 Y107.967 E.02004
G1 X38.859 Y107.399 E.02013
G1 X38.786 Y107.039 E.01152
G1 X38.786 Y104.24 E.08776
G1 X38.159 Y103.586 E.02841
G1 X37.974 Y103.252 E.01197
G1 X37.786 Y102.588 E.02164
G1 X37.786 Y95.182 E.23221
G1 X37.893 Y94.684 E.01597
G1 X38.15 Y94.168 E.01807
G1 X38.786 Y93.504 E.02883
G1 X38.786 Y90.818 E.08422
G1 X17.381 Y90.818 E.67114
G1 X16.97 Y90.726 E.01321
G1 X16.5 Y90.478 E.01666
G1 X16.005 Y89.996 E.02166
G1 X15.78 Y89.644 E.0131
G1 X15.613 Y89.082 E.01838
G1 X15.549 Y69.909 E.60116
G1 X15.503 Y64.585 E.16694
G1 X15.534 Y58.607 E.18744
G1 X15.778 Y57.851 E.02491
G1 X16.2 Y57.204 E.02422
G1 X16.795 Y56.711 E.02423
G1 X17.25 Y56.506 E.01565
G1 X17.401 Y56.849 F54000
G1 F1200
G1 X17.638 Y56.744 E.00813
G1 X18.22 Y56.668 E.0184
G1 X22.891 Y56.672 E.14646
G1 X23.569 Y56.848 E.02196
G1 X23.743 Y56.947 E.00628
G1 X24.141 Y57.294 E.01656
G1 X24.499 Y57.86 E.021
G1 X24.588 Y58.106 E.0082
G1 X24.618 Y58.267 E.00513
G1 X45.58 Y82.668 E1.00862
G1 X45.696 Y82.869 E.00728
G1 X45.854 Y83.439 E.01855
G1 X45.854 Y107.039 E.73996
G1 X45.713 Y107.496 E.015
G1 X45.608 Y107.673 E.00645
G1 X45.155 Y108.138 E.02035
G1 X44.915 Y108.293 E.00896
G1 X44.459 Y108.433 E.01496
G1 X40.5 Y108.424 E.12413
G1 X40.103 Y108.294 E.0131
G1 X39.862 Y108.139 E.00898
G1 X39.446 Y107.723 E.01845
G1 X39.207 Y107.254 E.0165
G1 X39.163 Y107.022 E.0074
G1 X39.163 Y104.086 E.09206
G1 X38.474 Y103.377 E.031
G1 X38.328 Y103.122 E.00921
G1 X38.163 Y102.56 E.01836
G1 X38.163 Y95.203 E.23067
G1 X38.255 Y94.792 E.01321
G1 X38.472 Y94.366 E.01499
G1 X39.163 Y93.659 E.031
G1 X39.163 Y90.44 E.10093
G1 X17.401 Y90.44 E.68233
G1 X17.123 Y90.38 E.00892
G1 X16.702 Y90.158 E.01492
G1 X16.286 Y89.744 E.0184
G1 X16.132 Y89.505 E.00891
G1 X15.99 Y89.051 E.01491
G1 X15.926 Y69.907 E.60025
G1 X15.881 Y64.582 E.16697
G1 X15.902 Y58.692 E.18468
G1 X16.11 Y58.031 E.02173
G1 X16.464 Y57.475 E.02067
G1 X17.014 Y57.019 E.0224
G1 X17.346 Y56.873 E.01137
G1 X17.494 Y57.216 F54000
G1 F1200
G1 X17.76 Y57.102 E.00907
G1 X18.23 Y57.045 E.01484
G1 X22.867 Y57.049 E.14539
G1 X23.409 Y57.19 E.01756
G1 X23.511 Y57.246 E.00365
G1 X23.871 Y57.559 E.01496
G1 X24.166 Y58.038 E.01764
G1 X24.226 Y58.211 E.00574
G1 X24.263 Y58.431 E.00699
G1 X45.284 Y82.902 E1.01149
G1 X45.341 Y82.999 E.00353
G1 X45.477 Y83.467 E.01528
G1 X45.477 Y107.007 E.73808
G1 X45.363 Y107.354 E.01145
G1 X45.301 Y107.454 E.00369
G1 X44.901 Y107.859 E.01785
G1 X44.772 Y107.943 E.00483
G1 X44.427 Y108.056 E.01138
G1 X40.589 Y108.056 E.12034
G1 X40.245 Y107.943 E.01135
G1 X40.116 Y107.859 E.00483
G1 X39.736 Y107.479 E.01685
G1 X39.559 Y107.115 E.01269
G1 X39.54 Y107.007 E.00344
G1 X39.54 Y103.931 E.09645
G1 X38.785 Y103.164 E.03375
G1 X38.681 Y102.987 E.00644
G1 X38.54 Y102.53 E.015
G1 X38.54 Y95.223 E.22911
G1 X38.602 Y94.941 E.00905
G1 X38.794 Y94.565 E.01324
G1 X39.54 Y93.815 E.03317
G1 X39.54 Y90.063 E.11764
G1 X17.419 Y90.063 E.69359
G1 X17.268 Y90.032 E.00483
G1 X16.946 Y89.869 E.01132
G1 X16.565 Y89.49 E.01685
G1 X16.481 Y89.361 E.00483
G1 X16.367 Y89.018 E.01133
G1 X16.303 Y69.905 E.59928
G1 X16.258 Y64.58 E.16697
G1 X16.271 Y58.775 E.18201
G1 X16.443 Y58.211 E.01849
G1 X16.765 Y57.704 E.01883
G1 X17.229 Y57.33 E.01869
G1 X17.439 Y57.24 E.00716
G1 X17.59 Y57.582 F54000
G1 F1200
G1 X17.836 Y57.473 E.00844
G1 X18.241 Y57.422 E.0128
G1 X22.842 Y57.426 E.14426
G1 X23.258 Y57.535 E.01348
G1 X23.569 Y57.786 E.01253
G1 X23.819 Y58.186 E.01479
G1 X23.857 Y58.292 E.00353
G1 X23.909 Y58.598 E.00973
G1 X45.001 Y83.163 E1.01518
G1 X45.1 Y83.494 E.01083
G1 X45.1 Y106.972 E.73614
G1 X45 Y107.227 E.00859
G1 X44.62 Y107.598 E.01665
G1 X44.392 Y107.679 E.00759
G1 X40.624 Y107.679 E.11814
G1 X40.37 Y107.58 E.00855
G1 X40.027 Y107.237 E.01521
G1 X39.923 Y107.018 E.0076
G1 X39.917 Y103.775 E.10168
G1 X39.093 Y102.945 E.03667
G1 X39.031 Y102.845 E.00369
G1 X38.917 Y102.499 E.01142
G1 X38.917 Y95.242 E.22754
G1 X38.949 Y95.09 E.00487
G1 X39.116 Y94.764 E.01148
G1 X39.917 Y93.974 E.03527
G1 X39.917 Y89.686 E.13445
G1 X17.437 Y89.686 E.70484
G1 X17.187 Y89.577 E.00855
G1 X16.826 Y89.208 E.01619
G1 X16.744 Y88.982 E.00754
G1 X16.68 Y69.903 E.59821
G1 X16.635 Y64.579 E.16694
G1 X16.641 Y58.854 E.1795
