; generated by PrusaSlicer 2.6.0+MacOS-arm64 on 2023-07-26 at 16:39:20 UTC

; 

; external perimeters extrusion width = 0.42mm
; perimeters extrusion width = 0.44mm
; infill extrusion width = 0.44mm
; solid infill extrusion width = 0.44mm
; top infill extrusion width = 0.40mm
; support material extrusion width = 0.36mm
; first layer extrusion width = 0.42mm

M201 X3500 Y3500 Z150 E5000 ; sets maximum accelerations, mm/sec^2
M203 X500 Y500 Z10 E60 ; sets maximum feedrates, mm / sec
M204 S3500 T1000 ; sets acceleration (S) and retract acceleration (R), mm/sec^2
M205 X8.00 Y8.00 Z0.40 E5.00 ; sets the jerk limits, mm/sec
M205 S0 T0 ; sets the minimum extruding and travel feed rate, mm/sec
;TYPE:Custom
G90 ; use absolute coordinates
M83 ; extruder relative mode
M104 S150 ; set temporary nozzle temp to prevent oozing during homing
M140 S60 ; set final bed temp
G4 S30 ; allow partial nozzle warmup
G28 ; home all axis
G1 Z50 F240
G1 X2.0 Y10 F3000
M104 S205 ; set final nozzle temp
M190 S60 ; wait for bed temp to stabilize
M109 S205 ; wait for nozzle temp to stabilize
G1 Z0.28 F240
G92 E0
G1 X2.0 Y140 E10 F1500 ; prime the nozzle
G1 X2.3 Y140 F5000
G92 E0
G1 X2.3 Y10 E10 F1200 ; prime the nozzle
G92 E0
G21 ; set units to millimeters
G90 ; use absolute coordinates
M83 ; use relative distances for extrusion
; Filament gcode
M107
;LAYER_CHANGE
;Z:0.2
;HEIGHT:0.2
;BEFORE_LAYER_CHANGE
G92 E0
;0.2


G1 E-3.5 F4800
G1 Z.2 F54000
;AFTER_LAYER_CHANGE
;0.2
G1 X28.3 Y76.903
G1 E3.5 F2400
M204 S3500
;TYPE:Skirt/Brim
;WIDTH:0.42
G1 F1200
G1 X30.276 Y76.465 E.06346
G1 X31.105 Y76.4 E.02607
G1 X51.717 Y76.416 E.64627
G1 X53.613 Y76.727 E.06024
G1 X54.249 Y76.92 E.02084
G1 X55.749 Y77.612 E.0518
G1 X57.155 Y78.598 E.05384
G1 X58.048 Y79.461 E.03894
G1 X59.186 Y81.031 E.0608
G1 X59.77 Y82.247 E.0423
G1 X60.218 Y83.72 E.04827
G1 X60.43 Y85.479 E.05555
G1 X60.412 Y104.881 E.60834
G1 X60.302 Y105.751 E.0275
G1 X59.938 Y107.266 E.04885
G1 X59.438 Y108.465 E.04073
G1 X58.72 Y109.655 E.04358
G1 X57.976 Y110.561 E.03676
G1 X57.273 Y111.245 E.03075
G1 X55.958 Y112.209 E.05112
G1 X55.101 Y112.67 E.03051
G1 X54.031 Y113.102 E.03618
G1 X52.803 Y113.408 E.03968
G1 X51.896 Y113.528 E.02869
G1 X31.101 Y113.528 E.65201
G1 X29.125 Y113.171 E.06296
G1 X28.304 Y112.874 E.02737
G1 X27.147 Y112.275 E.04085
G1 X26.43 Y111.777 E.02737
G1 X24.807 Y110.306 E.06868
G1 X24.146 Y109.484 E.03307
G1 X23.359 Y108.112 E.04959
G1 X22.984 Y107.126 E.03308
G1 X22.584 Y104.873 E.07175
G1 X22.071 Y85.562 E.6057
G1 X22.162 Y84.373 E.03739
G1 X22.455 Y83.002 E.04396
G1 X23.074 Y81.463 E.05201
G1 X23.786 Y80.282 E.04324
G1 X25.132 Y78.785 E.06312
G1 X26.005 Y78.093 E.03493
G1 X26.898 Y77.527 E.03315
G1 X28.245 Y76.928 E.04622
G1 E-2.45 F4800
;WIPE_START
G1 F43200
G1 X30.276 Y76.465 E-.21988
G1 X31.105 Y76.4 E-.08777
G1 X38.138 Y76.405 E-.74235
;WIPE_END
G1 X29.099 Y80.539 F54000
G1 E3.5 F2400
G1 F1200
G1 X31.112 Y80.063 E.06486
G1 X51.404 Y80.067 E.63624
G1 X52.721 Y80.301 E.04194
G1 X53.503 Y80.572 E.02595
G1 X55.182 Y81.769 E.06465
G1 X55.88 Y82.654 E.03534
G1 X56.385 Y83.645 E.03487
G1 X56.738 Y85.193 E.04978
G1 X56.767 Y104.5 E.60536
G1 X56.35 Y106.387 E.06059
G1 X55.315 Y108.048 E.06136
G1 X54.482 Y108.788 E.03494
G1 X53.507 Y109.375 E.03568
G1 X51.524 Y109.884 E.06419
G1 X31.543 Y109.884 E.62649
G1 X30.434 Y109.712 E.03519
G1 X29.384 Y109.317 E.03517
G1 X27.665 Y107.961 E.06865
G1 X26.716 Y106.551 E.05329
G1 X26.276 Y104.92 E.05297
G1 X26.254 Y101.339 E.11228
G1 X26.611 Y100.006 E.04327
G1 X27.508 Y98.391 E.05792
G1 X27.652 Y98.088 E.01052
G1 X28.134 Y96.75 E.04459
G1 X28.31 Y96.042 E.02287
G1 X28.377 Y95.653 E.01238
G1 X28.471 Y94.596 E.03327
G1 X28.45 Y93.747 E.02663
G1 X28.318 Y92.613 E.0358
G1 X27.931 Y91.199 E.04597
G1 X26.934 Y89.17 E.07088
G1 X26.269 Y88.072 E.04025
G1 X25.813 Y86.624 E.0476
G1 X25.753 Y85.794 E.02609
G1 X26.063 Y83.754 E.0647
G1 X26.603 Y82.672 E.03792
G1 X27.366 Y81.714 E.0384
G1 X29.046 Y80.566 E.0638
G1 X29.258 Y80.878 F54000
G1 F1200
G1 X31.133 Y80.44 E.06037
G1 X51.387 Y80.444 E.63505
G1 X52.639 Y80.67 E.03989
G1 X53.352 Y80.919 E.02368
G1 X54.939 Y82.058 E.06125
G1 X55.571 Y82.87 E.03226
G1 X56.037 Y83.794 E.03245
G1 X56.365 Y85.255 E.04695
G1 X56.389 Y104.479 E.60276
G1 X55.989 Y106.273 E.05763
G1 X55.044 Y107.784 E.05588
G1 X54.245 Y108.494 E.03351
G1 X53.337 Y109.037 E.03317
G1 X51.501 Y109.507 E.05942
G1 X31.558 Y109.507 E.6253
G1 X30.512 Y109.343 E.0332
G1 X29.546 Y108.976 E.0324
G1 X27.923 Y107.685 E.06502
G1 X27.048 Y106.369 E.04955
G1 X26.647 Y104.848 E.04932
G1 X26.631 Y101.364 E.10924
G1 X26.968 Y100.128 E.04017
G1 X27.843 Y98.564 E.05619
G1 X28 Y98.233 E.01149
G1 X28.495 Y96.86 E.04576
G1 X28.679 Y96.12 E.02391
G1 X28.752 Y95.702 E.0133
G1 X28.849 Y94.608 E.03444
G1 X28.827 Y93.721 E.02782
G1 X28.689 Y92.541 E.03725
G1 X28.285 Y91.064 E.04801
G1 X27.265 Y88.988 E.07252
G1 X26.622 Y87.937 E.03863
G1 X26.179 Y86.533 E.04616
G1 X26.13 Y85.79 E.02335
G1 X26.414 Y83.895 E.06008
G1 X26.932 Y82.859 E.03632
G1 X27.642 Y81.972 E.03562
G1 X29.208 Y80.912 E.05929
G1 X29.382 Y81.235 F54000
G1 F1200
G1 X31.155 Y80.817 E.05712
G1 X51.37 Y80.821 E.63383
G1 X52.556 Y81.038 E.0378
G1 X53.202 Y81.265 E.02147
G1 X54.658 Y82.311 E.05621
G1 X55.261 Y83.087 E.03081
G1 X55.69 Y83.941 E.02997
G1 X55.993 Y85.316 E.04415
G1 X56.012 Y104.459 E.60022
G1 X55.651 Y106.102 E.05274
G1 X54.772 Y107.521 E.05234
G1 X54.036 Y108.18 E.03098
G1 X53.167 Y108.7 E.03175
G1 X51.477 Y109.13 E.05468
G1 X31.572 Y109.13 E.62411
G1 X30.627 Y108.984 E.02998
G1 X29.708 Y108.634 E.03083
G1 X28.183 Y107.41 E.06131
G1 X27.381 Y106.189 E.0458
G1 X27.018 Y104.778 E.04568
G1 X27.008 Y101.389 E.10626
G1 X27.325 Y100.252 E.03701
G1 X28.178 Y98.738 E.05449
G1 X28.349 Y98.378 E.0125
G1 X28.857 Y96.97 E.04693
G1 X29.049 Y96.198 E.02494
G1 X29.126 Y95.751 E.01422
G1 X29.226 Y94.62 E.0356
G1 X29.203 Y93.694 E.02904
G1 X29.06 Y92.469 E.03867
G1 X28.639 Y90.93 E.05003
G1 X27.595 Y88.805 E.07423
G1 X26.974 Y87.8 E.03704
G1 X26.546 Y86.442 E.04464
G1 X26.508 Y85.787 E.02057
G1 X26.765 Y84.035 E.05552
G1 X27.239 Y83.078 E.03348
G1 X27.919 Y82.23 E.03408
G1 X29.332 Y81.268 E.0536
G1 X29.543 Y81.581 F54000
G1 F1200
G1 X31.176 Y81.194 E.05262
G1 X51.352 Y81.198 E.6326
G1 X52.472 Y81.406 E.03572
G1 X53.049 Y81.611 E.0192
G1 X54.414 Y82.6 E.05285
G1 X54.95 Y83.301 E.02767
G1 X55.341 Y84.087 E.02753
G1 X55.62 Y85.375 E.04132
G1 X55.635 Y104.44 E.59777
G1 X55.313 Y105.933 E.04789
G1 X54.5 Y107.259 E.04877
G1 X53.798 Y107.886 E.02951
G1 X52.998 Y108.361 E.02917
G1 X51.454 Y108.753 E.04995
G1 X31.587 Y108.753 E.62292
G1 X30.706 Y108.614 E.02796
G1 X29.872 Y108.293 E.02802
G1 X28.444 Y107.137 E.05761
G1 X27.715 Y106.011 E.04206
G1 X27.389 Y104.709 E.04208
G1 X27.386 Y101.416 E.10325
G1 X27.681 Y100.378 E.03383
G1 X28.512 Y98.913 E.05281
G1 X28.697 Y98.524 E.01351
G1 X29.218 Y97.08 E.04813
G1 X29.418 Y96.275 E.02601
G1 X29.5 Y95.8 E.01511
G1 X29.604 Y94.632 E.03677
G1 X29.58 Y93.668 E.03023
G1 X29.432 Y92.397 E.04012
G1 X28.993 Y90.796 E.05205
G1 X27.925 Y88.621 E.07597
G1 X27.327 Y87.664 E.03538
G1 X26.913 Y86.353 E.04311
G1 X26.885 Y85.787 E.01777
G1 X27.117 Y84.176 E.05103
G1 X27.567 Y83.264 E.03189
G1 X28.194 Y82.489 E.03126
G1 X29.493 Y81.614 E.04911
G1 X29.701 Y81.928 F54000
G1 F1200
G1 X29.742 Y81.9 E.00156
G1 X31.196 Y81.571 E.04674
G1 X51.334 Y81.575 E.63141
G1 X52.387 Y81.773 E.03359
G1 X52.896 Y81.957 E.01697
G1 X54.131 Y82.851 E.0478
G1 X54.64 Y83.515 E.02623
G1 X54.992 Y84.232 E.02504
G1 X55.247 Y85.434 E.03853
G1 X55.258 Y104.419 E.59526
G1 X54.951 Y105.821 E.045
G1 X54.228 Y106.997 E.04328
G1 X53.59 Y107.572 E.02693
G1 X52.829 Y108.023 E.02774
G1 X51.431 Y108.376 E.04521
G1 X31.602 Y108.376 E.62172
G1 X30.786 Y108.245 E.02591
G1 X30.037 Y107.953 E.02521
G1 X28.707 Y106.865 E.05388
G1 X28.05 Y105.836 E.03828
G1 X27.761 Y104.643 E.03849
G1 X27.763 Y101.444 E.1003
G1 X28.037 Y100.506 E.03064
G1 X28.847 Y99.088 E.0512
G1 X29.046 Y98.669 E.01454
G1 X29.579 Y97.189 E.04932
G1 X29.787 Y96.353 E.02701
G1 X29.874 Y95.848 E.01607
G1 X29.981 Y94.644 E.0379
G1 X29.956 Y93.641 E.03146
G1 X29.803 Y92.325 E.04154
G1 X29.348 Y90.662 E.05406
G1 X28.254 Y88.436 E.07777
G1 X27.679 Y87.527 E.03372
G1 X27.281 Y86.264 E.04152
G1 X27.262 Y85.79 E.01487
G1 X27.469 Y84.314 E.04673
G1 X27.874 Y83.484 E.02896
G1 X28.469 Y82.749 E.02965
G1 X29.652 Y81.961 E.04457
G1 X29.855 Y82.264 F54000
G1 F1200
G1 X31.218 Y81.949 E.04386
G1 X51.316 Y81.952 E.63016
G1 X52.3 Y82.141 E.03142
G1 X52.741 Y82.302 E.01472
G1 X53.885 Y83.138 E.04443
G1 X54.327 Y83.726 E.02306
G1 X54.643 Y84.375 E.02263
G1 X54.874 Y85.491 E.03573
G1 X54.881 Y104.4 E.59288
G1 X54.612 Y105.653 E.04018
G1 X53.955 Y106.736 E.03972
G1 X53.352 Y107.279 E.02544
G1 X52.662 Y107.684 E.02509
G1 X51.408 Y107.999 E.04054
G1 X31.618 Y107.999 E.6205
G1 X30.868 Y107.877 E.02382
G1 X30.205 Y107.614 E.02236
G1 X28.971 Y106.594 E.0502
G1 X28.386 Y105.663 E.03448
G1 X28.133 Y104.58 E.03487
G1 X28.14 Y101.473 E.09742
G1 X28.391 Y100.636 E.0274
G1 X29.181 Y99.263 E.04967
G1 X29.394 Y98.814 E.01558
G1 X29.94 Y97.299 E.05049
G1 X30.156 Y96.431 E.02805
G1 X30.248 Y95.897 E.01699
G1 X30.359 Y94.656 E.03907
G1 X30.333 Y93.614 E.03268
G1 X30.174 Y92.253 E.04296
G1 X29.702 Y90.528 E.05607
G1 X28.583 Y88.25 E.07958
G1 X28.03 Y87.387 E.03214
G1 X27.656 Y86.221 E.03839
G1 X27.638 Y85.822 E.01252
G1 X27.821 Y84.451 E.04337
G1 X28.203 Y83.67 E.02726
G1 X28.743 Y83.009 E.02676
G1 X29.805 Y82.297 E.04009
G1 X30.012 Y82.611 F54000
G1 F1200
G1 X31.238 Y82.326 E.03947
G1 X51.297 Y82.329 E.62894
G1 X52.212 Y82.508 E.02923
G1 X52.584 Y82.645 E.01243
G1 X53.637 Y83.423 E.04105
G1 X54.012 Y83.934 E.01987
G1 X54.292 Y84.517 E.02028
G1 X54.5 Y85.547 E.03295
G1 X54.504 Y104.381 E.59053
G1 X54.272 Y105.487 E.03543
G1 X53.68 Y106.476 E.03614
G1 X53.143 Y106.964 E.02275
G1 X52.494 Y107.345 E.0236
G1 X51.385 Y107.622 E.03584
G1 X31.633 Y107.622 E.61931
G1 X30.951 Y107.508 E.02168
G1 X30.374 Y107.276 E.0195
G1 X29.237 Y106.325 E.04648
G1 X28.724 Y105.494 E.03062
G1 X28.506 Y104.519 E.03133
G1 X28.516 Y101.503 E.09457
G1 X28.744 Y100.769 E.0241
G1 X29.515 Y99.439 E.0482
G1 X29.743 Y98.959 E.01666
G1 X30.302 Y97.409 E.05166
G1 X30.526 Y96.508 E.02911
G1 X30.623 Y95.946 E.01788
G1 X30.736 Y94.668 E.04023
G1 X30.709 Y93.588 E.03387
G1 X30.545 Y92.181 E.04441
G1 X30.056 Y90.394 E.05809
G1 X28.911 Y88.063 E.08143
G1 X28.38 Y87.246 E.03055
G1 X28.031 Y86.176 E.03529
G1 X28.014 Y85.851 E.0102
G1 X28.175 Y84.586 E.03998
G1 X28.51 Y83.891 E.02419
G1 X29.017 Y83.27 E.02514
G1 X29.962 Y82.645 E.03552
G1 X30.157 Y82.954 F54000
G1 F1200
G1 X31.259 Y82.703 E.03544
G1 X51.278 Y82.706 E.62768
G1 X52.123 Y82.874 E.02701
G1 X52.427 Y82.989 E.01019
G1 X53.35 Y83.67 E.03596
G1 X53.697 Y84.142 E.01837
G1 X53.941 Y84.656 E.01784
G1 X54.127 Y85.601 E.0302
G1 X54.127 Y104.361 E.58821
G1 X53.91 Y105.378 E.03261
G1 X53.406 Y106.215 E.03063
G1 X52.905 Y106.671 E.02124
G1 X52.329 Y107.006 E.02089
G1 X51.362 Y107.245 E.03123
G1 X31.65 Y107.245 E.61806
G1 X31.036 Y107.14 E.01953
G1 X30.546 Y106.939 E.01661
G1 X29.505 Y106.058 E.04276
G1 X29.064 Y105.327 E.02677
G1 X28.879 Y104.461 E.02777
G1 X28.893 Y101.534 E.09178
G1 X29.081 Y100.941 E.01951
G1 X29.849 Y99.615 E.04805
G1 X30.091 Y99.105 E.0177
G1 X30.663 Y97.518 E.05289
G1 X30.895 Y96.586 E.03011
G1 X30.997 Y95.995 E.0188
G1 X31.114 Y94.68 E.04139
G1 X31.086 Y93.561 E.0351
G1 X30.917 Y92.109 E.04583
G1 X30.41 Y90.26 E.06011
G1 X29.239 Y87.876 E.08328
G1 X28.71 Y87.061 E.03046
G1 X28.406 Y86.129 E.03074
G1 X28.391 Y85.878 E.00788
G1 X28.528 Y84.721 E.03653
G1 X28.839 Y84.076 E.02245
G1 X29.289 Y83.532 E.02214
G1 X30.107 Y82.987 E.03082
G1 X30.313 Y83.302 F54000
G1 F1200
G1 X31.279 Y83.08 E.03108
G1 X51.259 Y83.083 E.62646
G1 X52.031 Y83.24 E.0247
G1 X52.267 Y83.331 E.00793
G1 X53.065 Y83.918 E.03106
G1 X53.364 Y84.321 E.01573
G1 X53.591 Y84.797 E.01653
G1 X53.75 Y85.619 E.02625
G1 X53.75 Y104.342 E.58705
G1 X53.569 Y105.214 E.02792
G1 X53.129 Y105.958 E.0271
G1 X52.697 Y106.356 E.01842
G1 X52.163 Y106.666 E.01936
G1 X51.34 Y106.868 E.02657
G1 X31.666 Y106.868 E.61686
G1 X31.123 Y106.773 E.01728
G1 X30.72 Y106.603 E.01371
G1 X29.775 Y105.794 E.039
G1 X29.406 Y105.165 E.02287
G1 X29.253 Y104.407 E.02425
G1 X29.27 Y101.566 E.08908
G1 X29.417 Y101.113 E.01493
G1 X30.182 Y99.791 E.04789
G1 X30.44 Y99.25 E.01879
G1 X31.024 Y97.628 E.05405
G1 X31.264 Y96.664 E.03115
G1 X31.371 Y96.044 E.01973
G1 X31.491 Y94.692 E.04256
G1 X31.462 Y93.535 E.03629
G1 X31.288 Y92.037 E.04728
G1 X30.764 Y90.126 E.06213
G1 X29.568 Y87.69 E.08509
G1 X29.04 Y86.877 E.0304
G1 X28.78 Y86.078 E.02635
G1 X28.768 Y85.9 E.00559
G1 X28.883 Y84.853 E.03303
G1 X29.145 Y84.297 E.01927
G1 X29.561 Y83.794 E.02047
G1 X30.263 Y83.335 E.0263
G1 X30.466 Y83.651 F54000
G1 F1200
G1 X30.507 Y83.625 E.00152
G1 X31.298 Y83.457 E.02535
G1 X51.239 Y83.461 E.62524
G1 X51.937 Y83.606 E.02235
G1 X52.105 Y83.672 E.00566
G1 X52.779 Y84.165 E.02618
G1 X53.05 Y84.53 E.01425
G1 X53.239 Y84.934 E.01398
G1 X53.373 Y85.636 E.02241
G1 X53.373 Y104.324 E.58595
G1 X53.227 Y105.053 E.02331
G1 X52.852 Y105.7 E.02345
G1 X52.458 Y106.063 E.0168
G1 X52 Y106.325 E.01654
G1 X51.317 Y106.49 E.02203
G1 X31.684 Y106.49 E.61558
G1 X31.212 Y106.406 E.01503
G1 X30.898 Y106.27 E.01073
G1 X30.048 Y105.531 E.03532
G1 X29.75 Y105.008 E.01887
G1 X29.626 Y104.356 E.02081
G1 X29.647 Y101.6 E.08641
G1 X29.752 Y101.286 E.01038
G1 X30.516 Y99.967 E.04779
G1 X30.788 Y99.395 E.01986
G1 X31.385 Y97.738 E.05522
G1 X31.633 Y96.742 E.03218
G1 X31.745 Y96.093 E.02065
G1 X31.869 Y94.704 E.04372
G1 X31.839 Y93.508 E.03751
G1 X31.659 Y91.965 E.04871
G1 X31.119 Y89.991 E.06417
G1 X29.896 Y87.503 E.08692
G1 X29.37 Y86.692 E.03031
G1 X29.154 Y86.024 E.02201
G1 X29.145 Y85.918 E.00334
G1 X29.238 Y84.984 E.02943
G1 X29.476 Y84.481 E.01745
G1 X29.83 Y84.06 E.01725
G1 X30.416 Y83.683 E.02185
G1 X30.616 Y84.001 F54000
G1 F1200
G1 X30.677 Y83.963 E.00225
G1 X31.316 Y83.834 E.02044
G1 X51.219 Y83.838 E.62404
G1 X51.84 Y83.971 E.01991
G1 X51.94 Y84.012 E.00339
G1 X52.496 Y84.416 E.02155
G1 X52.717 Y84.708 E.01148
G1 X52.887 Y85.072 E.0126
G1 X52.996 Y85.653 E.01853
G1 X52.996 Y104.305 E.58482
G1 X52.864 Y104.947 E.02055
G1 X52.574 Y105.444 E.01804
G1 X52.251 Y105.747 E.01389
G1 X51.836 Y105.984 E.01498
G1 X51.296 Y106.113 E.01741
G1 X31.702 Y106.113 E.61436
G1 X31.305 Y106.04 E.01266
G1 X31.08 Y105.938 E.00775
G1 X30.321 Y105.27 E.0317
G1 X30.114 Y104.907 E.0131
G1 X30 Y104.304 E.01924
G1 X30.015 Y101.687 E.08206
G1 X30.089 Y101.457 E.00758
G1 X30.85 Y100.142 E.04764
G1 X31.137 Y99.54 E.02091
G1 X31.747 Y97.848 E.05639
G1 X32.003 Y96.819 E.03325
G1 X32.119 Y96.142 E.02154
G1 X32.246 Y94.716 E.04489
G1 X32.215 Y93.481 E.03873
G1 X32.03 Y91.893 E.05013
G1 X31.473 Y89.857 E.06618
G1 X30.225 Y87.317 E.08873
G1 X29.7 Y86.508 E.03024
G1 X29.526 Y85.962 E.01797
G1 X29.595 Y85.11 E.0268
G1 X29.781 Y84.704 E.014
G1 X30.099 Y84.326 E.01549
G1 X30.565 Y84.033 E.01726
G1 X30.761 Y84.342 F54000
G1 F1200
G1 X31.336 Y84.211 E.01849
G1 X51.198 Y84.215 E.62276
G1 X51.768 Y84.348 E.01835
G1 X52.213 Y84.666 E.01715
G1 X52.403 Y84.918 E.0099
G1 X52.534 Y85.206 E.00992
G1 X52.619 Y85.67 E.01479
G1 X52.619 Y104.287 E.58372
G1 X52.52 Y104.79 E.01607
G1 X52.294 Y105.19 E.01441
G1 X52.011 Y105.456 E.01218
G1 X51.677 Y105.642 E.01199
G1 X51.274 Y105.736 E.01297
G1 X31.72 Y105.736 E.6131
G1 X31.403 Y105.675 E.01012
G1 X31.268 Y105.611 E.00468
G1 X30.596 Y105.01 E.02827
G1 X30.478 Y104.804 E.00744
G1 X30.377 Y104.285 E.01658
G1 X30.384 Y101.768 E.07892
G1 X30.427 Y101.626 E.00465
G1 X31.184 Y100.318 E.04738
G1 X31.485 Y99.686 E.02195
G1 X32.108 Y97.957 E.05762
G1 X32.372 Y96.897 E.03425
G1 X32.494 Y96.19 E.0225
G1 X32.624 Y94.728 E.04602
G1 X32.592 Y93.455 E.03993
G1 X32.402 Y91.821 E.05158
G1 X31.827 Y89.723 E.06821
G1 X30.553 Y87.13 E.09058
G1 X30.031 Y86.326 E.03006
G1 X29.902 Y85.903 E.01387
G1 X29.952 Y85.235 E.021
G1 X30.112 Y84.887 E.01201
G1 X30.366 Y84.594 E.01216
G1 X30.711 Y84.374 E.01283
G1 X30.907 Y84.694 F54000
G1 F1200
G1 X30.954 Y84.665 E.00173
G1 X31.352 Y84.588 E.01271
