; generated by PrusaSlicer 2.6.0+MacOS-arm64 on 2023-07-26 at 17:15:38 UTC

; 

; external perimeters extrusion width = 0.42mm
; perimeters extrusion width = 0.44mm
; infill extrusion width = 0.44mm
; solid infill extrusion width = 0.44mm
; top infill extrusion width = 0.40mm
; support material extrusion width = 0.36mm
; first layer extrusion width = 0.42mm

M201 X3500 Y3500 Z150 E5000 ; sets maximum accelerations, mm/sec^2
M203 X500 Y500 Z10 E60 ; sets maximum feedrates, mm / sec
M204 S3500 T1000 ; sets acceleration (S) and retract acceleration (R), mm/sec^2
M205 X8.00 Y8.00 Z0.40 E5.00 ; sets the jerk limits, mm/sec
M205 S0 T0 ; sets the minimum extruding and travel feed rate, mm/sec
;TYPE:Custom
G90 ; use absolute coordinates
M83 ; extruder relative mode
M104 S150 ; set temporary nozzle temp to prevent oozing during homing
M140 S60 ; set final bed temp
G4 S30 ; allow partial nozzle warmup
G28 ; home all axis
G1 Z50 F240
G1 X2.0 Y10 F3000
M104 S205 ; set final nozzle temp
M190 S60 ; wait for bed temp to stabilize
M109 S205 ; wait for nozzle temp to stabilize
G1 Z0.28 F240
G92 E0
G1 X2.0 Y140 E10 F1500 ; prime the nozzle
G1 X2.3 Y140 F5000
G92 E0
G1 X2.3 Y10 E10 F1200 ; prime the nozzle
G92 E0
G21 ; set units to millimeters
G90 ; use absolute coordinates
M83 ; use relative distances for extrusion
; Filament gcode
M107
;LAYER_CHANGE
;Z:0.2
;HEIGHT:0.2
;BEFORE_LAYER_CHANGE
G92 E0
;0.2


G1 E-3.5 F4800
G1 Z.2 F54000
;AFTER_LAYER_CHANGE
;0.2
G1 X22.92 Y57.645
G1 E3.5 F2400
M204 S3500
;TYPE:Skirt/Brim
;WIDTH:0.42
G1 F1200
G1 X24.695 Y57.336 E.05649
G1 X46.244 Y57.363 E.67565
G1 X47.321 Y57.532 E.03418
G1 X48.673 Y57.918 E.04408
G1 X49.493 Y58.287 E.02819
G1 X50.633 Y58.998 E.04213
G1 X51.327 Y59.571 E.02822
G1 X52.217 Y60.556 E.04162
G1 X53.186 Y62.003 E.0546
G1 X53.512 Y62.69 E.02384
G1 X53.878 Y63.762 E.03552
G1 X54.041 Y64.505 E.02385
G1 X54.156 Y65.901 E.04392
G1 X54.152 Y83.6 E.55494
G1 X54.05 Y84.612 E.03189
G1 X53.756 Y85.804 E.03849
G1 X53.247 Y87.166 E.04559
G1 X52.547 Y88.293 E.0416
G1 X51.178 Y89.753 E.06275
G1 X50.258 Y90.447 E.03613
G1 X48.163 Y91.398 E.07214
G1 X47.439 Y91.602 E.02358
G1 X45.945 Y91.803 E.04727
G1 X24.64 Y91.805 E.668
G1 X23.498 Y91.712 E.03593
G1 X22.332 Y91.4 E.03785
G1 X20.69 Y90.624 E.05694
G1 X19.832 Y90.044 E.03247
G1 X18.73 Y88.956 E.04856
G1 X17.891 Y87.868 E.04308
G1 X17.434 Y87.07 E.02883
G1 X16.763 Y85.172 E.06312
G1 X16.524 Y83.324 E.05843
G1 X16.551 Y65.297 E.56522
G1 X16.717 Y64.233 E.03376
G1 X17.255 Y62.596 E.05403
G1 X17.738 Y61.645 E.03344
G1 X18.72 Y60.259 E.05326
G1 X19.568 Y59.432 E.03714
G1 X20.198 Y58.947 E.02493
G1 X21.49 Y58.217 E.04653
G1 X22.864 Y57.667 E.0464
G1 E-2.45 F4800
;WIPE_START
G1 F43200
G1 X24.695 Y57.336 E-.1964
G1 X32.782 Y57.346 E-.8536
;WIPE_END
G1 X23.849 Y61.293 F54000
G1 E3.5 F2400
G1 F1200
G1 X24.93 Y60.999 E.03513
G1 X45.894 Y61.005 E.65731
G1 X48.008 Y61.67 E.06949
G1 X48.733 Y62.197 E.0281
G1 X49.312 Y62.79 E.02599
G1 X50.182 Y64.261 E.05359
G1 X50.395 Y65.026 E.0249
G1 X50.482 Y65.736 E.02243
G1 X50.511 Y76.45 E.33593
G1 X50.5 Y83.378 E.21722
G1 X50.085 Y85.187 E.05819
G1 X49.665 Y85.93 E.02676
G1 X49.135 Y86.595 E.02666
G1 X47.587 Y87.67 E.05909
G1 X45.738 Y88.15 E.0599
G1 X25.07 Y88.159 E.64803
G1 X24.026 Y88.035 E.03296
G1 X23.036 Y87.695 E.03282
G1 X21.622 Y86.656 E.05502
G1 X20.619 Y85.179 E.05598
G1 X20.187 Y83.375 E.05816
G1 X20.187 Y65.804 E.55093
G1 X20.383 Y64.706 E.03497
G1 X20.814 Y63.644 E.03594
G1 X21.594 Y62.562 E.04182
G1 X23.136 Y61.486 E.05896
G1 X23.791 Y61.309 E.02127
G1 X23.89 Y61.67 F54000
G1 F1200
G1 X24.956 Y61.376 E.03467
G1 X45.864 Y61.382 E.65556
G1 X47.863 Y62.019 E.06578
G1 X48.475 Y62.472 E.02387
G1 X49 Y63.003 E.02341
G1 X49.844 Y64.431 E.05201
G1 X50.023 Y65.085 E.02126
G1 X50.105 Y65.748 E.02095
G1 X50.134 Y76.451 E.33559
G1 X50.123 Y83.357 E.21653
G1 X49.743 Y85.026 E.05367
G1 X49.36 Y85.707 E.0245
G1 X48.858 Y86.338 E.02528
G1 X47.401 Y87.34 E.05544
G1 X45.714 Y87.773 E.05461
G1 X25.102 Y87.783 E.64627
G1 X24.128 Y87.672 E.03074
G1 X23.187 Y87.348 E.0312
G1 X21.873 Y86.374 E.05128
G1 X20.951 Y84.998 E.05193
G1 X20.564 Y83.353 E.05299
G1 X20.564 Y65.821 E.5497
G1 X20.751 Y64.794 E.03273
G1 X21.154 Y63.808 E.0334
G1 X21.88 Y62.809 E.03872
G1 X23.268 Y61.841 E.05306
G1 X23.832 Y61.686 E.01834
G1 X23.929 Y62.04 F54000
G1 F1200
G1 X24.98 Y61.753 E.03416
G1 X45.835 Y61.759 E.65389
G1 X47.665 Y62.341 E.06021
G1 X48.218 Y62.747 E.02151
G1 X48.715 Y63.251 E.02219
G1 X49.487 Y64.556 E.04754
G1 X49.65 Y65.145 E.01916
G1 X49.729 Y65.783 E.02016
G1 X49.757 Y76.451 E.33449
G1 X49.746 Y83.336 E.21587
G1 X49.4 Y84.865 E.04915
G1 X49.039 Y85.509 E.02315
G1 X48.581 Y86.081 E.02298
G1 X47.274 Y86.984 E.04981
G1 X45.69 Y87.396 E.05132
G1 X25.134 Y87.407 E.64452
G1 X24.193 Y87.3 E.02969
G1 X23.339 Y87.002 E.02836
G1 X22.126 Y86.092 E.04755
G1 X21.285 Y84.82 E.04781
G1 X20.941 Y83.332 E.04789
G1 X20.941 Y65.838 E.54851
G1 X21.118 Y64.882 E.03048
G1 X21.494 Y63.974 E.03081
G1 X22.165 Y63.058 E.0356
G1 X23.455 Y62.17 E.0491
G1 X23.871 Y62.056 E.01352
G1 X23.967 Y62.411 F54000
G1 F1200
G1 X25.005 Y62.131 E.03371
G1 X45.806 Y62.136 E.6522
G1 X47.467 Y62.663 E.05464
G1 X47.982 Y63.042 E.02005
G1 X48.43 Y63.499 E.02007
G1 X49.131 Y64.681 E.04309
G1 X49.283 Y65.232 E.01792
G1 X49.354 Y65.817 E.01848
G1 X49.38 Y76.452 E.33345
G1 X49.369 Y83.315 E.21518
G1 X49.057 Y84.706 E.0447
G1 X48.735 Y85.285 E.02077
G1 X48.304 Y85.823 E.02161
G1 X47.089 Y86.654 E.04615
G1 X45.666 Y87.019 E.04606
G1 X25.144 Y87.03 E.64345
G1 X24.296 Y86.936 E.02675
G1 X23.492 Y86.656 E.02669
G1 X22.38 Y85.811 E.04379
G1 X21.644 Y84.701 E.04176
G1 X21.319 Y83.31 E.04479
G1 X21.318 Y65.856 E.54726
G1 X21.485 Y64.972 E.02821
G1 X21.832 Y64.142 E.02821
G1 X22.448 Y63.309 E.03248
G1 X23.64 Y62.5 E.04517
G1 X23.909 Y62.427 E.00874
G1 X24.004 Y62.782 F54000
G1 F1200
G1 X25.029 Y62.508 E.03327
G1 X45.777 Y62.513 E.65054
G1 X47.268 Y62.986 E.04905
G1 X47.746 Y63.337 E.01859
G1 X48.144 Y63.746 E.01789
G1 X48.774 Y64.806 E.03866
G1 X48.916 Y65.318 E.01666
G1 X48.978 Y65.85 E.01679
G1 X49.003 Y76.452 E.33242
G1 X48.992 Y83.294 E.21453
G1 X48.715 Y84.547 E.04024
G1 X48.413 Y85.087 E.0194
G1 X48.028 Y85.565 E.01924
G1 X46.961 Y86.298 E.04059
G1 X45.641 Y86.642 E.04277
G1 X25.154 Y86.653 E.64236
G1 X24.36 Y86.564 E.02505
G1 X23.647 Y86.311 E.02372
G1 X22.636 Y85.533 E.04
G1 X21.979 Y84.524 E.03775
G1 X21.696 Y83.289 E.03973
G1 X21.696 Y65.874 E.54604
G1 X21.851 Y65.063 E.02589
G1 X22.17 Y64.31 E.02564
G1 X22.73 Y63.561 E.02932
G1 X23.823 Y62.831 E.04121
G1 X23.947 Y62.798 E.00402
G1 X24.041 Y63.153 F54000
G1 F1200
G1 X25.054 Y62.885 E.03285
G1 X45.748 Y62.89 E.64885
G1 X47.071 Y63.309 E.04351
G1 X47.487 Y63.611 E.01612
G1 X47.858 Y63.993 E.0167
G1 X48.417 Y64.931 E.03424
G1 X48.548 Y65.404 E.01539
G1 X48.602 Y65.881 E.01505
G1 X48.626 Y76.453 E.33148
G1 X48.615 Y83.273 E.21384
G1 X48.371 Y84.389 E.03582
G1 X48.109 Y84.864 E.01701
G1 X47.753 Y85.306 E.01779
G1 X46.778 Y85.967 E.03693
G1 X45.618 Y86.265 E.03755
G1 X25.164 Y86.276 E.64132
G1 X24.465 Y86.201 E.02204
G1 X23.803 Y85.966 E.02203
G1 X22.894 Y85.257 E.03615
G1 X22.315 Y84.35 E.03374
G1 X22.073 Y83.269 E.03473
G1 X22.073 Y65.892 E.54484
G1 X22.206 Y65.192 E.02234
G1 X22.508 Y64.48 E.02425
G1 X23.01 Y63.815 E.02612
G1 X23.986 Y63.175 E.03659
G1 X24.182 Y63.497 F54000
G1 F1200
G1 X25.077 Y63.262 E.02901
G1 X45.719 Y63.267 E.64722
G1 X46.874 Y63.632 E.03798
G1 X47.251 Y63.906 E.01461
G1 X47.572 Y64.239 E.0145
G1 X48.061 Y65.058 E.02991
G1 X48.175 Y65.462 E.01316
G1 X48.226 Y65.913 E.01423
G1 X48.249 Y76.453 E.33048
G1 X48.238 Y83.253 E.21321
G1 X48.027 Y84.233 E.03143
G1 X47.805 Y84.641 E.01456
G1 X47.478 Y85.046 E.01632
G1 X46.596 Y85.635 E.03325
G1 X45.595 Y85.888 E.03237
G1 X25.174 Y85.899 E.64029
G1 X24.529 Y85.829 E.02034
G1 X23.961 Y85.623 E.01894
G1 X23.155 Y84.983 E.03227
G1 X22.652 Y84.179 E.02974
G1 X22.45 Y83.25 E.02981
G1 X22.45 Y65.911 E.54365
G1 X22.572 Y65.285 E.02
G1 X22.845 Y64.651 E.02164
G1 X23.289 Y64.072 E.02288
G1 X24.131 Y63.529 E.03141
G1 X24.332 Y63.847 F54000
G1 F1200
G1 X25.101 Y63.639 E.02498
G1 X45.69 Y63.644 E.64555
G1 X46.679 Y63.955 E.03251
G1 X46.992 Y64.181 E.0121
G1 X47.286 Y64.485 E.01326
G1 X47.705 Y65.184 E.02555
G1 X47.808 Y65.549 E.01189
G1 X47.85 Y65.943 E.01242
G1 X47.872 Y76.454 E.32957
G1 X47.861 Y83.233 E.21255
G1 X47.681 Y84.08 E.02715
G1 X47.5 Y84.418 E.01202
G1 X47.202 Y84.787 E.01487
G1 X46.47 Y85.278 E.02764
G1 X45.57 Y85.511 E.02915
G1 X25.182 Y85.522 E.63925
G1 X24.635 Y85.466 E.01724
G1 X24.12 Y85.279 E.01718
G1 X23.417 Y84.71 E.02836
G1 X23.013 Y84.065 E.02386
G1 X22.827 Y83.228 E.02688
G1 X22.827 Y65.93 E.54237
G1 X22.937 Y65.38 E.01759
G1 X23.18 Y64.825 E.019
G1 X23.565 Y64.33 E.01966
G1 X24.281 Y63.879 E.02653
G1 X24.478 Y64.199 F54000
G1 F1200
G1 X24.529 Y64.168 E.00187
G1 X25.124 Y64.016 E.01925
G1 X45.662 Y64.022 E.64395
G1 X46.484 Y64.279 E.027
G1 X46.757 Y64.476 E.01056
G1 X46.998 Y64.73 E.01098
G1 X47.349 Y65.311 E.02128
G1 X47.44 Y65.635 E.01055
G1 X47.474 Y65.971 E.01059
G1 X47.494 Y76.454 E.32869
G1 X47.484 Y83.214 E.21196
G1 X47.335 Y83.929 E.0229
G1 X47.195 Y84.196 E.00945
G1 X46.928 Y84.527 E.01333
G1 X46.291 Y84.945 E.02389
G1 X45.547 Y85.134 E.02407
G1 X25.192 Y85.145 E.63822
G1 X24.699 Y85.094 E.01554
G1 X24.284 Y84.938 E.0139
G1 X23.683 Y84.441 E.02445
G1 X23.352 Y83.898 E.01994
G1 X23.204 Y83.209 E.0221
G1 X23.204 Y65.95 E.54114
G1 X23.302 Y65.478 E.01511
G1 X23.514 Y65.001 E.01637
G1 X23.839 Y64.592 E.01638
G1 X24.426 Y64.231 E.02161
G1 X24.618 Y64.553 F54000
G1 F1200
G1 X24.696 Y64.507 E.00284
G1 X25.147 Y64.393 E.01459
G1 X45.633 Y64.399 E.64232
G1 X46.288 Y64.603 E.02151
G1 X46.521 Y64.771 E.00901
G1 X46.709 Y64.972 E.00863
G1 X46.995 Y65.442 E.01725
G1 X47.067 Y65.69 E.0081
G1 X47.098 Y65.999 E.00974
G1 X47.117 Y76.454 E.32781
G1 X47.107 Y83.195 E.21136
G1 X46.987 Y83.781 E.01875
G1 X46.888 Y83.975 E.00683
G1 X46.654 Y84.265 E.01168
G1 X46.115 Y84.61 E.02007
G1 X45.525 Y84.757 E.01906
G1 X25.2 Y84.768 E.63728
G1 X24.807 Y84.732 E.01237
G1 X24.448 Y84.597 E.01203
G1 X23.953 Y84.176 E.02037
G1 X23.693 Y83.735 E.01605
G1 X23.581 Y83.191 E.01741
G1 X23.581 Y65.971 E.53992
G1 X23.666 Y65.579 E.01258
G1 X23.847 Y65.181 E.01371
G1 X24.109 Y64.857 E.01306
G1 X24.567 Y64.584 E.01672
G1 X24.753 Y64.908 F54000
G1 F1200
G1 X24.86 Y64.847 E.00386
G1 X25.17 Y64.77 E.01002
G1 X45.605 Y64.776 E.64073
G1 X46.097 Y64.929 E.01616
G1 X46.259 Y65.043 E.00621
G1 X46.421 Y65.216 E.00743
G1 X46.64 Y65.572 E.01311
G1 X46.7 Y65.777 E.0067
G1 X46.722 Y66.023 E.00774
G1 X46.74 Y76.455 E.32709
G1 X46.73 Y83.176 E.21073
G1 X46.637 Y83.64 E.01484
G1 X46.58 Y83.756 E.00405
G1 X46.382 Y84.003 E.00993
G1 X45.944 Y84.273 E.01613
G1 X45.503 Y84.38 E.01423
G1 X25.205 Y84.39 E.63643
G1 X24.913 Y84.368 E.00918
G1 X24.614 Y84.257 E.01
G1 X24.228 Y83.917 E.01613
G1 X24.038 Y83.579 E.01216
G1 X23.958 Y83.173 E.01297
G1 X23.958 Y65.991 E.53873
G1 X24.017 Y65.716 E.00882
G1 X24.179 Y65.361 E.01223
G1 X24.375 Y65.126 E.00959
G1 X24.701 Y64.938 E.0118
G1 X24.881 Y65.265 F54000
G1 F1200
G1 X25.018 Y65.19 E.0049
G1 X25.192 Y65.147 E.00562
G1 X45.576 Y65.153 E.63913
G1 X45.904 Y65.255 E.01077
G1 X46.024 Y65.339 E.00459
G1 X46.129 Y65.455 E.00491
G1 X46.288 Y65.709 E.0094
G1 X46.326 Y65.833 E.00407
G1 X46.345 Y66.033 E.0063
G1 X46.363 Y76.455 E.32677
G1 X46.353 Y83.157 E.21014
G1 X46.283 Y83.51 E.01128
G1 X46.111 Y83.738 E.00895
G1 X45.78 Y83.933 E.01205
G1 X45.482 Y84.002 E.00959
G1 X25.212 Y84.013 E.63555
G1 X24.973 Y83.995 E.00751
G1 X24.79 Y83.922 E.00618
G1 X24.506 Y83.661 E.01209
G1 X24.401 Y83.474 E.00672
G1 X24.335 Y83.154 E.01024
G1 X24.335 Y66.011 E.53751
G1 X24.369 Y65.854 E.00504
G1 X24.51 Y65.544 E.01068
G1 X24.635 Y65.401 E.00596
G1 X24.828 Y65.294 E.00692
G1 X25.001 Y65.624 F54000
G1 F1200
G1 X25.215 Y65.524 E.00741
G1 X45.547 Y65.53 E.6375
G1 X45.762 Y65.611 E.0072
G1 X45.94 Y65.855 E.00947
G1 X45.967 Y66.043 E.00596
G1 X45.986 Y76.455 E.32646
G1 X45.976 Y83.137 E.20951
G1 X45.927 Y83.373 E.00756
G1 X45.881 Y83.435 E.00242
G1 X45.615 Y83.592 E.00968
G1 X45.463 Y83.625 E.00488
G1 X25.22 Y83.636 E.63471
G1 X25.039 Y83.622 E.00569
G1 X24.98 Y83.595 E.00203
G1 X24.789 Y83.41 E.00834
G1 X24.763 Y83.365 E.00163
G1 X24.712 Y83.132 E.00748
G1 X24.712 Y66.031 E.53619
G1 X24.839 Y65.732 E.01019
G1 X24.948 Y65.652 E.00424
; printing object KlackEnderPro2 Probe Block 5.2mm v0.2.stl id:0 copy 0
G1 E-2.45 F4800
;WIPE_START
G1 F43200
G1 X25.215 Y65.524 E-.03125
G1 X34.866 Y65.527 E-1.01875
;WIPE_END
G1 X44.818 Y73.492 F54000
G1 E3.5 F2400
;TYPE:Perimeter
;WIDTH:0.419999
G1 F1200
G1 X44.82 Y76.749 E.10212
;WIDTH:0.463344
G1 X44.798 Y76.924 E.00617
;WIDTH:0.506689
G1 X44.777 Y77.099 E.0068
;WIDTH:0.550034
G1 X44.755 Y77.275 E.00748
;WIDTH:0.593379
G1 X44.734 Y77.45 E.00807
G1 X44.744 Y78.152 E.03213
;WIDTH:0.600963
G1 X44.73 Y78.738 E.0272
G1 X44.753 Y78.885 E.0069
;WIDTH:0.555722
G1 X44.776 Y79.033 E.00639
;WIDTH:0.510481
G1 X44.799 Y79.18 E.00578
;WIDTH:0.46524
G1 X44.821 Y79.328 E.00525
;WIDTH:0.419999
G1 X44.823 Y82.473 E.09861
G1 X25.865 Y82.483 E.59441
G1 X25.865 Y66.677 E.49559
G1 X44.815 Y66.674 E.59416
G1 X44.818 Y73.432 E.21189
G1 E-2.45 F4800
;WIPE_START
G1 F43200
G1 X44.82 Y76.749 E-.35013
G1 X44.798 Y76.924 E-.01862
G1 X44.777 Y77.099 E-.0186
G1 X44.755 Y77.275 E-.01872
G1 X44.734 Y77.45 E-.0186
G1 X44.744 Y78.152 E-.07411
G1 X44.73 Y78.738 E-.06187
G1 X44.753 Y78.885 E-.01571
G1 X44.776 Y79.033 E-.01581
G1 X44.799 Y79.18 E-.01571
G1 X44.821 Y79.328 E-.01579
G1 X44.823 Y82.473 E-.33197
G1 X43.929 Y82.473 E-.09436
;WIPE_END
G1 X25.488 Y66.3 F54000
G1 E3.5 F2400
G1 F1200
G1 X45.192 Y66.297 E.6178
G1 X45.2 Y82.85 E.51901
G1 X25.488 Y82.86 E.61805
G1 X25.488 Y66.36 E.51735
G1 X25.159 Y65.991 F54000
;TYPE:External perimeter
G1 F1200
G1 X25.289 Y65.923 E.0046
G1 X45.426 Y65.92 E.63138
G1 X45.51 Y65.936 E.00268
G1 X45.569 Y66.061 E.00433
G1 X45.576 Y83.119 E.53484
G1 X45.42 Y83.227 E.00595
G1 X25.179 Y83.234 E.63464
G1 X25.111 Y83.106 E.00454
G1 X25.111 Y66.16 E.53133
G1 X25.142 Y66.049 E.00361
G1 X25.303 Y66.021 F54000
G1 E-2.45 F4800
;WIPE_START
G1 F43200
G1 X25.289 Y65.923 E-.02044
G1 X35.043 Y65.922 E-1.02956
;WIPE_END
G1 X40.85 Y73.932 F54000
G1 E3.5 F2400
;TYPE:Perimeter
G1 F1200
G1 X41.11 Y74.012 E.00853
G1 X41.452 Y74.23 E.01272
G1 X41.814 Y74.627 E.01685
G1 X42.378 Y74.906 E.01973
G1 X42.894 Y75.284 E.02006
G1 X43.336 Y75.747 E.02007
G1 X43.689 Y76.278 E.01999
G1 X43.947 Y76.863 E.02005
G1 X44.015 Y77.118 E.00827
;WIDTH:0.463344
G1 X44.057 Y77.207 E.00344
;WIDTH:0.506689
G1 X44.1 Y77.296 E.00381
;WIDTH:0.550034
G1 X44.142 Y77.385 E.00415
;WIDTH:0.593379
G1 X44.184 Y77.475 E.00455
G1 X44.218 Y78.038 E.02582
;WIDTH:0.593664
G1 X44.184 Y78.602 E.02588
G1 X44.125 Y78.755 E.00751
;WIDTH:0.550248
G1 X44.066 Y78.908 E.00692
;WIDTH:0.506832
G1 X44.006 Y79.061 E.00634
;WIDTH:0.463416
G1 X43.947 Y79.213 E.0057
;WIDTH:0.419999
G1 X43.689 Y79.799 E.02008
G1 X43.336 Y80.33 E.01999
G1 X42.894 Y80.792 E.02005
G1 X42.378 Y81.171 E.02007
G1 X41.806 Y81.453 E.02
G1 X41.192 Y81.632 E.02005
G1 X40.559 Y81.702 E.01997
G1 X39.919 Y81.661 E.02011
G1 X39.301 Y81.51 E.01995
G1 X38.715 Y81.252 E.02008
G1 X38.184 Y80.899 E.01999
G1 X37.722 Y80.456 E.02007
G1 X37.344 Y79.94 E.02006
G1 X37.061 Y79.369 E.01998
G1 X36.882 Y78.755 E.02005
G1 X36.813 Y78.12 E.02003
G1 X36.853 Y77.484 E.01998
G1 X36.882 Y77.322 E.00516
G1 X37.03 Y76.782 E.01756
G1 X37.262 Y76.278 E.0174
G1 X37.616 Y75.747 E.02001
G1 X38.058 Y75.284 E.02007
G1 X38.574 Y74.906 E.02006
G1 X39.089 Y74.65 E.01803
G1 X39.559 Y74.174 E.02097
G1 X39.84 Y74.012 E.01017
G1 X40.205 Y73.895 E.01202
G1 X40.71 Y73.889 E.01584
G1 X40.793 Y73.914 E.00272
G1 X40.696 Y74.285 F54000
G1 F1200
G1 X40.778 Y74.292 E.00258
G1 X41.084 Y74.416 E.01035
G1 X41.5 Y74.834 E.01849
G1 X41.553 Y74.931 E.00347
G1 X42.019 Y75.139 E.016
G1 X42.551 Y75.487 E.01993
G1 X42.963 Y75.887 E.018
G1 X43.299 Y76.352 E.01799
G1 X43.549 Y76.867 E.01795
G1 X43.705 Y77.419 E.01799
G1 X43.764 Y77.989 E.01797
G1 X43.722 Y78.562 E.01801
G1 X43.583 Y79.116 E.01791
