; generated by PrusaSlicer 2.6.0+MacOS-arm64 on 2023-07-27 at 08:41:31 UTC

; 

; external perimeters extrusion width = 0.42mm
; perimeters extrusion width = 0.44mm
; infill extrusion width = 0.44mm
; solid infill extrusion width = 0.44mm
; top infill extrusion width = 0.40mm
; support material extrusion width = 0.36mm
; first layer extrusion width = 0.42mm

M201 X3500 Y3500 Z150 E5000 ; sets maximum accelerations, mm/sec^2
M203 X500 Y500 Z10 E60 ; sets maximum feedrates, mm / sec
M204 S3500 T1000 ; sets acceleration (S) and retract acceleration (R), mm/sec^2
M205 X8.00 Y8.00 Z0.40 E5.00 ; sets the jerk limits, mm/sec
M205 S0 T0 ; sets the minimum extruding and travel feed rate, mm/sec
;TYPE:Custom
G90 ; use absolute coordinates
M83 ; extruder relative mode
M104 S150 ; set temporary nozzle temp to prevent oozing during homing
M140 S60 ; set final bed temp
G4 S30 ; allow partial nozzle warmup
G28 ; home all axis
G1 Z50 F240
G1 X2.0 Y10 F3000
M104 S205 ; set final nozzle temp
M190 S60 ; wait for bed temp to stabilize
M109 S205 ; wait for nozzle temp to stabilize
G1 Z0.28 F240
G92 E0
G1 X2.0 Y140 E10 F1500 ; prime the nozzle
G1 X2.3 Y140 F5000
G92 E0
G1 X2.3 Y10 E10 F1200 ; prime the nozzle
G92 E0
G21 ; set units to millimeters
G90 ; use absolute coordinates
M83 ; use relative distances for extrusion
; Filament gcode
M107
;LAYER_CHANGE
;Z:0.2
;HEIGHT:0.2
;BEFORE_LAYER_CHANGE
G92 E0
;0.2


G1 E-3.5 F4800
G1 Z.2 F54000
;AFTER_LAYER_CHANGE
;0.2
G1 X25.323 Y76.457
G1 E3.5 F2400
M204 S3500
;TYPE:Skirt/Brim
;WIDTH:0.42
G1 F1200
G1 X26.313 Y76.309 E.03139
G1 X51.656 Y76.309 E.79461
G1 X53.134 Y76.649 E.04755
G1 X58.771 Y79.393 E.19657
G1 X59.435 Y79.819 E.02474
G1 X60.711 Y80.897 E.05237
G1 X61.217 Y81.456 E.02364
G1 X62.298 Y83.08 E.06117
G1 X62.961 Y84.769 E.05689
G1 X63.264 Y86.67 E.06036
G1 X63.301 Y94.241 E.23739
G1 X63.094 Y95.961 E.05432
G1 X56.457 Y116.499 E.67674
G1 X55.847 Y118.105 E.05386
G1 X55.268 Y119.083 E.03564
G1 X54.049 Y120.519 E.05906
G1 X53.312 Y121.166 E.03075
G1 X51.755 Y122.176 E.05819
G1 X50.653 Y122.639 E.03748
G1 X48.659 Y123.084 E.06406
G1 X47.865 Y123.165 E.02502
G1 X42.406 Y123.07 E.17119
G1 X40.927 Y122.7 E.0478
G1 X38.515 Y121.467 E.08494
G1 X37.497 Y120.669 E.04056
G1 X36.187 Y119.154 E.0628
G1 X22.217 Y98.388 E.78473
G1 X21.883 Y97.69 E.02426
G1 X20.182 Y92.629 E.16741
G1 X20.007 Y91.557 E.03406
G1 X20.007 Y82.615 E.28037
G1 X20.401 Y81.032 E.05115
G1 X20.996 Y80.227 E.03139
G1 X23.925 Y77.298 E.12988
G1 X25.272 Y76.488 E.04928
G1 E-2.45 F4800
;WIPE_START
G1 F43200
G1 X26.313 Y76.309 E-.1115
G1 X35.204 Y76.309 E-.9385
;WIPE_END
G1 X26.649 Y80.272 F54000
G1 E3.5 F2400
G1 F1200
G1 X27.733 Y79.991 E.03511
G1 X37.714 Y79.98 E.31295
G1 X38.769 Y80.209 E.03385
G1 X39.662 Y80.635 E.03102
G1 X40.48 Y81.346 E.03398
G1 X41.163 Y80.734 E.02875
G1 X42.153 Y80.227 E.03487
G1 X43.182 Y79.989 E.03312
G1 X50.034 Y79.976 E.21484
G1 X50.824 Y80.099 E.02507
G1 X52.299 Y80.799 E.05119
G1 X53.252 Y81.695 E.04101
G1 X53.414 Y81.914 E.00854
G1 X54.584 Y81.926 E.03669
G1 X55.629 Y82.096 E.0332
G1 X56.826 Y82.562 E.04027
G1 X57.995 Y83.407 E.04523
G1 X58.839 Y84.444 E.04192
G1 X59.4 Y85.689 E.04282
G1 X59.621 Y87.085 E.04432
G1 X59.646 Y93.425 E.19879
G1 X59.526 Y95.103 E.05275
G1 X58.917 Y96.738 E.0547
G1 X58.63 Y97.177 E.01645
G1 X57.591 Y98.293 E.04781
G1 X56.423 Y99.002 E.04284
G1 X55.157 Y99.383 E.04145
G1 X53.097 Y99.413 E.0646
G1 X53.074 Y114.451 E.47151
G1 X52.764 Y115.9 E.04646
G1 X52.069 Y117.178 E.04561
G1 X51.209 Y118.078 E.03903
G1 X50.239 Y118.745 E.03691
G1 X49.246 Y119.188 E.03409
G1 X47.795 Y119.41 E.04602
G1 X47.431 Y119.379 E.01145
G1 X42.933 Y119.36 E.14103
G1 X42.013 Y119.114 E.02986
G1 X41.429 Y118.812 E.02061
G1 X40.864 Y118.551 E.01951
G1 X39.802 Y117.725 E.04218
G1 X39.022 Y116.664 E.04129
G1 X38.482 Y115.336 E.04495
G1 X38.304 Y114.358 E.03117
G1 X38.304 Y114.019 E.01063
G1 X32.288 Y103.264 E.38639
G1 X30.107 Y99.429 E.13833
G1 X29.169 Y99.357 E.0295
G1 X27.851 Y98.88 E.04395
G1 X26.427 Y97.899 E.05422
G1 X25.643 Y96.952 E.03855
G1 X25.153 Y95.952 E.03492
G1 X24.79 Y94.409 E.0497
G1 X24.794 Y92.534 E.05879
G1 X24.533 Y92.251 E.01207
G1 X24.106 Y91.551 E.02571
G1 X23.685 Y90.105 E.04722
G1 X23.683 Y84.083 E.18882
G1 X24.013 Y82.84 E.04032
G1 X24.62 Y81.811 E.03746
G1 X25.824 Y80.686 E.05167
G1 X26.595 Y80.299 E.02705
G1 X26.763 Y80.631 F54000
G1 F1200
G1 X27.804 Y80.362 E.03371
G1 X37.694 Y80.357 E.31009
G1 X38.626 Y80.559 E.0299
G1 X39.475 Y80.964 E.02949
G1 X40.484 Y81.855 E.04221
G1 X41.358 Y81.058 E.03709
G1 X42.304 Y80.574 E.03332
G1 X43.244 Y80.362 E.03021
G1 X49.994 Y80.351 E.21164
G1 X50.689 Y80.452 E.02202
G1 X52.109 Y81.126 E.04928
G1 X52.978 Y81.953 E.03761
G1 X53.216 Y82.289 E.01291
G1 X54.565 Y82.303 E.0423
G1 X55.548 Y82.464 E.03123
G1 X56.665 Y82.904 E.03764
G1 X57.753 Y83.697 E.04221
G1 X58.531 Y84.661 E.03884
G1 X59.032 Y85.774 E.03827
G1 X59.244 Y87.101 E.04213
G1 X59.269 Y93.42 E.19813
G1 X59.152 Y95.049 E.05121
G1 X58.589 Y96.55 E.05026
G1 X58.341 Y96.934 E.01433
G1 X57.371 Y97.986 E.04487
G1 X56.291 Y98.648 E.03972
G1 X55.074 Y99.014 E.03985
G1 X52.721 Y99.04 E.07378
G1 X52.697 Y114.431 E.48257
G1 X52.42 Y115.744 E.04207
G1 X51.75 Y116.976 E.04397
G1 X50.979 Y117.778 E.03488
G1 X50.067 Y118.409 E.03477
G1 X49.162 Y118.819 E.03115
G1 X47.804 Y119.032 E.0431
G1 X47.448 Y119.002 E.0112
G1 X43.005 Y118.99 E.13931
G1 X42.167 Y118.769 E.02717
G1 X41.593 Y118.472 E.02026
G1 X41.075 Y118.239 E.01781
G1 X40.09 Y117.48 E.03899
G1 X39.34 Y116.46 E.0397
G1 X38.85 Y115.249 E.04096
G1 X38.678 Y114.31 E.02993
G1 X38.683 Y113.924 E.0121
G1 X32.616 Y103.079 E.38963
G1 X30.334 Y99.066 E.14475
G1 X29.27 Y98.993 E.03344
G1 X28.044 Y98.555 E.04082
G1 X26.662 Y97.603 E.05262
G1 X25.971 Y96.765 E.03406
G1 X25.516 Y95.844 E.03221
G1 X25.163 Y94.344 E.04832
G1 X25.172 Y92.383 E.06149
G1 X24.844 Y92.037 E.01495
G1 X24.441 Y91.377 E.02425
G1 X24.055 Y90.027 E.04402
G1 X24.054 Y84.154 E.18414
G1 X24.352 Y83.006 E.03719
G1 X24.899 Y82.066 E.0341
G1 X26.019 Y81.01 E.04826
G1 X26.71 Y80.659 E.0243
G1 X26.879 Y80.991 F54000
G1 F1200
G1 X27.876 Y80.733 E.03229
G1 X37.636 Y80.73 E.30602
G1 X38.484 Y80.909 E.02717
G1 X39.288 Y81.292 E.02792
G1 X40.259 Y82.161 E.04086
G1 X40.485 Y82.477 E.01218
G1 X40.707 Y82.164 E.01203
G1 X41.553 Y81.381 E.03614
G1 X42.453 Y80.921 E.03169
G1 X43.304 Y80.735 E.02731
G1 X49.958 Y80.727 E.20863
G1 X50.555 Y80.806 E.01888
G1 X51.919 Y81.453 E.04733
G1 X52.701 Y82.21 E.03413
G1 X53.017 Y82.664 E.01734
G1 X54.546 Y82.68 E.04794
G1 X55.466 Y82.833 E.02924
G1 X56.502 Y83.245 E.03496
G1 X57.509 Y83.985 E.03918
G1 X58.221 Y84.878 E.03581
G1 X58.663 Y85.859 E.03374
G1 X58.867 Y87.118 E.03999
G1 X58.891 Y93.414 E.19741
G1 X58.778 Y94.995 E.0497
G1 X58.261 Y96.364 E.04588
G1 X58.051 Y96.692 E.01221
G1 X57.149 Y97.68 E.04195
G1 X56.158 Y98.294 E.03655
G1 X54.992 Y98.645 E.03818
G1 X52.344 Y98.665 E.08303
G1 X52.32 Y114.41 E.49367
G1 X52.057 Y115.638 E.03938
G1 X51.432 Y116.771 E.04057
G1 X50.749 Y117.479 E.03084
G1 X49.893 Y118.074 E.03269
G1 X49.076 Y118.451 E.02821
G1 X47.812 Y118.654 E.04014
G1 X47.464 Y118.625 E.01095
G1 X43.075 Y118.619 E.13761
G1 X42.321 Y118.424 E.02442
G1 X41.755 Y118.131 E.01998
G1 X41.287 Y117.925 E.01603
G1 X40.342 Y117.198 E.03738
G1 X39.659 Y116.258 E.03643
G1 X39.217 Y115.163 E.03702
G1 X39.053 Y114.262 E.02871
G1 X39.064 Y113.831 E.01352
G1 X32.945 Y102.894 E.39294
G1 X30.561 Y98.701 E.15123
G1 X29.37 Y98.628 E.03741
G1 X28.237 Y98.23 E.03765
G1 X26.898 Y97.308 E.05097
G1 X26.298 Y96.577 E.02965
G1 X25.877 Y95.736 E.02949
G1 X25.535 Y94.28 E.04689
G1 X25.551 Y92.231 E.06425
G1 X25.155 Y91.822 E.01785
G1 X24.777 Y91.203 E.02274
G1 X24.425 Y89.95 E.04081
G1 X24.425 Y84.224 E.17953
G1 X24.692 Y83.17 E.03409
G1 X25.18 Y82.319 E.03076
G1 X26.217 Y81.332 E.04489
G1 X26.825 Y81.019 E.02144
G1 X26.995 Y81.351 F54000
G1 F1200
G1 X27.947 Y81.104 E.03084
G1 X37.616 Y81.107 E.30316
G1 X38.382 Y81.273 E.02457
G1 X39.099 Y81.62 E.02498
G1 X39.984 Y82.421 E.03743
G1 X40.487 Y83.19 E.02881
G1 X40.984 Y82.42 E.02874
G1 X41.749 Y81.705 E.03283
G1 X42.602 Y81.268 E.03005
G1 X43.362 Y81.108 E.02435
G1 X49.945 Y81.104 E.20641
G1 X50.475 Y81.176 E.01677
G1 X51.679 Y81.746 E.04177
G1 X52.424 Y82.467 E.03251
G1 X52.816 Y83.038 E.02172
G1 X54.527 Y83.057 E.05365
G1 X55.384 Y83.201 E.02725
G1 X56.3 Y83.564 E.03089
G1 X57.231 Y84.242 E.03611
G1 X57.888 Y85.057 E.03282
G1 X58.296 Y85.945 E.03064
G1 X58.49 Y87.134 E.03777
G1 X58.514 Y93.409 E.19675
G1 X58.415 Y94.888 E.04648
G1 X57.915 Y96.212 E.04437
G1 X57.762 Y96.449 E.00884
G1 X56.889 Y97.405 E.04059
G1 X55.982 Y97.96 E.03334
G1 X54.962 Y98.268 E.03341
G1 X51.968 Y98.29 E.09388
G1 X51.947 Y114.353 E.50364
G1 X51.712 Y115.483 E.03619
G1 X51.142 Y116.529 E.03735
G1 X50.518 Y117.181 E.0283
G1 X49.692 Y117.755 E.03154
G1 X48.943 Y118.097 E.02582
G1 X47.78 Y118.278 E.0369
G1 X47.484 Y118.248 E.00933
G1 X43.146 Y118.247 E.13601
G1 X42.437 Y118.065 E.02295
G1 X41.92 Y117.791 E.01835
G1 X41.46 Y117.59 E.01574
G1 X40.595 Y116.917 E.03436
G1 X39.98 Y116.058 E.03312
G1 X39.575 Y115.042 E.03429
G1 X39.428 Y114.217 E.02627
G1 X39.445 Y113.74 E.01497
G1 X33.273 Y102.708 E.39635
G1 X30.787 Y98.335 E.15772
G1 X29.467 Y98.263 E.04145
G1 X28.428 Y97.904 E.03447
G1 X27.171 Y97.046 E.04772
G1 X26.625 Y96.387 E.02683
G1 X26.239 Y95.626 E.02675
G1 X25.912 Y94.26 E.04404
G1 X25.929 Y92.077 E.06845
G1 X25.465 Y91.606 E.02073
G1 X25.112 Y91.028 E.02124
G1 X24.802 Y89.924 E.03595
G1 X24.802 Y84.248 E.17797
G1 X25.051 Y83.29 E.03104
G1 X25.461 Y82.571 E.02595
G1 X26.416 Y81.653 E.04153
G1 X26.942 Y81.378 E.01861
G1 X27.114 Y81.709 F54000
G1 F1200
G1 X27.972 Y81.481 E.02784
G1 X37.595 Y81.485 E.30172
G1 X38.277 Y81.636 E.0219
G1 X38.907 Y81.945 E.022
G1 X39.71 Y82.681 E.03415
G1 X40.131 Y83.34 E.02452
G1 X40.346 Y84.034 E.02278
G1 X40.625 Y84.033 E.00875
G1 X40.835 Y83.35 E.0224
G1 X41.262 Y82.677 E.02499
G1 X41.946 Y82.028 E.02956
G1 X42.75 Y81.616 E.02833
G1 X43.417 Y81.481 E.02134
G1 X49.932 Y81.481 E.20427
G1 X50.395 Y81.545 E.01466
G1 X51.439 Y82.038 E.0362
G1 X52.148 Y82.724 E.03093
G1 X52.453 Y83.177 E.01712
G1 X52.551 Y83.413 E.00801
G1 X54.481 Y83.431 E.06052
G1 X55.266 Y83.56 E.02494
G1 X56.101 Y83.885 E.02809
G1 X56.955 Y84.5 E.033
G1 X57.557 Y85.239 E.02989
G1 X57.928 Y86.033 E.02748
G1 X58.113 Y87.151 E.03553
G1 X58.137 Y93.405 E.19609
G1 X58.052 Y94.782 E.04326
G1 X57.57 Y96.059 E.0428
G1 X57.474 Y96.206 E.0055
G1 X56.63 Y97.13 E.03924
G1 X55.808 Y97.624 E.03007
G1 X54.931 Y97.892 E.02875
G1 X51.591 Y97.916 E.10473
G1 X51.573 Y114.298 E.51365
G1 X51.367 Y115.33 E.033
G1 X50.851 Y116.288 E.03412
G1 X50.287 Y116.882 E.02568
G1 X49.49 Y117.436 E.03043
G1 X48.857 Y117.729 E.02187
G1 X47.794 Y117.9 E.03376
G1 X47.503 Y117.87 E.00917
G1 X43.217 Y117.876 E.13438
G1 X42.555 Y117.706 E.02143
G1 X42.086 Y117.453 E.01671
G1 X41.634 Y117.254 E.01548
G1 X40.851 Y116.639 E.03122
G1 X40.301 Y115.86 E.0299
G1 X39.933 Y114.923 E.03156
G1 X39.803 Y114.174 E.02384
G1 X39.827 Y113.65 E.01645
G1 X33.601 Y102.523 E.39978
G1 X31.012 Y97.968 E.16428
G1 X29.562 Y97.898 E.04552
G1 X28.618 Y97.577 E.03126
G1 X27.442 Y96.783 E.04449
G1 X26.95 Y96.195 E.02404
G1 X26.6 Y95.514 E.02401
G1 X26.289 Y94.239 E.04115
G1 X26.307 Y91.92 E.07271
G1 X25.774 Y91.389 E.02359
G1 X25.448 Y90.854 E.01964
G1 X25.179 Y89.898 E.03114
G1 X25.179 Y84.273 E.17637
G1 X25.408 Y83.412 E.02793
G1 X25.773 Y82.784 E.02277
G1 X26.616 Y81.973 E.03668
G1 X27.061 Y81.737 E.01579
G1 X27.235 Y82.066 F54000
G1 F1200
G1 X27.998 Y81.858 E.0248
G1 X37.574 Y81.862 E.30025
G1 X38.135 Y81.985 E.01801
G1 X38.675 Y82.244 E.01878
G1 X39.407 Y82.906 E.03095
G1 X39.799 Y83.52 E.02284
G1 X39.996 Y84.185 E.02175
G1 X40.013 Y89.013 E.15138
G1 X40.272 Y89.359 E.01355
G1 X40.54 Y90.012 E.02213
G1 X40.603 Y90.405 E.01248
G1 X40.583 Y91.058 E.02048
G1 X40.612 Y91.623 E.01774
G1 X40.561 Y92.048 E.01342
G1 X41.089 Y92.048 E.01656
G1 X41.099 Y91.086 E.03016
G1 X41.068 Y90.534 E.01733
G1 X41.087 Y90.371 E.00515
G1 X40.957 Y89.873 E.01614
G1 X40.972 Y84.193 E.17809
G1 X41.169 Y83.527 E.02178
G1 X41.541 Y82.931 E.02203
G1 X42.145 Y82.349 E.0263
G1 X42.854 Y81.979 E.02508
G1 X43.437 Y81.858 E.01867
G1 X49.918 Y81.858 E.20321
G1 X50.314 Y81.914 E.01254
G1 X51.199 Y82.331 E.03067
G1 X51.87 Y82.981 E.02929
G1 X52.125 Y83.365 E.01445
G1 X52.284 Y83.788 E.01417
G1 X54.436 Y83.806 E.06748
G1 X55.151 Y83.92 E.0227
G1 X55.903 Y84.207 E.02524
G1 X56.681 Y84.76 E.02993
G1 X57.227 Y85.423 E.02693
G1 X57.561 Y86.122 E.02429
G1 X57.736 Y87.168 E.03325
G1 X57.76 Y93.39 E.19509
G1 X57.688 Y94.677 E.04042
G1 X57.241 Y95.875 E.04009
G1 X57.184 Y95.964 E.00331
G1 X56.37 Y96.855 E.03784
G1 X55.674 Y97.272 E.02544
G1 X54.9 Y97.515 E.02544
G1 X51.214 Y97.542 E.11558
G1 X51.199 Y114.245 E.52371
G1 X51.02 Y115.179 E.02982
G1 X50.558 Y116.049 E.03089
G1 X50.055 Y116.584 E.02302
G1 X49.287 Y117.118 E.02933
G1 X48.769 Y117.362 E.01795
G1 X47.806 Y117.522 E.03061
G1 X47.522 Y117.493 E.00895
G1 X43.285 Y117.505 E.13285
G1 X42.712 Y117.362 E.01852
G1 X42.252 Y117.114 E.01639
G1 X41.808 Y116.919 E.0152
G1 X41.108 Y116.362 E.02805
G1 X40.625 Y115.664 E.02661
G1 X40.292 Y114.805 E.02889
G1 X40.178 Y114.133 E.02137
G1 X40.21 Y113.562 E.01793
G1 X33.93 Y102.338 E.40326
G1 X31.237 Y97.601 E.17085
G1 X29.607 Y97.522 E.05117
G1 X28.806 Y97.25 E.02652
G1 X27.714 Y96.52 E.04118
G1 X27.252 Y95.969 E.02255
G1 X26.96 Y95.402 E.02
G1 X26.667 Y94.218 E.03824
G1 X26.685 Y91.765 E.07691
G1 X26.058 Y91.139 E.02778
G1 X25.784 Y90.683 E.01668
G1 X25.556 Y89.872 E.02641
G1 X25.556 Y84.299 E.17474
G1 X25.765 Y83.536 E.0248
G1 X26.055 Y83.036 E.01812
G1 X26.82 Y82.292 E.03346
G1 X27.183 Y82.095 E.01295
G1 X27.361 Y82.423 F54000
G1 F1200
G1 X28.024 Y82.235 E.02161
G1 X37.553 Y82.239 E.29878
G1 X37.997 Y82.336 E.01425
G1 X38.444 Y82.544 E.01546
G1 X39.135 Y83.169 E.02921
G1 X39.447 Y83.656 E.01813
G1 X39.619 Y84.215 E.01834
G1 X39.636 Y89.144 E.15455
G1 X39.935 Y89.53 E.01531
G1 X40.172 Y90.098 E.0193
G1 X40.225 Y90.413 E.01002
G1 X40.206 Y91.062 E.02036
G1 X40.234 Y91.623 E.01761
G1 X40.183 Y92.006 E.01211
G1 X40.033 Y92.425 E.01395
G1 X41.624 Y92.425 E.04988
G1 X41.458 Y91.749 E.02183
G1 X41.477 Y91.082 E.02092
G1 X41.446 Y90.533 E.01724
G1 X41.472 Y90.347 E.00589
G1 X41.334 Y89.847 E.01626
G1 X41.342 Y84.274 E.17474
G1 X41.523 Y83.658 E.02013
G1 X41.821 Y83.184 E.01756
G1 X42.348 Y82.668 E.02313
G1 X42.96 Y82.342 E.02174
G1 X43.458 Y82.235 E.01597
G1 X49.904 Y82.235 E.20211
G1 X50.231 Y82.283 E.01036
G1 X50.961 Y82.625 E.02528
G1 X51.568 Y83.207 E.02637
G1 X51.798 Y83.553 E.01303
G1 X52.016 Y84.163 E.02031
G1 X54.393 Y84.181 E.07453
G1 X55.038 Y84.28 E.02046
G1 X55.707 Y84.53 E.02239
G1 X56.408 Y85.021 E.02683
G1 X56.899 Y85.61 E.02404
G1 X57.194 Y86.213 E.02105
G1 X57.359 Y87.185 E.03091
G1 X57.384 Y93.377 E.19415
G1 X57.325 Y94.574 E.03758
G1 X56.907 Y95.698 E.0376
G1 X56.15 Y96.548 E.03569
G1 X55.538 Y96.919 E.02244
G1 X54.814 Y97.146 E.02379
G1 X50.837 Y97.166 E.1247
G1 X50.826 Y114.195 E.53393
G1 X50.672 Y115.031 E.02665
G1 X50.264 Y115.812 E.02763
G1 X49.823 Y116.286 E.0203
G1 X49.086 Y116.799 E.02816
G1 X48.633 Y117.009 E.01566
G1 X47.819 Y117.145 E.02588
G1 X47.54 Y117.116 E.00879
G1 X43.353 Y117.133 E.13128
G1 X42.828 Y117.003 E.01696
G1 X42.42 Y116.776 E.01464
G1 X41.983 Y116.584 E.01497
G1 X41.367 Y116.086 E.02484
G1 X40.968 Y115.508 E.02202
G1 X40.651 Y114.688 E.02756
G1 X40.554 Y114.095 E.01884
G1 X40.594 Y113.476 E.01945
G1 X34.258 Y102.153 E.40683
G1 X31.462 Y97.235 E.17738
G1 X29.652 Y97.147 E.05682
G1 X28.994 Y96.922 E.0218
G1 X27.985 Y96.256 E.03791
G1 X27.555 Y95.743 E.02099
G1 X27.32 Y95.288 E.01606
G1 X27.044 Y94.196 E.03532
G1 X27.064 Y91.609 E.08112
G1 X26.342 Y90.89 E.03195
G1 X26.122 Y90.514 E.01366
G1 X25.933 Y89.846 E.02177
G1 X25.933 Y84.326 E.17308
G1 X26.121 Y83.664 E.02158
G1 X26.366 Y83.251 E.01506
G1 X27.025 Y82.609 E.02885
G1 X27.308 Y82.452 E.01015
G1 X27.49 Y82.778 F54000
G1 F1200
G1 X28.052 Y82.612 E.01837
G1 X37.531 Y82.616 E.29721
G1 X37.89 Y82.699 E.01155
G1 X38.256 Y82.872 E.01269
G1 X38.861 Y83.429 E.02578
