; generated by PrusaSlicer 2.6.0+MacOS-arm64 on 2023-07-27 at 08:55:20 UTC

; 

; external perimeters extrusion width = 0.42mm
; perimeters extrusion width = 0.44mm
; infill extrusion width = 0.44mm
; solid infill extrusion width = 0.44mm
; top infill extrusion width = 0.40mm
; support material extrusion width = 0.36mm
; first layer extrusion width = 0.42mm

M201 X3500 Y3500 Z150 E5000 ; sets maximum accelerations, mm/sec^2
M203 X500 Y500 Z10 E60 ; sets maximum feedrates, mm / sec
M204 S3500 T1000 ; sets acceleration (S) and retract acceleration (R), mm/sec^2
M205 X8.00 Y8.00 Z0.40 E5.00 ; sets the jerk limits, mm/sec
M205 S0 T0 ; sets the minimum extruding and travel feed rate, mm/sec
;TYPE:Custom
G90 ; use absolute coordinates
M83 ; extruder relative mode
M104 S150 ; set temporary nozzle temp to prevent oozing during homing
M140 S60 ; set final bed temp
G4 S30 ; allow partial nozzle warmup
G28 ; home all axis
G1 Z50 F240
G1 X2.0 Y10 F3000
M104 S205 ; set final nozzle temp
M190 S60 ; wait for bed temp to stabilize
M109 S205 ; wait for nozzle temp to stabilize
G1 Z0.28 F240
G92 E0
G1 X2.0 Y140 E10 F1500 ; prime the nozzle
G1 X2.3 Y140 F5000
G92 E0
G1 X2.3 Y10 E10 F1200 ; prime the nozzle
G92 E0
G21 ; set units to millimeters
G90 ; use absolute coordinates
M83 ; use relative distances for extrusion
; Filament gcode
M107
;LAYER_CHANGE
;Z:0.2
;HEIGHT:0.2
;BEFORE_LAYER_CHANGE
G92 E0
;0.2


G1 E-3.5 F4800
G1 Z.2 F54000
;AFTER_LAYER_CHANGE
;0.2
G1 X32.638 Y72.884
G1 E3.5 F2400
M204 S3500
;TYPE:Skirt/Brim
;WIDTH:0.42
G1 F1200
G1 X34.04 Y72.261 E.0481
G1 X36.016 Y71.823 E.06346
G1 X36.844 Y71.757 E.02604
G1 X57.457 Y71.773 E.64631
G1 X59.353 Y72.084 E.06024
G1 X59.989 Y72.277 E.02084
G1 X61.488 Y72.969 E.05177
G1 X62.895 Y73.956 E.05389
G1 X63.787 Y74.818 E.03889
G1 X64.926 Y76.388 E.06082
G1 X65.509 Y77.604 E.04228
G1 X65.958 Y79.078 E.04831
G1 X66.17 Y80.836 E.05552
G1 X66.151 Y100.238 E.60834
G1 X66.041 Y101.108 E.0275
G1 X65.678 Y102.624 E.04888
G1 X65.178 Y103.823 E.04073
G1 X64.46 Y105.012 E.04355
G1 X63.716 Y105.918 E.03676
G1 X63.012 Y106.602 E.03078
G1 X61.698 Y107.566 E.0511
G1 X60.84 Y108.028 E.03055
G1 X59.771 Y108.46 E.03615
G1 X58.543 Y108.765 E.03967
G1 X57.635 Y108.885 E.02872
G1 X36.841 Y108.885 E.65198
G1 X34.865 Y108.528 E.06296
G1 X34.044 Y108.231 E.02737
G1 X32.887 Y107.632 E.04085
G1 X32.17 Y107.134 E.02737
G1 X30.547 Y105.663 E.06868
G1 X29.886 Y104.841 E.03307
G1 X29.099 Y103.469 E.04959
G1 X28.724 Y102.483 E.03308
G1 X28.324 Y100.23 E.07175
G1 X27.811 Y80.92 E.60567
G1 X27.902 Y79.731 E.03739
G1 X28.195 Y78.36 E.04396
G1 X28.814 Y76.82 E.05204
G1 X29.526 Y75.64 E.04321
G1 X30.871 Y74.143 E.0631
G1 X31.744 Y73.45 E.03495
G1 X32.587 Y72.916 E.03129
G1 E-2.45 F4800
;WIPE_START
G1 F43200
G1 X34.04 Y72.261 E-.16824
G1 X36.016 Y71.823 E-.21364
G1 X36.844 Y71.757 E-.08768
G1 X42.343 Y71.761 E-.58044
;WIPE_END
G1 X34.687 Y75.991 F54000
G1 E3.5 F2400
G1 F1200
G1 X34.819 Y75.901 E.00501
G1 X36.851 Y75.42 E.06547
G1 X57.144 Y75.424 E.63627
G1 X58.461 Y75.659 E.04195
G1 X59.243 Y75.929 E.02594
G1 X60.922 Y77.126 E.06465
G1 X61.62 Y78.011 E.03534
G1 X62.124 Y79.002 E.03486
G1 X62.478 Y80.55 E.04979
G1 X62.506 Y99.857 E.60536
G1 X62.089 Y101.744 E.06059
G1 X61.055 Y103.405 E.06135
G1 X60.222 Y104.145 E.03494
G1 X59.247 Y104.732 E.03568
G1 X57.264 Y105.241 E.06419
G1 X37.282 Y105.241 E.62652
G1 X36.173 Y105.07 E.03518
G1 X35.124 Y104.675 E.03515
G1 X33.405 Y103.319 E.06865
G1 X32.456 Y101.908 E.05332
G1 X32.016 Y100.277 E.05297
G1 X31.994 Y96.696 E.11228
G1 X32.351 Y95.364 E.04324
G1 X33.248 Y93.748 E.05795
G1 X33.392 Y93.445 E.01052
G1 X33.874 Y92.108 E.04456
G1 X34.05 Y91.4 E.02287
G1 X34.117 Y91.01 E.01241
G1 X34.211 Y89.953 E.03327
G1 X34.19 Y89.106 E.02657
G1 X34.057 Y87.971 E.03583
G1 X33.67 Y86.555 E.04603
G1 X32.674 Y84.527 E.07084
G1 X32.009 Y83.43 E.04022
G1 X31.552 Y81.981 E.04764
G1 X31.492 Y81.152 E.02606
G1 X31.803 Y79.111 E.06473
G1 X32.343 Y78.029 E.03792
G1 X33.105 Y77.071 E.03838
G1 X34.637 Y76.025 E.05816
G1 X34.848 Y76.336 F54000
G1 F1200
G1 X35.001 Y76.233 E.00578
G1 X36.873 Y75.798 E.06026
G1 X57.127 Y75.801 E.63505
G1 X58.379 Y76.027 E.03989
G1 X59.092 Y76.276 E.02368
G1 X60.679 Y77.416 E.06127
G1 X61.31 Y78.227 E.03222
G1 X61.777 Y79.151 E.03246
G1 X62.105 Y80.612 E.04695
G1 X62.129 Y99.837 E.60279
G1 X61.728 Y101.63 E.05761
G1 X60.784 Y103.141 E.05586
G1 X59.985 Y103.851 E.03351
G1 X59.077 Y104.395 E.03319
G1 X57.24 Y104.864 E.05945
G1 X37.297 Y104.864 E.6253
G1 X36.252 Y104.7 E.03317
G1 X35.286 Y104.333 E.0324
G1 X33.663 Y103.043 E.065
G1 X32.788 Y101.726 E.04958
G1 X32.387 Y100.205 E.04932
G1 X32.371 Y96.721 E.10924
G1 X32.708 Y95.486 E.04014
G1 X33.583 Y93.922 E.05619
G1 X33.74 Y93.59 E.01151
G1 X34.235 Y92.217 E.04576
G1 X34.419 Y91.477 E.02391
G1 X34.491 Y91.059 E.0133
G1 X34.589 Y89.965 E.03444
G1 X34.566 Y89.079 E.02779
G1 X34.428 Y87.898 E.03728
G1 X34.024 Y86.421 E.04801
G1 X33.004 Y84.345 E.07252
G1 X32.362 Y83.294 E.03862
G1 X31.919 Y81.89 E.04616
G1 X31.87 Y81.147 E.02335
G1 X32.154 Y79.253 E.06005
G1 X32.671 Y78.216 E.03633
G1 X33.382 Y77.329 E.03564
G1 X34.798 Y76.37 E.05362
G1 X35.004 Y76.672 F54000
G1 F1200
G1 X35.122 Y76.592 E.00447
G1 X36.895 Y76.175 E.05711
G1 X57.109 Y76.178 E.6338
G1 X58.296 Y76.395 E.03783
G1 X58.941 Y76.623 E.02145
G1 X60.398 Y77.669 E.05624
G1 X61.001 Y78.444 E.03079
G1 X61.429 Y79.299 E.02998
G1 X61.732 Y80.673 E.04412
G1 X61.752 Y99.817 E.60025
G1 X61.391 Y101.46 E.05274
G1 X60.512 Y102.879 E.05234
G1 X59.776 Y103.537 E.03095
G1 X58.907 Y104.057 E.03175
G1 X57.217 Y104.487 E.05468
G1 X37.312 Y104.487 E.62411
G1 X36.367 Y104.341 E.02998
G1 X35.448 Y103.991 E.03083
G1 X33.923 Y102.768 E.06129
G1 X33.12 Y101.546 E.04585
G1 X32.758 Y100.135 E.04567
G1 X32.748 Y96.746 E.10626
G1 X33.065 Y95.61 E.03698
G1 X33.918 Y94.096 E.05449
G1 X34.089 Y93.736 E.0125
G1 X34.596 Y92.327 E.04695
G1 X34.788 Y91.555 E.02494
G1 X34.866 Y91.108 E.01423
G1 X34.966 Y89.977 E.0356
G1 X34.943 Y89.053 E.02898
G1 X34.799 Y87.826 E.03874
G1 X34.378 Y86.287 E.05003
G1 X33.335 Y84.162 E.07422
G1 X32.714 Y83.158 E.03701
G1 X32.286 Y81.8 E.04464
G1 X32.247 Y81.145 E.02057
G1 X32.505 Y79.393 E.05553
G1 X32.979 Y78.435 E.03351
G1 X33.658 Y77.587 E.03406
G1 X34.954 Y76.706 E.04914
G1 X35.164 Y77.018 F54000
G1 F1200
G1 X35.303 Y76.924 E.00526
G1 X36.916 Y76.552 E.0519
G1 X57.092 Y76.555 E.6326
G1 X58.212 Y76.763 E.03572
G1 X58.789 Y76.969 E.01921
G1 X60.154 Y77.957 E.05283
G1 X60.69 Y78.658 E.02767
G1 X61.081 Y79.445 E.02755
G1 X61.36 Y80.733 E.04132
G1 X61.375 Y99.797 E.59774
G1 X61.052 Y101.29 E.04789
G1 X60.24 Y102.616 E.04875
G1 X59.538 Y103.244 E.02953
G1 X58.738 Y103.719 E.02917
G1 X57.194 Y104.11 E.04994
G1 X37.327 Y104.11 E.62292
G1 X36.446 Y103.972 E.02796
G1 X35.612 Y103.65 E.02803
G1 X34.184 Y102.494 E.05761
G1 X33.454 Y101.369 E.04205
G1 X33.129 Y100.067 E.04208
G1 X33.125 Y96.773 E.10328
G1 X33.421 Y95.735 E.03384
G1 X34.252 Y94.27 E.05281
G1 X34.437 Y93.881 E.01351
G1 X34.958 Y92.437 E.04813
G1 X35.158 Y91.633 E.02598
G1 X35.24 Y91.157 E.01514
G1 X35.344 Y89.989 E.03677
G1 X35.319 Y89.026 E.0302
G1 X35.171 Y87.754 E.04015
G1 X34.733 Y86.153 E.05204
G1 X33.664 Y83.978 E.07599
G1 X33.066 Y83.021 E.03538
G1 X32.653 Y81.71 E.0431
G1 X32.625 Y81.144 E.01777
G1 X32.857 Y79.533 E.05103
G1 X33.307 Y78.622 E.03186
G1 X33.933 Y77.846 E.03126
G1 X35.114 Y77.051 E.04464
G1 X35.323 Y77.364 F54000
G1 F1200
G1 X35.482 Y77.258 E.00599
G1 X36.936 Y76.929 E.04674
G1 X57.074 Y76.932 E.63141
G1 X58.127 Y77.131 E.0336
G1 X58.636 Y77.314 E.01696
G1 X59.871 Y78.208 E.0478
G1 X60.379 Y78.872 E.02621
G1 X60.732 Y79.589 E.02506
G1 X60.987 Y80.791 E.03853
G1 X60.998 Y99.777 E.59529
G1 X60.691 Y101.178 E.04497
G1 X59.968 Y102.354 E.04328
G1 X59.329 Y102.929 E.02695
G1 X58.569 Y103.381 E.02773
G1 X57.17 Y103.733 E.04523
G1 X37.342 Y103.733 E.62169
G1 X36.526 Y103.603 E.02591
G1 X35.777 Y103.31 E.02522
G1 X34.446 Y102.222 E.0539
G1 X33.789 Y101.193 E.03828
G1 X33.501 Y100.001 E.03845
G1 X33.502 Y96.801 E.10033
G1 X33.776 Y95.863 E.03064
G1 X34.586 Y94.445 E.0512
G1 X34.786 Y94.026 E.01456
G1 X35.319 Y92.547 E.04929
G1 X35.527 Y91.71 E.02704
G1 X35.614 Y91.206 E.01604
G1 X35.721 Y90.001 E.03793
G1 X35.696 Y88.999 E.03143
G1 X35.542 Y87.682 E.04157
G1 X35.087 Y86.019 E.05406
G1 X33.994 Y83.793 E.07775
G1 X33.418 Y82.884 E.03374
G1 X33.021 Y81.622 E.04148
G1 X33.002 Y81.147 E.01491
G1 X33.209 Y79.671 E.04673
G1 X33.614 Y78.842 E.02893
G1 X34.208 Y78.106 E.02965
G1 X35.273 Y77.397 E.04012
G1 X35.476 Y77.701 F54000
G1 F1200
G1 X35.601 Y77.617 E.00472
G1 X36.958 Y77.306 E.04365
G1 X57.056 Y77.31 E.63016
G1 X58.04 Y77.498 E.03141
G1 X58.481 Y77.659 E.01472
G1 X59.625 Y78.495 E.04443
G1 X60.066 Y79.083 E.02305
G1 X60.382 Y79.732 E.02263
G1 X60.614 Y80.848 E.03574
G1 X60.621 Y99.757 E.59288
G1 X60.352 Y101.011 E.04021
G1 X59.694 Y102.093 E.03971
G1 X59.092 Y102.636 E.02542
G1 X58.402 Y103.042 E.0251
G1 X57.147 Y103.356 E.04056
G1 X37.357 Y103.356 E.6205
G1 X36.608 Y103.234 E.02379
G1 X35.944 Y102.971 E.02239
G1 X34.711 Y101.951 E.05017
G1 X34.126 Y101.021 E.03445
G1 X33.873 Y99.937 E.0349
G1 X33.879 Y96.83 E.09742
G1 X34.131 Y95.993 E.02741
G1 X34.921 Y94.621 E.04964
G1 X35.134 Y94.172 E.01558
G1 X35.68 Y92.656 E.05052
G1 X35.896 Y91.788 E.02805
G1 X35.988 Y91.255 E.01696
G1 X36.099 Y90.013 E.0391
G1 X36.073 Y88.972 E.03265
G1 X35.913 Y87.61 E.043
G1 X35.441 Y85.885 E.05607
G1 X34.322 Y83.607 E.07958
G1 X33.77 Y82.745 E.03209
G1 X33.396 Y81.579 E.03839
G1 X33.378 Y81.179 E.01255
G1 X33.561 Y79.809 E.04334
G1 X33.943 Y79.027 E.02729
G1 X34.483 Y78.366 E.02676
G1 X35.426 Y77.734 E.03559
G1 X35.633 Y78.047 F54000
G1 F1200
G1 X35.779 Y77.951 E.00548
G1 X36.978 Y77.683 E.03852
G1 X57.037 Y77.687 E.62894
G1 X57.952 Y77.865 E.02923
G1 X58.324 Y78.003 E.01244
G1 X59.377 Y78.781 E.04105
G1 X59.751 Y79.291 E.01983
G1 X60.032 Y79.874 E.02029
G1 X60.24 Y80.904 E.03295
G1 X60.244 Y99.738 E.59053
G1 X60.012 Y100.845 E.03546
G1 X59.42 Y101.833 E.03611
G1 X58.883 Y102.321 E.02275
G1 X58.234 Y102.703 E.02361
G1 X57.125 Y102.979 E.03583
G1 X37.373 Y102.979 E.61931
G1 X36.691 Y102.865 E.02168
G1 X36.114 Y102.633 E.0195
G1 X34.977 Y101.683 E.04646
G1 X34.464 Y100.851 E.03065
G1 X34.246 Y99.876 E.03133
G1 X34.256 Y96.86 E.09457
G1 X34.484 Y96.126 E.0241
G1 X35.254 Y94.797 E.04816
G1 X35.483 Y94.317 E.01668
G1 X36.041 Y92.766 E.05168
G1 X36.265 Y91.866 E.02908
G1 X36.362 Y91.303 E.01791
G1 X36.476 Y90.025 E.04023
G1 X36.449 Y88.946 E.03384
G1 X36.284 Y87.538 E.04445
G1 X35.796 Y85.751 E.05808
G1 X34.651 Y83.42 E.08143
G1 X34.12 Y82.603 E.03055
G1 X33.771 Y81.533 E.03529
G1 X33.754 Y81.209 E.01017
G1 X33.914 Y79.944 E.03998
G1 X34.25 Y79.248 E.02423
G1 X34.756 Y78.627 E.02512
G1 X35.583 Y78.08 E.03109
G1 X35.786 Y78.385 F54000
G1 F1200
G1 X35.897 Y78.311 E.00418
G1 X36.999 Y78.06 E.03544
G1 X57.018 Y78.064 E.62768
G1 X57.863 Y78.232 E.02701
G1 X58.166 Y78.346 E.01015
G1 X59.09 Y79.027 E.03599
G1 X59.437 Y79.499 E.01837
G1 X59.681 Y80.014 E.01787
G1 X59.867 Y80.958 E.03017
G1 X59.867 Y99.718 E.58821
G1 X59.65 Y100.735 E.03261
G1 X59.146 Y101.573 E.03066
G1 X58.645 Y102.028 E.02122
G1 X58.069 Y102.363 E.02089
G1 X57.102 Y102.602 E.03123
G1 X37.389 Y102.602 E.61809
G1 X36.775 Y102.497 E.01953
G1 X36.285 Y102.296 E.01661
G1 X35.245 Y101.416 E.04272
G1 X34.804 Y100.685 E.02677
G1 X34.619 Y99.818 E.0278
G1 X34.633 Y96.891 E.09178
G1 X34.821 Y96.298 E.01951
G1 X35.588 Y94.972 E.04803
G1 X35.831 Y94.462 E.01771
G1 X36.403 Y92.876 E.05286
G1 X36.635 Y91.943 E.03014
G1 X36.737 Y91.352 E.0188
G1 X36.854 Y90.037 E.04139
G1 X36.826 Y88.919 E.03507
G1 X36.656 Y87.466 E.04587
G1 X36.15 Y85.617 E.06011
G1 X34.979 Y83.234 E.08325
G1 X34.45 Y82.419 E.03046
G1 X34.146 Y81.486 E.03077
G1 X34.131 Y81.235 E.00788
G1 X34.268 Y80.079 E.0365
G1 X34.579 Y79.433 E.02248
G1 X35.029 Y78.889 E.02214
G1 X35.736 Y78.418 E.02664
G1 X35.942 Y78.732 F54000
G1 F1200
G1 X36.073 Y78.646 E.00491
G1 X37.019 Y78.437 E.03038
G1 X56.999 Y78.441 E.62646
G1 X57.771 Y78.598 E.0247
G1 X58.007 Y78.689 E.00793
G1 X58.804 Y79.275 E.03102
G1 X59.104 Y79.678 E.01575
G1 X59.33 Y80.154 E.01652
G1 X59.49 Y80.976 E.02626
G1 X59.49 Y99.699 E.58705
G1 X59.309 Y100.571 E.02792
G1 X58.869 Y101.315 E.0271
G1 X58.437 Y101.713 E.01842
G1 X57.903 Y102.023 E.01936
G1 X57.079 Y102.225 E.0266
G1 X37.406 Y102.225 E.61683
G1 X36.862 Y102.13 E.01731
G1 X36.46 Y101.961 E.01367
G1 X35.515 Y101.151 E.03902
G1 X35.146 Y100.523 E.02284
G1 X34.992 Y99.764 E.02428
G1 X35.01 Y96.923 E.08908
G1 X35.157 Y96.47 E.01493
G1 X35.922 Y95.148 E.04789
G1 X36.18 Y94.607 E.01879
G1 X36.764 Y92.985 E.05405
G1 X37.004 Y92.021 E.03115
G1 X37.111 Y91.401 E.01973
G1 X37.231 Y90.05 E.04253
G1 X37.202 Y88.892 E.03632
G1 X37.027 Y87.394 E.04729
G1 X36.504 Y85.483 E.06212
G1 X35.308 Y83.047 E.08509
G1 X34.779 Y82.234 E.03041
G1 X34.52 Y81.436 E.02631
G1 X34.507 Y81.258 E.0056
G1 X34.623 Y80.21 E.03306
G1 X34.885 Y79.654 E.01927
G1 X35.301 Y79.152 E.02044
G1 X35.892 Y78.765 E.02215
G1 X36.094 Y79.08 F54000
G1 F1200
G1 X36.247 Y78.982 E.0057
G1 X37.038 Y78.814 E.02535
G1 X56.979 Y78.818 E.62524
G1 X57.677 Y78.963 E.02235
G1 X57.845 Y79.03 E.00567
G1 X58.519 Y79.523 E.02618
G1 X58.79 Y79.887 E.01423
G1 X58.979 Y80.291 E.01398
G1 X59.113 Y80.994 E.02244
G1 X59.113 Y99.681 E.58592
G1 X58.967 Y100.41 E.02331
G1 X58.592 Y101.058 E.02347
G1 X58.198 Y101.421 E.0168
G1 X57.739 Y101.682 E.01656
G1 X57.057 Y101.848 E.02201
G1 X37.423 Y101.848 E.61561
G1 X36.952 Y101.763 E.01501
G1 X36.638 Y101.627 E.01073
G1 X35.788 Y100.889 E.03529
G1 X35.49 Y100.365 E.0189
G1 X35.366 Y99.713 E.02081
G1 X35.387 Y96.957 E.08641
G1 X35.492 Y96.644 E.01035
G1 X36.256 Y95.324 E.04782
G1 X36.528 Y94.753 E.01983
G1 X37.125 Y93.095 E.05525
G1 X37.373 Y92.099 E.03218
G1 X37.485 Y91.45 E.02065
G1 X37.609 Y90.062 E.04369
G1 X37.579 Y88.866 E.03751
G1 X37.398 Y87.322 E.04874
G1 X36.858 Y85.348 E.06417
G1 X35.636 Y82.861 E.08688
G1 X35.109 Y82.05 E.03033
G1 X34.893 Y81.381 E.02204
G1 X34.884 Y81.275 E.00334
G1 X34.978 Y80.341 E.02943
G1 X35.215 Y79.838 E.01743
G1 X35.57 Y79.417 E.01727
G1 X36.044 Y79.113 E.01766
G1 X36.243 Y79.429 F54000
G1 F1200
G1 X36.417 Y79.32 E.00644
G1 X37.056 Y79.191 E.02044
G1 X56.958 Y79.195 E.62401
G1 X57.58 Y79.328 E.01994
G1 X57.68 Y79.369 E.00339
G1 X58.236 Y79.773 E.02155
G1 X58.457 Y80.066 E.01151
G1 X58.627 Y80.429 E.01257
G1 X58.735 Y81.011 E.01856
G1 X58.735 Y99.662 E.58479
G1 X58.604 Y100.304 E.02054
G1 X58.314 Y100.802 E.01807
G1 X57.991 Y101.105 E.01389
G1 X57.576 Y101.342 E.01498
G1 X57.035 Y101.471 E.01744
G1 X37.441 Y101.471 E.61436
G1 X37.045 Y101.397 E.01263
G1 X36.819 Y101.296 E.00776
G1 X36.061 Y100.627 E.0317
G1 X35.854 Y100.265 E.01307
G1 X35.74 Y99.661 E.01927
G1 X35.755 Y97.044 E.08206
G1 X35.829 Y96.814 E.00758
G1 X36.59 Y95.5 E.04761
G1 X36.876 Y94.898 E.0209
G1 X37.487 Y93.205 E.05643
G1 X37.742 Y92.176 E.03324
G1 X37.859 Y91.499 E.02154
G1 X37.986 Y90.074 E.04486
G1 X37.955 Y88.839 E.03873
G1 X37.769 Y87.25 E.05016
G1 X37.213 Y85.214 E.06617
G1 X35.965 Y82.674 E.08873
G1 X35.44 Y81.866 E.03021
G1 X35.265 Y81.319 E.01801
G1 X35.335 Y80.467 E.0268
G1 X35.521 Y80.061 E.014
G1 X35.839 Y79.683 E.01549
G1 X36.192 Y79.461 E.01307
G1 X36.389 Y79.771 F54000
G1 F1200
G1 X36.528 Y79.682 E.00518
G1 X37.075 Y79.568 E.01752
G1 X56.937 Y79.572 E.62276
G1 X57.508 Y79.705 E.01838
G1 X57.952 Y80.023 E.01712
G1 X58.143 Y80.276 E.00994
G1 X58.274 Y80.563 E.00989
G1 X58.358 Y81.027 E.01478
G1 X58.358 Y99.644 E.58372
G1 X58.26 Y100.147 E.01607
G1 X58.034 Y100.547 E.01441
G1 X57.75 Y100.813 E.0122
G1 X57.417 Y100.999 E.01196
G1 X57.014 Y101.094 E.01298
G1 X37.46 Y101.094 E.6131
G1 X37.142 Y101.032 E.01016
G1 X37.007 Y100.968 E.00468
G1 X36.335 Y100.367 E.02827
G1 X36.218 Y100.162 E.0074
G1 X36.117 Y99.643 E.01658
G1 X36.124 Y97.125 E.07895
G1 X36.167 Y96.983 E.00465
G1 X36.924 Y95.675 E.04738
G1 X37.225 Y95.043 E.02195
G1 X37.848 Y93.315 E.05759
G1 X38.112 Y92.254 E.03428
G1 X38.233 Y91.548 E.02246
G1 X38.364 Y90.086 E.04602
G1 X38.332 Y88.812 E.03996
G1 X38.14 Y87.178 E.05159
G1 X37.567 Y85.08 E.06819
