; generated by PrusaSlicer 2.6.0+MacOS-arm64 on 2023-07-28 at 22:47:38 UTC

; 

; external perimeters extrusion width = 0.42mm
; perimeters extrusion width = 0.44mm
; infill extrusion width = 0.44mm
; solid infill extrusion width = 0.44mm
; top infill extrusion width = 0.40mm
; support material extrusion width = 0.36mm
; first layer extrusion width = 0.42mm

M201 X3500 Y3500 Z150 E5000 ; sets maximum accelerations, mm/sec^2
M203 X500 Y500 Z10 E60 ; sets maximum feedrates, mm / sec
M204 S3500 T1000 ; sets acceleration (S) and retract acceleration (R), mm/sec^2
M205 X8.00 Y8.00 Z0.40 E5.00 ; sets the jerk limits, mm/sec
M205 S0 T0 ; sets the minimum extruding and travel feed rate, mm/sec
;TYPE:Custom
G90 ; use absolute coordinates
M83 ; extruder relative mode
M104 S150 ; set temporary nozzle temp to prevent oozing during homing
M140 S60 ; set final bed temp
G4 S30 ; allow partial nozzle warmup
G28 ; home all axis
G1 Z50 F240
G1 X2.0 Y10 F3000
M104 S205 ; set final nozzle temp
M190 S60 ; wait for bed temp to stabilize
M109 S205 ; wait for nozzle temp to stabilize
G1 Z0.28 F240
G92 E0
G1 X2.0 Y140 E10 F1500 ; prime the nozzle
G1 X2.3 Y140 F5000
G92 E0
G1 X2.3 Y10 E10 F1200 ; prime the nozzle
G92 E0
G21 ; set units to millimeters
G90 ; use absolute coordinates
M83 ; use relative distances for extrusion
; Filament gcode
M107
;LAYER_CHANGE
;Z:0.2
;HEIGHT:0.2
;BEFORE_LAYER_CHANGE
G92 E0
;0.2


G1 E-3.5 F4800
G1 Z.2 F54000
;AFTER_LAYER_CHANGE
;0.2
G1 X59.449 Y71.985
G1 E3.5 F2400
M204 S3500
;TYPE:Skirt/Brim
;WIDTH:0.42
G1 F1200
G1 X60.963 Y71.107 E.05488
G1 X61.521 Y70.868 E.01903
G1 X90.218 Y61.952 E.9422
G1 X91.895 Y61.678 E.05328
G1 X93.641 Y61.702 E.05475
G1 X95.354 Y62.037 E.05473
G1 X96.98 Y62.673 E.05474
G1 X98.466 Y63.589 E.05473
G1 X98.94 Y63.966 E.01899
G1 X100.163 Y65.211 E.05472
G1 X101.145 Y66.655 E.05475
G1 X101.853 Y68.251 E.05474
G1 X102.263 Y69.931 E.05422
G1 X103.198 Y80.096 E.32006
G1 X102.591 Y96.116 E.50266
G1 X102.478 Y97.428 E.04129
G1 X102.066 Y99.124 E.05472
G1 X101.358 Y100.719 E.05472
G1 X100.376 Y102.163 E.05475
G1 X99.978 Y102.619 E.01898
G1 X98.68 Y103.785 E.05471
G1 X97.194 Y104.701 E.05473
G1 X95.568 Y105.337 E.05474
G1 X94.455 Y105.591 E.03579
G1 X92.714 Y105.723 E.05474
G1 X90.978 Y105.543 E.05472
G1 X63.009 Y98.084 E.9076
G1 X61.245 Y97.451 E.05876
G1 X59.527 Y96.384 E.06341
G1 X58.469 Y95.428 E.04471
G1 X54.996 Y91.704 E.15966
G1 X53.883 Y90.355 E.05483
G1 X53.028 Y88.828 E.05487
G1 X52.623 Y87.757 E.0359
G1 X52.254 Y86.045 E.05491
G1 X52.198 Y84.295 E.0549
G1 X52.252 Y83.69 E.01904
G1 X52.617 Y81.977 E.05492
G1 X53.284 Y80.357 E.05493
G1 X57.069 Y74.379 E.22185
G1 X58.117 Y73.121 E.05134
G1 X59.403 Y72.024 E.053
; printing object KlackEnderPro2 Probe Retainer v0.6.stl id:0 copy 0
G1 E-2.45 F4800
;WIPE_START
G1 F43200
G1 X60.963 Y71.107 E-.19101
G1 X61.521 Y70.868 E-.06408
G1 X68.713 Y68.634 E-.79491
;WIPE_END
G1 X92.834 Y65.046 F54000
G1 E3.5 F2400
;TYPE:Support material
G1 F1200
G1 X93.49 Y65.076 E.02059
G1 X94.603 Y65.33 E.03579
G1 X95.653 Y65.778 E.03579
G1 X96.606 Y66.407 E.0358
G1 X97.431 Y67.196 E.03579
G1 X98.102 Y68.12 E.0358
G1 X98.598 Y69.149 E.03582
G1 X98.901 Y70.25 E.0358
G1 X99.004 Y71.387 E.0358
G1 X98.901 Y72.524 E.0358
G1 X98.597 Y73.624 E.03578
G1 X98.102 Y74.653 E.0358
G1 X97.551 Y75.411 E.02938
G1 X98.097 Y75.847 E.02191
G1 X98.832 Y76.725 E.0359
G1 X99.378 Y77.732 E.03592
G1 X99.713 Y78.828 E.03593
G1 X99.823 Y79.968 E.03591
G1 X99.704 Y81.109 E.03597
G1 X99.36 Y82.203 E.03596
G1 X98.805 Y83.208 E.036
G1 X98.061 Y84.081 E.03596
G1 X97.107 Y84.83 E.03803
G1 X97.107 Y83.811 E.03195
G1 X96.837 Y83.54 E.01199
G1 X80.9 Y83.496 E.4997
G1 X66.818 Y83.5 E.44153
G1 X66.29 Y83.64 E.01713
G1 X66.121 Y83.805 E.00741
G1 X65.995 Y84.146 E.0114
G1 X65.972 Y84.602 E.01432
G1 X66.001 Y85.167 E.01774
G1 X65.959 Y85.251 E.00294
G1 X66.001 Y85.537 E.00906
G1 X66.173 Y85.713 E.00772
G1 X66.439 Y85.897 E.01014
G1 X66.668 Y85.976 E.0076
G1 X66.84 Y86.001 E.00545
G1 X91.835 Y85.981 E.7837
G1 X91.835 Y92.069 E.19088
G1 X92.105 Y92.34 E.01199
G1 X96.836 Y92.34 E.14834
G1 X97.107 Y92.069 E.01202
G1 X97.107 Y91.284 E.02461
G1 X97.644 Y91.798 E.02331
G1 X98.315 Y92.722 E.0358
G1 X98.811 Y93.75 E.03579
G1 X99.114 Y94.851 E.0358
G1 X99.217 Y95.988 E.0358
G1 X99.114 Y97.125 E.0358
G1 X98.811 Y98.226 E.0358
G1 X98.315 Y99.254 E.03579
G1 X97.644 Y100.178 E.0358
G1 X96.819 Y100.967 E.03579
G1 X95.866 Y101.596 E.0358
G1 X94.816 Y102.044 E.03579
G1 X93.703 Y102.298 E.03579
G1 X92.563 Y102.35 E.03578
G1 X91.432 Y102.196 E.03579
G1 X90.346 Y101.844 E.03579
G1 X89.34 Y101.303 E.03581
G1 X88.448 Y100.591 E.03579
G1 X87.697 Y99.731 E.0358
G1 X87.111 Y98.751 E.0358
G1 X86.71 Y97.682 E.0358
G1 X86.506 Y96.559 E.03579
G1 X86.506 Y96.248 E.00975
G1 X85.746 Y96.003 E.02504
G1 X85.274 Y95.75 E.01679
G1 X84.855 Y95.929 E.01429
G1 X83.741 Y96.183 E.03583
G1 X82.601 Y96.235 E.03578
G1 X81.469 Y96.081 E.03582
G1 X80.401 Y95.734 E.03521
G1 X80.189 Y95.825 E.00723
G1 X79.072 Y96.081 E.03593
G1 X77.929 Y96.133 E.03588
G1 X76.794 Y95.978 E.03592
G1 X75.705 Y95.624 E.0359
G1 X75.457 Y95.49 E.00884
G1 X75.264 Y95.515 E.0061
G1 X74.103 Y95.428 E.0365
G1 X73.755 Y95.332 E.01132
G1 X73.667 Y95.39 E.0033
G1 X72.615 Y95.842 E.0359
G1 X71.499 Y96.098 E.0359
G1 X70.356 Y96.15 E.03588
G1 X69.221 Y95.996 E.03591
G1 X68.132 Y95.642 E.0359
G1 X67.124 Y95.099 E.0359
G1 X66.663 Y94.73 E.01851
G1 X66.188 Y94.864 E.01547
G1 X65.58 Y94.925 E.01916
G1 X64.986 Y94.958 E.01865
G1 X63.882 Y94.822 E.03488
G1 X62.837 Y94.473 E.03454
G1 X62.274 Y94.172 E.02002
G1 X61.763 Y93.853 E.01889
G1 X60.938 Y93.124 E.03452
G1 X60.282 Y92.253 E.03419
G1 X59.983 Y91.693 E.0199
G1 X59.76 Y91.164 E.018
G1 X59.647 Y90.789 E.01228
G1 X59.436 Y90.721 E.00695
G1 X58.428 Y90.184 E.03581
G1 X57.532 Y89.474 E.03584
G1 X56.777 Y88.615 E.03586
G1 X56.187 Y87.634 E.03589
G1 X55.782 Y86.563 E.0359
G1 X55.576 Y85.437 E.03589
G1 X55.575 Y84.291 E.03593
G1 X55.779 Y83.164 E.03591
G1 X56.181 Y82.091 E.03593
G1 X56.77 Y81.108 E.03593
G1 X57.525 Y80.246 E.03593
G1 X58.422 Y79.534 E.03591
G1 X58.731 Y79.368 E.011
G1 X58.93 Y78.256 E.03542
G1 X59.328 Y77.185 E.03582
G1 X59.913 Y76.201 E.03589
G1 X60.664 Y75.338 E.03587
G1 X61.558 Y74.623 E.03589
G1 X62.566 Y74.079 E.03591
G1 X63.655 Y73.725 E.0359
G1 X64.79 Y73.571 E.03591
G1 X65.934 Y73.623 E.03591
G1 X67.05 Y73.88 E.03591
G1 X68.102 Y74.331 E.03589
G1 X68.503 Y74.598 E.01511
G1 X68.813 Y74.35 E.01245
G1 X69.819 Y73.809 E.03581
G1 X70.906 Y73.456 E.03583
G1 X72.038 Y73.303 E.03582
G1 X73.179 Y73.355 E.03581
G1 X74.292 Y73.609 E.03579
G1 X75.342 Y74.059 E.03582
G1 X75.496 Y74.16 E.00577
G1 X76.143 Y73.812 E.02303
G1 X77.229 Y73.458 E.03581
G1 X78.361 Y73.305 E.03582
G1 X79.502 Y73.356 E.03581
G1 X80.616 Y73.61 E.03583
G1 X81.667 Y74.059 E.03583
G1 X82.598 Y74.674 E.03498
G1 X82.807 Y74.534 E.00789
G1 X83.861 Y74.087 E.0359
G1 X84.978 Y73.847 E.03582
G1 X86.12 Y73.82 E.03582
G1 X86.818 Y73.936 E.02219
G1 X86.497 Y73.081 E.02864
G1 X86.293 Y71.957 E.03582
G1 X86.293 Y70.816 E.03578
G1 X86.497 Y69.693 E.03579
G1 X86.898 Y68.624 E.0358
G1 X87.483 Y67.644 E.03579
G1 X88.234 Y66.784 E.0358
G1 X89.127 Y66.072 E.03581
G1 X90.132 Y65.531 E.03579
G1 X91.218 Y65.178 E.0358
G1 X92.349 Y65.025 E.03578
G1 X92.778 Y65.044 E.01346
G1 X99.266 Y81.937 F54000
G1 F1200
G1 X99.266 Y78.528 E.10689
G1 X99.063 Y77.864 E.02177
G1 X98.847 Y77.465 E.01423
G1 X98.847 Y82.43 E.15567
G1 X98.525 Y83.014 E.02091
G1 X98.428 Y83.127 E.00467
G1 X98.428 Y76.772 E.19926
G1 X98.009 Y76.271 E.02048
G1 X98.009 Y83.619 E.23039
G1 X97.825 Y83.835 E.0089
G1 X97.59 Y84.019 E.00936
G1 X97.59 Y75.66 E.26209
G1 E-2.45 F4800
;WIPE_START
G1 F43200
G1 X97.59 Y84.019 E-.88234
G1 X97.825 Y83.835 E-.0315
G1 X98.009 Y83.619 E-.02995
G1 X98.009 Y82.613 E-.10621
;WIPE_END
G1 X98.847 Y97.456 F54000
G1 E3.5 F2400
G1 F1200
G1 X98.847 Y95.667 E.05609
G1 X98.779 Y94.912 E.02377
G1 X98.492 Y93.87 E.03389
G1 X98.428 Y93.738 E.0046
G1 X98.428 Y98.238 E.14109
G1 X98.009 Y99.098 E.02999
G1 X98.009 Y92.878 E.19502
G1 X97.59 Y92.301 E.02236
G1 X97.59 Y99.675 E.23121
G1 X97.388 Y99.954 E.0108
G1 X97.171 Y100.161 E.0094
G1 X97.171 Y92.485 E.24068
G1 X96.976 Y92.679 E.00862
G1 X96.752 Y92.679 E.00702
G1 X96.752 Y100.561 E.24713
G1 X96.607 Y100.7 E.0063
G1 X96.333 Y100.881 E.0103
G1 X96.333 Y92.679 E.25717
G1 X95.914 Y92.679 E.01314
G1 X95.914 Y101.157 E.26582
G1 X95.705 Y101.296 E.00787
G1 X95.495 Y101.385 E.00715
G1 X95.495 Y92.679 E.27297
G1 X95.076 Y92.679 E.01314
G1 X95.076 Y101.564 E.27858
G1 X94.657 Y101.733 E.01417
G1 X94.657 Y92.679 E.28388
G1 X94.238 Y92.679 E.01314
G1 X94.238 Y101.828 E.28686
G1 X93.819 Y101.924 E.01348
G1 X93.819 Y92.679 E.28987
G1 X93.4 Y92.679 E.01314
G1 X93.4 Y101.972 E.29138
G1 X92.981 Y101.991 E.01315
G1 X92.981 Y92.679 E.29197
G1 X92.562 Y92.679 E.01314
G1 X92.562 Y102.007 E.29247
G1 X92.143 Y101.95 E.01326
G1 X92.143 Y92.679 E.29069
G1 X91.965 Y92.679 E.00558
G1 X91.724 Y92.439 E.01066
G1 X91.724 Y101.894 E.29645
G1 X91.507 Y101.864 E.00687
G1 X91.305 Y101.799 E.00665
G1 X91.305 Y86.321 E.4853
G1 X90.886 Y86.322 E.01314
G1 X90.886 Y101.662 E.48097
G1 X90.467 Y101.524 E.01383
G1 X90.467 Y86.322 E.47665
G1 X90.049 Y86.322 E.01311
G1 X90.049 Y101.298 E.46956
G1 X89.63 Y101.073 E.01491
G1 X89.63 Y86.323 E.46248
G1 X89.211 Y86.323 E.01314
G1 X89.211 Y100.765 E.45282
G1 X88.792 Y100.431 E.0168
G1 X88.792 Y86.323 E.44235
G1 X88.373 Y86.324 E.01314
G1 X88.373 Y99.989 E.42846
G1 X87.954 Y99.499 E.02021
G1 X87.954 Y86.324 E.41309
G1 X87.535 Y86.325 E.01314
G1 X87.535 Y98.798 E.39108
G1 X87.418 Y98.603 E.00713
G1 X87.116 Y97.797 E.02699
G1 X87.116 Y86.325 E.3597
G1 X86.697 Y86.325 E.01314
G1 X86.697 Y95.953 E.30188
G1 X86.278 Y95.818 E.0138
G1 X86.278 Y86.326 E.29761
G1 X85.859 Y86.326 E.01314
G1 X85.859 Y95.678 E.29323
G1 X85.44 Y95.453 E.01491
G1 X85.44 Y86.326 E.28617
G1 X85.021 Y86.327 E.01314
G1 X85.021 Y95.489 E.28727
G1 X84.749 Y95.605 E.00927
G1 X84.602 Y95.639 E.00473
G1 X84.602 Y86.327 E.29197
G1 X84.183 Y86.328 E.01314
G1 X84.183 Y95.735 E.29495
G1 X83.764 Y95.83 E.01347
G1 X83.764 Y86.328 E.29793
G1 X83.345 Y86.328 E.01314
G1 X83.345 Y95.862 E.29893
G1 X82.926 Y95.88 E.01315
G1 X82.926 Y86.329 E.29946
G1 X82.507 Y86.329 E.01314
G1 X82.507 Y95.88 E.29946
G1 X82.088 Y95.823 E.01326
G1 X82.088 Y86.329 E.29768
G1 X81.669 Y86.33 E.01314
G1 X81.669 Y95.766 E.29586
G1 X81.545 Y95.749 E.00392
G1 X81.25 Y95.653 E.00973
G1 X81.25 Y86.33 E.29232
G1 X80.831 Y86.331 E.01314
G1 X80.831 Y95.517 E.28802
G1 X80.412 Y95.381 E.01381
G1 X80.412 Y86.331 E.28376
G1 X79.993 Y86.331 E.01314
G1 X79.993 Y95.522 E.28818
G1 X79.574 Y95.618 E.01348
G1 X79.574 Y86.332 E.29116
G1 X79.155 Y86.332 E.01314
G1 X79.155 Y95.714 E.29417
G1 X79.027 Y95.743 E.00412
G1 X78.736 Y95.756 E.00913
G1 X78.736 Y86.332 E.29548
G1 X78.317 Y86.333 E.01314
G1 X78.317 Y95.775 E.29605
G1 X77.944 Y95.792 E.01171
G1 X77.898 Y95.786 E.00145
G1 X77.898 Y86.333 E.29639
G1 X77.479 Y86.334 E.01314
G1 X77.479 Y95.729 E.29457
G1 X77.06 Y95.672 E.01326
G1 X77.06 Y86.334 E.29279
G1 X76.641 Y86.334 E.01314
G1 X76.641 Y95.572 E.28965
G1 X76.222 Y95.435 E.01382
G1 X76.222 Y86.335 E.28532
G1 X75.803 Y86.335 E.01314
G1 X75.803 Y95.291 E.28081
G1 X75.521 Y95.139 E.01004
G1 X75.384 Y95.157 E.00433
G1 X75.384 Y86.335 E.27661
G1 X74.965 Y86.336 E.01314
G1 X74.965 Y95.152 E.27642
G1 X74.546 Y95.121 E.01317
G1 X74.546 Y86.336 E.27545
G1 X74.127 Y86.337 E.01314
G1 X74.127 Y95.082 E.27419
G1 X73.708 Y94.967 E.01362
G1 X73.708 Y86.337 E.27059
G1 X73.289 Y86.337 E.01314
G1 X73.289 Y95.183 E.27736
G1 X72.87 Y95.363 E.0143
G1 X72.87 Y86.338 E.28297
G1 X72.451 Y86.338 E.01314
G1 X72.451 Y95.531 E.28824
G1 X72.033 Y95.627 E.01345
G1 X72.033 Y86.338 E.29125
G1 X71.614 Y86.338 E.01314
G1 X71.614 Y95.723 E.29426
G1 X71.453 Y95.76 E.00518
G1 X71.195 Y95.772 E.0081
G1 X71.195 Y86.338 E.2958
G1 X70.776 Y86.339 E.01314
G1 X70.776 Y95.791 E.29636
G1 X70.371 Y95.809 E.01271
G1 X70.357 Y95.808 E.00044
G1 X70.357 Y86.339 E.29689
G1 X69.938 Y86.339 E.01314
G1 X69.938 Y95.751 E.29511
G1 X69.519 Y95.694 E.01326
G1 X69.519 Y86.339 E.29332
G1 X69.1 Y86.34 E.01314
G1 X69.1 Y95.6 E.29034
G1 X68.681 Y95.464 E.01381
G1 X68.681 Y86.34 E.28608
G1 X68.262 Y86.34 E.01314
G1 X68.262 Y95.327 E.28178
G1 X67.843 Y95.101 E.01493
G1 X67.843 Y86.34 E.2747
G1 X67.424 Y86.34 E.01314
G1 X67.424 Y94.875 E.26761
G1 X67.312 Y94.815 E.00398
G1 X67.005 Y94.569 E.01233
G1 X67.005 Y86.341 E.25798
G1 X66.776 Y86.337 E.00718
G1 X66.586 Y86.305 E.00604
G1 X66.586 Y94.399 E.25378
G1 X66.167 Y94.517 E.01365
G1 X66.167 Y85.914 E.26974
G1 E-2.45 F4800
;WIPE_START
G1 F43200
G1 X66.167 Y94.517 E-.90809
G1 X66.586 Y94.399 E-.04595
G1 X66.586 Y93.49 E-.09596
;WIPE_END
G1 X98.428 Y73.585 F54000
G1 E3.5 F2400
G1 F1200
G1 X98.428 Y69.81 E.11836
G1 X98.279 Y69.269 E.01759
G1 X98.009 Y68.709 E.01949
G1 X98.009 Y74.064 E.1679
G1 X97.809 Y74.478 E.01442
G1 X97.59 Y74.78 E.0117
G1 X97.59 Y67.993 E.2128
G1 X97.171 Y67.417 E.02233
G1 X97.171 Y83.395 E.50098
G1 X96.978 Y83.201 E.00858
G1 X96.752 Y83.201 E.00709
G1 X96.752 Y67.017 E.50744
G1 X96.333 Y66.634 E.0178
G1 X96.333 Y83.2 E.51942
G1 X95.914 Y83.198 E.01314
G1 X95.914 Y66.357 E.52804
G1 X95.495 Y66.081 E.01573
G1 X95.495 Y83.197 E.53666
G1 X95.076 Y83.196 E.01314
G1 X95.076 Y65.901 E.54227
G1 X94.657 Y65.722 E.01429
G1 X94.657 Y83.195 E.54785
G1 X94.238 Y83.194 E.01314
G1 X94.238 Y65.595 E.5518
G1 X93.819 Y65.499 E.01348
G1 X93.819 Y83.193 E.55478
G1 X93.4 Y83.191 E.01314
G1 X93.4 Y65.411 E.55748
G1 X92.981 Y65.393 E.01315
G1 X92.981 Y83.19 E.55801
G1 X92.562 Y83.189 E.01314
G1 X92.562 Y65.374 E.55858
G1 X92.364 Y65.365 E.00621
G1 X92.143 Y65.395 E.00699
G1 X92.143 Y83.188 E.55789
G1 X91.724 Y83.187 E.01314
G1 X91.724 Y65.452 E.55607
G1 X91.305 Y65.509 E.01326
G1 X91.305 Y83.185 E.55422
G1 X90.886 Y83.184 E.01314
G1 X90.886 Y65.642 E.55002
G1 X90.467 Y65.779 E.01382
G1 X90.467 Y83.183 E.54569
G1 X90.049 Y83.182 E.01311
G1 X90.049 Y65.961 E.53995
G1 X89.63 Y66.187 E.01493
G1 X89.63 Y83.181 E.53283
G1 X89.211 Y83.18 E.01314
G1 X89.211 Y66.439 E.5249
G1 X88.792 Y66.773 E.0168
G1 X88.792 Y83.178 E.51437
G1 X88.373 Y83.177 E.01314
G1 X88.373 Y67.141 E.5028
G1 X87.954 Y67.621 E.01998
G1 X87.954 Y83.176 E.48772
G1 X87.535 Y83.175 E.01314
G1 X87.535 Y68.219 E.46893
G1 X87.205 Y68.772 E.02019
G1 X87.116 Y69.009 E.00794
G1 X87.116 Y83.174 E.44413
G1 X86.697 Y83.172 E.01314
G1 X86.697 Y74.259 E.27946
G1 X86.278 Y74.19 E.01331
G1 X86.278 Y83.171 E.28159
G1 X85.859 Y83.17 E.01314
G1 X85.859 Y74.165 E.28235
G1 X85.44 Y74.175 E.01314
G1 X85.44 Y83.169 E.282
G1 X85.021 Y83.168 E.01314
G1 X85.021 Y74.185 E.28166
G1 X84.602 Y74.275 E.01344
G1 X84.602 Y83.167 E.2788
G1 X84.183 Y83.165 E.01314
G1 X84.183 Y74.365 E.27592
G1 X83.964 Y74.412 E.00702
G1 X83.764 Y74.497 E.00681
G1 X83.764 Y83.164 E.27175
G1 X83.345 Y83.163 E.01314
G1 X83.345 Y74.675 E.26614
G1 X82.926 Y74.863 E.0144
G1 X82.926 Y83.162 E.26021
G1 X82.507 Y83.161 E.01314
G1 X82.507 Y75.02 E.25526
G1 X82.088 Y74.743 E.01575
G1 X82.088 Y83.16 E.26391
G1 X81.669 Y83.158 E.01314
G1 X81.669 Y74.467 E.2725
G1 X81.505 Y74.359 E.00616
G1 X81.25 Y74.25 E.0087
G1 X81.25 Y83.157 E.27927
G1 X80.831 Y83.156 E.01314
G1 X80.831 Y74.071 E.28485
G1 X80.511 Y73.934 E.01091
G1 X80.412 Y73.911 E.00319
G1 X80.412 Y83.156 E.28987
G1 X79.993 Y83.156 E.01314
G1 X79.993 Y73.816 E.29285
G1 X79.574 Y73.72 E.01348
G1 X79.574 Y83.157 E.29589
G1 X79.155 Y83.157 E.01314
G1 X79.155 Y73.68 E.29714
G1 X78.736 Y73.661 E.01315
G1 X78.736 Y83.157 E.29774
G1 X78.317 Y83.157 E.01314
G1 X78.317 Y73.653 E.29799
G1 X77.898 Y73.71 E.01326
G1 X77.898 Y83.157 E.2962
G1 X77.479 Y83.157 E.01314
G1 X77.479 Y73.767 E.29442
G1 X77.305 Y73.791 E.00551
G1 X77.06 Y73.87 E.00807
G1 X77.06 Y83.157 E.29119
G1 X76.641 Y83.158 E.01314
G1 X76.641 Y74.007 E.28692
G1 X76.222 Y74.155 E.01393
G1 X76.222 Y83.158 E.28228
G1 X75.803 Y83.158 E.01314
G1 X75.803 Y74.38 E.27523
G1 X75.479 Y74.555 E.01155
G1 X75.384 Y74.493 E.00356
G1 X75.384 Y83.158 E.27168
G1 X74.965 Y83.158 E.01314
G1 X74.965 Y74.266 E.2788
G1 X74.546 Y74.087 E.01429
