; generated by PrusaSlicer 2.6.0+MacOS-arm64 on 2023-07-26 at 16:28:31 UTC

; 

; external perimeters extrusion width = 0.42mm
; perimeters extrusion width = 0.44mm
; infill extrusion width = 0.44mm
; solid infill extrusion width = 0.44mm
; top infill extrusion width = 0.40mm
; support material extrusion width = 0.36mm
; first layer extrusion width = 0.42mm

M201 X3500 Y3500 Z150 E5000 ; sets maximum accelerations, mm/sec^2
M203 X500 Y500 Z10 E60 ; sets maximum feedrates, mm / sec
M204 S3500 T1000 ; sets acceleration (S) and retract acceleration (R), mm/sec^2
M205 X8.00 Y8.00 Z0.40 E5.00 ; sets the jerk limits, mm/sec
M205 S0 T0 ; sets the minimum extruding and travel feed rate, mm/sec
;TYPE:Custom
G90 ; use absolute coordinates
M83 ; extruder relative mode
M104 S150 ; set temporary nozzle temp to prevent oozing during homing
M140 S60 ; set final bed temp
G4 S30 ; allow partial nozzle warmup
G28 ; home all axis
G1 Z50 F240
G1 X2.0 Y10 F3000
M104 S205 ; set final nozzle temp
M190 S60 ; wait for bed temp to stabilize
M109 S205 ; wait for nozzle temp to stabilize
G1 Z0.28 F240
G92 E0
G1 X2.0 Y140 E10 F1500 ; prime the nozzle
G1 X2.3 Y140 F5000
G92 E0
G1 X2.3 Y10 E10 F1200 ; prime the nozzle
G92 E0
G21 ; set units to millimeters
G90 ; use absolute coordinates
M83 ; use relative distances for extrusion
; Filament gcode
M107
;LAYER_CHANGE
;Z:0.2
;HEIGHT:0.2
;BEFORE_LAYER_CHANGE
G92 E0
;0.2


G1 E-3.5 F4800
G1 Z.2 F54000
;AFTER_LAYER_CHANGE
;0.2
G1 X14.6 Y20.704
G1 E3.5 F2400
M204 S3500
;TYPE:Skirt/Brim
;WIDTH:0.42
G1 F1200
G1 X15.892 Y19.974 E.04653
G1 X17.322 Y19.401 E.0483
G1 X19.097 Y19.093 E.05649
G1 X40.646 Y19.119 E.67565
G1 X41.724 Y19.289 E.03422
G1 X43.075 Y19.674 E.04405
G1 X43.895 Y20.044 E.02821
G1 X45.036 Y20.754 E.04214
G1 X45.729 Y21.327 E.02819
G1 X46.62 Y22.313 E.04167
G1 X47.589 Y23.759 E.05458
G1 X47.914 Y24.447 E.02386
G1 X48.28 Y25.519 E.03552
G1 X48.444 Y26.262 E.02386
G1 X48.558 Y27.658 E.04392
G1 X48.554 Y45.357 E.55494
G1 X48.452 Y46.369 E.03189
G1 X48.159 Y47.561 E.03849
G1 X47.649 Y48.923 E.0456
G1 X46.95 Y50.049 E.04155
G1 X45.58 Y51.51 E.0628
G1 X44.66 Y52.204 E.03613
G1 X42.566 Y53.154 E.0721
G1 X41.842 Y53.358 E.02358
G1 X40.347 Y53.559 E.0473
G1 X19.042 Y53.562 E.668
G1 X17.901 Y53.468 E.0359
G1 X16.734 Y53.156 E.03788
G1 X15.092 Y52.381 E.05693
G1 X14.234 Y51.8 E.03249
G1 X13.132 Y50.713 E.04853
G1 X12.293 Y49.624 E.0431
G1 X11.836 Y48.826 E.02883
G1 X11.165 Y46.929 E.06309
G1 X10.926 Y45.081 E.05843
G1 X10.954 Y27.053 E.56526
G1 X11.119 Y25.99 E.03373
G1 X11.657 Y24.352 E.05406
G1 X12.141 Y23.402 E.03343
G1 X13.123 Y22.016 E.05326
G1 X13.97 Y21.188 E.03714
G1 X14.552 Y20.74 E.02303
G1 E-2.45 F4800
;WIPE_START
G1 F43200
G1 X15.892 Y19.974 E-.16292
G1 X17.322 Y19.401 E-.16261
G1 X19.097 Y19.093 E-.19016
G1 X24.159 Y19.099 E-.53431
;WIPE_END
G1 X16.703 Y23.825 F54000
G1 E3.5 F2400
G1 F1200
G1 X17.539 Y23.243 E.03194
G1 X19.332 Y22.756 E.05826
G1 X40.296 Y22.762 E.65731
G1 X42.41 Y23.426 E.06948
G1 X43.136 Y23.953 E.02813
G1 X43.714 Y24.547 E.02599
G1 X44.584 Y26.018 E.05359
G1 X44.798 Y26.782 E.02488
G1 X44.884 Y27.492 E.02242
G1 X44.913 Y38.207 E.33596
G1 X44.903 Y45.135 E.21722
G1 X44.487 Y46.943 E.05817
G1 X44.067 Y47.686 E.02676
G1 X43.537 Y48.352 E.02669
G1 X41.989 Y49.427 E.05909
G1 X40.14 Y49.907 E.0599
G1 X19.472 Y49.915 E.64803
G1 X18.428 Y49.792 E.03296
G1 X17.438 Y49.452 E.03282
G1 X16.024 Y48.413 E.05502
G1 X15.021 Y46.936 E.05598
G1 X14.59 Y45.131 E.05819
G1 X14.589 Y27.56 E.55093
G1 X14.786 Y26.463 E.03495
G1 X15.217 Y25.4 E.03597
G1 X15.996 Y24.319 E.04178
G1 X16.654 Y23.86 E.02515
G1 X16.864 Y24.16 F54000
G1 F1200
G1 X17.67 Y23.598 E.03081
G1 X19.358 Y23.133 E.0549
G1 X40.267 Y23.139 E.65559
G1 X42.265 Y23.776 E.06575
G1 X42.878 Y24.228 E.02388
G1 X43.402 Y24.759 E.02339
G1 X44.246 Y26.188 E.05204
G1 X44.425 Y26.842 E.02126
G1 X44.507 Y27.505 E.02095
G1 X44.536 Y38.207 E.33555
G1 X44.526 Y45.114 E.21656
G1 X44.145 Y46.783 E.05368
G1 X43.763 Y47.463 E.02445
G1 X43.26 Y48.095 E.02533
G1 X41.803 Y49.097 E.05544
G1 X40.116 Y49.53 E.05461
G1 X19.504 Y49.54 E.64627
G1 X18.531 Y49.428 E.03071
G1 X17.589 Y49.105 E.03122
G1 X16.275 Y48.13 E.0513
G1 X15.354 Y46.755 E.05189
G1 X14.967 Y45.11 E.05299
G1 X14.967 Y27.577 E.54973
G1 X15.153 Y26.55 E.03272
G1 X15.557 Y25.565 E.03338
G1 X16.282 Y24.566 E.0387
G1 X16.814 Y24.195 E.02034
G1 X17.025 Y24.5 F54000
G1 F1200
G1 X17.857 Y23.926 E.03169
G1 X19.383 Y23.51 E.04959
G1 X40.237 Y23.516 E.65386
G1 X42.067 Y24.098 E.06021
G1 X42.62 Y24.504 E.02151
G1 X43.117 Y25.008 E.02219
G1 X43.89 Y26.313 E.04756
G1 X44.053 Y26.902 E.01916
G1 X44.132 Y27.54 E.02016
G1 X44.159 Y38.208 E.33449
G1 X44.148 Y45.092 E.21584
G1 X43.803 Y46.622 E.04918
G1 X43.441 Y47.265 E.02314
G1 X42.983 Y47.837 E.02298
G1 X41.676 Y48.741 E.04983
G1 X40.092 Y49.153 E.05132
G1 X19.536 Y49.164 E.64452
G1 X18.595 Y49.056 E.0297
G1 X17.741 Y48.758 E.02836
G1 X16.528 Y47.849 E.04753
G1 X15.687 Y46.576 E.04784
G1 X15.344 Y45.089 E.04785
G1 X15.344 Y27.595 E.54851
G1 X15.52 Y26.639 E.03048
G1 X15.896 Y25.731 E.03081
G1 X16.567 Y24.815 E.0356
G1 X16.975 Y24.534 E.01553
G1 X17.183 Y24.84 F54000
G1 F1200
G1 X18.042 Y24.256 E.03257
G1 X19.407 Y23.887 E.04433
G1 X40.208 Y23.893 E.6522
G1 X41.869 Y24.42 E.05464
G1 X42.384 Y24.799 E.02005
G1 X42.832 Y25.255 E.02004
G1 X43.533 Y26.438 E.04312
G1 X43.685 Y26.989 E.01792
G1 X43.756 Y27.574 E.01848
G1 X43.782 Y38.208 E.33342
G1 X43.771 Y45.071 E.21518
G1 X43.46 Y46.463 E.04472
G1 X43.137 Y47.042 E.02079
G1 X42.707 Y47.579 E.02157
G1 X41.491 Y48.41 E.04618
G1 X40.068 Y48.776 E.04607
G1 X19.546 Y48.787 E.64345
G1 X18.699 Y48.693 E.02672
G1 X17.894 Y48.412 E.02673
G1 X16.782 Y47.568 E.04377
G1 X16.046 Y46.457 E.04179
G1 X15.721 Y45.067 E.04476
G1 X15.721 Y27.613 E.54726
G1 X15.887 Y26.729 E.0282
G1 X16.235 Y25.898 E.02825
G1 X16.85 Y25.066 E.03244
G1 X17.133 Y24.873 E.01074
G1 X17.338 Y25.18 F54000
G1 F1200
G1 X18.225 Y24.587 E.03345
G1 X19.432 Y24.264 E.03918
G1 X40.179 Y24.27 E.65051
G1 X41.671 Y24.742 E.04907
G1 X42.148 Y25.093 E.01857
G1 X42.546 Y25.502 E.01789
G1 X43.176 Y26.562 E.03866
G1 X43.318 Y27.075 E.01669
G1 X43.38 Y27.606 E.01676
G1 X43.405 Y38.209 E.33245
G1 X43.394 Y45.05 E.2145
G1 X43.117 Y46.303 E.04024
G1 X42.816 Y46.844 E.01941
G1 X42.43 Y47.321 E.01924
G1 X41.364 Y48.054 E.04056
G1 X40.044 Y48.398 E.04277
G1 X19.556 Y48.409 E.64239
G1 X18.763 Y48.321 E.02502
G1 X18.049 Y48.068 E.02375
G1 X17.038 Y47.29 E.04
G1 X16.381 Y46.28 E.03778
G1 X16.098 Y45.046 E.0397
G1 X16.098 Y27.631 E.54604
G1 X16.253 Y26.82 E.02589
G1 X16.573 Y26.067 E.02565
G1 X17.132 Y25.318 E.0293
G1 X17.288 Y25.214 E.00588
G1 X17.49 Y25.521 F54000
G1 F1200
G1 X18.406 Y24.92 E.03435
G1 X19.456 Y24.641 E.03406
G1 X40.15 Y24.647 E.64885
G1 X41.474 Y25.065 E.04353
G1 X41.889 Y25.368 E.01611
G1 X42.261 Y25.749 E.0167
G1 X42.82 Y26.687 E.03424
G1 X42.951 Y27.161 E.01542
G1 X43.004 Y27.638 E.01505
G1 X43.028 Y38.209 E.33145
G1 X43.017 Y45.03 E.21387
G1 X42.773 Y46.146 E.03582
G1 X42.512 Y46.62 E.01697
G1 X42.155 Y47.062 E.01781
G1 X41.18 Y47.723 E.03693
G1 X40.02 Y48.021 E.03755
G1 X19.566 Y48.032 E.64132
G1 X18.867 Y47.958 E.02204
G1 X18.205 Y47.723 E.02203
G1 X17.296 Y47.013 E.03616
G1 X16.717 Y46.106 E.03374
G1 X16.475 Y45.026 E.0347
G1 X16.475 Y27.649 E.54484
G1 X16.608 Y26.949 E.02234
G1 X16.91 Y26.236 E.02428
G1 X17.44 Y25.554 E.02708
G1 X17.691 Y25.828 F54000
G1 F1200
G1 X18.584 Y25.253 E.0333
G1 X19.48 Y25.018 E.02904
G1 X40.122 Y25.024 E.64722
G1 X41.276 Y25.388 E.03794
G1 X41.654 Y25.663 E.01466
G1 X41.974 Y25.995 E.01446
G1 X42.464 Y26.814 E.02992
G1 X42.578 Y27.219 E.01319
G1 X42.628 Y27.67 E.01423
G1 X42.651 Y38.21 E.33048
G1 X42.64 Y45.01 E.21321
G1 X42.429 Y45.99 E.03143
G1 X42.207 Y46.397 E.01454
G1 X41.88 Y46.803 E.01635
G1 X40.998 Y47.392 E.03325
G1 X39.997 Y47.644 E.03236
G1 X19.576 Y47.655 E.64029
G1 X18.931 Y47.586 E.02034
G1 X18.363 Y47.379 E.01896
G1 X17.557 Y46.739 E.03227
G1 X17.054 Y45.935 E.02974
G1 X16.852 Y45.006 E.02981
G1 X16.852 Y27.667 E.54365
G1 X16.974 Y27.042 E.01997
G1 X17.247 Y26.408 E.02164
G1 X17.655 Y25.876 E.02102
G1 X17.952 Y26.107 F54000
G1 F1200
G1 X18.759 Y25.588 E.03008
G1 X19.503 Y25.395 E.0241
G1 X40.093 Y25.401 E.64559
G1 X41.081 Y25.712 E.03248
G1 X41.394 Y25.937 E.01209
G1 X41.688 Y26.242 E.01328
G1 X42.108 Y26.941 E.02557
G1 X42.21 Y27.305 E.01185
G1 X42.252 Y27.7 E.01245
G1 X42.274 Y38.21 E.32953
G1 X42.263 Y44.99 E.21258
G1 X42.084 Y45.836 E.02711
G1 X41.902 Y46.175 E.01206
G1 X41.604 Y46.544 E.01487
G1 X40.872 Y47.035 E.02764
G1 X39.973 Y47.267 E.02911
G1 X19.585 Y47.278 E.63925
G1 X19.038 Y47.223 E.01724
G1 X18.523 Y47.036 E.01718
G1 X17.819 Y46.466 E.0284
G1 X17.415 Y45.822 E.02384
G1 X17.229 Y44.985 E.02688
G1 X17.229 Y27.687 E.54237
G1 X17.34 Y27.137 E.01759
G1 X17.582 Y26.581 E.01901
G1 X17.915 Y26.154 E.01698
G1 X18.21 Y26.388 F54000
G1 F1200
G1 X18.241 Y26.348 E.00159
G1 X18.931 Y25.925 E.02538
G1 X19.526 Y25.773 E.01925
G1 X40.064 Y25.778 E.64395
G1 X40.886 Y26.036 E.02701
G1 X41.159 Y26.232 E.01054
G1 X41.4 Y26.486 E.01098
G1 X41.752 Y27.068 E.02133
G1 X41.843 Y27.391 E.01052
G1 X41.876 Y27.727 E.01059
G1 X41.897 Y38.21 E.32869
G1 X41.886 Y44.97 E.21196
G1 X41.737 Y45.685 E.0229
G1 X41.597 Y45.953 E.00948
G1 X41.33 Y46.283 E.01331
G1 X40.693 Y46.702 E.02391
G1 X39.949 Y46.89 E.02406
G1 X19.594 Y46.901 E.63822
G1 X19.101 Y46.85 E.01554
G1 X18.686 Y46.695 E.01389
G1 X18.085 Y46.198 E.02445
G1 X17.754 Y45.654 E.01997
G1 X17.606 Y44.966 E.02207
G1 X17.606 Y27.707 E.54114
G1 X17.704 Y27.234 E.01515
G1 X17.917 Y26.758 E.01635
G1 X18.172 Y26.435 E.0129
G1 X18.464 Y26.671 F54000
G1 F1200
G1 X18.511 Y26.613 E.00234
G1 X19.099 Y26.263 E.02146
G1 X19.549 Y26.15 E.01455
G1 X40.035 Y26.155 E.64232
G1 X40.69 Y26.36 E.02152
G1 X40.923 Y26.527 E.00899
G1 X41.111 Y26.729 E.00865
G1 X41.397 Y27.198 E.01722
G1 X41.469 Y27.447 E.00813
G1 X41.5 Y27.756 E.00974
G1 X41.52 Y38.211 E.32781
G1 X41.509 Y44.951 E.21133
G1 X41.389 Y45.538 E.01879
G1 X41.29 Y45.732 E.00683
G1 X41.056 Y46.022 E.01168
G1 X40.517 Y46.367 E.02007
G1 X39.927 Y46.513 E.01906
G1 X19.602 Y46.524 E.63728
G1 X19.209 Y46.488 E.01237
G1 X18.85 Y46.354 E.01201
G1 X18.355 Y45.933 E.02037
G1 X18.096 Y45.492 E.01604
G1 X17.983 Y44.947 E.01745
G1 X17.983 Y27.727 E.53992
G1 X18.068 Y27.335 E.01258
G1 X18.249 Y26.937 E.01371
G1 X18.426 Y26.718 E.00883
G1 X18.714 Y26.958 F54000
G1 F1200
G1 X18.777 Y26.882 E.0031
G1 X19.262 Y26.604 E.01753
G1 X19.572 Y26.527 E.01002
G1 X40.007 Y26.532 E.64073
G1 X40.499 Y26.686 E.01616
G1 X40.662 Y26.8 E.00624
G1 X40.823 Y26.972 E.00739
G1 X41.042 Y27.329 E.01313
G1 X41.102 Y27.534 E.0067
G1 X41.124 Y27.78 E.00774
G1 X41.143 Y38.211 E.32706
G1 X41.132 Y44.933 E.21076
G1 X41.039 Y45.397 E.01484
G1 X40.983 Y45.513 E.00404
G1 X40.784 Y45.759 E.00992
G1 X40.346 Y46.03 E.01615
G1 X39.905 Y46.136 E.01422
G1 X19.607 Y46.147 E.63643
G1 X19.315 Y46.125 E.00918
G1 X19.016 Y46.013 E.01001
G1 X18.631 Y45.673 E.0161
G1 X18.44 Y45.335 E.01217
G1 X18.36 Y44.93 E.01294
G1 X18.36 Y27.748 E.53873
G1 X18.42 Y27.473 E.00883
G1 X18.581 Y27.117 E.01225
G1 X18.676 Y27.004 E.00463
G1 X18.957 Y27.249 F54000
G1 F1200
G1 X19.037 Y27.157 E.00382
G1 X19.42 Y26.947 E.0137
G1 X19.594 Y26.904 E.00562
G1 X39.978 Y26.909 E.63913
G1 X40.307 Y27.011 E.0108
G1 X40.426 Y27.095 E.00457
G1 X40.531 Y27.212 E.00493
G1 X40.69 Y27.465 E.00937
G1 X40.728 Y27.589 E.00407
G1 X40.747 Y27.789 E.0063
G1 X40.766 Y38.212 E.32681
G1 X40.755 Y44.914 E.21014
G1 X40.685 Y45.267 E.01128
G1 X40.513 Y45.494 E.00893
G1 X40.182 Y45.69 E.01206
G1 X39.884 Y45.759 E.00959
G1 X19.614 Y45.77 E.63555
G1 X19.375 Y45.751 E.00752
G1 X19.192 Y45.678 E.00618
G1 X18.909 Y45.418 E.01205
G1 X18.803 Y45.23 E.00677
G1 X18.737 Y44.91 E.01024
G1 X18.737 Y27.768 E.53748
G1 X18.771 Y27.611 E.00504
G1 X18.918 Y27.294 E.01096
G1 X19.241 Y27.488 F54000
G1 F1200
G1 X19.284 Y27.443 E.00195
G1 X19.617 Y27.281 E.01161
G1 X39.949 Y27.286 E.6375
G1 X40.164 Y27.368 E.00721
G1 X40.342 Y27.611 E.00944
G1 X40.37 Y27.799 E.00596
G1 X40.388 Y38.212 E.32649
G1 X40.378 Y44.893 E.20948
G1 X40.329 Y45.13 E.00759
G1 X40.284 Y45.192 E.0024
G1 X40.018 Y45.349 E.00968
G1 X39.865 Y45.382 E.00491
G1 X19.622 Y45.393 E.63471
G1 X19.441 Y45.379 E.00569
G1 X19.382 Y45.352 E.00203
G1 X19.191 Y45.167 E.00834
G1 X19.165 Y45.121 E.00166
G1 X19.114 Y44.889 E.00745
G1 X19.114 Y27.788 E.53619
G1 X19.216 Y27.543 E.00832
; printing object KlackEnderPro2 Probe Block 5.1mm v0.1.stl id:0 copy 0
G1 E-2.45 F4800
;WIPE_START
G1 F43200
G1 X19.284 Y27.443 E-.01276
G1 X19.617 Y27.281 E-.03909
G1 X29.073 Y27.283 E-.99815
;WIPE_END
G1 X39.225 Y44.23 F54000
G1 E3.5 F2400
;TYPE:Perimeter
;WIDTH:0.419999
G1 F1200
G1 X20.267 Y44.24 E.59441
G1 X20.267 Y28.433 E.49562
G1 X39.217 Y28.431 E.59416
G1 X39.225 Y44.17 E.49348
G1 X39.602 Y44.606 F54000
G1 F1200
G1 X19.89 Y44.617 E.61805
G1 X19.89 Y28.056 E.51926
G1 X39.594 Y28.054 E.6178
G1 X39.602 Y44.546 E.51709
G1 X39.978 Y44.876 F54000
;TYPE:External perimeter
G1 F1200
G1 X39.823 Y44.983 E.00591
G1 X19.582 Y44.99 E.63464
G1 X19.513 Y44.863 E.00453
G1 X19.513 Y27.916 E.53136
G1 X19.561 Y27.748 E.00548
G1 X19.692 Y27.679 E.00464
G1 X39.828 Y27.677 E.63135
G1 X39.912 Y27.692 E.00268
G1 X39.971 Y27.818 E.00436
G1 X39.979 Y44.816 E.53296
G1 X39.79 Y44.854 F54000
G1 E-2.45 F4800
;WIPE_START
G1 F43200
G1 X39.823 Y44.983 E-.02412
G1 X30.104 Y44.986 E-1.02588
;WIPE_END
G1 X35.25 Y35.789 F54000
G1 E3.5 F2400
;TYPE:Perimeter
G1 F1200
G1 X35.513 Y35.868 E.00861
G1 X35.855 Y36.086 E.01272
G1 X36.112 Y36.344 E.01142
G1 X36.216 Y36.512 E.0062
G1 X36.706 Y36.757 E.01718
G1 X37.214 Y37.13 E.01976
G1 X37.648 Y37.584 E.01969
G1 X37.999 Y38.109 E.0198
G1 X38.252 Y38.687 E.01978
G1 X38.401 Y39.298 E.01972
G1 X38.446 Y39.845 E.01721
G1 X38.401 Y40.392 E.01721
G1 X38.252 Y41.003 E.01972
G1 X37.999 Y41.581 E.01978
G1 X37.648 Y42.106 E.0198
G1 X37.214 Y42.56 E.01969
G1 X36.706 Y42.933 E.01976
G1 X36.163 Y43.203 E.01901
G1 X35.544 Y43.388 E.02026
G1 X34.911 Y43.459 E.01997
G1 X34.281 Y43.418 E.01979
G1 X33.67 Y43.269 E.01972
G1 X33.092 Y43.016 E.01978
G1 X32.567 Y42.665 E.0198
G1 X32.113 Y42.231 E.01969
G1 X31.74 Y41.723 E.01976
G1 X31.46 Y41.158 E.01977
G1 X31.283 Y40.553 E.01976
G1 X31.215 Y39.926 E.01977
G1 X31.255 Y39.3 E.01967
G1 X31.404 Y38.687 E.01978
G1 X31.657 Y38.109 E.01978
G1 X32.008 Y37.584 E.0198
G1 X32.442 Y37.13 E.01969
G1 X32.95 Y36.757 E.01976
G1 X33.515 Y36.477 E.01977
G1 X33.961 Y36.031 E.01978
G1 X34.242 Y35.869 E.01017
G1 X34.607 Y35.751 E.01203
G1 X35.101 Y35.744 E.01549
G1 X35.193 Y35.772 E.00302
G1 X35.098 Y36.142 F54000
G1 F1200
G1 X35.18 Y36.148 E.00258
G1 X35.487 Y36.273 E.01039
G1 X35.834 Y36.599 E.01493
G1 X35.982 Y36.819 E.00831
G1 X36.49 Y37.065 E.0177
G1 X36.947 Y37.397 E.01771
G1 X37.339 Y37.801 E.01765
G1 X37.657 Y38.269 E.01774
G1 X37.888 Y38.784 E.0177
G1 X38.026 Y39.331 E.01769
G1 X38.069 Y39.845 E.01617
G1 X38.026 Y40.359 E.01617
G1 X37.888 Y40.906 E.01769
G1 X37.657 Y41.421 E.0177
G1 X37.339 Y41.889 E.01774
G1 X36.947 Y42.293 E.01765
G1 X36.49 Y42.625 E.01771
G1 X36.003 Y42.861 E.01697
G1 X35.443 Y43.024 E.01829
G1 X34.878 Y43.083 E.01781
G1 X34.314 Y43.043 E.01773
G1 X33.767 Y42.905 E.01769
G1 X33.252 Y42.674 E.0177
G1 X32.784 Y42.356 E.01774
G1 X32.38 Y41.964 E.01765
G1 X32.048 Y41.507 E.01771
G1 X31.802 Y40.999 E.0177
G1 X31.648 Y40.455 E.01773
G1 X31.591 Y39.893 E.01771
G1 X31.63 Y39.333 E.0176
G1 X31.768 Y38.784 E.01775
G1 X31.999 Y38.269 E.0177
G1 X32.317 Y37.801 E.01774
G1 X32.709 Y37.397 E.01765
G1 X33.166 Y37.065 E.01771
G1 X33.842 Y36.727 E.0237
G1 X34.037 Y36.46 E.01037
G1 X34.372 Y36.223 E.01287
G1 X34.77 Y36.114 E.01294
G1 X35.038 Y36.137 E.00843
G1 X34.994 Y36.5 F54000
;TYPE:External perimeter
G1 F1200
G1 X35.051 Y36.503 E.00179
G1 X35.322 Y36.62 E.00926
G1 X35.6 Y36.931 E.01308
G1 X35.651 Y37.112 E.0059
G1 X36.245 Y37.358 E.02016
G1 X36.681 Y37.663 E.01668
G1 X37.031 Y38.017 E.01561
G1 X37.315 Y38.428 E.01566
G1 X37.524 Y38.882 E.01567
G1 X37.65 Y39.364 E.01562
G1 X37.691 Y39.862 E.01567
G1 X37.644 Y40.358 E.01562
G1 X37.512 Y40.839 E.01564
G1 X37.299 Y41.29 E.01564
