; generated by PrusaSlicer 2.6.0+MacOS-arm64 on 2023-07-26 at 10:48:04 UTC

; 

; external perimeters extrusion width = 0.42mm
; perimeters extrusion width = 0.44mm
; infill extrusion width = 0.44mm
; solid infill extrusion width = 0.44mm
; top infill extrusion width = 0.40mm
; support material extrusion width = 0.36mm
; first layer extrusion width = 0.42mm

M201 X3500 Y3500 Z150 E5000 ; sets maximum accelerations, mm/sec^2
M203 X500 Y500 Z10 E60 ; sets maximum feedrates, mm / sec
M204 S3500 T1000 ; sets acceleration (S) and retract acceleration (R), mm/sec^2
M205 X8.00 Y8.00 Z0.40 E5.00 ; sets the jerk limits, mm/sec
M205 S0 T0 ; sets the minimum extruding and travel feed rate, mm/sec
;TYPE:Custom
G90 ; use absolute coordinates
M83 ; extruder relative mode
M104 S150 ; set temporary nozzle temp to prevent oozing during homing
M140 S60 ; set final bed temp
G4 S30 ; allow partial nozzle warmup
G28 ; home all axis
G1 Z50 F240
G1 X2.0 Y10 F3000
M104 S205 ; set final nozzle temp
M190 S60 ; wait for bed temp to stabilize
M109 S205 ; wait for nozzle temp to stabilize
G1 Z0.28 F240
G92 E0
G1 X2.0 Y140 E10 F1500 ; prime the nozzle
G1 X2.3 Y140 F5000
G92 E0
G1 X2.3 Y10 E10 F1200 ; prime the nozzle
G92 E0
G21 ; set units to millimeters
G90 ; use absolute coordinates
M83 ; use relative distances for extrusion
; Filament gcode
M107
;LAYER_CHANGE
;Z:0.2
;HEIGHT:0.2
;BEFORE_LAYER_CHANGE
G92 E0
;0.2


G1 E-3.5 F4800
G1 Z.2 F54000
;AFTER_LAYER_CHANGE
;0.2
G1 X25.191 Y37.203
G1 E3.5 F2400
M204 S3500
;TYPE:Skirt/Brim
;WIDTH:0.42
G1 F1200
G1 X26.589 Y36.362 E.05115
G1 X27.579 Y36.214 E.03139
G1 X71.521 Y36.214 E1.37777
G1 X73.104 Y36.608 E.05115
G1 X73.909 Y37.203 E.03139
G1 X76.838 Y40.132 E.12988
G1 X77.679 Y41.53 E.05115
G1 X77.827 Y42.52 E.03139
G1 X77.827 Y63.462 E.65662
G1 X77.433 Y65.045 E.05115
G1 X76.838 Y65.85 E.03139
G1 X73.909 Y68.779 E.12988
G1 X72.511 Y69.62 E.05115
G1 X71.521 Y69.768 E.03139
G1 X27.579 Y69.768 E1.37777
G1 X25.996 Y69.374 E.05115
G1 X25.191 Y68.779 E.03139
G1 X22.262 Y65.85 E.12988
G1 X21.421 Y64.452 E.05115
G1 X21.273 Y63.462 E.03139
G1 X21.273 Y42.52 E.65662
G1 X21.667 Y40.937 E.05115
G1 X22.262 Y40.132 E.03139
G1 X25.148 Y37.246 E.12797
G1 E-2.45 F4800
;WIPE_START
G1 F43200
G1 X26.589 Y36.362 E-.17845
G1 X27.579 Y36.214 E-.10566
G1 X34.835 Y36.214 E-.76589
;WIPE_END
G1 X27.38 Y40.416 F54000
G1 E3.5 F2400
G1 F1200
G1 X29.123 Y39.878 E.05719
G1 X69.936 Y39.881 E1.27966
G1 X70.885 Y40.065 E.03031
G1 X71.793 Y40.456 E.031
G1 X73.012 Y41.48 E.04992
G1 X73.802 Y42.697 E.04549
G1 X74.163 Y44.08 E.04482
G1 X74.163 Y61.901 E.55876
G1 X73.865 Y63.124 E.03947
G1 X73.456 Y63.94 E.02862
G1 X72.533 Y64.978 E.04355
G1 X71.72 Y65.566 E.03146
G1 X69.977 Y66.105 E.0572
G1 X29.14 Y66.105 E1.28042
G1 X27.917 Y65.806 E.03948
G1 X27.101 Y65.397 E.02862
G1 X26.063 Y64.474 E.04355
G1 X25.475 Y63.661 E.03146
G1 X24.936 Y61.919 E.05717
G1 X24.936 Y44.082 E.55927
G1 X25.235 Y42.859 E.03948
G1 X25.644 Y42.042 E.02865
G1 X26.567 Y41.005 E.04353
G1 X27.332 Y40.451 E.02962
G1 X27.551 Y40.757 F54000
G1 F1200
G1 X29.151 Y40.255 E.05258
G1 X69.917 Y40.258 E1.27819
G1 X70.791 Y40.431 E.02794
G1 X71.616 Y40.79 E.02821
G1 X72.747 Y41.749 E.04649
G1 X73.446 Y42.823 E.04018
G1 X73.786 Y44.105 E.04159
G1 X73.786 Y61.877 E.55723
G1 X73.505 Y63.011 E.03663
G1 X73.132 Y63.747 E.02587
G1 X72.267 Y64.71 E.04059
G1 X71.525 Y65.242 E.02863
G1 X69.949 Y65.728 E.05171
G1 X29.164 Y65.728 E1.27879
G1 X28.03 Y65.446 E.03664
G1 X27.294 Y65.073 E.02587
G1 X26.331 Y64.208 E.04059
G1 X25.799 Y63.466 E.02863
G1 X25.313 Y61.89 E.05171
G1 X25.313 Y44.105 E.55764
G1 X25.595 Y42.971 E.03664
G1 X25.968 Y42.236 E.02584
G1 X26.833 Y41.272 E.04061
G1 X27.502 Y40.792 E.02582
G1 X27.72 Y41.099 F54000
G1 F1200
G1 X27.768 Y41.066 E.00183
G1 X29.179 Y40.632 E.04629
G1 X69.898 Y40.636 E1.27672
G1 X70.695 Y40.796 E.02549
G1 X71.438 Y41.124 E.02547
G1 X72.48 Y42.017 E.04303
G1 X73.112 Y43.001 E.03667
G1 X73.409 Y44.129 E.03657
G1 X73.409 Y61.854 E.55575
G1 X73.145 Y62.897 E.03373
G1 X72.808 Y63.552 E.0231
G1 X72.002 Y64.441 E.03762
G1 X71.332 Y64.917 E.02577
G1 X69.921 Y65.351 E.04629
G1 X29.188 Y65.351 E1.27715
G1 X28.144 Y65.086 E.03377
G1 X27.489 Y64.749 E.0231
G1 X26.6 Y63.943 E.03762
G1 X26.124 Y63.273 E.02577
G1 X25.691 Y61.862 E.04628
G1 X25.691 Y44.129 E.55601
G1 X25.955 Y43.085 E.03376
G1 X26.292 Y42.431 E.02307
G1 X27.098 Y41.541 E.03765
G1 X27.671 Y41.134 E.02204
G1 X27.888 Y41.442 F54000
G1 F1200
G1 X27.96 Y41.391 E.00277
G1 X29.207 Y41.009 E.04089
G1 X69.879 Y41.013 E1.27524
G1 X70.598 Y41.161 E.02302
G1 X71.258 Y41.456 E.02267
G1 X72.212 Y42.284 E.03961
G1 X72.756 Y43.128 E.03148
G1 X73.032 Y44.154 E.03331
G1 X73.032 Y61.829 E.55419
G1 X72.785 Y62.781 E.03084
G1 X72.486 Y63.355 E.02029
G1 X71.738 Y64.171 E.03471
G1 X71.14 Y64.591 E.02291
G1 X69.893 Y64.973 E.04089
G1 X29.212 Y64.973 E1.27552
G1 X28.26 Y64.727 E.03083
G1 X27.686 Y64.427 E.02031
G1 X26.87 Y63.68 E.03469
G1 X26.45 Y63.081 E.02294
G1 X26.068 Y61.834 E.04089
G1 X26.068 Y44.153 E.55438
G1 X26.314 Y43.202 E.0308
G1 X26.614 Y42.628 E.02031
G1 X27.361 Y41.812 E.03469
G1 X27.839 Y41.476 E.01832
G1 X28.053 Y41.785 F54000
G1 F1200
G1 X28.15 Y41.718 E.0037
G1 X29.235 Y41.386 E.03558
G1 X69.86 Y41.39 E1.27377
G1 X70.463 Y41.514 E.0193
G1 X71.078 Y41.789 E.02112
G1 X71.942 Y42.548 E.03606
G1 X72.422 Y43.305 E.0281
G1 X72.655 Y44.178 E.02833
G1 X72.655 Y61.804 E.55265
G1 X72.427 Y62.662 E.02784
G1 X72.165 Y63.155 E.0175
G1 X71.476 Y63.899 E.03179
G1 X70.95 Y64.264 E.02007
G1 X69.865 Y64.596 E.03558
G1 X29.237 Y64.596 E1.27386
G1 X28.379 Y64.368 E.02784
G1 X27.886 Y64.106 E.0175
G1 X27.142 Y63.418 E.03177
G1 X26.777 Y62.891 E.0201
G1 X26.445 Y61.806 E.03558
G1 X26.445 Y44.179 E.55268
G1 X26.673 Y43.321 E.02784
G1 X26.935 Y42.827 E.01753
G1 X27.623 Y42.084 E.03175
G1 X28.004 Y41.82 E.01453
G1 X28.216 Y42.13 F54000
G1 F1200
G1 X28.339 Y42.046 E.00467
G1 X29.263 Y41.763 E.0303
G1 X69.839 Y41.767 E1.27223
G1 X70.364 Y41.878 E.01682
G1 X70.895 Y42.119 E.01828
G1 X71.672 Y42.812 E.03264
G1 X72.066 Y43.432 E.02303
G1 X72.278 Y44.204 E.0251
G1 X72.278 Y61.778 E.55102
G1 X72.069 Y62.54 E.02477
G1 X71.846 Y62.953 E.01472
G1 X71.216 Y63.625 E.02888
G1 X70.761 Y63.937 E.0173
G1 X69.837 Y64.219 E.03029
G1 X29.263 Y64.219 E1.27217
G1 X28.501 Y64.011 E.02477
G1 X28.088 Y63.787 E.01473
G1 X27.416 Y63.157 E.02888
G1 X27.104 Y62.702 E.0173
G1 X26.822 Y61.778 E.03029
G1 X26.822 Y44.204 E.55102
G1 X27.03 Y43.442 E.02477
G1 X27.254 Y43.029 E.01473
G1 X27.884 Y42.357 E.02888
G1 X28.166 Y42.164 E.01071
G1 X28.376 Y42.475 F54000
G1 F1200
G1 X28.526 Y42.374 E.00567
G1 X29.291 Y42.14 E.02508
G1 X69.818 Y42.144 E1.2707
G1 X70.261 Y42.242 E.01423
G1 X70.709 Y42.449 E.01547
G1 X71.4 Y43.074 E.02921
G1 X71.712 Y43.563 E.01819
G1 X71.901 Y44.231 E.02177
G1 X71.901 Y61.751 E.54933
G1 X71.713 Y62.415 E.02164
G1 X71.528 Y62.749 E.01197
G1 X70.958 Y63.35 E.02597
G1 X70.574 Y63.608 E.01451
G1 X69.809 Y63.842 E.02508
G1 X29.29 Y63.842 E1.27044
G1 X28.626 Y63.655 E.02163
G1 X28.293 Y63.47 E.01194
G1 X27.691 Y62.899 E.02602
G1 X27.433 Y62.515 E.01451
G1 X27.199 Y61.75 E.02508
G1 X27.199 Y44.231 E.5493
G1 X27.387 Y43.568 E.02161
G1 X27.571 Y43.234 E.01196
G1 X28.142 Y42.633 E.02599
G1 X28.326 Y42.508 E.00697
G1 X28.533 Y42.821 F54000
G1 F1200
G1 X28.71 Y42.704 E.00665
G1 X29.319 Y42.517 E.01997
G1 X69.796 Y42.521 E1.26913
G1 X70.155 Y42.604 E.01155
G1 X70.521 Y42.777 E.01269
G1 X71.126 Y43.334 E.02578
G1 X71.358 Y43.696 E.01348
G1 X71.524 Y44.259 E.0184
G1 X71.524 Y61.723 E.54757
G1 X71.358 Y62.285 E.01837
G1 X71.213 Y62.54 E.0092
G1 X70.701 Y63.073 E.02317
G1 X70.39 Y63.279 E.0117
G1 X69.781 Y63.465 E.01997
G1 X29.318 Y63.465 E1.26869
G1 X28.756 Y63.3 E.01836
G1 X28.501 Y63.155 E.0092
G1 X27.969 Y62.643 E.02315
G1 X27.763 Y62.331 E.01172
G1 X27.576 Y61.722 E.01997
G1 X27.576 Y44.259 E.54754
G1 X27.741 Y43.697 E.01836
G1 X27.886 Y43.442 E.0092
G1 X28.398 Y42.91 E.02315
G1 X28.483 Y42.854 E.00319
G1 X28.685 Y43.168 F54000
G1 F1200
G1 X28.892 Y43.035 E.00771
G1 X29.348 Y42.894 E.01497
G1 X69.774 Y42.898 E1.26753
G1 X70.012 Y42.953 E.00766
G1 X70.332 Y43.105 E.01111
G1 X70.851 Y43.593 E.02234
G1 X71.006 Y43.833 E.00896
G1 X71.147 Y44.289 E.01497
G1 X71.147 Y61.694 E.54572
G1 X71.006 Y62.151 E.015
G1 X70.901 Y62.327 E.00643
G1 X70.448 Y62.793 E.02038
G1 X70.208 Y62.947 E.00894
G1 X69.752 Y63.088 E.01497
G1 X29.348 Y63.088 E1.26684
G1 X28.89 Y62.947 E.01503
G1 X28.714 Y62.843 E.00641
G1 X28.248 Y62.389 E.0204
G1 X28.094 Y62.149 E.00894
G1 X27.953 Y61.694 E.01494
G1 X27.953 Y44.289 E.54572
G1 X28.094 Y43.832 E.015
G1 X28.198 Y43.655 E.00644
G1 X28.638 Y43.204 E.01976
G1 X28.906 Y43.469 F54000
G1 F1200
G1 X29.035 Y43.385 E.00483
G1 X29.379 Y43.271 E.01136
G1 X69.752 Y43.275 E1.26587
G1 X69.869 Y43.303 E.00377
G1 X70.142 Y43.432 E.00947
G1 X70.573 Y43.848 E.01878
G1 X70.657 Y43.976 E.0048
G1 X70.77 Y44.321 E.01138
G1 X70.77 Y61.662 E.54371
G1 X70.656 Y62.008 E.01142
G1 X70.594 Y62.109 E.00372
G1 X70.194 Y62.514 E.01785
G1 X70.065 Y62.598 E.00483
G1 X69.721 Y62.711 E.01135
G1 X29.379 Y62.711 E1.2649
G1 X29.033 Y62.597 E.01142
G1 X28.932 Y62.535 E.00372
G1 X28.527 Y62.135 E.01785
G1 X28.443 Y62.006 E.00483
G1 X28.33 Y61.662 E.01135
G1 X28.33 Y44.321 E.54371
G1 X28.444 Y43.974 E.01145
G1 X28.506 Y43.874 E.00369
G1 X28.863 Y43.512 E.01594
G1 X29.13 Y43.778 F54000
G1 F1200
G1 X29.187 Y43.73 E.00234
G1 X29.414 Y43.649 E.00756
G1 X69.732 Y43.655 E1.26414
G1 X69.95 Y43.758 E.00756
G1 X70.293 Y44.101 E.01521
G1 X70.393 Y44.356 E.00859
G1 X70.393 Y61.627 E.54152
G1 X70.311 Y61.854 E.00757
G1 X69.94 Y62.234 E.01665
G1 X69.685 Y62.334 E.00859
G1 X29.414 Y62.334 E1.26267
G1 X29.187 Y62.252 E.00757
G1 X28.807 Y61.881 E.01665
G1 X28.707 Y61.627 E.00856
G1 X28.707 Y44.356 E.54152
G1 X28.807 Y44.101 E.00859
G1 X29.087 Y43.821 E.01242
G1 X29.354 Y44.087 F54000
G1 F1200
G1 X29.456 Y44.026 E.00373
G1 X69.644 Y44.026 E1.26007
G1 X69.713 Y44.054 E.00233
G1 X69.987 Y44.328 E.01215
G1 X70.016 Y44.398 E.00238
G1 X70.016 Y61.585 E.53889
G1 X69.987 Y61.654 E.00235
G1 X69.713 Y61.928 E.01215
G1 X69.644 Y61.957 E.00235
G1 X29.456 Y61.957 E1.26007
G1 X29.387 Y61.928 E.00235
G1 X29.113 Y61.654 E.01215
G1 X29.084 Y61.585 E.00235
G1 X29.084 Y44.398 E.53889
G1 X29.113 Y44.328 E.00238
G1 X29.312 Y44.13 E.0088
G1 X29.572 Y44.403 F54000
G1 F1200
G1 X69.528 Y44.403 E1.25279
G1 X69.638 Y44.513 E.00488
G1 X69.638 Y61.469 E.53164
G1 X69.528 Y61.58 E.0049
G1 X29.572 Y61.58 E1.25279
G1 X29.461 Y61.469 E.00492
G1 X29.461 Y44.513 E.53164
G1 X29.529 Y44.445 E.00302
; printing object Magnet Holder Tolerance Test 5mm v0.1.stl id:0 copy 0
G1 E-2.45 F4800
;WIPE_START
G1 F43200
G1 X39.476 Y44.435 E-1.05
;WIPE_END
G1 X68.486 Y60.427 F54000
G1 E3.5 F2400
;TYPE:Perimeter
;WIDTH:0.419999
G1 F1200
G1 X30.614 Y60.427 E1.18745
G1 X30.614 Y45.555 E.4663
G1 X68.486 Y45.555 E1.18745
G1 X68.486 Y60.367 E.46442
G1 X68.863 Y60.804 F54000
G1 F1200
G1 X30.237 Y60.804 E1.21109
G1 X30.237 Y45.178 E.48994
G1 X68.863 Y45.178 E1.21109
G1 X68.863 Y60.744 E.48806
G1 X69.24 Y61.181 F54000
;TYPE:External perimeter
G1 F1200
G1 X29.86 Y61.181 E1.23473
G1 X29.86 Y44.801 E.51358
G1 X69.24 Y44.801 E1.23473
G1 X69.24 Y61.121 E.5117
G1 X68.843 Y61.129 F54000
G1 E-2.45 F4800
;WIPE_START
G1 F43200
G1 X59.293 Y61.136 E-1.05
;WIPE_END
G1 X67.602 Y45.676 F54000
G1 E3.5 F2400
;TYPE:Solid infill
;WIDTH:0.420544
G1 F1200
G1 X68.195 Y46.27 E.02635
G1 X68.195 Y46.804 E.01677
G1 X67.237 Y45.846 E.04254
G1 X66.703 Y45.846 E.01677
G1 X68.195 Y47.338 E.06625
G1 X68.195 Y47.872 E.01677
G1 X66.169 Y45.846 E.08997
G1 X65.635 Y45.846 E.01677
G1 X68.195 Y48.406 E.11368
G1 X68.195 Y48.94 E.01677
G1 X65.101 Y45.846 E.13739
G1 X64.567 Y45.846 E.01677
G1 X68.195 Y49.474 E.1611
G1 X68.195 Y50.008 E.01677
G1 X64.033 Y45.846 E.18482
G1 X63.499 Y45.846 E.01677
G1 X68.195 Y50.542 E.20853
G1 X68.195 Y51.076 E.01677
G1 X62.965 Y45.846 E.23224
G1 X62.431 Y45.846 E.01677
G1 X68.195 Y51.61 E.25595
G1 X68.195 Y52.144 E.01677
G1 X61.897 Y45.846 E.27967
G1 X61.363 Y45.846 E.01677
G1 X68.195 Y52.678 E.30338
G1 X68.195 Y53.212 E.01677
G1 X60.829 Y45.846 E.32709
G1 X60.295 Y45.846 E.01677
G1 X68.195 Y53.746 E.3508
G1 X68.195 Y54.28 E.01677
G1 X59.761 Y45.846 E.37452
G1 X59.227 Y45.846 E.01677
G1 X68.195 Y54.814 E.39823
G1 X68.195 Y55.348 E.01677
G1 X58.693 Y45.846 E.42194
G1 X58.159 Y45.846 E.01677
G1 X68.195 Y55.883 E.44568
G1 X68.195 Y56.417 E.01677
G1 X57.625 Y45.846 E.46939
G1 X57.091 Y45.846 E.01677
G1 X68.195 Y56.951 E.4931
G1 X68.195 Y57.485 E.01677
G1 X56.556 Y45.846 E.51684
G1 X56.022 Y45.846 E.01677
G1 X68.195 Y58.019 E.54055
G1 X68.195 Y58.553 E.01677
G1 X55.488 Y45.846 E.56426
G1 X54.954 Y45.846 E.01677
G1 X68.195 Y59.087 E.58798
G1 X68.195 Y59.621 E.01677
G1 X54.42 Y45.846 E.61169
G1 X53.886 Y45.846 E.01677
G1 X68.177 Y60.137 E.6346
G1 X67.643 Y60.137 E.01677
G1 X53.352 Y45.846 E.6346
G1 X52.818 Y45.846 E.01677
G1 X67.109 Y60.137 E.6346
G1 X66.575 Y60.137 E.01677
G1 X52.284 Y45.846 E.6346
G1 X51.75 Y45.846 E.01677
G1 X66.041 Y60.137 E.6346
G1 X65.507 Y60.137 E.01677
G1 X51.216 Y45.846 E.6346
G1 X50.682 Y45.846 E.01677
G1 X64.973 Y60.137 E.6346
G1 X64.439 Y60.137 E.01677
G1 X50.148 Y45.846 E.6346
G1 X49.614 Y45.846 E.01677
G1 X63.905 Y60.137 E.6346
G1 X63.371 Y60.137 E.01677
G1 X49.08 Y45.846 E.6346
G1 X48.546 Y45.846 E.01677
G1 X62.837 Y60.137 E.6346
G1 X62.303 Y60.137 E.01677
G1 X48.012 Y45.846 E.6346
G1 X47.478 Y45.846 E.01677
G1 X61.769 Y60.137 E.6346
G1 X61.235 Y60.137 E.01677
G1 X46.944 Y45.846 E.6346
G1 X46.41 Y45.846 E.01677
G1 X60.701 Y60.137 E.6346
G1 X60.167 Y60.137 E.01677
G1 X45.876 Y45.846 E.6346
G1 X45.342 Y45.846 E.01677
G1 X59.633 Y60.137 E.6346
G1 X59.099 Y60.137 E.01677
G1 X44.808 Y45.846 E.6346
G1 X44.274 Y45.846 E.01677
G1 X58.565 Y60.137 E.6346
G1 X58.03 Y60.137 E.0168
G1 X43.739 Y45.846 E.6346
G1 X43.205 Y45.846 E.01677
G1 X57.496 Y60.137 E.6346
G1 X56.962 Y60.137 E.01677
G1 X42.671 Y45.846 E.6346
G1 X42.137 Y45.846 E.01677
G1 X56.428 Y60.137 E.6346
G1 X55.894 Y60.137 E.01677
G1 X41.603 Y45.846 E.6346
G1 X41.069 Y45.846 E.01677
G1 X55.36 Y60.137 E.6346
G1 X54.826 Y60.137 E.01677
G1 X40.535 Y45.846 E.6346
G1 X40.001 Y45.846 E.01677
G1 X54.292 Y60.137 E.6346
G1 X53.758 Y60.137 E.01677
G1 X39.467 Y45.846 E.6346
G1 X38.933 Y45.846 E.01677
G1 X53.224 Y60.137 E.6346
G1 X52.69 Y60.137 E.01677
G1 X38.399 Y45.846 E.6346
G1 X37.865 Y45.846 E.01677
G1 X52.156 Y60.137 E.6346
G1 X51.622 Y60.137 E.01677
G1 X37.331 Y45.846 E.6346
G1 X36.797 Y45.846 E.01677
G1 X51.088 Y60.137 E.6346
G1 X50.554 Y60.137 E.01677
G1 X36.263 Y45.846 E.6346
G1 X35.729 Y45.846 E.01677
G1 X50.02 Y60.137 E.6346
G1 X49.486 Y60.137 E.01677
G1 X35.195 Y45.846 E.6346
G1 X34.661 Y45.846 E.01677
G1 X48.952 Y60.137 E.6346
G1 X48.418 Y60.137 E.01677
G1 X34.127 Y45.846 E.6346
G1 X33.593 Y45.846 E.01677
G1 X47.884 Y60.137 E.6346
G1 X47.35 Y60.137 E.01677
G1 X33.059 Y45.846 E.6346
G1 X32.525 Y45.846 E.01677
G1 X46.816 Y60.137 E.6346
G1 X46.282 Y60.137 E.01677
G1 X31.991 Y45.846 E.6346
G1 X31.457 Y45.846 E.01677
G1 X45.748 Y60.137 E.6346
G1 X45.213 Y60.137 E.0168
G1 X30.922 Y45.846 E.6346
G1 X30.904 Y45.846 E.00057
G1 X30.904 Y46.362 E.0162
G1 X44.679 Y60.137 E.61169
G1 X44.145 Y60.137 E.01677
G1 X30.904 Y46.896 E.58798
G1 X30.904 Y47.43 E.01677
G1 X43.611 Y60.137 E.56426
G1 X43.077 Y60.137 E.01677
G1 X30.904 Y47.964 E.54055
G1 X30.904 Y48.498 E.01677
G1 X42.543 Y60.137 E.51684
G1 X42.009 Y60.137 E.01677
G1 X30.904 Y49.032 E.49313
G1 X30.904 Y49.566 E.01677
G1 X41.475 Y60.137 E.46941
G1 X40.941 Y60.137 E.01677
G1 X30.904 Y50.1 E.4457
G1 X30.904 Y50.634 E.01677
G1 X40.407 Y60.137 E.42199
G1 X39.873 Y60.137 E.01677
G1 X30.904 Y51.168 E.39827
G1 X30.904 Y51.702 E.01677
G1 X39.339 Y60.137 E.37456
G1 X38.805 Y60.137 E.01677
G1 X30.904 Y52.236 E.35085
G1 X30.904 Y52.77 E.01677
G1 X38.271 Y60.137 E.32714
G1 X37.737 Y60.137 E.01677
G1 X30.904 Y53.304 E.30342
G1 X30.904 Y53.838 E.01677
G1 X37.203 Y60.137 E.27971
G1 X36.669 Y60.137 E.01677
G1 X30.904 Y54.372 E.256
G1 X30.904 Y54.906 E.01677
G1 X36.135 Y60.137 E.23229
G1 X35.601 Y60.137 E.01677
G1 X30.904 Y55.44 E.20857
