; generated by PrusaSlicer 2.6.0+MacOS-arm64 on 2023-07-28 at 21:54:25 UTC

; 

; external perimeters extrusion width = 0.42mm
; perimeters extrusion width = 0.44mm
; infill extrusion width = 0.44mm
; solid infill extrusion width = 0.44mm
; top infill extrusion width = 0.40mm
; support material extrusion width = 0.36mm
; first layer extrusion width = 0.42mm

M201 X3500 Y3500 Z150 E5000 ; sets maximum accelerations, mm/sec^2
M203 X500 Y500 Z10 E60 ; sets maximum feedrates, mm / sec
M204 S3500 T1000 ; sets acceleration (S) and retract acceleration (R), mm/sec^2
M205 X8.00 Y8.00 Z0.40 E5.00 ; sets the jerk limits, mm/sec
M205 S0 T0 ; sets the minimum extruding and travel feed rate, mm/sec
;TYPE:Custom
G90 ; use absolute coordinates
M83 ; extruder relative mode
M104 S150 ; set temporary nozzle temp to prevent oozing during homing
M140 S60 ; set final bed temp
G4 S30 ; allow partial nozzle warmup
G28 ; home all axis
G1 Z50 F240
G1 X2.0 Y10 F3000
M104 S205 ; set final nozzle temp
M190 S60 ; wait for bed temp to stabilize
M109 S205 ; wait for nozzle temp to stabilize
G1 Z0.28 F240
G92 E0
G1 X2.0 Y140 E10 F1500 ; prime the nozzle
G1 X2.3 Y140 F5000
G92 E0
G1 X2.3 Y10 E10 F1200 ; prime the nozzle
G92 E0
G21 ; set units to millimeters
G90 ; use absolute coordinates
M83 ; use relative distances for extrusion
; Filament gcode
M107
;LAYER_CHANGE
;Z:0.2
;HEIGHT:0.2
;BEFORE_LAYER_CHANGE
G92 E0
;0.2


G1 E-3.5 F4800
G1 Z.2 F54000
;AFTER_LAYER_CHANGE
;0.2
G1 X83.449 Y32.329
G1 E3.5 F2400
M204 S3500
;TYPE:Skirt/Brim
;WIDTH:0.42
G1 F1200
G1 X84.112 Y30.715 E.05471
G1 X85.054 Y29.244 E.05477
G1 X85.805 Y28.385 E.03578
G1 X87.136 Y27.254 E.05476
G1 X87.629 Y26.927 E.01855
G1 X103.623 Y18.243 E.57063
G1 X105.267 Y17.651 E.05479
G1 X105.858 Y17.516 E.01901
G1 X106.99 Y17.362 E.03582
G1 X108.737 Y17.386 E.05478
G1 X110.452 Y17.722 E.05479
G1 X111.028 Y17.909 E.01899
G1 X112.584 Y18.628 E.05374
G1 X122.919 Y25.308 E.38584
G1 X124.346 Y26.315 E.05476
G1 X125.569 Y27.56 E.05472
G1 X126.24 Y28.483 E.03578
G1 X127.046 Y30.032 E.05475
G1 X127.562 Y31.699 E.05471
G1 X127.773 Y33.432 E.05474
G1 X127.773 Y34.037 E.01897
G1 X127.603 Y35.606 E.04948
G1 X121.146 Y64.568 E.93038
G1 X120.801 Y65.836 E.0412
G1 X120.09 Y67.437 E.05493
G1 X119.778 Y67.958 E.01904
G1 X118.703 Y69.341 E.05492
G1 X117.398 Y70.509 E.05491
G1 X116.029 Y71.369 E.05069
G1 X109.739 Y74.311 E.21772
G1 X108.016 Y74.81 E.05624
G1 X106.337 Y74.969 E.05288
G1 X104.954 Y74.87 E.04347
G1 X103.332 Y74.479 E.05231
G1 X101.689 Y73.737 E.05652
G1 X101.131 Y73.39 E.0206
G1 X99.99 Y72.498 E.04541
G1 X95.256 Y68.155 E.20143
G1 X94.318 Y67.085 E.04462
G1 X93.655 Y66.151 E.03591
G1 X93.145 Y65.204 E.03372
G1 X92.634 Y63.957 E.04225
G1 X83.429 Y38.035 E.86249
G1 X83.084 Y36.385 E.05285
G1 X83.03 Y34.64 E.05474
G1 X83.288 Y32.913 E.05475
G1 X83.433 Y32.387 E.01711
; printing object KlackEnderPro2 Probe Retainer v0.5.stl id:0 copy 0
G1 E-2.45 F4800
;WIPE_START
G1 F43200
G1 X84.112 Y30.715 E-.19049
G1 X85.054 Y29.244 E-.18438
G1 X85.805 Y28.385 E-.12044
G1 X87.136 Y27.254 E-.18437
G1 X87.629 Y26.927 E-.06245
G1 X90.192 Y25.535 E-.30787
;WIPE_END
G1 X107.949 Y20.731 F54000
G1 E3.5 F2400
;TYPE:Support material
G1 F1200
G1 X108.586 Y20.76 E.01999
G1 X109.7 Y21.014 E.03583
G1 X110.751 Y21.464 E.03585
G1 X111.704 Y22.094 E.03582
G1 X112.529 Y22.884 E.03581
G1 X113.2 Y23.809 E.03583
G1 X113.695 Y24.838 E.0358
G1 X113.998 Y25.94 E.03583
G1 X114.099 Y27.077 E.03579
G1 X113.996 Y28.214 E.0358
G1 X113.902 Y28.551 E.01097
G1 X114.157 Y28.72 E.00959
G1 X114.533 Y28.42 E.01508
G1 X115.539 Y27.879 E.03581
G1 X116.624 Y27.526 E.03577
G1 X117.756 Y27.373 E.03582
G1 X118.896 Y27.424 E.03578
G1 X120.009 Y27.678 E.03579
G1 X121.059 Y28.127 E.03581
G1 X122.012 Y28.756 E.0358
G1 X122.837 Y29.545 E.03579
G1 X123.508 Y30.468 E.03578
G1 X124.003 Y31.497 E.0358
G1 X124.307 Y32.597 E.03578
G1 X124.409 Y33.734 E.03579
G1 X124.307 Y34.872 E.03582
G1 X124.003 Y35.972 E.03578
G1 X123.508 Y37.001 E.0358
G1 X122.837 Y37.924 E.03578
G1 X122.012 Y38.713 E.03579
G1 X121.059 Y39.342 E.0358
G1 X120.009 Y39.791 E.03581
G1 X118.896 Y40.045 E.03579
G1 X118.557 Y40.06 E.01064
G1 X118.466 Y41.071 E.03183
G1 X118.162 Y42.17 E.03575
G1 X117.668 Y43.198 E.03576
G1 X116.998 Y44.12 E.03574
G1 X116.615 Y44.487 E.01663
G1 X117.178 Y45.176 E.0279
G1 X117.75 Y46.198 E.03672
G1 X118.072 Y47.107 E.03024
G1 X118.192 Y47.658 E.01768
G1 X118.239 Y48.801 E.03587
G1 X118.109 Y49.96 E.03657
G1 X117.888 Y50.996 E.03321
G1 X117.53 Y51.895 E.03034
G1 X117.455 Y52.03 E.00484
G1 X117.737 Y52.613 E.02031
G1 X118.042 Y53.716 E.03588
G1 X118.146 Y54.855 E.03586
G1 X118.044 Y55.995 E.03589
G1 X117.74 Y57.099 E.0359
G1 X117.243 Y58.13 E.03589
G1 X116.672 Y58.913 E.03039
G1 X117.041 Y59.418 E.01961
G1 X117.54 Y60.448 E.03589
G1 X117.847 Y61.551 E.0359
G1 X117.952 Y62.692 E.03593
G1 X117.85 Y63.833 E.03592
G1 X117.545 Y64.938 E.03594
G1 X117.048 Y65.97 E.03591
G1 X116.373 Y66.896 E.03593
G1 X115.544 Y67.687 E.03593
G1 X114.587 Y68.315 E.03589
G1 X113.532 Y68.762 E.03593
G1 X112.416 Y69.013 E.03587
G1 X111.273 Y69.06 E.03587
G1 X111.156 Y69.044 E.0037
G1 X110.562 Y69.791 E.02992
G1 X110.117 Y70.178 E.01849
G1 X109.667 Y70.552 E.01835
G1 X108.685 Y71.102 E.03529
G1 X107.6 Y71.459 E.03581
G1 X106.497 Y71.596 E.03485
G1 X105.858 Y71.566 E.02006
G1 X105.285 Y71.509 E.01805
G1 X104.216 Y71.219 E.03473
G1 X103.186 Y70.71 E.03602
G1 X102.273 Y70.01 E.03607
G1 X101.552 Y69.189 E.03426
G1 X101.215 Y68.66 E.01967
G1 X100.946 Y68.149 E.01811
G1 X100.74 Y67.631 E.01748
G1 X100.645 Y67.307 E.01059
G1 X100.207 Y67.22 E.014
G1 X99.266 Y66.843 E.03178
G1 X98.365 Y66.316 E.03273
G1 X97.539 Y65.666 E.03296
G1 X96.9 Y64.908 E.03108
G1 X96.586 Y64.474 E.0168
G1 X96.266 Y63.914 E.02022
G1 X95.817 Y62.827 E.03688
G1 X95.644 Y61.878 E.03025
G1 X95.557 Y60.973 E.02851
G1 X95.687 Y59.785 E.03747
G1 X95.967 Y58.752 E.03356
G1 X96.249 Y58.121 E.02167
G1 X96.49 Y57.665 E.01617
G1 X96.982 Y56.957 E.02703
G1 X97.122 Y56.806 E.00646
G1 X96.579 Y56.185 E.02586
G1 X95.992 Y55.204 E.03584
G1 X95.59 Y54.134 E.03584
G1 X95.386 Y53.009 E.03585
G1 X95.386 Y51.866 E.03584
G1 X95.59 Y50.741 E.03585
G1 X95.992 Y49.672 E.03581
G1 X96.053 Y49.57 E.00373
G1 X95.997 Y49.476 E.00343
G1 X95.595 Y48.406 E.03584
G1 X95.39 Y47.281 E.03585
G1 X95.39 Y46.138 E.03584
G1 X95.595 Y45.013 E.03585
G1 X96.013 Y43.901 E.03725
G1 X95.595 Y42.79 E.03722
G1 X95.391 Y41.666 E.03582
G1 X95.391 Y40.977 E.0216
G1 X94.718 Y41.265 E.02295
G1 X93.605 Y41.52 E.0358
G1 X92.465 Y41.571 E.03578
G1 X91.334 Y41.418 E.03578
G1 X90.248 Y41.065 E.0358
G1 X89.242 Y40.525 E.0358
G1 X88.35 Y39.813 E.03579
G1 X87.598 Y38.953 E.03582
G1 X87.013 Y37.974 E.03576
G1 X86.611 Y36.905 E.03581
G1 X86.407 Y35.781 E.03582
G1 X86.407 Y34.639 E.03581
G1 X86.611 Y33.516 E.03579
G1 X87.012 Y32.447 E.0358
G1 X87.597 Y31.466 E.03581
G1 X88.349 Y30.606 E.03582
G1 X89.241 Y29.894 E.03579
G1 X90.247 Y29.353 E.03581
G1 X91.333 Y29.001 E.03579
G1 X92.465 Y28.847 E.03582
G1 X93.605 Y28.899 E.03578
G1 X94.718 Y29.153 E.03579
G1 X95.768 Y29.602 E.03581
G1 X96.226 Y29.904 E.0172
G1 X96.462 Y29.509 E.01443
G1 X97.213 Y28.65 E.03578
G1 X98.106 Y27.938 E.03581
G1 X99.111 Y27.397 E.03579
G1 X100.196 Y27.045 E.03576
G1 X101.388 Y26.884 E.03771
G1 X101.388 Y26.506 E.01185
G1 X101.591 Y25.383 E.03578
G1 X101.991 Y24.313 E.03582
G1 X102.576 Y23.332 E.03581
G1 X103.327 Y22.471 E.03582
G1 X104.219 Y21.758 E.0358
G1 X105.225 Y21.216 E.03583
G1 X106.312 Y20.862 E.03584
G1 X107.444 Y20.709 E.03582
G1 X107.892 Y20.729 E.01406
G1 X113.844 Y30.708 F54000
G1 F1200
G1 X114.123 Y30.708 E.00875
G1 X114.393 Y30.978 E.01197
G1 X114.393 Y35.709 E.14834
G1 X114.123 Y35.98 E.01199
G1 X108.035 Y35.98 E.19088
G1 X108.053 Y61.004 E.78461
G1 X108.029 Y61.146 E.00452
G1 X107.95 Y61.375 E.0076
G1 X107.767 Y61.641 E.01012
G1 X107.591 Y61.813 E.00772
G1 X107.304 Y61.855 E.00909
G1 X107.22 Y61.813 E.00294
G1 X106.656 Y61.843 E.01771
G1 X106.199 Y61.819 E.01435
G1 X105.859 Y61.693 E.01137
G1 X105.693 Y61.524 E.00743
G1 X105.553 Y60.996 E.01713
G1 X105.549 Y46.914 E.44153
G1 X105.594 Y30.977 E.4997
G1 X105.864 Y30.708 E.01195
G1 X113.788 Y30.708 E.24845
G1 X123.995 Y35.363 F54000
G1 F1200
G1 X123.995 Y32.919 E.07663
G1 X123.972 Y32.658 E.00822
G1 X123.684 Y31.617 E.03387
G1 X123.576 Y31.392 E.00783
G1 X123.576 Y36.077 E.14689
G1 X123.215 Y36.826 E.02607
G1 X123.157 Y36.906 E.0031
G1 X123.157 Y30.563 E.19888
G1 X122.738 Y29.986 E.02236
G1 X122.738 Y37.483 E.23506
G1 X122.58 Y37.7 E.00842
G1 X122.319 Y37.95 E.01133
G1 X122.319 Y29.519 E.26435
G1 X121.9 Y29.119 E.01816
G1 X121.9 Y38.35 E.28943
G1 X121.799 Y38.447 E.00439
G1 X121.481 Y38.657 E.01195
G1 X121.481 Y28.812 E.30868
G1 X121.062 Y28.536 E.01573
G1 X121.062 Y38.933 E.32599
G1 X120.898 Y39.042 E.00617
G1 X120.643 Y39.151 E.0087
G1 X120.643 Y28.318 E.33966
G1 X120.224 Y28.139 E.01429
G1 X120.224 Y39.33 E.35089
G1 X119.904 Y39.467 E.01091
G1 X119.805 Y39.489 E.00318
G1 X119.805 Y27.98 E.36086
G1 X119.387 Y27.884 E.01345
G1 X119.387 Y39.585 E.36688
G1 X118.968 Y39.68 E.01347
G1 X118.968 Y27.788 E.37287
G1 X118.85 Y27.762 E.00379
G1 X118.549 Y27.748 E.00945
G1 X118.549 Y39.721 E.37541
G1 X118.246 Y39.734 E.00951
G1 X118.13 Y41.014 E.0403
G1 X118.13 Y27.729 E.41654
G1 X117.711 Y27.721 E.01314
G1 X117.711 Y42.326 E.45793
G1 X117.375 Y43.023 E.02426
G1 X117.292 Y43.138 E.00445
G1 X117.292 Y27.778 E.4816
G1 X116.873 Y27.835 E.01326
G1 X116.873 Y43.716 E.49794
G1 X116.741 Y43.896 E.007
G1 X116.454 Y44.172 E.01248
G1 X116.454 Y27.938 E.50901
G1 X116.035 Y28.074 E.01381
G1 X116.035 Y66.75 E1.21266
G1 X115.616 Y67.149 E.01814
G1 X115.616 Y28.223 E1.2205
G1 X115.197 Y28.448 E.01491
G1 X115.197 Y67.509 E1.22473
G1 X114.778 Y67.784 E.01571
G1 X114.778 Y28.674 E1.22627
G1 X114.359 Y28.993 E.01651
G1 X114.359 Y30.464 E.04612
G1 X114.263 Y30.368 E.00426
G1 X113.94 Y30.368 E.01013
G1 X113.94 Y28.78 E.04979
G1 X117.711 Y56.566 F54000
G1 F1200
G1 X117.707 Y53.777 E.08745
G1 X117.418 Y52.733 E.03396
G1 X117.292 Y52.472 E.00909
G1 X117.292 Y57.246 E.14969
G1 X116.95 Y57.955 E.02468
G1 X116.873 Y58.061 E.00411
G1 X116.873 Y45.339 E.39889
G1 X116.454 Y44.826 E.02077
G1 X116.454 Y66.209 E.67045
G1 X116.755 Y65.795 E.01605
G1 X116.873 Y65.552 E.00847
G1 X116.873 Y59.849 E.17881
G1 X117.222 Y60.568 E.02506
G1 X117.292 Y60.82 E.0082
G1 X117.292 Y65.073 E.13335
G1 E-2.45 F4800
;WIPE_START
G1 F43200
G1 X117.292 Y60.82 E-.44893
G1 X117.222 Y60.568 E-.02761
G1 X116.873 Y59.849 E-.08436
G1 X116.873 Y64.483 E-.4891
;WIPE_END
G1 X117.711 Y50.984 F54000
G1 E3.5 F2400
G1 F1200
G1 X117.711 Y47.103 E.12169
G1 X117.44 Y46.339 E.02542
G1 X117.292 Y46.075 E.00949
G1 X117.292 Y51.974 E.18496
G1 X114.359 Y68.228 F54000
G1 F1200
G1 X114.359 Y36.223 E1.00349
G1 X114.263 Y36.319 E.00426
G1 X113.94 Y36.319 E.01013
G1 X113.94 Y68.221 E1.00026
G1 X113.521 Y68.399 E.01427
G1 X113.521 Y36.319 E1.00585
G1 X113.102 Y36.319 E.01314
G1 X113.102 Y68.511 E1.00936
G1 X112.683 Y68.606 E.01347
G1 X112.683 Y36.319 E1.01234
G1 X112.264 Y36.319 E.01314
G1 X112.264 Y68.68 E1.01466
G1 X111.845 Y68.697 E.01315
G1 X111.845 Y36.319 E1.01519
G1 X111.426 Y36.319 E.01314
G1 X111.426 Y68.714 E1.01572
G1 X111.29 Y68.72 E.00427
G1 X111.007 Y68.686 E.00894
G1 X111.007 Y36.319 E1.01484
G1 X110.588 Y36.319 E.01314
G1 X110.588 Y69.213 E1.03137
G1 X110.315 Y69.555 E.01372
G1 X110.169 Y69.683 E.00609
G1 X110.169 Y36.319 E1.0461
G1 X109.75 Y36.319 E.01314
G1 X109.75 Y70.042 E1.05736
G1 X109.474 Y70.271 E.01124
G1 X109.331 Y70.351 E.00514
G1 X109.331 Y36.319 E1.06705
G1 X108.912 Y36.319 E.01314
G1 X108.912 Y70.586 E1.07442
G1 X108.493 Y70.808 E.01487
G1 X108.493 Y36.319 E1.08138
G1 X108.374 Y36.319 E.00373
G1 X108.394 Y60.985 E.77339
G1 X108.355 Y61.241 E.00812
G1 X108.26 Y61.517 E.00915
G1 X108.074 Y61.792 E.01041
G1 X108.074 Y70.946 E.28702
G1 X107.655 Y71.084 E.01383
G1 X107.655 Y62.147 E.28021
G1 X107.236 Y62.201 E.01325
G1 X107.236 Y71.162 E.28097
G1 X106.817 Y71.214 E.01324
G1 X106.817 Y62.174 E.28344
G1 X106.398 Y62.17 E.01314
G1 X106.398 Y71.252 E.28476
G1 X105.979 Y71.232 E.01315
G1 X105.979 Y62.108 E.28608
G1 X105.875 Y62.053 E.00369
G1 X105.677 Y61.993 E.00649
G1 X105.56 Y61.873 E.00525
G1 X105.56 Y71.195 E.29228
G1 X105.346 Y71.174 E.00674
G1 X105.141 Y71.119 E.00665
G1 X105.141 Y21.647 E1.55116
G1 X105.359 Y21.529 E.00777
G1 X105.56 Y21.464 E.00662
G1 X105.56 Y30.531 E.28429
G1 X105.724 Y30.368 E.00725
G1 X105.979 Y30.368 E.008
G1 X105.979 Y21.328 E.28344
G1 X106.398 Y21.193 E.0138
G1 X106.398 Y30.368 E.28768
G1 X106.817 Y30.368 E.01314
G1 X106.817 Y21.136 E.28946
G1 X107.236 Y21.08 E.01325
G1 X107.236 Y30.368 E.29122
G1 X107.655 Y30.368 E.01314
G1 X107.655 Y21.058 E.29191
G1 X108.074 Y21.077 E.01315
G1 X108.074 Y30.368 E.29131
G1 X108.493 Y30.368 E.01314
G1 X108.493 Y21.096 E.29072
G1 X108.912 Y21.183 E.01342
G1 X108.912 Y30.368 E.28799
G1 X109.331 Y30.368 E.01314
G1 X109.331 Y21.278 E.28501
G1 X109.595 Y21.338 E.00849
G1 X109.75 Y21.405 E.00529
G1 X109.75 Y30.368 E.28103
G1 X110.169 Y30.368 E.01314
G1 X110.169 Y21.584 E.27542
G1 X110.588 Y21.763 E.01429
G1 X110.588 Y30.368 E.2698
G1 X111.007 Y30.368 E.01314
G1 X111.007 Y22.04 E.26112
G1 X111.426 Y22.317 E.01575
G1 X111.426 Y30.368 E.25243
G1 X111.845 Y30.368 E.01314
G1 X111.845 Y22.698 E.24049
G1 X112.264 Y23.099 E.01818
G1 X112.264 Y30.368 E.22791
G1 X112.683 Y30.368 E.01314
G1 X112.683 Y23.673 E.20992
G1 X112.908 Y23.983 E.01201
G1 X113.102 Y24.387 E.01405
G1 X113.102 Y30.368 E.18753
G1 X113.521 Y30.368 E.01314
G1 X113.521 Y24.867 E.17248
G1 E-2.45 F4800
;WIPE_START
G1 F43200
G1 X113.521 Y30.368 E-.58066
G1 X113.102 Y30.368 E-.04423
G1 X113.102 Y26.341 E-.42511
;WIPE_END
G1 X104.722 Y71.181 F54000
G1 E3.5 F2400
G1 F1200
G1 X104.722 Y21.873 E1.54602
G1 X104.407 Y22.042 E.01121
G1 X104.303 Y22.125 E.00417
G1 X104.303 Y70.884 E1.5288
G1 X103.884 Y70.677 E.01465
G1 X103.884 Y22.46 E1.51181
G1 X103.562 Y22.717 E.01292
G1 X103.465 Y22.828 E.00462
G1 X103.465 Y70.47 E1.49378
G1 X103.367 Y70.421 E.00344
G1 X103.046 Y70.175 E.01268
G1 X103.046 Y23.309 E1.46945
G1 X102.852 Y23.532 E.00927
G1 X102.627 Y23.908 E.01374
G1 X102.627 Y69.854 E1.4406
G1 X102.506 Y69.761 E.00478
G1 X102.208 Y69.422 E.01415
G1 X102.208 Y24.7 E1.40223
G1 X101.919 Y25.473 E.02588
G1 X101.789 Y26.192 E.02291
G1 X101.789 Y68.93 E1.34002
G1 X101.508 Y68.49 E.01637
G1 X101.371 Y68.228 E.00927
G1 X101.371 Y27.228 E1.28553
G1 X100.952 Y27.285 E.01326
G1 X100.952 Y67.147 E1.24985
G1 X100.912 Y67.014 E.00435
G1 X100.533 Y66.939 E.01211
G1 X100.533 Y27.342 E1.24154
G1 X100.272 Y27.377 E.00826
G1 X100.114 Y27.429 E.00522
G1 X100.114 Y66.817 E1.23498
G1 X99.695 Y66.649 E.01415
G1 X99.695 Y27.565 E1.22545
G1 X99.276 Y27.701 E.01381
G1 X99.276 Y66.461 E1.21529
G1 X98.857 Y66.217 E.0152
G1 X98.857 Y27.919 E1.20081
G1 X98.438 Y28.145 E.01493
G1 X98.438 Y65.941 E1.18507
G1 X98.019 Y65.612 E.0167
G1 X98.019 Y28.441 E1.16547
G1 X97.6 Y28.775 E.0168
G1 X97.6 Y65.212 E1.14246
G1 X97.181 Y64.715 E.02038
G1 X97.181 Y57.267 E.23353
G1 X96.762 Y57.877 E.0232
G1 X96.762 Y64.097 E.19502
G1 X96.571 Y63.764 E.01204
G1 X96.343 Y63.211 E.01875
G1 X96.343 Y58.744 E.14006
G1 X96.288 Y58.867 E.00422
G1 X96.022 Y59.848 E.03187
G1 X95.924 Y60.743 E.02823
G1 X95.924 Y62.468 E.05409
G1 X97.181 Y56.615 F54000
G1 F1200
G1 X97.181 Y29.202 E.85952
G1 X96.762 Y29.681 E.01995
G1 X96.762 Y55.83 E.81988
G1 X96.343 Y55.129 E.02561
G1 X96.343 Y30.369 E.77633
G1 X96.335 Y30.383 E.00051
G1 X95.924 Y30.112 E.01544
G1 X95.924 Y42.699 E.39466
G1 X95.731 Y41.635 E.03391
G1 X95.731 Y40.463 E.03675
G1 X95.505 Y40.56 E.00771
G1 X95.505 Y29.859 E.33552
G1 X95.086 Y29.679 E.0143
G1 X95.086 Y40.739 E.34678
G1 X94.667 Y40.918 E.01429
G1 X94.667 Y29.5 E.358
G1 X94.248 Y29.394 E.01355
G1 X94.248 Y41.025 E.36468
G1 X93.829 Y41.12 E.01347
G1 X93.829 Y29.298 E.37067
G1 X93.559 Y29.237 E.00868
G1 X93.41 Y29.23 E.00468
G1 X93.41 Y41.189 E.37497
G1 X92.991 Y41.207 E.01315
G1 X92.991 Y29.211 E.37613
G1 X92.572 Y29.192 E.01315
G1 X92.572 Y41.226 E.37732
G1 X92.48 Y41.231 E.00289
G1 X92.153 Y41.186 E.01035
G1 X92.153 Y29.232 E.37481
