; generated by PrusaSlicer 2.6.0+MacOS-arm64 on 2023-07-23 at 15:39:53 UTC

; 

; external perimeters extrusion width = 0.42mm
; perimeters extrusion width = 0.44mm
; infill extrusion width = 0.44mm
; solid infill extrusion width = 0.44mm
; top infill extrusion width = 0.40mm
; first layer extrusion width = 0.42mm

M201 X1500 Y1500 Z150 E5000 ; sets maximum accelerations, mm/sec^2
M203 X500 Y500 Z10 E60 ; sets maximum feedrates, mm / sec
M204 S1500 T1000 ; sets acceleration (S) and retract acceleration (R), mm/sec^2
M205 X8.00 Y8.00 Z0.40 E5.00 ; sets the jerk limits, mm/sec
M205 S0 T0 ; sets the minimum extruding and travel feed rate, mm/sec
;TYPE:Custom
G90 ; use absolute coordinates
M83 ; extruder relative mode
M104 S150 ; set temporary nozzle temp to prevent oozing during homing
M140 S60 ; set final bed temp
G4 S30 ; allow partial nozzle warmup
G28 ; home all axis
G1 Z50 F240
G1 X2.0 Y10 F3000
M104 S205 ; set final nozzle temp
M190 S60 ; wait for bed temp to stabilize
M109 S205 ; wait for nozzle temp to stabilize
G1 Z0.28 F240
G92 E0
G1 X2.0 Y140 E10 F1500 ; prime the nozzle
G1 X2.3 Y140 F5000
G92 E0
G1 X2.3 Y10 E10 F1200 ; prime the nozzle
G92 E0
G21 ; set units to millimeters
G90 ; use absolute coordinates
M83 ; use relative distances for extrusion
; Filament gcode
M107
;LAYER_CHANGE
;Z:0.2
;HEIGHT:0.2
;BEFORE_LAYER_CHANGE
G92 E0
;0.2


G1 E-3.5 F4800
G1 Z.2 F54000
;AFTER_LAYER_CHANGE
;0.2
G1 X26.585 Y96.467
G1 E3.5 F2400
M204 S1500
;TYPE:Skirt/Brim
;WIDTH:0.42
G1 F1200
G1 X27.731 Y96.208 E.03684
G1 X28.888 Y96.104 E.03642
G1 X40.612 Y96.116 E.3676
G1 X42.227 Y96.354 E.05118
G1 X42.988 Y96.589 E.02497
G1 X44.074 Y97.069 E.03723
G1 X44.76 Y97.475 E.02499
G1 X45.9 Y98.387 E.04577
G1 X46.683 Y99.222 E.03589
G1 X47.501 Y100.391 E.04474
G1 X48.106 Y101.674 E.04448
G1 X48.533 Y103.257 E.05141
G1 X48.666 Y104.69 E.04512
G1 X48.666 Y132.984 E.88714
G1 X48.538 Y134.387 E.04417
G1 X48.142 Y135.903 E.04913
G1 X47.279 Y137.642 E.06087
G1 X46.765 Y138.352 E.02748
G1 X45.939 Y139.251 E.03828
G1 X44.76 Y140.199 E.04743
G1 X44.074 Y140.605 E.02499
G1 X42.988 Y141.085 E.03723
G1 X42.226 Y141.32 E.025
G1 X40.308 Y141.572 E.06065
G1 X28.923 Y141.572 E.35697
G1 X27.53 Y141.435 E.04389
G1 X26.453 Y141.166 E.03481
G1 X25.286 Y140.7 E.0394
G1 X24.232 Y140.097 E.03807
G1 X23.198 Y139.273 E.04146
G1 X22.373 Y138.41 E.03743
G1 X21.689 Y137.457 E.03678
G1 X21.108 Y136.343 E.03939
G1 X20.747 Y135.369 E.03257
G1 X20.489 Y134.224 E.0368
G1 X20.382 Y132.947 E.04018
G1 X20.382 Y104.643 E.88745
G1 X20.52 Y103.249 E.04392
G1 X20.788 Y102.173 E.03477
G1 X21.478 Y100.571 E.05469
G1 X22.141 Y99.554 E.03806
G1 X22.93 Y98.659 E.03741
G1 X23.545 Y98.092 E.02623
G1 X24.497 Y97.409 E.03674
G1 X25.611 Y96.828 E.03939
G1 X26.529 Y96.487 E.0307
G1 E-2.45 F4800
;WIPE_START
G1 F43200
G1 X27.731 Y96.208 E-.13025
G1 X28.888 Y96.104 E-.12262
G1 X36.44 Y96.112 E-.79713
;WIPE_END
G1 X27.512 Y100.068 F54000
G1 E3.5 F2400
G1 F1200
G1 X28.431 Y99.815 E.02989
G1 X40.827 Y99.818 E.38867
G1 X42.488 Y100.392 E.0551
G1 X43.407 Y101.08 E.03599
G1 X44.061 Y101.828 E.03115
G1 X44.664 Y102.952 E.03999
G1 X44.985 Y104.413 E.0469
G1 X44.992 Y107.11 E.08456
G1 X44.808 Y108.025 E.02926
G1 X44.719 Y108.239 E.00727
G1 X44.816 Y108.476 E.00803
G1 X45.003 Y109.479 E.03199
G1 X45.003 Y133.082 E.74006
G1 X44.644 Y134.782 E.05448
G1 X44.264 Y135.539 E.02656
G1 X43.76 Y136.229 E.02679
G1 X42.978 Y136.956 E.03348
G1 X41.898 Y137.561 E.03881
G1 X40.653 Y137.871 E.04023
G1 X28.761 Y137.897 E.37287
G1 X27.471 Y137.639 E.04125
G1 X26.147 Y136.957 E.0467
G1 X25.056 Y135.887 E.04791
G1 X24.341 Y134.556 E.04737
G1 X24.046 Y133.062 E.04775
G1 X24.057 Y104.48 E.89617
G1 X24.332 Y103.145 E.04274
G1 X24.984 Y101.885 E.04448
G1 X25.922 Y100.889 E.0429
G1 X27.081 Y100.186 E.0425
G1 X27.454 Y100.083 E.01213
G1 X27.551 Y100.442 F54000
G1 F1200
G1 X28.505 Y100.186 E.03097
G1 X40.733 Y100.184 E.3834
G1 X42.336 Y100.739 E.05319
G1 X43.137 Y101.344 E.03147
G1 X43.74 Y102.026 E.02854
G1 X44.319 Y103.106 E.03842
G1 X44.612 Y104.472 E.0438
G1 X44.615 Y107.091 E.08212
G1 X44.443 Y107.927 E.02676
G1 X44.304 Y108.238 E.01068
G1 X44.45 Y108.569 E.01134
G1 X44.626 Y109.497 E.02962
G1 X44.626 Y133.062 E.73886
G1 X44.296 Y134.635 E.05039
G1 X43.934 Y135.355 E.02527
G1 X43.467 Y135.991 E.02474
G1 X42.739 Y136.663 E.03106
G1 X41.738 Y137.219 E.0359
G1 X40.586 Y137.499 E.03717
G1 X28.779 Y137.52 E.3702
G1 X27.573 Y137.275 E.03859
G1 X26.347 Y136.636 E.04335
G1 X25.343 Y135.64 E.04434
G1 X24.688 Y134.405 E.04383
G1 X24.423 Y133.045 E.04344
G1 X24.434 Y104.499 E.89504
G1 X24.679 Y103.294 E.03855
G1 X25.278 Y102.123 E.04124
G1 X26.14 Y101.197 E.03967
G1 X27.253 Y100.522 E.04081
G1 X27.493 Y100.458 E.00779
G1 X27.587 Y100.817 F54000
G1 F1200
G1 X28.577 Y100.557 E.03209
G1 X40.64 Y100.551 E.37823
G1 X42.184 Y101.085 E.05122
G1 X42.868 Y101.608 E.027
G1 X43.418 Y102.225 E.02592
G1 X43.974 Y103.26 E.03684
G1 X44.239 Y104.529 E.04065
G1 X44.238 Y107.071 E.0797
G1 X44.079 Y107.825 E.02416
G1 X43.887 Y108.237 E.01425
G1 X44.084 Y108.665 E.01477
G1 X44.249 Y109.515 E.02715
G1 X44.249 Y133.042 E.73767
G1 X43.932 Y134.531 E.04773
G1 X43.606 Y135.169 E.02246
G1 X43.175 Y135.751 E.02271
G1 X42.502 Y136.37 E.02867
G1 X41.58 Y136.876 E.03298
G1 X40.521 Y137.127 E.03412
G1 X28.799 Y137.143 E.36754
G1 X27.675 Y136.911 E.03599
G1 X26.59 Y136.347 E.03834
G1 X25.661 Y135.436 E.0408
G1 X25.052 Y134.303 E.04033
G1 X24.8 Y133.026 E.04081
G1 X24.811 Y104.519 E.89382
G1 X25.043 Y103.396 E.03595
G1 X25.6 Y102.32 E.03799
G1 X26.396 Y101.476 E.03638
G1 X27.423 Y100.86 E.03755
G1 X27.529 Y100.832 E.00344
G1 X27.621 Y101.191 F54000
G1 F1200
G1 X28.647 Y100.928 E.03321
G1 X40.607 Y100.928 E.375
G1 X42.028 Y101.43 E.04725
G1 X42.599 Y101.873 E.02266
G1 X43.097 Y102.424 E.02329
G1 X43.628 Y103.413 E.0352
G1 X43.865 Y104.585 E.03749
G1 X43.861 Y107.05 E.07729
G1 X43.716 Y107.722 E.02156
G1 X43.467 Y108.236 E.01791
G1 X43.719 Y108.763 E.01832
G1 X43.872 Y109.534 E.02465
G1 X43.872 Y133.023 E.73648
G1 X43.585 Y134.382 E.04355
G1 X43.278 Y134.983 E.02116
G1 X42.884 Y135.511 E.02066
G1 X42.265 Y136.075 E.02626
G1 X41.424 Y136.532 E.03001
G1 X40.458 Y136.755 E.03108
G1 X28.818 Y136.766 E.36496
G1 X27.779 Y136.547 E.03329
G1 X26.792 Y136.027 E.03498
G1 X25.947 Y135.189 E.03731
G1 X25.399 Y134.152 E.03678
G1 X25.177 Y133.008 E.03654
G1 X25.188 Y104.539 E.89263
G1 X25.406 Y103.5 E.03329
G1 X25.921 Y102.52 E.03471
G1 X26.65 Y101.755 E.03313
G1 X27.566 Y101.214 E.03336
G1 X27.756 Y101.539 F54000
G1 F1200
G1 X28.715 Y101.299 E.031
G1 X40.514 Y101.295 E.36995
G1 X41.823 Y101.748 E.04343
G1 X42.331 Y102.139 E.0201
G1 X42.801 Y102.659 E.02198
G1 X43.282 Y103.565 E.03216
G1 X43.488 Y104.602 E.03315
G1 X43.484 Y107.028 E.07607
G1 X43.353 Y107.616 E.01889
G1 X43.044 Y108.235 E.02169
G1 X43.355 Y108.864 E.022
G1 X43.495 Y109.553 E.02204
G1 X43.495 Y133.004 E.73529
G1 X43.238 Y134.233 E.03937
G1 X42.95 Y134.796 E.01983
G1 X42.594 Y135.27 E.01859
G1 X42.03 Y135.78 E.02384
G1 X41.269 Y136.187 E.02706
G1 X40.396 Y136.382 E.02805
G1 X28.837 Y136.389 E.36242
G1 X27.929 Y136.2 E.02908
G1 X27.034 Y135.737 E.03159
G1 X26.265 Y134.984 E.03375
G1 X25.763 Y134.051 E.03322
G1 X25.554 Y132.99 E.03391
G1 X25.565 Y104.558 E.89147
G1 X25.754 Y103.649 E.02911
G1 X26.213 Y102.76 E.03137
G1 X26.904 Y102.035 E.0314
G1 X27.704 Y101.569 E.02903
G1 X27.891 Y101.896 F54000
G1 F1200
G1 X28.781 Y101.671 E.02878
G1 X40.482 Y101.672 E.36688
G1 X41.619 Y102.066 E.03773
G1 X42.063 Y102.405 E.01752
G1 X42.505 Y102.893 E.02064
G1 X42.935 Y103.715 E.02909
G1 X43.111 Y104.62 E.02891
G1 X43.111 Y106.97 E.07368
G1 X43.005 Y107.47 E.01603
G1 X42.622 Y108.237 E.02688
G1 X42.991 Y108.966 E.02562
G1 X43.117 Y109.573 E.01944
G1 X43.117 Y132.984 E.73404
G1 X42.875 Y134.128 E.03666
G1 X42.624 Y134.606 E.01693
G1 X42.305 Y135.027 E.01656
G1 X41.796 Y135.483 E.02143
G1 X41.117 Y135.841 E.02407
G1 X40.337 Y136.01 E.02502
G1 X28.857 Y136.012 E.35995
G1 X28.034 Y135.837 E.02638
G1 X27.236 Y135.417 E.02827
G1 X26.552 Y134.738 E.03022
G1 X26.11 Y133.901 E.02968
G1 X25.931 Y132.972 E.02966
G1 X25.942 Y104.578 E.89027
G1 X26.117 Y103.754 E.02641
G1 X26.534 Y102.96 E.02812
G1 X27.156 Y102.317 E.02805
G1 X27.839 Y101.926 E.02468
G1 X28.023 Y102.254 F54000
G1 F1200
G1 X28.08 Y102.222 E.00205
G1 X28.845 Y102.043 E.02463
G1 X40.392 Y102.039 E.36205
G1 X41.417 Y102.386 E.03393
G1 X41.796 Y102.671 E.01487
G1 X42.21 Y103.129 E.01936
G1 X42.57 Y103.815 E.02429
G1 X42.734 Y104.64 E.02637
G1 X42.738 Y106.916 E.07136
G1 X42.656 Y107.325 E.01308
G1 X42.344 Y107.948 E.02185
G1 X42.079 Y108.241 E.01239
G1 X42.388 Y108.588 E.01457
G1 X42.642 Y109.108 E.01815
G1 X42.74 Y109.591 E.01545
G1 X42.74 Y132.964 E.73284
G1 X42.528 Y133.978 E.03248
G1 X42.314 Y134.391 E.01458
G1 X42.016 Y134.784 E.01546
G1 X41.564 Y135.185 E.01895
G1 X40.968 Y135.493 E.02103
G1 X40.28 Y135.637 E.02204
G1 X28.878 Y135.635 E.3575
G1 X28.14 Y135.475 E.02368
G1 X27.44 Y135.099 E.02491
G1 X26.841 Y134.494 E.02669
G1 X26.458 Y133.753 E.02615
G1 X26.308 Y132.956 E.02543
G1 X26.319 Y104.599 E.88911
G1 X26.479 Y103.86 E.02371
G1 X26.853 Y103.163 E.0248
G1 X27.405 Y102.601 E.0247
G1 X27.971 Y102.283 E.02036
G1 X28.152 Y102.612 F54000
G1 F1200
G1 X28.237 Y102.565 E.00305
G1 X28.906 Y102.416 E.02149
G1 X40.36 Y102.416 E.35913
G1 X41.217 Y102.707 E.02838
G1 X41.529 Y102.939 E.01219
G1 X41.913 Y103.363 E.01794
G1 X42.222 Y103.963 E.02116
G1 X42.357 Y104.658 E.0222
G1 X42.363 Y106.866 E.06923
G1 X42.306 Y107.182 E.01007
G1 X42.022 Y107.751 E.01994
G1 X41.549 Y108.235 E.02122
G1 X42.063 Y108.781 E.02351
G1 X42.292 Y109.251 E.01639
G1 X42.363 Y109.61 E.01147
G1 X42.363 Y132.946 E.73168
G1 X42.181 Y133.828 E.02824
G1 X41.987 Y134.202 E.01321
G1 X41.729 Y134.539 E.01331
G1 X41.334 Y134.885 E.01646
G1 X40.822 Y135.145 E.018
G1 X40.225 Y135.263 E.01908
G1 X28.899 Y135.258 E.35512
G1 X28.25 Y135.113 E.02085
G1 X27.648 Y134.783 E.02153
G1 X27.132 Y134.253 E.02319
G1 X26.807 Y133.609 E.02262
G1 X26.685 Y132.939 E.02135
G1 X26.696 Y104.62 E.88792
G1 X26.841 Y103.97 E.02088
G1 X27.17 Y103.369 E.02148
G1 X27.651 Y102.888 E.02133
G1 X28.1 Y102.641 E.01607
G1 X28.282 Y102.971 F54000
G1 F1200
G1 X28.393 Y102.91 E.00397
G1 X28.964 Y102.789 E.0183
G1 X40.329 Y102.793 E.35634
G1 X41.019 Y103.028 E.02285
G1 X41.263 Y103.206 E.00947
G1 X41.616 Y103.596 E.01649
G1 X41.873 Y104.108 E.01796
G1 X41.98 Y104.676 E.01812
G1 X41.986 Y106.848 E.0681
G1 X41.941 Y107.082 E.00747
G1 X41.701 Y107.55 E.01649
G1 X41.255 Y107.991 E.01967
G1 X40.883 Y108.235 E.01395
G1 X41.284 Y108.507 E.01519
G1 X41.738 Y108.974 E.02042
G1 X41.942 Y109.393 E.01461
G1 X41.986 Y109.627 E.00747
G1 X41.986 Y132.927 E.73056
G1 X41.834 Y133.68 E.02409
G1 X41.677 Y133.987 E.01081
G1 X41.442 Y134.294 E.01212
G1 X41.107 Y134.583 E.01387
G1 X40.68 Y134.795 E.01495
G1 X40.174 Y134.889 E.01614
G1 X28.92 Y134.881 E.35286
G1 X28.403 Y134.768 E.01659
G1 X27.893 Y134.496 E.01812
G1 X27.453 Y134.053 E.01958
G1 X27.172 Y133.511 E.01914
G1 X27.062 Y132.921 E.01882
G1 X27.074 Y104.64 E.88673
G1 X27.187 Y104.123 E.01659
G1 X27.459 Y103.612 E.01815
G1 X27.858 Y103.205 E.01787
G1 X28.229 Y103 E.01329
G1 X28.405 Y103.33 F54000
G1 F1200
G1 X28.544 Y103.256 E.00494
G1 X29.018 Y103.162 E.01515
G1 X40.297 Y103.17 E.35365
G1 X40.823 Y103.352 E.01745
G1 X40.998 Y103.476 E.00672
G1 X41.319 Y103.831 E.01501
G1 X41.508 Y104.205 E.01314
G1 X41.603 Y104.695 E.01565
G1 X41.609 Y106.828 E.06688
G1 X41.578 Y106.98 E.00486
G1 X41.414 Y107.303 E.01136
G1 X41.007 Y107.706 E.01796
G1 X40.907 Y107.768 E.00369
G1 X40.56 Y107.882 E.01145
G1 X34.82 Y107.882 E.17997
G1 X34.82 Y108.592 E.02226
G1 X40.56 Y108.592 E.17997
G1 X40.904 Y108.705 E.01135
G1 X41.034 Y108.79 E.00487
G1 X41.413 Y109.169 E.01681
G1 X41.59 Y109.533 E.01269
G1 X41.609 Y109.641 E.00344
G1 X41.609 Y132.909 E.72955
G1 X41.486 Y133.532 E.01991
G1 X41.349 Y133.799 E.00941
G1 X41.157 Y134.045 E.00978
G1 X40.883 Y134.279 E.0113
G1 X40.542 Y134.443 E.01186
G1 X40.127 Y134.515 E.01321
G1 X28.939 Y134.503 E.35079
G1 X28.552 Y134.421 E.0124
G1 X28.135 Y134.205 E.01472
G1 X27.77 Y133.848 E.01601
G1 X27.537 Y133.411 E.01553
G1 X27.439 Y132.903 E.01622
G1 X27.451 Y104.66 E.88554
G1 X27.534 Y104.272 E.01244
G1 X27.749 Y103.855 E.01471
G1 X28.106 Y103.49 E.01601
G1 X28.352 Y103.359 E.00874
G1 X28.522 Y103.691 F54000
G1 F1200
G1 X28.688 Y103.606 E.00585
G1 X29.068 Y103.536 E.01212
G1 X40.262 Y103.547 E.35098
G1 X40.663 Y103.694 E.01339
G1 X40.755 Y103.764 E.00362
G1 X40.998 Y104.029 E.01127
G1 X41.144 Y104.308 E.00987
G1 X41.226 Y104.716 E.01305
G1 X41.232 Y106.812 E.06572
G1 X41.123 Y107.062 E.00855
G1 X40.752 Y107.423 E.01623
G1 X40.525 Y107.505 E.00757
G1 X34.443 Y107.505 E.1907
G1 X34.443 Y108.969 E.0459
G1 X40.525 Y108.969 E.1907
G1 X40.779 Y109.069 E.00856
G1 X41.123 Y109.412 E.01523
G1 X41.226 Y109.63 E.00756
G1 X41.232 Y132.891 E.72933
G1 X41.136 Y133.389 E.0159
G1 X41.04 Y133.583 E.00679
G1 X40.873 Y133.797 E.00851
G1 X40.662 Y133.973 E.00862
G1 X40.41 Y134.089 E.0087
G1 X40.113 Y134.138 E.00944
G1 X28.959 Y134.126 E.34973
G1 X28.695 Y134.071 E.00846
G1 X28.376 Y133.914 E.01115
G1 X28.057 Y133.601 E.01401
G1 X27.886 Y133.266 E.01179
G1 X27.816 Y132.887 E.01208
G1 X27.828 Y104.679 E.88444
G1 X27.883 Y104.415 E.00846
G1 X28.04 Y104.096 E.01115
G1 X28.353 Y103.777 E.01401
G1 X28.468 Y103.718 E.00405
G1 X28.64 Y104.054 F54000
G1 F1200
G1 X28.833 Y103.955 E.0068
G1 X29.082 Y103.913 E.00792
G1 X40.226 Y103.924 E.34941
G1 X40.492 Y104.035 E.00904
G1 X40.701 Y104.263 E.0097
G1 X40.794 Y104.45 E.00655
G1 X40.852 Y104.765 E.01004
G1 X40.855 Y106.756 E.06243
G1 X40.826 Y106.825 E.00235
G1 X40.552 Y107.099 E.01215
G1 X40.483 Y107.128 E.00235
G1 X34.066 Y107.128 E.2012
G1 X34.066 Y109.346 E.06954
G1 X40.483 Y109.346 E.2012
G1 X40.552 Y109.375 E.00235
G1 X40.826 Y109.649 E.01215
G1 X40.855 Y109.718 E.00235
G1 X40.855 Y132.875 E.72607
G1 X40.785 Y133.251 E.01199
G1 X40.729 Y133.368 E.00407
G1 X40.59 Y133.547 E.00711
G1 X40.447 Y133.662 E.00575
G1 X40.284 Y133.733 E.00557
G1 X40.101 Y133.761 E.0058
G1 X28.978 Y133.749 E.34875
G1 X28.832 Y133.72 E.00467
G1 X28.609 Y133.616 E.00772
G1 X28.377 Y133.399 E.00996
G1 X28.235 Y133.121 E.00979
G1 X28.194 Y132.873 E.00788
G1 X28.205 Y104.698 E.88341
G1 X28.235 Y104.552 E.00467
G1 X28.339 Y104.328 E.00774
G1 X28.587 Y104.081 E.01097
G1 X28.769 Y104.409 F54000
G1 F1200
G1 X28.932 Y104.32 E.00582
G1 X29.099 Y104.29 E.00532
G1 X40.181 Y104.301 E.34747
G1 X40.254 Y104.333 E.0025
G1 X40.428 Y104.544 E.00858
G1 X40.478 Y104.816 E.00867
G1 X40.478 Y106.64 E.05719
G1 X40.367 Y106.75 E.0049
G1 X33.689 Y106.75 E.20938
G1 X33.689 Y109.723 E.09322
G1 X40.367 Y109.723 E.20938
G1 X40.478 Y109.834 E.00492
G1 X40.478 Y132.858 E.7219
G1 X40.415 Y133.158 E.00961
G1 X40.309 Y133.294 E.00541
G1 X40.199 Y133.365 E.00411
G1 X40.085 Y133.384 E.00362
G1 X28.997 Y133.372 E.34766
G1 X28.83 Y133.309 E.0056
G1 X28.689 Y133.185 E.00589
G1 X28.6 Y133.022 E.00582
G1 X28.571 Y132.855 E.00531
G1 X28.582 Y104.717 E.88225
G1 X28.645 Y104.55 E.0056
G1 X28.73 Y104.454 E.00402
; printing object Probe_Dock v0.2 h0.2.stl id:0 copy 0
G1 E-2.45 F4800
;WIPE_START
G1 F43200
G1 X28.932 Y104.32 E-.02559
G1 X29.099 Y104.29 E-.01791
G1 X38.634 Y104.299 E-1.0065
;WIPE_END
G1 X32.561 Y110.068 F54000
G1 E3.5 F2400
;TYPE:Perimeter
;WIDTH:0.419999
G1 F1200
G1 X32.599 Y110.273 E.00654
G1 X32.766 Y110.55 E.01014
G1 X32.984 Y110.736 E.00899
G1 X33.208 Y110.836 E.00769
G1 X33.479 Y110.876 E.00859
G1 X39.325 Y110.876 E.1833
G1 X39.325 Y113.666 E.08748
G1 X39.325 Y132.23 E.58206
G1 X29.724 Y132.22 E.30103
G1 X29.734 Y105.444 E.83954
G1 X32.8 Y105.447 E.09613
;WIDTH:0.461492
G1 X32.926 Y105.467 E.00444
;WIDTH:0.502984
G1 X33.051 Y105.488 E.00485
;WIDTH:0.544476
G1 X33.177 Y105.509 E.00533
;WIDTH:0.585968
G1 X33.303 Y105.53 E.00577
G1 X33.205 Y105.594 E.00529
;WIDTH:0.544476
G1 X33.108 Y105.658 E.00485
;WIDTH:0.502984
G1 X33.011 Y105.722 E.00445
;WIDTH:0.461492
G1 X32.913 Y105.786 E.00407
;WIDTH:0.419999
G1 X32.609 Y106.178 E.01555
G1 X32.536 Y106.54 E.01158
G1 X32.536 Y109.933 E.10638
G1 X32.55 Y110.009 E.00242
