; generated by PrusaSlicer 2.6.0+MacOS-arm64 on 2023-07-23 at 16:18:16 UTC

; 

; external perimeters extrusion width = 0.42mm
; perimeters extrusion width = 0.44mm
; infill extrusion width = 0.44mm
; solid infill extrusion width = 0.44mm
; top infill extrusion width = 0.40mm
; first layer extrusion width = 0.42mm

; external perimeters extrusion width = 0.42mm
; perimeters extrusion width = 0.44mm
; infill extrusion width = 0.44mm
; solid infill extrusion width = 0.44mm
; top infill extrusion width = 0.40mm
; first layer extrusion width = 0.42mm

M201 X1500 Y1500 Z150 E5000 ; sets maximum accelerations, mm/sec^2
M203 X500 Y500 Z10 E60 ; sets maximum feedrates, mm / sec
M204 S1500 T1000 ; sets acceleration (S) and retract acceleration (R), mm/sec^2
M205 X8.00 Y8.00 Z0.40 E5.00 ; sets the jerk limits, mm/sec
M205 S0 T0 ; sets the minimum extruding and travel feed rate, mm/sec
;TYPE:Custom
G90 ; use absolute coordinates
M83 ; extruder relative mode
M104 S150 ; set temporary nozzle temp to prevent oozing during homing
M140 S60 ; set final bed temp
G4 S30 ; allow partial nozzle warmup
G28 ; home all axis
G1 Z50 F240
G1 X2.0 Y10 F3000
M104 S205 ; set final nozzle temp
M190 S60 ; wait for bed temp to stabilize
M109 S205 ; wait for nozzle temp to stabilize
G1 Z0.28 F240
G92 E0
G1 X2.0 Y140 E10 F1500 ; prime the nozzle
G1 X2.3 Y140 F5000
G92 E0
G1 X2.3 Y10 E10 F1200 ; prime the nozzle
G92 E0
G21 ; set units to millimeters
G90 ; use absolute coordinates
M83 ; use relative distances for extrusion
; Filament gcode
M107
;LAYER_CHANGE
;Z:0.2
;HEIGHT:0.2
;BEFORE_LAYER_CHANGE
G92 E0
;0.2


G1 E-3.5 F4800
G1 Z.2 F54000
;AFTER_LAYER_CHANGE
;0.2
G1 X14.028 Y50.685
G1 E3.5 F2400
M204 S1500
;TYPE:Skirt/Brim
;WIDTH:0.42
G1 F1200
G1 X15.017 Y50.536 E.03136
G1 X40.141 Y50.536 E.78775
G1 X41.724 Y50.93 E.05115
G1 X42.529 Y51.525 E.03139
G1 X45.458 Y54.454 E.12988
G1 X46.298 Y55.853 E.05116
G1 X46.444 Y56.708 E.0272
G1 X47.587 Y85.497 E.90337
G1 X47.59 Y99.146 E.42795
G1 X47.52 Y100.546 E.04395
G1 X47.301 Y102.024 E.04685
G1 X46.729 Y104.11 E.06782
G1 X46.225 Y105.356 E.04214
G1 X45.539 Y106.683 E.04684
G1 X44.589 Y108.114 E.05386
G1 X43.173 Y109.749 E.06782
G1 X42.066 Y110.753 E.04686
G1 X40.804 Y111.681 E.04912
G1 X39.191 Y112.598 E.05818
G1 X37.391 Y113.353 E.0612
G1 X35.884 Y113.782 E.04913
G1 X34.562 Y114.024 E.04214
G1 X33.073 Y114.151 E.04686
G1 X19.816 Y114.146 E.41566
G1 X18.478 Y114.024 E.04213
G1 X17.155 Y113.782 E.04217
G1 X15.649 Y113.354 E.04909
G1 X14.397 Y112.863 E.04217
G1 X12.363 Y111.762 E.07252
G1 X11.146 Y110.893 E.04689
G1 X9.866 Y109.749 E.05383
G1 X8.359 Y107.994 E.07253
G1 X7.427 Y106.552 E.05383
G1 X6.438 Y104.461 E.07253
G1 X5.92 Y102.824 E.05384
G1 X5.52 Y100.546 E.07252
G1 X5.45 Y99.146 E.04395
G1 X5.46 Y85.396 E.43112
G1 X8.733 Y56.461 E.91302
G1 X9.7 Y54.454 E.06985
G1 X12.629 Y51.525 E.12988
G1 X13.976 Y50.716 E.04927
G1 E-2.45 F4800
;WIPE_START
G1 F43200
G1 X15.017 Y50.536 E-.11151
G1 X23.908 Y50.536 E-.93849
;WIPE_END
G1 X13.975 Y80.946 F54000
G1 E3.5 F2400
G1 F1200
G1 X39.35 Y80.946 E.79562
G1 X41.134 Y81.416 E.05784
G1 X42.617 Y82.495 E.0575
G1 X43.123 Y83.156 E.0261
G1 X43.529 Y83.894 E.02641
G1 X43.905 Y85.417 E.04919
G1 X43.926 Y99.157 E.43081
G1 X43.878 Y100.141 E.03089
G1 X43.745 Y101.116 E.03085
G1 X43.521 Y102.103 E.03173
G1 X43.225 Y103.03 E.03051
G1 X42.842 Y103.945 E.0311
G1 X42.379 Y104.829 E.03129
G1 X41.828 Y105.685 E.03192
G1 X41.2 Y106.492 E.03206
G1 X40.451 Y107.289 E.03429
G1 X39.671 Y107.978 E.03263
G1 X38.833 Y108.592 E.03257
G1 X37.962 Y109.116 E.03187
G1 X37.052 Y109.559 E.03173
G1 X36.106 Y109.92 E.03175
G1 X35.145 Y110.192 E.03132
G1 X34.177 Y110.377 E.0309
G1 X33.163 Y110.48 E.03196
G1 X32.145 Y110.492 E.03192
G1 X31.13 Y110.413 E.03192
G1 X30.107 Y110.24 E.03253
G1 X29.104 Y109.975 E.03253
G1 X28.111 Y109.612 E.03315
G1 X27.186 Y109.175 E.03208
G1 X26.518 Y108.775 E.02441
G1 X25.798 Y109.204 E.02628
G1 X24.856 Y109.642 E.03257
G1 X23.896 Y109.987 E.03198
G1 X22.916 Y110.244 E.03177
G1 X21.934 Y110.41 E.03123
G1 X20.936 Y110.491 E.03139
G1 X19.945 Y110.484 E.03107
G1 X18.839 Y110.374 E.03485
G1 X17.868 Y110.186 E.03101
G1 X16.952 Y109.926 E.02986
G1 X16.05 Y109.586 E.03022
G1 X15.146 Y109.153 E.03143
G1 X14.238 Y108.613 E.03312
G1 X13.397 Y108.001 E.03261
G1 X12.631 Y107.331 E.03191
G1 X11.919 Y106.584 E.03236
G1 X11.295 Y105.801 E.03139
G1 X10.731 Y104.947 E.03209
G1 X10.191 Y103.931 E.03608
G1 X9.801 Y102.992 E.03188
G1 X9.498 Y102.028 E.03168
G1 X9.283 Y101.048 E.03146
G1 X9.149 Y99.991 E.03341
G1 X9.113 Y99.138 E.02677
G1 X9.123 Y85.553 E.42595
G1 X9.265 Y84.633 E.02919
G1 X9.57 Y83.753 E.0292
G1 X10.708 Y82.226 E.05971
G1 X12.048 Y81.356 E.05009
G1 X13.704 Y80.946 E.05349
G1 X13.915 Y80.946 E.00662
G1 X13.915 Y81.323 F54000
G1 F1200
G1 X39.325 Y81.324 E.79671
G1 X40.986 Y81.767 E.0539
G1 X42.334 Y82.746 E.05224
G1 X42.814 Y83.373 E.02476
G1 X43.187 Y84.053 E.02432
G1 X43.528 Y85.44 E.04478
G1 X43.549 Y99.153 E.42996
G1 X43.501 Y100.115 E.0302
G1 X43.372 Y101.057 E.02981
G1 X43.155 Y102.012 E.03071
G1 X42.868 Y102.907 E.02947
G1 X42.498 Y103.792 E.03008
G1 X42.049 Y104.646 E.03025
G1 X41.515 Y105.474 E.03089
G1 X40.908 Y106.253 E.03096
G1 X40.183 Y107.024 E.03318
G1 X39.428 Y107.69 E.03157
G1 X38.617 Y108.282 E.03148
G1 X37.775 Y108.788 E.0308
G1 X36.91 Y109.21 E.03018
G1 X35.995 Y109.559 E.03071
G1 X35.066 Y109.823 E.03028
G1 X34.115 Y110.005 E.03036
G1 X33.134 Y110.104 E.03091
G1 X32.149 Y110.115 E.03089
G1 X31.168 Y110.038 E.03085
G1 X30.179 Y109.87 E.03145
G1 X29.209 Y109.612 E.03147
G1 X28.264 Y109.267 E.03154
G1 X27.356 Y108.838 E.03149
G1 X26.518 Y108.335 E.03064
G1 X25.63 Y108.866 E.03244
G1 X24.72 Y109.29 E.03148
G1 X23.776 Y109.63 E.03146
G1 X22.844 Y109.873 E.0302
G1 X21.895 Y110.035 E.03019
G1 X20.93 Y110.114 E.03036
G1 X19.973 Y110.108 E.03001
G1 X18.902 Y110.002 E.03374
G1 X17.948 Y109.817 E.03047
G1 X17.078 Y109.57 E.02836
G1 X16.205 Y109.242 E.02924
G1 X15.317 Y108.817 E.03087
G1 X14.453 Y108.303 E.03152
G1 X13.639 Y107.711 E.03156
G1 X12.898 Y107.064 E.03084
G1 X12.209 Y106.343 E.03127
G1 X11.605 Y105.586 E.03036
G1 X11.06 Y104.762 E.03098
G1 X10.528 Y103.762 E.03552
G1 X10.152 Y102.855 E.03079
G1 X9.864 Y101.939 E.03011
G1 X9.656 Y100.992 E.0304
G1 X9.525 Y99.967 E.0324
G1 X9.49 Y99.135 E.02611
G1 X9.498 Y85.595 E.42454
G1 X9.627 Y84.739 E.02714
G1 X9.916 Y83.905 E.02767
G1 X10.989 Y82.48 E.05593
G1 X12.224 Y81.691 E.04595
G1 X13.727 Y81.323 E.04852
G1 X13.855 Y81.323 E.00401
G1 X13.855 Y81.7 F54000
G1 F1200
G1 X39.301 Y81.701 E.79784
G1 X40.795 Y82.093 E.04843
G1 X42.053 Y82.999 E.04861
G1 X42.491 Y83.568 E.02251
G1 X42.844 Y84.213 E.02305
G1 X43.151 Y85.463 E.04036
G1 X43.172 Y99.149 E.42912
G1 X43.127 Y100.072 E.02897
G1 X43 Y100.998 E.02931
G1 X42.79 Y101.92 E.02965
G1 X42.512 Y102.784 E.02846
G1 X42.153 Y103.638 E.02905
G1 X41.719 Y104.462 E.0292
G1 X41.203 Y105.262 E.02985
G1 X40.616 Y106.015 E.02994
G1 X39.926 Y106.748 E.03156
G1 X39.198 Y107.391 E.03045
G1 X38.416 Y107.964 E.0304
G1 X37.603 Y108.453 E.02975
G1 X36.767 Y108.861 E.02917
G1 X35.884 Y109.199 E.02964
G1 X34.987 Y109.454 E.02924
G1 X34.052 Y109.633 E.02985
G1 X33.105 Y109.728 E.02984
G1 X32.154 Y109.738 E.02982
G1 X31.206 Y109.663 E.02982
G1 X30.251 Y109.5 E.03038
G1 X29.314 Y109.25 E.03041
G1 X28.402 Y108.916 E.03045
G1 X27.526 Y108.501 E.03039
G1 X26.519 Y107.895 E.03685
G1 X25.461 Y108.529 E.03867
G1 X24.584 Y108.938 E.03034
G1 X23.672 Y109.267 E.0304
G1 X22.773 Y109.503 E.02914
G1 X21.84 Y109.662 E.02968
G1 X20.908 Y109.737 E.02932
G1 X19.985 Y109.731 E.02894
G1 X18.948 Y109.628 E.03267
G1 X18.042 Y109.452 E.02894
G1 X17.203 Y109.215 E.02734
G1 X16.346 Y108.892 E.02872
G1 X15.488 Y108.481 E.02983
G1 X14.654 Y107.983 E.03046
G1 X13.867 Y107.411 E.0305
G1 X13.153 Y106.786 E.02975
G1 X12.487 Y106.088 E.03025
G1 X11.905 Y105.357 E.0293
G1 X11.379 Y104.562 E.02989
G1 X10.873 Y103.609 E.03383
G1 X10.509 Y102.734 E.02971
G1 X10.231 Y101.849 E.02909
G1 X10.028 Y100.936 E.02933
G1 X9.901 Y99.943 E.03139
G1 X9.867 Y99.131 E.02548
G1 X9.873 Y85.637 E.42309
G1 X9.997 Y84.813 E.02613
G1 X10.262 Y84.059 E.02506
G1 X11.267 Y82.737 E.05207
G1 X12.397 Y82.027 E.04184
G1 X13.795 Y81.7 E.04502
G1 X13.795 Y82.077 F54000
G1 F1200
G1 X39.276 Y82.078 E.79894
G1 X40.663 Y82.448 E.04501
G1 X41.77 Y83.25 E.04286
G1 X42.183 Y83.786 E.02122
G1 X42.501 Y84.371 E.02088
G1 X42.774 Y85.486 E.03599
G1 X42.795 Y99.145 E.42827
G1 X42.752 Y100.029 E.02775
G1 X42.628 Y100.938 E.02877
G1 X42.424 Y101.827 E.0286
G1 X42.155 Y102.66 E.02745
G1 X41.809 Y103.484 E.02802
G1 X41.389 Y104.279 E.02819
G1 X40.891 Y105.05 E.02878
G1 X40.324 Y105.775 E.02886
G1 X39.67 Y106.471 E.02995
G1 X38.968 Y107.092 E.02939
G1 X38.213 Y107.645 E.02934
G1 X37.43 Y108.118 E.02868
G1 X36.609 Y108.518 E.02863
G1 X35.757 Y108.844 E.0286
G1 X34.892 Y109.089 E.02819
G1 X33.99 Y109.261 E.02879
G1 X33.076 Y109.352 E.0288
G1 X32.159 Y109.361 E.02875
G1 X31.245 Y109.288 E.02875
G1 X30.34 Y109.133 E.02879
G1 X29.435 Y108.893 E.02936
G1 X28.555 Y108.571 E.02938
G1 X27.709 Y108.171 E.02934
G1 X26.932 Y107.715 E.02825
G1 X26.519 Y107.42 E.01591
G1 X26.086 Y107.729 E.01668
G1 X25.295 Y108.19 E.02871
G1 X24.448 Y108.587 E.02933
G1 X23.568 Y108.905 E.02934
G1 X22.701 Y109.133 E.02811
G1 X21.801 Y109.287 E.02863
G1 X20.902 Y109.36 E.02828
G1 X19.996 Y109.354 E.02841
G1 X18.995 Y109.253 E.03155
G1 X18.137 Y109.087 E.0274
G1 X17.328 Y108.859 E.02635
G1 X16.486 Y108.542 E.02821
G1 X15.659 Y108.145 E.02876
G1 X14.854 Y107.664 E.0294
G1 X14.096 Y107.112 E.0294
G1 X13.408 Y106.508 E.02871
G1 X12.766 Y105.835 E.02916
G1 X12.205 Y105.129 E.02827
G1 X11.699 Y104.362 E.02881
G1 X11.218 Y103.456 E.03216
G1 X10.866 Y102.612 E.02867
G1 X10.597 Y101.759 E.02804
G1 X10.401 Y100.879 E.02827
G1 X10.278 Y99.919 E.03035
G1 X10.244 Y99.127 E.02486
G1 X10.248 Y85.678 E.42168
G1 X10.359 Y84.921 E.02399
G1 X10.608 Y84.212 E.02356
G1 X11.544 Y82.995 E.04814
G1 X12.569 Y82.364 E.03774
G1 X13.736 Y82.085 E.03762
G1 X13.792 Y82.454 F54000
G1 F1200
G1 X39.252 Y82.455 E.79828
G1 X40.473 Y82.776 E.03958
G1 X41.49 Y83.503 E.0392
G1 X41.859 Y83.98 E.01891
G1 X42.158 Y84.53 E.01963
G1 X42.397 Y85.509 E.0316
G1 X42.418 Y99.141 E.42742
G1 X42.377 Y99.986 E.02653
G1 X42.255 Y100.879 E.02826
G1 X42.058 Y101.735 E.02754
G1 X41.799 Y102.536 E.0264
G1 X41.465 Y103.33 E.02701
G1 X41.06 Y104.095 E.02714
G1 X40.579 Y104.838 E.02775
G1 X40.032 Y105.536 E.0278
G1 X39.414 Y106.194 E.0283
G1 X38.738 Y106.793 E.02832
G1 X38.011 Y107.327 E.02828
G1 X37.256 Y107.783 E.02766
G1 X36.467 Y108.169 E.02754
G1 X35.646 Y108.483 E.02756
G1 X34.813 Y108.721 E.02716
G1 X33.928 Y108.889 E.02824
G1 X33.047 Y108.976 E.02776
G1 X32.18 Y108.984 E.02719
G1 X31.3 Y108.915 E.02768
G1 X30.428 Y108.766 E.02774
G1 X29.556 Y108.536 E.02828
G1 X28.708 Y108.227 E.0283
G1 X27.892 Y107.842 E.02829
G1 X27.131 Y107.394 E.02769
G1 X26.519 Y106.956 E.0236
G1 X25.888 Y107.408 E.02434
G1 X25.127 Y107.852 E.02762
G1 X24.311 Y108.235 E.02826
G1 X23.463 Y108.542 E.02828
G1 X22.629 Y108.763 E.02705
G1 X21.762 Y108.912 E.02758
G1 X20.88 Y108.983 E.02774
G1 X20.008 Y108.977 E.02734
G1 X19.041 Y108.879 E.03047
G1 X18.232 Y108.722 E.02584
G1 X17.453 Y108.503 E.02537
G1 X16.627 Y108.192 E.02767
G1 X15.83 Y107.809 E.02773
G1 X15.056 Y107.345 E.02829
G1 X14.326 Y106.812 E.02834
G1 X13.663 Y106.231 E.02764
G1 X13.046 Y105.581 E.0281
G1 X12.506 Y104.901 E.02723
G1 X12.019 Y104.162 E.02775
G1 X11.562 Y103.303 E.03051
G1 X11.223 Y102.49 E.02762
G1 X10.963 Y101.669 E.027
G1 X10.774 Y100.822 E.02721
G1 X10.654 Y99.895 E.02931
G1 X10.622 Y99.123 E.02423
G1 X10.623 Y85.717 E.42034
G1 X10.721 Y85.028 E.02182
G1 X10.953 Y84.367 E.02196
G1 X11.819 Y83.255 E.04419
G1 X12.737 Y82.702 E.0336
G1 X13.734 Y82.468 E.03211
G1 X13.815 Y82.831 F54000
G1 F1200
G1 X39.229 Y82.832 E.79684
G1 X40.284 Y83.104 E.03416
G1 X41.209 Y83.757 E.0355
G1 X41.551 Y84.198 E.0175
G1 X41.815 Y84.687 E.01742
G1 X42.02 Y85.532 E.02726
G1 X42.04 Y99.137 E.42658
G1 X42.002 Y99.943 E.0253
G1 X41.883 Y100.819 E.02772
G1 X41.693 Y101.642 E.02648
G1 X41.443 Y102.412 E.02538
G1 X41.127 Y103.161 E.02549
G1 X40.731 Y103.912 E.02662
G1 X40.277 Y104.612 E.02616
G1 X39.741 Y105.297 E.02727
G1 X39.157 Y105.918 E.02673
G1 X38.507 Y106.494 E.02723
G1 X37.795 Y107.018 E.02772
G1 X37.083 Y107.448 E.02608
G1 X36.324 Y107.82 E.0265
G1 X35.534 Y108.123 E.02653
G1 X34.734 Y108.352 E.02609
G1 X33.866 Y108.517 E.0277
G1 X33.019 Y108.6 E.02668
G1 X32.185 Y108.607 E.02615
G1 X31.354 Y108.541 E.02614
G1 X30.515 Y108.4 E.02668
G1 X29.677 Y108.179 E.02717
G1 X28.861 Y107.882 E.02723
G1 X28.076 Y107.512 E.02721
G1 X27.329 Y107.074 E.02715
G1 X26.519 Y106.492 E.03127
G1 X25.689 Y107.087 E.03202
G1 X24.958 Y107.515 E.02656
G1 X24.174 Y107.884 E.02717
G1 X23.358 Y108.18 E.02722
G1 X22.556 Y108.393 E.02602
G1 X21.723 Y108.537 E.02651
G1 X20.874 Y108.606 E.02671
G1 X20.02 Y108.6 E.02678
G1 X19.088 Y108.505 E.02937
G1 X18.326 Y108.357 E.02434
G1 X17.578 Y108.147 E.02436
G1 X16.768 Y107.842 E.02714
G1 X16.002 Y107.473 E.02666
G1 X15.257 Y107.026 E.02724
G1 X14.555 Y106.513 E.02726
G1 X13.919 Y105.953 E.02657
G1 X13.325 Y105.328 E.02703
G1 X12.807 Y104.674 E.02616
G1 X12.339 Y103.962 E.02672
G1 X11.907 Y103.15 E.02884
G1 X11.58 Y102.368 E.02658
G1 X11.329 Y101.578 E.02599
G1 X11.147 Y100.765 E.02612
G1 X11.031 Y99.871 E.02827
G1 X10.999 Y99.119 E.0236
G1 X10.999 Y85.755 E.41902
G1 X11.083 Y85.134 E.01965
G1 X11.298 Y84.522 E.02034
G1 X12.093 Y83.516 E.0402
G1 X12.853 Y83.062 E.02776
G1 X13.756 Y82.845 E.02912
G1 X13.836 Y83.208 F54000
G1 F1200
G1 X39.204 Y83.209 E.7954
G1 X40.154 Y83.459 E.0308
G1 X40.929 Y84.011 E.02983
G1 X41.227 Y84.391 E.01514
G1 X41.471 Y84.843 E.01611
G1 X41.648 Y85.596 E.02425
G1 X41.664 Y99.124 E.42416
G1 X41.628 Y99.901 E.02439
G1 X41.513 Y100.743 E.02665
G1 X41.331 Y101.534 E.02545
G1 X41.092 Y102.273 E.02435
G1 X40.79 Y102.992 E.02445
G1 X40.409 Y103.714 E.0256
G1 X39.965 Y104.4 E.02562
G1 X39.449 Y105.058 E.02622
G1 X38.888 Y105.653 E.02564
G1 X38.264 Y106.206 E.02614
G1 X37.592 Y106.7 E.02615
G1 X36.909 Y107.113 E.02503
G1 X36.18 Y107.471 E.02546
G1 X35.422 Y107.763 E.02547
G1 X34.639 Y107.987 E.02554
G1 X33.82 Y108.143 E.02614
G1 X33.007 Y108.223 E.02561
G1 X32.207 Y108.23 E.02508
G1 X31.392 Y108.166 E.02563
G1 X30.587 Y108.029 E.0256
G1 X29.782 Y107.816 E.02611
G1 X28.998 Y107.531 E.02616
G1 X28.245 Y107.175 E.02612
G1 X27.541 Y106.762 E.02559
G1 X26.892 Y106.299 E.025
G1 X26.519 Y105.983 E.01533
G1 X26.117 Y106.322 E.01649
G1 X25.479 Y106.774 E.02452
G1 X24.776 Y107.185 E.02553
G1 X24.022 Y107.539 E.02612
G1 X23.238 Y107.822 E.02613
G1 X22.468 Y108.026 E.02498
G1 X21.684 Y108.161 E.02494
G1 X20.852 Y108.23 E.02618
G1 X20.032 Y108.223 E.02571
G1 X19.151 Y108.133 E.02777
G1 X18.42 Y107.992 E.02334
G1 X17.688 Y107.786 E.02384
G1 X16.909 Y107.493 E.0261
G1 X16.174 Y107.137 E.02561
G1 X15.459 Y106.707 E.02616
G1 X14.785 Y106.214 E.02618
G1 X14.175 Y105.676 E.0255
G1 X13.604 Y105.074 E.02602
G1 X13.108 Y104.447 E.02507
G1 X12.659 Y103.762 E.02568
G1 X12.251 Y102.996 E.02721
G1 X11.937 Y102.245 E.02552
G1 X11.695 Y101.487 E.02495
G1 X11.52 Y100.707 E.02506
G1 X11.407 Y99.846 E.02723
G1 X11.376 Y99.115 E.02294
G1 X11.376 Y85.768 E.41849
G1 X11.454 Y85.206 E.01779
G1 X11.642 Y84.679 E.01754
G1 X12.364 Y83.781 E.03613
G1 X13.017 Y83.403 E.02366
G1 X13.778 Y83.222 E.02453
G1 X13.86 Y83.585 F54000
G1 F1200
G1 X39.181 Y83.586 E.79392
G1 X39.967 Y83.788 E.02545
G1 X40.65 Y84.266 E.02614
G1 X40.92 Y84.61 E.01371
G1 X41.126 Y84.997 E.01375
G1 X41.275 Y85.658 E.02125
G1 X41.287 Y99.111 E.42181
G1 X41.253 Y99.859 E.02348
G1 X41.144 Y100.667 E.02556
G1 X40.97 Y101.426 E.02442
G1 X40.741 Y102.135 E.02336
G1 X40.452 Y102.824 E.02343
G1 X40.088 Y103.516 E.02452
G1 X39.653 Y104.188 E.0251
G1 X39.158 Y104.818 E.02512
G1 X38.62 Y105.388 E.02458
G1 X38.02 Y105.918 E.0251
G1 X37.39 Y106.382 E.02453
G1 X36.721 Y106.786 E.0245
G1 X36.022 Y107.129 E.02441
G1 X35.295 Y107.408 E.02442
G1 X34.544 Y107.622 E.02448
G1 X33.775 Y107.768 E.02454
G1 X32.995 Y107.846 E.02458
G1 X32.212 Y107.853 E.02455
