; generated by PrusaSlicer 2.6.0+MacOS-arm64 on 2023-07-23 at 14:53:41 UTC

; 

; external perimeters extrusion width = 0.42mm
; perimeters extrusion width = 0.44mm
; infill extrusion width = 0.44mm
; solid infill extrusion width = 0.44mm
; top infill extrusion width = 0.40mm
; first layer extrusion width = 0.42mm

M201 X1500 Y1500 Z150 E5000 ; sets maximum accelerations, mm/sec^2
M203 X500 Y500 Z10 E60 ; sets maximum feedrates, mm / sec
M204 S1500 T1000 ; sets acceleration (S) and retract acceleration (R), mm/sec^2
M205 X8.00 Y8.00 Z0.40 E5.00 ; sets the jerk limits, mm/sec
M205 S0 T0 ; sets the minimum extruding and travel feed rate, mm/sec
;TYPE:Custom
G90 ; use absolute coordinates
M83 ; extruder relative mode
M104 S150 ; set temporary nozzle temp to prevent oozing during homing
M140 S60 ; set final bed temp
G4 S30 ; allow partial nozzle warmup
G28 ; home all axis
G1 Z50 F240
G1 X2.0 Y10 F3000
M104 S205 ; set final nozzle temp
M190 S60 ; wait for bed temp to stabilize
M109 S205 ; wait for nozzle temp to stabilize
G1 Z0.28 F240
G92 E0
G1 X2.0 Y140 E10 F1500 ; prime the nozzle
G1 X2.3 Y140 F5000
G92 E0
G1 X2.3 Y10 E10 F1200 ; prime the nozzle
G92 E0
G21 ; set units to millimeters
G90 ; use absolute coordinates
M83 ; use relative distances for extrusion
; Filament gcode
M107
;LAYER_CHANGE
;Z:0.2
;HEIGHT:0.2
;BEFORE_LAYER_CHANGE
G92 E0
;0.2


G1 E-3.5 F4800
G1 Z.2 F54000
;AFTER_LAYER_CHANGE
;0.2
G1 X13.031 Y41.591
G1 E3.5 F2400
M204 S1500
;TYPE:Skirt/Brim
;WIDTH:0.42
G1 F1200
G1 X14.655 Y41.173 E.05258
G1 X15.933 Y41.065 E.04021
G1 X36.589 Y41.067 E.64765
G1 X37.752 Y41.173 E.03662
G1 X39.376 Y41.591 E.05258
G1 X40.655 Y42.177 E.04411
G1 X42.04 Y43.149 E.05305
G1 X43.141 Y44.277 E.04942
G1 X43.982 Y45.504 E.04664
G1 X44.434 Y46.442 E.03265
G1 X44.738 Y47.298 E.02848
G1 X44.986 Y48.407 E.03563
G1 X45.094 Y49.684 E.04018
G1 X45.08 Y67.464 E.55748
G1 X44.944 Y68.578 E.03519
G1 X44.568 Y69.967 E.04512
G1 X43.982 Y71.247 E.04414
G1 X43.448 Y72.081 E.03105
G1 X42.268 Y73.399 E.05547
G1 X41.489 Y74.039 E.03161
G1 X40.655 Y74.573 E.03105
G1 X39.717 Y75.026 E.03266
G1 X38.861 Y75.329 E.02847
G1 X37.752 Y75.577 E.03563
G1 X36.873 Y75.671 E.02772
G1 X15.56 Y75.673 E.66825
G1 X14.525 Y75.559 E.03265
G1 X13.09 Y75.18 E.04654
G1 X12.131 Y74.772 E.03268
G1 X11.066 Y74.148 E.0387
G1 X9.614 Y72.886 E.06032
G1 X8.899 Y71.99 E.03594
G1 X8.415 Y71.22 E.02852
G1 X8.027 Y70.433 E.02751
G1 X7.616 Y69.249 E.0393
G1 X7.324 Y67.442 E.05739
G1 X7.347 Y48.994 E.57842
G1 X7.574 Y47.651 E.04271
G1 X7.839 Y46.783 E.02846
G1 X8.425 Y45.504 E.04411
G1 X8.959 Y44.669 E.03108
G1 X9.989 Y43.492 E.04904
G1 X11.246 Y42.484 E.05052
G1 X12.105 Y41.991 E.03105
G1 X12.976 Y41.615 E.02975
G1 E-2.45 F4800
;WIPE_START
G1 F43200
G1 X14.655 Y41.173 E-.18327
G1 X15.933 Y41.065 E-.13538
G1 X22.862 Y41.066 E-.73135
;WIPE_END
G1 X13.972 Y45.166 F54000
G1 E3.5 F2400
G1 F1200
G1 X15.782 Y44.728 E.05839
G1 X35.094 Y44.727 E.60551
G1 X37.022 Y44.773 E.06047
G1 X38.197 Y45.066 E.03797
G1 X39.237 Y45.609 E.03679
G1 X40.531 Y46.893 E.05716
G1 X41.064 Y47.89 E.03545
G1 X41.363 Y48.961 E.03486
G1 X41.431 Y67.234 E.57294
G1 X40.924 Y69.193 E.06345
G1 X40.449 Y69.967 E.02847
G1 X39.861 Y70.645 E.02814
G1 X38.435 Y71.584 E.05353
G1 X36.626 Y72.022 E.05836
G1 X15.769 Y72.022 E.65396
G1 X14.186 Y71.675 E.05081
G1 X12.756 Y70.824 E.05218
G1 X11.501 Y69.22 E.06386
G1 X11.357 Y68.867 E.01195
G1 X10.978 Y67.273 E.05137
G1 X10.977 Y49.511 E.55692
G1 X11.483 Y47.557 E.06329
G1 X11.958 Y46.783 E.02847
G1 X12.546 Y46.105 E.02814
G1 X13.922 Y45.199 E.05166
G1 X14.129 Y45.513 F54000
G1 F1200
G1 X15.803 Y45.105 E.05402
G1 X35.088 Y45.104 E.60467
G1 X36.953 Y45.144 E.05849
G1 X38.043 Y45.411 E.03519
G1 X39.037 Y45.93 E.03516
G1 X40.213 Y47.097 E.05195
G1 X40.707 Y48.012 E.0326
G1 X40.993 Y49.037 E.03337
G1 X41.054 Y67.211 E.56984
G1 X40.567 Y69.069 E.06022
G1 X40.153 Y69.733 E.02453
G1 X39.631 Y70.345 E.02522
G1 X38.256 Y71.251 E.05163
G1 X36.604 Y71.645 E.05325
G1 X15.79 Y71.645 E.65261
G1 X14.298 Y71.314 E.04792
G1 X12.981 Y70.519 E.04823
G1 X11.84 Y69.053 E.05825
G1 X11.72 Y68.763 E.00984
G1 X11.355 Y67.251 E.04877
G1 X11.354 Y49.535 E.55547
G1 X11.84 Y47.681 E.06009
G1 X12.254 Y47.017 E.02453
G1 X12.776 Y46.405 E.02522
G1 X14.079 Y45.547 E.04892
G1 X14.285 Y45.862 F54000
G1 F1200
G1 X14.329 Y45.833 E.00165
G1 X15.825 Y45.482 E.04818
G1 X35.083 Y45.481 E.60382
G1 X36.884 Y45.516 E.05648
G1 X37.93 Y45.772 E.03376
G1 X38.836 Y46.25 E.03212
G1 X39.894 Y47.301 E.04676
G1 X40.365 Y48.172 E.03105
G1 X40.622 Y49.113 E.03058
G1 X40.676 Y67.188 E.56673
G1 X40.232 Y68.894 E.05527
G1 X39.841 Y69.521 E.02317
G1 X39.362 Y70.079 E.02306
G1 X38.078 Y70.917 E.04807
G1 X36.583 Y71.268 E.04815
G1 X15.811 Y71.268 E.65129
G1 X14.412 Y70.953 E.04496
G1 X13.208 Y70.216 E.04426
G1 X12.177 Y68.883 E.05284
G1 X12.082 Y68.658 E.00766
G1 X11.732 Y67.227 E.04619
G1 X11.731 Y49.559 E.55397
G1 X12.175 Y47.857 E.05515
G1 X12.566 Y47.229 E.0232
G1 X13.045 Y46.671 E.02306
G1 X14.235 Y45.895 E.04454
G1 X14.436 Y46.201 F54000
G1 F1200
G1 X15.847 Y45.86 E.04551
G1 X35.078 Y45.858 E.60297
G1 X36.817 Y45.887 E.05453
G1 X37.775 Y46.116 E.03088
G1 X38.635 Y46.571 E.03051
G1 X39.577 Y47.506 E.04161
G1 X40.007 Y48.293 E.02812
G1 X40.252 Y49.188 E.02909
G1 X40.299 Y67.165 E.56366
G1 X39.896 Y68.72 E.05037
G1 X39.545 Y69.287 E.02091
G1 X39.093 Y69.813 E.02175
G1 X37.958 Y70.558 E.04257
G1 X36.56 Y70.891 E.04506
G1 X15.831 Y70.891 E.64994
G1 X14.582 Y70.615 E.04011
G1 X13.434 Y69.913 E.04219
G1 X12.514 Y68.712 E.04744
G1 X12.444 Y68.551 E.0055
G1 X12.109 Y67.204 E.04352
G1 X12.108 Y49.583 E.55249
G1 X12.511 Y48.031 E.05028
G1 X12.862 Y47.463 E.02094
G1 X13.314 Y46.937 E.02175
G1 X14.385 Y46.234 E.04017
G1 X14.59 Y46.55 F54000
G1 F1200
G1 X14.626 Y46.526 E.00136
G1 X15.868 Y46.237 E.03998
G1 X35.074 Y46.235 E.60219
G1 X36.752 Y46.259 E.05262
G1 X37.621 Y46.461 E.02797
G1 X38.434 Y46.891 E.02884
G1 X39.259 Y47.71 E.03645
G1 X39.665 Y48.454 E.02657
G1 X39.882 Y49.262 E.02623
G1 X39.922 Y67.142 E.56062
G1 X39.561 Y68.546 E.04545
G1 X39.232 Y69.075 E.01953
G1 X38.826 Y69.546 E.0195
G1 X37.781 Y70.224 E.03906
G1 X36.539 Y70.514 E.03999
G1 X15.852 Y70.514 E.64863
G1 X14.696 Y70.254 E.03715
G1 X13.664 Y69.612 E.03811
G1 X12.849 Y68.538 E.04227
G1 X12.805 Y68.441 E.00334
G1 X12.486 Y67.18 E.04078
G1 X12.485 Y49.607 E.55099
G1 X12.847 Y48.205 E.0454
G1 X13.175 Y47.675 E.01954
G1 X13.581 Y47.204 E.0195
G1 X14.54 Y46.582 E.03584
G1 X14.743 Y46.899 F54000
G1 F1200
G1 X14.801 Y46.862 E.00216
G1 X15.889 Y46.614 E.03499
G1 X35.071 Y46.612 E.60144
G1 X36.687 Y46.631 E.05067
G1 X37.511 Y46.823 E.02653
G1 X38.231 Y47.21 E.02563
G1 X38.942 Y47.917 E.03144
G1 X39.307 Y48.574 E.02357
G1 X39.511 Y49.336 E.02473
G1 X39.545 Y67.119 E.55757
G1 X39.224 Y68.373 E.04059
G1 X38.937 Y68.841 E.01721
G1 X38.559 Y69.279 E.01814
G1 X37.606 Y69.888 E.03546
G1 X36.518 Y70.136 E.03499
G1 X15.874 Y70.136 E.64728
G1 X14.813 Y69.894 E.03412
G1 X13.896 Y69.313 E.03404
G1 X13.18 Y68.357 E.03745
G1 X12.863 Y67.156 E.03895
G1 X12.862 Y49.63 E.54952
G1 X13.183 Y48.377 E.04056
G1 X13.47 Y47.91 E.01719
G1 X13.848 Y47.472 E.01814
G1 X14.692 Y46.931 E.03143
G1 X14.891 Y47.239 F54000
G1 F1200
G1 X15.911 Y46.991 E.03291
G1 X35.069 Y46.989 E.60069
G1 X36.622 Y47.003 E.0487
G1 X37.4 Y47.184 E.02505
G1 X38.027 Y47.527 E.02241
G1 X38.625 Y48.123 E.02647
G1 X38.965 Y48.736 E.02198
G1 X39.14 Y49.407 E.02174
G1 X39.168 Y67.096 E.55463
G1 X38.888 Y68.2 E.03571
G1 X38.624 Y68.63 E.01582
G1 X38.292 Y69.011 E.01585
G1 X37.489 Y69.529 E.02996
G1 X36.496 Y69.759 E.03196
G1 X15.896 Y69.759 E.6459
G1 X14.932 Y69.535 E.03103
G1 X14.131 Y69.016 E.02993
G1 X13.516 Y68.178 E.03259
G1 X13.24 Y67.131 E.03395
G1 X13.239 Y49.654 E.54798
G1 X13.519 Y48.55 E.03571
G1 X13.783 Y48.121 E.01579
G1 X14.115 Y47.739 E.01587
G1 X14.84 Y47.272 E.02704
G1 X15.042 Y47.59 F54000
G1 F1200
G1 X15.092 Y47.558 E.00186
G1 X15.932 Y47.368 E.027
G1 X36.557 Y47.375 E.64668
G1 X37.287 Y47.545 E.0235
G1 X37.819 Y47.843 E.01912
G1 X38.31 Y48.331 E.02171
G1 X38.607 Y48.855 E.01889
G1 X38.769 Y49.479 E.02021
G1 X38.791 Y67.073 E.55165
G1 X38.551 Y68.029 E.0309
G1 X38.329 Y68.395 E.01342
G1 X38.026 Y68.742 E.01444
G1 X37.315 Y69.192 E.02638
G1 X36.476 Y69.382 E.02697
G1 X15.916 Y69.382 E.64464
G1 X15.108 Y69.2 E.02597
G1 X14.366 Y68.719 E.02773
G1 X13.843 Y67.989 E.02816
G1 X13.617 Y67.108 E.02852
G1 X13.616 Y49.677 E.54654
G1 X13.856 Y48.721 E.0309
G1 X14.078 Y48.356 E.01339
G1 X14.381 Y48.008 E.01447
G1 X14.991 Y47.622 E.02263
G1 X15.189 Y47.941 F54000
G1 F1200
G1 X15.262 Y47.896 E.00269
G1 X15.951 Y47.745 E.02212
G1 X36.492 Y47.747 E.64405
G1 X37.174 Y47.906 E.02196
G1 X37.609 Y48.157 E.01575
G1 X37.995 Y48.54 E.01705
G1 X38.265 Y49.018 E.01721
G1 X38.398 Y49.547 E.0171
G1 X38.414 Y67.051 E.54883
G1 X38.213 Y67.858 E.02608
G1 X38.015 Y68.184 E.01196
G1 X37.763 Y68.471 E.01198
G1 X37.145 Y68.854 E.0228
G1 X36.456 Y69.005 E.02212
G1 X15.938 Y69.005 E.64333
G1 X15.228 Y68.841 E.02285
G1 X14.605 Y68.426 E.02347
G1 X14.199 Y67.859 E.02187
G1 X13.994 Y67.083 E.02517
G1 X13.993 Y49.699 E.54506
G1 X14.194 Y48.892 E.02608
G1 X14.392 Y48.566 E.01196
G1 X14.645 Y48.279 E.012
G1 X15.138 Y47.973 E.01819
G1 X15.333 Y48.284 F54000
G1 F1200
G1 X15.377 Y48.256 E.00164
G1 X15.973 Y48.122 E.01915
G1 X36.471 Y48.124 E.6427
G1 X37.01 Y48.247 E.01733
G1 X37.398 Y48.47 E.01403
G1 X37.707 Y48.784 E.01381
G1 X37.922 Y49.175 E.01399
G1 X38.026 Y49.612 E.01408
G1 X38.037 Y67.029 E.5461
G1 X37.876 Y67.687 E.02124
G1 X37.702 Y67.973 E.0105
G1 X37.5 Y68.2 E.00953
G1 X37.03 Y68.494 E.01738
G1 X36.435 Y68.628 E.01912
G1 X15.961 Y68.628 E.64195
G1 X15.351 Y68.483 E.01966
G1 X14.849 Y68.137 E.01912
G1 X14.529 Y67.674 E.01765
G1 X14.371 Y67.06 E.01988
G1 X14.37 Y49.721 E.54365
G1 X14.531 Y49.063 E.02124
G1 X14.705 Y48.777 E.0105
G1 X14.908 Y48.55 E.00955
G1 X15.282 Y48.316 E.01383
G1 X15.478 Y48.636 F54000
G1 F1200
G1 X15.544 Y48.595 E.00244
G1 X15.992 Y48.499 E.01437
G1 X36.45 Y48.501 E.64145
G1 X36.852 Y48.59 E.01291
G1 X37.153 Y48.758 E.01081
G1 X37.394 Y48.995 E.0106
G1 X37.562 Y49.29 E.01064
G1 X37.654 Y49.678 E.0125
G1 X37.66 Y67.007 E.54334
G1 X37.538 Y67.517 E.01644
G1 X37.39 Y67.761 E.00895
G1 X37.241 Y67.924 E.00692
G1 X36.863 Y68.155 E.01389
G1 X36.416 Y68.251 E.01433
G1 X15.985 Y68.251 E.6406
G1 X15.479 Y68.126 E.01634
G1 X15.1 Y67.853 E.01465
G1 X14.862 Y67.495 E.01348
G1 X14.748 Y67.038 E.01477
G1 X14.748 Y49.743 E.54227
G1 X14.869 Y49.233 E.01643
G1 X15.017 Y48.989 E.00895
G1 X15.166 Y48.826 E.00692
G1 X15.426 Y48.667 E.00956
G1 X15.617 Y48.99 F54000
G1 F1200
G1 X15.706 Y48.937 E.00325
G1 X16.009 Y48.876 E.00969
G1 X36.431 Y48.878 E.64032
G1 X36.694 Y48.934 E.00843
G1 X36.947 Y49.075 E.00908
G1 X37.079 Y49.205 E.00581
G1 X37.219 Y49.45 E.00885
G1 X37.281 Y49.736 E.00918
G1 X37.282 Y66.987 E.54089
G1 X37.2 Y67.348 E.01161
G1 X37.079 Y67.547 E.0073
G1 X36.987 Y67.645 E.00421
G1 X36.701 Y67.813 E.0104
G1 X36.398 Y67.874 E.00969
G1 X16.005 Y67.874 E.63941
G1 X15.659 Y67.793 E.01114
G1 X15.392 Y67.612 E.01011
G1 X15.195 Y67.315 E.01117
G1 X15.125 Y67.017 E.0096
G1 X15.125 Y49.763 E.54099
G1 X15.208 Y49.402 E.01161
G1 X15.328 Y49.203 E.00729
G1 X15.42 Y49.106 E.00419
G1 X15.565 Y49.02 E.00529
G1 X15.756 Y49.336 F54000
G1 F1200
G1 X15.818 Y49.299 E.00226
G1 X16.03 Y49.253 E.0068
G1 X35.064 Y49.252 E.5968
G1 X36.415 Y49.255 E.04236
G1 X36.539 Y49.279 E.00396
G1 X36.74 Y49.391 E.00721
G1 X36.86 Y49.569 E.00673
G1 X36.904 Y49.759 E.00611
G1 X36.905 Y66.968 E.53958
G1 X36.86 Y67.181 E.00683
G1 X36.77 Y67.329 E.00543
G1 X36.589 Y67.452 E.00686
G1 X36.377 Y67.497 E.0068
G1 X16.029 Y67.497 E.638
G1 X15.79 Y67.438 E.00772
G1 X15.649 Y67.334 E.00549
G1 X15.535 Y67.149 E.00681
G1 X15.502 Y66.999 E.00482
G1 X15.502 Y49.782 E.53983
G1 X15.547 Y49.569 E.00683
G1 X15.637 Y49.421 E.00543
G1 X15.705 Y49.367 E.00272
; printing object Probe_Block v0.2 h0.2.stl id:0 copy 0
G1 E-2.45 F4800
;WIPE_START
G1 F43200
G1 X15.818 Y49.299 E-.01392
G1 X16.03 Y49.253 E-.0229
G1 X25.629 Y49.252 E-1.01318
;WIPE_END
G1 X35.752 Y56.952 F54000
G1 E3.5 F2400
;TYPE:Perimeter
;WIDTH:0.419999
G1 F1200
G1 X35.752 Y60.481 E.11065
;WIDTH:0.425173
G1 X35.767 Y61.602 E.03563
;WIDTH:0.401537
G1 X35.762 Y62.415 E.02424
;WIDTH:0.419999
G1 X35.753 Y66.344 E.12319
G1 X31.564 Y66.359 E.13134
;WIDTH:0.402469
G1 X30.748 Y66.353 E.0244
;WIDTH:0.419999
G1 X21.725 Y66.351 E.28291
;WIDTH:0.406726
G1 X20.947 Y66.361 E.02354
;WIDTH:0.418879
G1 X20.368 Y66.345 E.01811
;WIDTH:0.419999
G1 X16.655 Y66.344 E.11642
G1 X16.649 Y62.486 E.12096
;WIDTH:0.407118
G1 X16.639 Y61.674 E.02459
;WIDTH:0.421472
G1 X16.655 Y60.248 E.04489
;WIDTH:0.419999
G1 X16.654 Y50.406 E.30859
G1 X35.751 Y50.408 E.59877
G1 X35.752 Y56.892 E.2033
G1 E-2.45 F4800
;WIPE_START
G1 F43200
G1 X35.752 Y60.481 E-.37884
G1 X35.767 Y61.602 E-.11834
G1 X35.762 Y62.415 E-.08582
G1 X35.753 Y66.344 E-.41473
G1 X35.258 Y66.346 E-.05227
;WIPE_END
G1 X36.128 Y50.031 F54000
G1 E3.5 F2400
G1 F1200
G1 X36.13 Y66.721 E.5233
G1 X16.278 Y66.721 E.62244
G1 X16.277 Y50.029 E.52337
G1 X36.068 Y50.031 E.62053
G1 X36.324 Y49.654 F54000
;TYPE:External perimeter
G1 F1200
G1 X36.461 Y49.696 E.00449
G1 X36.506 Y49.836 E.00461
G1 X36.507 Y66.895 E.53487
G1 X36.46 Y67.051 E.00511
G1 X36.342 Y67.098 E.00398
G1 X16.1 Y67.098 E.63467
G1 X15.951 Y67.056 E.00485
G1 X15.901 Y66.951 E.00365
G1 X15.9 Y49.856 E.536
G1 X15.947 Y49.699 E.00514
G1 X16.065 Y49.652 E.00398
G1 X36.264 Y49.654 E.63332
G1 X36.37 Y49.79 F54000
G1 E-2.45 F4800
;WIPE_START
G1 F43200
G1 X36.461 Y49.696 E-.02126
G1 X36.506 Y49.836 E-.01552
G1 X36.507 Y59.435 E-1.01322
;WIPE_END
G1 X31.707 Y57.276 F54000
G1 E3.5 F2400
;TYPE:Perimeter
G1 F1200
G1 X31.819 Y57.303 E.00361
G1 X32.154 Y57.462 E.01163
G1 X32.659 Y57.947 E.02195
G1 X33.361 Y58.27 E.02423
G1 X33.82 Y58.574 E.01726
G1 X34.37 Y59.085 E.02354
G1 X34.837 Y59.711 E.02449
G1 X35.179 Y60.413 E.02448
;WIDTH:0.423307
G1 X35.344 Y60.95 E.01777
G1 X35.413 Y61.457 E.01618
;WIDTH:0.395965
G1 X35.417 Y62.206 E.02199
;WIDTH:0.419999
G1 X35.296 Y62.976 E.02444
G1 X35.019 Y63.708 E.02454
G1 X34.603 Y64.384 E.02489
G1 X34.205 Y64.825 E.01863
G1 X33.939 Y65.078 E.01151
G1 X33.446 Y65.43 E.01899
G1 X32.742 Y65.772 E.02454
G1 X31.767 Y65.996 E.03137
;WIDTH:0.401042
G1 X30.959 Y66.009 E.02406
;WIDTH:0.419999
G1 X30.177 Y65.886 E.02482
G1 X29.445 Y65.608 E.02455
G1 X28.779 Y65.197 E.02454
G1 X28.201 Y64.67 E.02452
G1 X27.732 Y64.043 E.02455
G1 X27.389 Y63.34 E.02453
G1 X27.184 Y62.585 E.02453
G1 X27.123 Y61.796 E.02481
G1 X27.21 Y61.028 E.02423
G1 X27.441 Y60.28 E.02455
G1 X27.807 Y59.589 E.02452
G1 X28.435 Y58.849 E.03043
G1 X28.839 Y58.521 E.01632
G1 X29.361 Y58.193 E.01933
G1 X30.027 Y57.878 E.0231
G1 X30.266 Y57.614 E.01117
G1 X30.517 Y57.423 E.00989
G1 X31.083 Y57.228 E.01877
G1 X31.518 Y57.231 E.01364
G1 X31.649 Y57.262 E.00422
G1 X31.658 Y57.656 F54000
G1 F1200
G1 X31.945 Y57.776 E.00975
G1 X32.298 Y58.128 E.01563
G1 X32.362 Y58.256 E.00449
G1 X32.772 Y58.404 E.01367
G1 X33.273 Y58.654 E.01756
G1 X33.673 Y58.94 E.01542
G1 X34.11 Y59.357 E.01894
G1 X34.53 Y59.93 E.02228
G1 X34.837 Y60.571 E.02228
G1 X34.979 Y61.052 E.01572
G1 X35.058 Y61.594 E.01717
G1 X35.054 Y62.203 E.0191
G1 X34.926 Y62.903 E.02231
G1 X34.669 Y63.567 E.02232
G1 X34.286 Y64.179 E.02264
G1 X33.72 Y64.771 E.02568
G1 X33.227 Y65.123 E.01899
G1 X32.585 Y65.429 E.0223
G1 X31.69 Y65.637 E.02881
G1 X30.961 Y65.646 E.02286
G1 X30.25 Y65.516 E.02266
G1 X29.586 Y65.258 E.02234
G1 X28.983 Y64.881 E.0223
G1 X28.461 Y64.397 E.02232
G1 X28.039 Y63.824 E.02231
G1 X27.732 Y63.182 E.02231
G1 X27.55 Y62.494 E.02231
G1 X27.5 Y61.779 E.02247
G1 X27.584 Y61.078 E.02214
G1 X27.798 Y60.399 E.02232
G1 X28.136 Y59.773 E.02231
G1 X28.717 Y59.1 E.02788
G1 X29.319 Y58.64 E.02375
G1 X29.96 Y58.329 E.02234
G1 X30.249 Y58.236 E.00952
G1 X30.468 Y57.937 E.01162
G1 X30.703 Y57.751 E.0094
G1 X31.175 Y57.595 E.01559
G1 X31.562 Y57.616 E.01215
G1 X31.602 Y57.633 E.00136
G1 X31.612 Y58.039 F54000
;TYPE:External perimeter
G1 F1200
G1 X31.767 Y58.115 E.00541
G1 X32.016 Y58.398 E.01182
G1 X32.07 Y58.566 E.00553
