; File Parsed By Flow Comp Script
; Script Ver. V0.7.1
; Flow Model Ver. V0.2.1
; Logger Ver. V0.0.1
; Flow Comp Model Points:
; (0, 0)
; (0.2, 0.4444)
; (0.4, 0.6145)
; (0.6, 0.7059)
; (0.8, 0.7619)
; (1.5, 0.8571)
; (2, 0.8889)
; (3, 0.9231)
; (5, 0.952)
; (10, 1)

; generated by PrusaSlicer 2.9.1 on 2025-04-06 at 08:32:40 UTC

; 

; external perimeters extrusion width = 0.45mm
; perimeters extrusion width = 0.45mm
; infill extrusion width = 0.45mm
; solid infill extrusion width = 0.45mm
; top infill extrusion width = 0.40mm
; support material extrusion width = 0.35mm
; first layer extrusion width = 0.42mm

;TYPE:Custom
G90 ; use absolute coordinates
M83 ; extruder relative mode
CALCULATE_PA BOWDEN_LENGTH=34.3 MATERIAL=PLA LAYER_HEIGHT=0.2 NOZZLE_SIZE=0.4 PRINT_SPEED=120 FILAMENT_DIAMETER=1.75 LINE_WIDTH=0.45 ; auto pressure advance
M104 S210 ; set temporary nozzle temp to prevent oozing during homing
M140 S58 ; set final bed temp
G4 S30 ; allow partial nozzle warmup
G28 ; home all axis
G1 Z50 F240
G1 X2.0 Y10 F3000
M104 S208 ; set final nozzle temp
M190 S58 ; wait for bed temp to stabilize
M109 S208 ; wait for nozzle temp to stabilize
G1 Z0.28 F240
G92 E0
G1 X2.0 Y140 E10 F1500 ; prime the nozzle
G1 X2.3 Y140 F5000
G92 E0
G1 X2.3 Y10 E10 F1200 ; prime the nozzle
G92 E0
G21 ; set units to millimeters
G90 ; use absolute coordinates
M83 ; use relative distances for extrusion
; Filament gcode
M107
;LAYER_CHANGE
;Z:0.2
;HEIGHT:0.2
G1 E-3.5 F1500
G1 Z.2 F54000
G1 X37.475 Y97.327
G1 Z.2
G1 E3.5 F1500
M204 S3500
;TYPE:Skirt/Brim
;WIDTH:0.42
G1 F1800
G1 X40.392 Y96.597 E.09428
G1 X68.392 Y96.597 E.87792
G1 X70.572 Y96.993 E.06947
G1 X72.473 Y98.133 E.0695
G1 X73.85 Y99.869 E.06948
G1 X74.58 Y102.785 E.09425
G1 X74.58 Y130.785 E.87792
G1 X74.183 Y132.965 E.06948
G1 X73.044 Y134.866 E.06948
G1 X71.308 Y136.243 E.06948
G1 X68.392 Y136.974 E.09426
G1 X40.392 Y136.974 E.87792
G1 X38.211 Y136.577 E.06951
G1 X36.311 Y135.437 E.06947
G1 X34.933 Y133.702 E.06947
G1 X34.203 Y130.785 E.09428
G1 X34.203 Y102.785 E.87792
G1 X34.6 Y100.605 E.06948
G1 X35.739 Y98.704 E.06948
G1 X37.428 Y97.364 E.0676
G1 E-3.5 F1500
G1 X57.131 Y118.868 F54000
G1 E3.5 F1500
;TYPE:Perimeter
;WIDTH:0.419999
G1 F1800
G1 X56.846 Y118.988 E.0097
G1 X56.441 Y119.079 E.01302
G1 X55.928 Y119.081 E.01608
G1 X55.52 Y119.017 E.01295
G1 X54.982 Y118.808 E.0181
G1 X54.622 Y118.576 E.01343
G1 X54.21 Y118.151 E.01856
G1 X54.001 Y117.857 E.01131
G1 X53.786 Y117.332 E.01779
G1 X53.698 Y116.961 E.01196
G1 X53.693 Y116.414 E.01715
G1 X53.758 Y116.007 E.01292
G1 X53.945 Y115.527 E.01615
G1 X54.049 Y115.32 E.00726
G1 X54.505 Y114.795 E.0218
G1 X54.905 Y114.504 E.01551
G1 X55.296 Y114.32 E.01355
G1 X55.691 Y114.206 E.01289
G1 X56.14 Y114.159 E.01415
G1 X56.813 Y114.263 E.02135
G1 X57.275 Y114.445 E.01557
G1 X57.64 Y114.676 E.01354
G1 X58 Y115.015 E.0155
G1 X58.254 Y115.364 E.01353
G1 X58.496 Y115.901 E.01847
G1 X58.589 Y116.29 E.01254
G1 X58.602 Y116.821 E.01665
G1 X58.448 Y117.524 E.02256
G1 X58.105 Y118.112 E.02134
G1 X57.821 Y118.439 E.01358
G1 X57.423 Y118.744 E.01572
G1 X57.186 Y118.845 E.00808
G1 X56.828 Y118.583 F54000
G1 F1800
G1 X56.558 Y118.683 E.00903
G1 X55.928 Y118.704 E.01976
G1 X55.637 Y118.658 E.00924
G1 X55.174 Y118.484 E.01551
G1 X54.78 Y118.207 E.0151
G1 X54.38 Y117.758 E.01885
G1 X54.136 Y117.193 E.0193
G1 X54.07 Y116.846 E.01107
G1 X54.082 Y116.263 E.01828
G1 X54.295 Y115.666 E.01987
G1 X54.485 Y115.368 E.01108
G1 X54.78 Y115.053 E.01353
G1 X55.066 Y114.845 E.01109
G1 X55.695 Y114.586 E.02133
G1 X56.14 Y114.536 E.01404
G1 X56.743 Y114.633 E.01915
G1 X57.073 Y114.764 E.01113
G1 X57.438 Y114.995 E.01354
G1 X57.695 Y115.237 E.01107
G1 X57.949 Y115.586 E.01353
G1 X58.172 Y116.123 E.01823
G1 X58.238 Y116.62 E.01572
G1 X58.141 Y117.231 E.0194
G1 X58.01 Y117.561 E.01113
G1 X57.737 Y117.984 E.01579
G1 X57.362 Y118.329 E.01598
G1 X57.108 Y118.479 E.00925
G1 X56.884 Y118.562 E.00749
G1 X56.51 Y118.298 F54000
G1 F1800
G1 X56.36 Y118.327 E.00479
G1 X55.831 Y118.319 E.01659
G1 X55.366 Y118.159 E.01542
G1 X55.055 Y117.949 E.01177
G1 X54.697 Y117.554 E.01671
G1 X54.487 Y117.054 E.017
G1 X54.447 Y116.846 E.00664
G1 X54.455 Y116.324 E.01637
G1 X54.646 Y115.805 E.01734
G1 X54.76 Y115.626 E.00665
G1 X55.055 Y115.311 E.01353
G1 X55.226 Y115.187 E.00662
G1 X55.76 Y114.958 E.01822
G1 X56.245 Y114.923 E.01525
G1 X56.673 Y115.004 E.01366
G1 X56.871 Y115.082 E.00667
G1 X57.235 Y115.313 E.01352
G1 X57.39 Y115.458 E.00665
G1 X57.724 Y115.965 E.01904
G1 X57.838 Y116.361 E.01292
G1 X57.851 Y116.736 E.01176
G1 X57.743 Y117.256 E.01665
G1 X57.469 Y117.707 E.01655
G1 X57.122 Y118.038 E.01504
G1 X56.569 Y118.287 E.01902
G1 X56.15 Y117.946 F54000
;TYPE:External perimeter
G1 F1800
G1 X55.87 Y117.941 E.00878
G1 X55.558 Y117.835 E.01033
G1 X55.33 Y117.691 E.00846
G1 X54.997 Y117.317 E.0157
G1 X54.824 Y116.846 E.01573
G1 X54.838 Y116.345 E.01571
G1 X55.034 Y115.884 E.01571
G1 X55.387 Y115.528 E.01572
G1 X55.834 Y115.328 E.01535
G1 X56.175 Y115.293 E.01075
G1 X56.669 Y115.4 E.01585
G1 X57.085 Y115.68 E.01572
G1 X57.366 Y116.082 E.01538
G1 X57.463 Y116.396 E.0103
G1 X57.481 Y116.666 E.00848
G1 X57.374 Y117.155 E.01569
G1 X57.101 Y117.567 E.0155
G1 X56.831 Y117.778 E.01074
G1 X56.36 Y117.95 E.01572
G1 X56.21 Y117.947 E.0047
G1 X55.812 Y117.908 F54000
G1 E-3.5 F1500
G1 X50.368 Y118.945 F54000
G1 E3.5 F1500
;TYPE:Perimeter
G1 F1800
G1 X50.337 Y118.96 E.00108
G1 X49.767 Y119.078 E.01825
G1 X49.384 Y119.095 E.01202
G1 X48.848 Y118.997 E.01708
G1 X48.462 Y118.859 E.01285
G1 X47.95 Y118.533 E.01903
G1 X47.71 Y118.307 E.01034
G1 X47.413 Y117.922 E.01525
G1 X47.161 Y117.332 E.02012
G1 X47.068 Y116.846 E.01551
G1 X47.083 Y116.218 E.0197
G1 X47.32 Y115.527 E.0229
G1 X47.585 Y115.11 E.01549
G1 X47.88 Y114.795 E.01353
G1 X48.28 Y114.504 E.01551
G1 X48.671 Y114.32 E.01355
G1 X49.066 Y114.205 E.0129
G1 X49.515 Y114.159 E.01415
G1 X50.188 Y114.263 E.02135
G1 X50.65 Y114.445 E.01557
G1 X51.015 Y114.676 E.01354
G1 X51.375 Y115.015 E.0155
G1 X51.704 Y115.48 E.01786
G1 X51.905 Y116.006 E.01766
G1 X51.97 Y116.414 E.01295
G1 X51.965 Y116.961 E.01715
G1 X51.817 Y117.528 E.01837
G1 X51.629 Y117.896 E.01296
G1 X51.237 Y118.407 E.02019
G1 X50.735 Y118.761 E.01926
G1 X50.422 Y118.918 E.01098
G1 X50.173 Y118.611 F54000
G1 F1800
G1 X49.696 Y118.708 E.01526
G1 X49.342 Y118.708 E.0111
G1 X48.842 Y118.609 E.01598
G1 X48.589 Y118.496 E.00869
G1 X48.173 Y118.228 E.01552
G1 X47.82 Y117.848 E.01626
G1 X47.67 Y117.595 E.00922
G1 X47.462 Y117.024 E.01905
G1 X47.445 Y116.414 E.01913
G1 X47.511 Y116.067 E.01107
G1 X47.67 Y115.666 E.01353
G1 X47.86 Y115.368 E.01108
G1 X48.155 Y115.053 E.01353
G1 X48.441 Y114.846 E.01107
G1 X49.07 Y114.586 E.02134
G1 X49.515 Y114.536 E.01404
G1 X50.118 Y114.633 E.01915
G1 X50.448 Y114.764 E.01113
G1 X50.813 Y114.995 E.01354
G1 X51.07 Y115.237 E.01107
G1 X51.377 Y115.668 E.01659
G1 X51.581 Y116.263 E.01972
G1 X51.593 Y116.846 E.01828
G1 X51.502 Y117.276 E.01378
G1 X51.324 Y117.674 E.01367
G1 X50.971 Y118.139 E.0183
G1 X50.533 Y118.443 E.01672
G1 X50.231 Y118.597 E.01063
G1 X49.846 Y118.293 F54000
G1 F1800
G1 X49.549 Y118.347 E.00946
G1 X48.989 Y118.256 E.01779
G1 X48.791 Y118.178 E.00667
G1 X48.395 Y117.924 E.01475
G1 X48.061 Y117.537 E.01603
G1 X47.862 Y117.054 E.01638
G1 X47.822 Y116.846 E.00664
G1 X47.829 Y116.33 E.01618
G1 X48.021 Y115.805 E.01753
G1 X48.134 Y115.626 E.00664
G1 X48.43 Y115.311 E.01355
G1 X48.601 Y115.187 E.00662
G1 X49.135 Y114.958 E.01822
G1 X49.62 Y114.923 E.01525
G1 X50.048 Y115.004 E.01366
G1 X50.246 Y115.082 E.00667
G1 X50.61 Y115.313 E.01352
G1 X50.765 Y115.458 E.00665
G1 X51.075 Y115.903 E.017
G1 X51.216 Y116.414 E.01662
G1 X51.209 Y116.937 E.0164
G1 X51.048 Y117.409 E.01564
G1 X50.753 Y117.818 E.01581
G1 X50.331 Y118.125 E.01636
G1 X50.049 Y118.256 E.00975
G1 X49.905 Y118.282 E.00459
G1 X49.514 Y117.962 F54000
;TYPE:External perimeter
G1 F1800
G1 X49.484 Y117.967 E.00095
G1 X48.994 Y117.86 E.01573
G1 X48.617 Y117.619 E.01403
G1 X48.372 Y117.317 E.01219
G1 X48.199 Y116.846 E.01573
G1 X48.213 Y116.345 E.01571
G1 X48.409 Y115.884 E.01571
G1 X48.762 Y115.528 E.01572
G1 X49.209 Y115.328 E.01535
G1 X49.55 Y115.293 E.01075
G1 X50.044 Y115.4 E.01585
G1 X50.46 Y115.68 E.01572
G1 X50.741 Y116.082 E.01538
G1 X50.839 Y116.414 E.01085
G1 X50.83 Y116.904 E.01537
G1 X50.714 Y117.231 E.01088
G1 X50.408 Y117.629 E.01574
G1 X49.978 Y117.886 E.01571
G1 X49.573 Y117.952 E.01287
G1 X49.177 Y117.896 F54000
G1 E-3.5 F1500
G1 X48.227 Y128.862 F54000
G1 E3.5 F1500
;TYPE:Perimeter
;WIDTH:0.431404
G1 F1800
G1 X47.837 Y129.004 E.01341
G1 X47.316 Y129.07 E.01696
;WIDTH:0.431596
G1 X46.791 Y129.05 E.01698
G1 X46.282 Y128.921 E.01697
;WIDTH:0.419999
G1 X45.694 Y128.634 E.02052
G1 X45.247 Y128.283 E.01782
G1 X44.906 Y127.882 E.0165
G1 X44.648 Y127.426 E.01643
G1 X44.479 Y126.929 E.01646
G1 X44.406 Y126.409 E.01646
G1 X44.432 Y125.885 E.01645
G1 X44.556 Y125.375 E.01646
G1 X44.773 Y124.897 E.01646
G1 X45.076 Y124.469 E.01644
G1 X45.454 Y124.105 E.01645
G1 X45.893 Y123.818 E.01644
G1 X46.379 Y123.618 E.01648
G1 X46.912 Y123.518 E.017
G1 X47.312 Y123.5 E.01255
G1 X47.835 Y123.572 E.01655
G1 X48.332 Y123.741 E.01646
G1 X48.659 Y123.911 E.01156
G1 X49.107 Y124.255 E.01771
G1 X49.462 Y124.661 E.01691
G1 X49.716 Y125.107 E.01609
G1 X49.904 Y125.641 E.01775
G1 X49.977 Y126.161 E.01646
G1 X49.951 Y126.685 E.01645
G1 X49.827 Y127.195 E.01646
G1 X49.61 Y127.673 E.01646
G1 X49.307 Y128.101 E.01644
G1 X48.929 Y128.466 E.01648
G1 X48.369 Y128.81 E.02061
;WIDTH:0.431404
G1 X48.283 Y128.841 E.00295
G1 X47.922 Y128.577 F54000
;WIDTH:0.419999
G1 F1800
G1 X47.556 Y128.669 E.01183
G1 X47.103 Y128.695 E.01423
G1 X46.653 Y128.636 E.01423
G1 X46.196 Y128.48 E.01514
G1 X45.706 Y128.185 E.01793
G1 X45.374 Y127.87 E.01435
G1 X45.109 Y127.502 E.01422
G1 X44.918 Y127.09 E.01424
G1 X44.808 Y126.65 E.01422
G1 X44.782 Y126.196 E.01426
G1 X44.841 Y125.746 E.01423
G1 X44.983 Y125.315 E.01423
G1 X45.204 Y124.919 E.01422
G1 X45.495 Y124.571 E.01422
G1 X45.847 Y124.283 E.01426
G1 X46.389 Y124.015 E.01896
G1 X46.707 Y123.925 E.01036
G1 X47.211 Y123.871 E.01589
G1 X47.709 Y123.929 E.01572
G1 X48.161 Y124.077 E.01491
G1 X48.465 Y124.234 E.01073
G1 X48.906 Y124.589 E.01775
G1 X49.208 Y124.966 E.01515
G1 X49.443 Y125.413 E.01583
G1 X49.576 Y125.921 E.01646
G1 X49.602 Y126.374 E.01423
G1 X49.542 Y126.824 E.01423
G1 X49.4 Y127.255 E.01423
G1 X49.179 Y127.651 E.01422
G1 X48.888 Y128 E.01425
G1 X48.51 Y128.302 E.01517
G1 X47.996 Y128.559 E.01802
G1 X47.981 Y128.563 E.00049
G1 X47.569 Y128.281 F54000
G1 F1800
G1 X47.521 Y128.294 E.00156
G1 X47.138 Y128.32 E.01204
G1 X46.758 Y128.274 E.012
G1 X46.377 Y128.149 E.01257
G1 X45.955 Y127.902 E.01533
G1 X45.672 Y127.639 E.01211
G1 X45.445 Y127.33 E.01202
G1 X45.28 Y126.985 E.01199
G1 X45.183 Y126.614 E.01202
G1 X45.157 Y126.232 E.01201
G1 X45.203 Y125.852 E.012
G1 X45.319 Y125.487 E.01201
G1 X45.502 Y125.15 E.01202
G1 X45.745 Y124.854 E.01201
G1 X46.039 Y124.608 E.01202
G1 X46.516 Y124.37 E.01671
G1 X47.007 Y124.267 E.01573
G1 X47.52 Y124.277 E.01609
G1 X47.99 Y124.413 E.01534
G1 X48.271 Y124.558 E.00991
G1 X48.623 Y124.838 E.0141
G1 X48.878 Y125.148 E.01259
G1 X49.103 Y125.586 E.01544
G1 X49.2 Y125.956 E.01199
G1 X49.226 Y126.338 E.01201
G1 X49.18 Y126.719 E.01203
G1 X49.064 Y127.084 E.01201
G1 X48.881 Y127.42 E.012
G1 X48.638 Y127.717 E.01203
G1 X48.329 Y127.972 E.01256
G1 X47.891 Y128.196 E.01542
G1 X47.627 Y128.266 E.00856
G1 X47.198 Y127.942 F54000
;TYPE:External perimeter
G1 F1800
G1 X47.174 Y127.944 E.00076
G1 X46.863 Y127.912 E.0098
G1 X46.559 Y127.819 E.00997
G1 X46.204 Y127.619 E.01278
G1 X45.97 Y127.408 E.00988
G1 X45.781 Y127.159 E.0098
G1 X45.642 Y126.879 E.0098
G1 X45.558 Y126.579 E.00977
G1 X45.532 Y126.267 E.00982
G1 X45.565 Y125.957 E.00977
G1 X45.655 Y125.658 E.00979
G1 X45.8 Y125.381 E.0098
G1 X45.994 Y125.136 E.0098
G1 X46.231 Y124.932 E.0098
G1 X46.644 Y124.725 E.01448
G1 X47.165 Y124.627 E.01662
G1 X47.52 Y124.659 E.01118
G1 X47.819 Y124.749 E.00979
G1 X48.077 Y124.881 E.00909
G1 X48.34 Y125.088 E.01049
G1 X48.548 Y125.33 E.01001
G1 X48.741 Y125.692 E.01286
G1 X48.825 Y125.992 E.00977
G1 X48.851 Y126.303 E.00979
G1 X48.818 Y126.613 E.00977
G1 X48.728 Y126.913 E.00982
G1 X48.583 Y127.189 E.00978
G1 X48.389 Y127.434 E.0098
G1 X48.147 Y127.641 E.00998
G1 X47.786 Y127.834 E.01283
G1 X47.485 Y127.918 E.0098
G1 X47.258 Y127.937 E.00714
G1 X46.86 Y127.899 F54000
G1 E-3.5 F1500
G1 X62.734 Y128.864 F54000
G1 E3.5 F1500
;TYPE:Perimeter
;WIDTH:0.431405
G1 F1800
G1 X62.337 Y129.004 E.0136
G1 X61.816 Y129.07 E.01696
;WIDTH:0.431595
G1 X61.291 Y129.05 E.01698
G1 X60.782 Y128.921 E.01697
;WIDTH:0.419999
G1 X60.304 Y128.704 E.01646
G1 X59.875 Y128.401 E.01647
G1 X59.511 Y128.023 E.01645
G1 X59.167 Y127.463 E.02061
G1 X58.979 Y126.929 E.01775
G1 X58.906 Y126.409 E.01646
G1 X58.932 Y125.885 E.01645
G1 X59.056 Y125.375 E.01646
G1 X59.273 Y124.897 E.01646
G1 X59.576 Y124.469 E.01644
G1 X59.954 Y124.105 E.01645
G1 X60.393 Y123.818 E.01644
G1 X60.879 Y123.618 E.01648
G1 X61.501 Y123.507 E.01981
G1 X62.09 Y123.526 E.01848
G1 X62.601 Y123.649 E.01648
G1 X63.079 Y123.867 E.01647
G1 X63.508 Y124.17 E.01647
G1 X63.872 Y124.548 E.01645
G1 X64.216 Y125.107 E.02058
G1 X64.405 Y125.641 E.01776
G1 X64.477 Y126.161 E.01646
G1 X64.451 Y126.685 E.01645
G1 X64.327 Y127.195 E.01646
G1 X64.039 Y127.786 E.02061
G1 X63.689 Y128.231 E.01775
G1 X63.289 Y128.571 E.01646
G1 X62.833 Y128.829 E.01643
;WIDTH:0.431405
G1 X62.79 Y128.844 E.00147
G1 X62.423 Y128.577 F54000
;WIDTH:0.419999
G1 F1800
G1 X62.056 Y128.669 E.01186
G1 X61.603 Y128.695 E.01423
G1 X61.153 Y128.636 E.01423
G1 X60.722 Y128.493 E.01424
G1 X60.325 Y128.273 E.01423
G1 X59.977 Y127.981 E.01424
G1 X59.675 Y127.604 E.01515
G1 X59.418 Y127.09 E.01802
G1 X59.308 Y126.65 E.01422
G1 X59.282 Y126.196 E.01426
G1 X59.341 Y125.746 E.01423
G1 X59.483 Y125.315 E.01423
G1 X59.704 Y124.919 E.01422
G1 X59.995 Y124.571 E.01422
G1 X60.347 Y124.283 E.01426
G1 X60.746 Y124.067 E.01423
G1 X61.207 Y123.925 E.01512
G1 X61.715 Y123.871 E.01602
G1 X62.055 Y123.901 E.0107
G1 X62.661 Y124.077 E.01979
G1 X63.058 Y124.298 E.01425
G1 X63.406 Y124.589 E.01422
G1 X63.708 Y124.966 E.01515
G1 X63.965 Y125.48 E.01802
G1 X64.076 Y125.921 E.01426
G1 X64.102 Y126.374 E.01423
G1 X64.042 Y126.824 E.01423
G1 X63.886 Y127.281 E.01514
G1 X63.589 Y127.773 E.01802
G1 X63.277 Y128.103 E.01424
G1 X62.908 Y128.368 E.01424
G1 X62.496 Y128.559 E.01424
G1 X62.481 Y128.563 E.00049
G1 X62.069 Y128.281 F54000
G1 F1800
G1 X62.021 Y128.294 E.00156
G1 X61.638 Y128.32 E.01204
G1 X61.258 Y128.274 E.012
G1 X60.893 Y128.157 E.01202
G1 X60.557 Y127.975 E.01198
G1 X60.26 Y127.732 E.01203
G1 X60.005 Y127.422 E.01259
G1 X59.78 Y126.985 E.01541
G1 X59.683 Y126.614 E.01202
G1 X59.657 Y126.232 E.01201
G1 X59.703 Y125.851 E.01203
G1 X59.819 Y125.487 E.01198
G1 X60.002 Y125.15 E.01202
G1 X60.245 Y124.854 E.01201
G1 X60.539 Y124.608 E.01202
G1 X60.874 Y124.421 E.01203
G1 X61.255 Y124.299 E.01254
G1 X61.742 Y124.25 E.01535
G1 X62.02 Y124.277 E.00876
G1 X62.49 Y124.413 E.01534
G1 X62.827 Y124.596 E.01202
G1 X63.123 Y124.838 E.01199
G1 X63.378 Y125.148 E.01259
G1 X63.603 Y125.585 E.01541
G1 X63.7 Y125.956 E.01202
G1 X63.726 Y126.338 E.01201
G1 X63.68 Y126.719 E.01203
G1 X63.555 Y127.1 E.01257
G1 X63.307 Y127.524 E.0154
G1 X63.046 Y127.805 E.01202
G1 X62.737 Y128.032 E.01202
G1 X62.391 Y128.197 E.01202
G1 X62.127 Y128.266 E.00856
G1 X61.698 Y127.942 F54000
;TYPE:External perimeter
G1 F1800
G1 X61.674 Y127.944 E.00076
G1 X61.363 Y127.912 E.0098
G1 X61.064 Y127.821 E.0098
G1 X60.788 Y127.677 E.00976
G1 X60.543 Y127.483 E.0098
G1 X60.336 Y127.241 E.00998
G1 X60.142 Y126.88 E.01285
G1 X60.058 Y126.579 E.0098
G1 X60.032 Y126.267 E.00982
G1 X60.065 Y125.956 E.00981
G1 X60.155 Y125.658 E.00976
G1 X60.3 Y125.381 E.0098
G1 X60.494 Y125.136 E.0098
G1 X60.731 Y124.932 E.0098
G1 X61.172 Y124.715 E.01541
G1 X61.665 Y124.627 E.0157
G1 X61.985 Y124.652 E.01006
G1 X62.319 Y124.749 E.01091
G1 X62.596 Y124.894 E.0098
G1 X62.84 Y125.088 E.00977
G1 X63.048 Y125.33 E.01001
G1 X63.241 Y125.691 E.01283
G1 X63.325 Y125.992 E.0098
