; File Parsed By Flow Comp Script
; Script Ver. V0.7.1
; Flow Model Ver. V0.2.1
; Logger Ver. V0.0.1
; Flow Comp Model Points:
; (0, 0)
; (0.2, 0.4444)
; (0.4, 0.6145)
; (0.6, 0.7059)
; (0.8, 0.7619)
; (1.5, 0.8571)
; (2, 0.8889)
; (3, 0.9231)
; (5, 0.952)
; (10, 1)

; generated by PrusaSlicer 2.9.1 on 2025-04-06 at 10:29:57 UTC

; 

; external perimeters extrusion width = 0.45mm
; perimeters extrusion width = 0.45mm
; infill extrusion width = 0.45mm
; solid infill extrusion width = 0.45mm
; top infill extrusion width = 0.40mm
; support material extrusion width = 0.35mm
; first layer extrusion width = 0.42mm

;TYPE:Custom
G90 ; use absolute coordinates
M83 ; extruder relative mode
CALCULATE_PA BOWDEN_LENGTH=34.3 MATERIAL=PLA LAYER_HEIGHT=0.2 NOZZLE_SIZE=0.4 PRINT_SPEED=120 FILAMENT_DIAMETER=1.75 LINE_WIDTH=0.45 ; auto pressure advance
M104 S210 ; set temporary nozzle temp to prevent oozing during homing
M140 S58 ; set final bed temp
G4 S30 ; allow partial nozzle warmup
G28 ; home all axis
G1 Z50 F240
G1 X2.0 Y10 F3000
M104 S208 ; set final nozzle temp
M190 S58 ; wait for bed temp to stabilize
M109 S208 ; wait for nozzle temp to stabilize
G1 Z0.28 F240
G92 E0
G1 X2.0 Y140 E10 F1500 ; prime the nozzle
G1 X2.3 Y140 F5000
G92 E0
G1 X2.3 Y10 E10 F1200 ; prime the nozzle
G92 E0
G21 ; set units to millimeters
G90 ; use absolute coordinates
M83 ; use relative distances for extrusion
; Filament gcode
M107
;LAYER_CHANGE
;Z:0.2
;HEIGHT:0.2
G1 E-3.5 F1500
G1 Z.2 F54000
G1 X35.737 Y34.432
G1 Z.2
G1 E3.5 F1500
M204 S3500
;TYPE:Skirt/Brim
;WIDTH:0.42
G1 F1800
G1 X37.036 Y33.287 E.05429
G1 X38.753 Y32.24 E.06305
G1 X40.638 Y31.533 E.06312
G1 X42.619 Y31.192 E.06303
G1 X83.554 Y30.792 E1.28355
G1 X85.165 Y30.996 E.05092
G1 X86.828 Y31.479 E.0543
G1 X88.298 Y32.17 E.05093
G1 X89.946 Y33.323 E.06306
G1 X91.349 Y34.764 E.06306
G1 X92.321 Y36.194 E.05421
G1 X93.145 Y38.031 E.06313
G1 X93.548 Y39.6 E.05079
G1 X93.71 Y41.189 E.05008
G1 X94.296 Y67.73 E.83238
G1 X94.297 Y76.426 E.27266
G1 X93.901 Y78.606 E.06947
G1 X92.408 Y80.878 E.08524
G1 X89.644 Y83.547 E.12047
G1 X87.8 Y84.776 E.06948
G1 X85.345 Y85.283 E.0786
G1 X80.125 Y85.283 E.16367
G1 X37.663 Y82.602 E1.33402
G1 X35.512 Y82.068 E.06949
G1 X33.688 Y80.811 E.06946
G1 X32.423 Y78.991 E.0695
G1 X31.866 Y76.426 E.0823
G1 X31.871 Y64.827 E.36368
G1 X32.75 Y41.474 E.73274
G1 X32.961 Y39.711 E.05567
G1 X33.547 Y37.787 E.06306
G1 X34.482 Y36.007 E.06304
G1 X35.699 Y34.479 E.06125
G1 E-3.5 F1500
G1 X79.754 Y58.275 F54000
G1 E3.5 F1500
;TYPE:Support material
G1 F1800
G1 X81.501 Y60.022 E.07746
G1 X80.288 Y61.236 E.05381
G1 X80.288 Y59.082 E.06754
G1 X77.142 Y59.082 E.09864
G1 X77.142 Y56.502 E.08089
G1 X79.754 Y56.502 E.0819
G1 X79.754 Y58.218 E.0538
G1 X80.679 Y60.605 F54000
G1 F1800
G1 X80.679 Y59.44 E.03653
G1 X79.422 Y58.912 F54000
G1 F1800
G1 X79.414 Y56.841 E.06494
G1 X79.003 Y56.841 E.01289
G1 X79.003 Y58.742 E.0596
G1 X78.584 Y58.742 E.01314
G1 X78.584 Y56.841 E.0596
G1 X78.165 Y56.841 E.01314
G1 X78.165 Y58.742 E.0596
G1 X77.746 Y58.742 E.01314
G1 X77.746 Y56.672 E.0649
G1 E-3.5 F1500
G1 X74.597 Y62.391 F54000
G1 E3.5 F1500
;TYPE:Support material interface
;WIDTH:0.35
G1 F1800
G1 X74.597 Y62.17 E.00564
G1 X75.211 Y62.252 E.01582
G1 X75.211 Y62.17 E.00209
G1 X75.519 Y62.17 E.00786
G1 X75.519 Y62.252 E.00209
G1 X75.826 Y62.252 E.00784
G1 X75.826 Y62.17 E.00209
G1 X76.133 Y62.17 E.00784
G1 X76.133 Y62.252 E.00209
G1 X76.44 Y62.252 E.00784
G1 X76.44 Y62.17 E.00209
G1 X76.747 Y62.17 E.00784
G1 X76.747 Y62.391 E.00564
G1 E-3.5 F1500
G1 X77.361 Y59.806 F54000
G1 E3.5 F1500
G1 F1800
G1 X77.361 Y59.445 E.00922
G1 X77.668 Y59.445 E.00784
G1 X77.668 Y59.917 E.01205
G1 X77.975 Y60.225 E.0111
G1 X77.975 Y59.445 E.01992
G1 X78.282 Y59.445 E.00784
G1 X78.282 Y60.532 E.02776
G1 X78.589 Y60.839 E.01109
G1 X78.589 Y59.445 E.03559
G1 X78.896 Y59.445 E.00784
G1 X78.896 Y61.146 E.04343
G1 X79.203 Y61.453 E.01109
G1 X79.203 Y59.445 E.05127
G1 X79.511 Y59.445 E.00786
G1 X79.511 Y65.059 E.14335
G1 X79.203 Y65.059 E.00786
G1 X79.203 Y62.17 E.07377
G1 X78.896 Y62.17 E.00784
G1 X78.896 Y65.059 E.07377
G1 X78.589 Y65.059 E.00784
G1 X78.589 Y62.17 E.07377
G1 X78.282 Y62.17 E.00784
G1 X78.282 Y65.059 E.07377
G1 X77.975 Y65.059 E.00784
G1 X77.975 Y62.17 E.07377
G1 X77.668 Y62.17 E.00784
G1 X77.668 Y65.059 E.07377
G1 X77.361 Y65.059 E.00784
G1 X77.361 Y62.17 E.07377
G1 X77.054 Y62.17 E.00784
G1 X77.054 Y73.481 E.28881
G1 X77.117 Y73.481 E.00161
G1 X77.117 Y76.288 E.07167
G1 X77.361 Y76.288 E.00623
G1 X77.361 Y67.867 E.21502
G1 X77.668 Y67.867 E.00784
G1 X77.668 Y76.288 E.21502
G1 X77.975 Y76.288 E.00784
G1 X77.975 Y67.867 E.21502
G1 X78.282 Y67.867 E.00784
G1 X78.282 Y76.288 E.21502
G1 X78.589 Y76.288 E.00784
G1 X78.589 Y67.867 E.21502
G1 X78.896 Y67.867 E.00784
G1 X78.896 Y76.288 E.21502
G1 X79.203 Y76.288 E.00784
G1 X79.203 Y67.867 E.21502
G1 X79.511 Y67.867 E.00786
G1 X79.511 Y76.288 E.21502
G1 X79.818 Y76.288 E.00784
G1 X79.818 Y59.445 E.43007
G1 X79.924 Y59.445 E.00271
G1 X79.924 Y62.252 E.07167
G1 X80.125 Y62.252 E.00513
G1 X80.125 Y79.095 E.43007
G1 X80.432 Y79.095 E.00784
G1 X80.432 Y62.252 E.43007
G1 X80.739 Y62.252 E.00784
G1 X80.739 Y79.095 E.43007
G1 X81.046 Y79.095 E.00784
G1 X81.046 Y62.252 E.43007
G1 X81.353 Y62.252 E.00784
G1 X81.353 Y79.095 E.43007
G1 X81.66 Y79.095 E.00784
G1 X81.66 Y62.252 E.43007
G1 X81.967 Y62.252 E.00784
G1 X81.967 Y79.095 E.43007
G1 X82.274 Y79.095 E.00784
G1 X82.274 Y62.252 E.43007
G1 X82.581 Y62.252 E.00784
G1 X82.581 Y79.095 E.43007
G1 X82.888 Y79.095 E.00784
G1 X82.888 Y65.059 E.35839
G1 X83.195 Y65.059 E.00784
G1 X83.195 Y79.095 E.35839
G1 X83.503 Y79.095 E.00786
G1 X83.503 Y65.059 E.35839
G1 X83.81 Y65.059 E.00784
G1 X83.81 Y79.095 E.35839
G1 X84.117 Y79.095 E.00784
G1 X84.117 Y65.059 E.35839
G1 X84.424 Y65.059 E.00784
G1 X84.424 Y79.095 E.35839
G1 X84.731 Y79.095 E.00784
G1 X84.731 Y65.059 E.35839
G1 X85.038 Y65.059 E.00784
G1 X85.038 Y79.095 E.35839
G1 X85.345 Y79.095 E.00784
G1 X85.345 Y65.059 E.35839
G1 X85.539 Y65.059 E.00495
G1 X85.539 Y67.867 E.0717
G1 X85.652 Y67.867 E.00289
G1 X85.652 Y76.288 E.21502
G1 X85.959 Y76.288 E.00784
G1 X85.959 Y67.867 E.21502
G1 X86.266 Y67.867 E.00784
G1 X86.266 Y76.288 E.21502
G1 X86.573 Y76.288 E.00784
G1 X86.573 Y67.867 E.21502
G1 X86.88 Y67.867 E.00784
G1 X86.88 Y76.288 E.21502
G1 X87.188 Y76.288 E.00786
G1 X87.188 Y67.867 E.21502
G1 X87.495 Y67.867 E.00784
G1 X87.495 Y76.288 E.21502
G1 X87.802 Y76.288 E.00784
G1 X87.802 Y67.867 E.21502
G1 X88.109 Y67.867 E.00784
G1 X88.109 Y76.426 E.21854
G1 E-3.5 F1500
G1 X76.747 Y73.619 F54000
G1 E3.5 F1500
G1 F1800
G1 X76.747 Y65.059 E.21857
G1 X76.44 Y65.059 E.00784
G1 X76.44 Y73.481 E.21505
G1 X76.133 Y73.481 E.00784
G1 X76.133 Y65.059 E.21505
G1 X75.826 Y65.059 E.00784
G1 X75.826 Y73.481 E.21505
G1 X75.519 Y73.481 E.00784
G1 X75.519 Y65.059 E.21505
G1 X75.211 Y65.059 E.00786
G1 X75.211 Y73.481 E.21505
G1 X74.904 Y73.481 E.00784
G1 X74.904 Y65.059 E.21505
G1 X74.597 Y65.059 E.00784
G1 X74.597 Y73.481 E.21505
G1 X74.31 Y73.481 E.00733
G1 X74.29 Y62.252 E.28672
G1 X73.983 Y62.252 E.00784
G1 X73.983 Y70.674 E.21505
G1 X73.676 Y70.674 E.00784
G1 X73.676 Y62.252 E.21505
G1 X73.369 Y62.252 E.00784
G1 X73.369 Y70.674 E.21505
G1 X73.062 Y70.674 E.00784
G1 X73.062 Y62.252 E.21505
G1 X72.755 Y62.252 E.00784
G1 X72.755 Y70.674 E.21505
G1 X72.448 Y70.674 E.00784
G1 X72.448 Y62.252 E.21505
G1 X72.141 Y62.252 E.00784
G1 X72.141 Y70.674 E.21505
G1 X71.834 Y70.674 E.00784
G1 X71.834 Y62.252 E.21505
G1 X71.526 Y62.252 E.00786
G1 X71.526 Y70.674 E.21505
G1 X71.503 Y67.867 E.07168
G1 X71.219 Y67.867 E.00725
G1 X71.219 Y62.252 E.14337
G1 X70.912 Y62.252 E.00784
G1 X70.912 Y67.867 E.14337
G1 X70.605 Y67.867 E.00784
G1 X70.605 Y62.252 E.14337
G1 X70.298 Y62.252 E.00784
G1 X70.298 Y67.867 E.14337
G1 X69.991 Y67.867 E.00784
G1 X69.991 Y62.252 E.14337
G1 X69.684 Y62.252 E.00784
G1 X69.684 Y67.867 E.14337
G1 X69.377 Y67.867 E.00784
G1 X69.377 Y62.252 E.14337
G1 X69.07 Y62.252 E.00784
G1 X69.07 Y67.867 E.14337
G1 X68.763 Y67.867 E.00784
G1 X68.763 Y62.252 E.14337
G1 X68.456 Y62.252 E.00784
G1 X68.456 Y67.867 E.14337
G1 X68.149 Y67.867 E.00784
G1 X68.149 Y62.252 E.14337
G1 X67.842 Y62.252 E.00784
G1 X67.842 Y67.867 E.14337
G1 X67.534 Y67.867 E.00786
G1 X67.534 Y62.252 E.14337
G1 X67.227 Y62.252 E.00784
G1 X67.227 Y67.867 E.14337
G1 X66.92 Y67.867 E.00784
G1 X66.92 Y62.252 E.14337
G1 X66.613 Y62.252 E.00784
G1 X66.613 Y67.867 E.14337
G1 X66.306 Y67.867 E.00784
G1 X66.306 Y62.252 E.14337
G1 X65.999 Y62.252 E.00784
G1 X65.999 Y67.867 E.14337
G1 X65.692 Y67.867 E.00784
G1 X65.692 Y62.252 E.14337
G1 X65.385 Y62.252 E.00784
G1 X65.385 Y67.867 E.14337
G1 X65.078 Y67.867 E.00784
G1 X65.078 Y62.252 E.14337
G1 X64.771 Y62.252 E.00784
G1 X64.771 Y67.867 E.14337
G1 X64.464 Y67.867 E.00784
G1 X64.464 Y62.252 E.14337
G1 X64.157 Y62.252 E.00784
G1 X64.157 Y67.867 E.14337
G1 X63.85 Y67.867 E.00784
G1 X63.85 Y62.252 E.14337
G1 X63.542 Y62.252 E.00786
G1 X63.542 Y67.867 E.14337
G1 X63.235 Y67.867 E.00784
G1 X63.235 Y62.252 E.14337
G1 X62.928 Y62.252 E.00784
G1 X62.928 Y67.867 E.14337
G1 X62.621 Y67.867 E.00784
G1 X62.621 Y62.252 E.14337
G1 X62.314 Y62.252 E.00784
G1 X62.314 Y67.867 E.14337
G1 X62.007 Y67.867 E.00784
G1 X62.007 Y62.252 E.14337
G1 X61.7 Y62.252 E.00784
G1 X61.7 Y67.867 E.14337
G1 X61.393 Y67.867 E.00784
G1 X61.393 Y62.252 E.14337
G1 X61.086 Y62.252 E.00784
G1 X61.086 Y67.867 E.14337
G1 X60.779 Y67.867 E.00784
G1 X60.779 Y62.252 E.14337
G1 X60.472 Y62.252 E.00784
G1 X60.472 Y67.867 E.14337
G1 X60.165 Y67.867 E.00784
G1 X60.165 Y62.252 E.14337
G1 X59.857 Y62.252 E.00786
G1 X59.857 Y67.867 E.14337
G1 X59.55 Y67.867 E.00784
G1 X59.55 Y62.252 E.14337
G1 X59.243 Y62.252 E.00784
G1 X59.243 Y67.867 E.14337
G1 X58.936 Y67.867 E.00784
G1 X58.936 Y62.252 E.14337
G1 X58.629 Y62.252 E.00784
G1 X58.629 Y67.867 E.14337
G1 X58.322 Y67.867 E.00784
G1 X58.322 Y62.252 E.14337
G1 X58.015 Y62.252 E.00784
G1 X58.015 Y67.867 E.14337
G1 X57.708 Y67.867 E.00784
G1 X57.708 Y62.252 E.14337
G1 X57.401 Y62.252 E.00784
G1 X57.401 Y67.867 E.14337
G1 X57.094 Y67.867 E.00784
G1 X57.094 Y62.252 E.14337
G1 X56.787 Y62.252 E.00784
G1 X56.787 Y67.867 E.14337
G1 X56.48 Y67.867 E.00784
G1 X56.48 Y62.252 E.14337
G1 X56.173 Y62.252 E.00784
G1 X56.173 Y67.867 E.14337
G1 X55.865 Y67.867 E.00786
G1 X55.865 Y62.252 E.14337
G1 X55.558 Y62.252 E.00784
G1 X55.558 Y67.867 E.14337
G1 X55.251 Y67.867 E.00784
G1 X55.251 Y62.252 E.14337
G1 X54.944 Y62.252 E.00784
G1 X54.944 Y67.867 E.14337
G1 X54.661 Y67.867 E.00723
G1 X54.661 Y70.674 E.07167
G1 X54.637 Y62.252 E.21505
G1 X54.33 Y62.252 E.00784
G1 X54.33 Y70.674 E.21505
G1 X54.023 Y70.674 E.00784
G1 X54.023 Y62.252 E.21505
G1 X53.716 Y62.252 E.00784
G1 X53.716 Y70.674 E.21505
G1 X53.409 Y70.674 E.00784
G1 X53.409 Y62.252 E.21505
G1 X53.102 Y62.252 E.00784
G1 X53.102 Y70.674 E.21505
G1 X52.795 Y70.674 E.00784
G1 X52.795 Y62.252 E.21505
G1 X52.488 Y62.252 E.00784
G1 X52.488 Y70.674 E.21505
G1 X52.181 Y70.674 E.00784
G1 X52.181 Y62.252 E.21505
G1 X51.873 Y62.252 E.00786
G1 X51.854 Y73.481 E.28672
G1 X51.566 Y73.481 E.00735
G1 X51.566 Y65.059 E.21505
G1 X51.259 Y65.059 E.00784
G1 X51.259 Y73.481 E.21505
G1 X50.952 Y73.481 E.00784
G1 X50.952 Y65.059 E.21505
G1 X50.645 Y65.059 E.00784
G1 X50.645 Y73.481 E.21505
G1 X50.338 Y73.481 E.00784
G1 X50.338 Y65.059 E.21505
G1 X50.031 Y65.059 E.00784
G1 X50.031 Y73.481 E.21505
G1 X49.724 Y73.481 E.00784
G1 X49.724 Y65.059 E.21505
G1 X49.417 Y65.059 E.00784
G1 X49.417 Y73.481 E.21505
G1 X49.11 Y73.481 E.00784
G1 X49.046 Y62.17 E.28882
G1 X48.803 Y62.17 E.0062
G1 X48.803 Y65.059 E.07377
G1 X48.496 Y65.059 E.00784
G1 X48.496 Y62.17 E.07377
G1 X48.188 Y62.17 E.00786
G1 X48.188 Y65.059 E.07377
G1 X47.881 Y65.059 E.00784
G1 X47.881 Y62.17 E.07377
G1 X47.574 Y62.17 E.00784
G1 X47.574 Y65.059 E.07377
G1 X47.267 Y65.059 E.00784
G1 X47.267 Y62.17 E.07377
G1 X46.96 Y62.17 E.00784
G1 X46.96 Y65.059 E.07377
G1 X46.653 Y65.059 E.00784
G1 X46.653 Y62.17 E.07377
G1 X46.346 Y62.17 E.00784
G1 X46.346 Y76.288 E.36049
G1 X46.653 Y76.288 E.00784
G1 X46.653 Y67.867 E.21502
G1 X46.96 Y67.867 E.00784
G1 X46.96 Y76.288 E.21502
G1 X47.267 Y76.288 E.00784
G1 X47.267 Y67.867 E.21502
G1 X47.574 Y67.867 E.00784
G1 X47.574 Y76.288 E.21502
G1 X47.881 Y76.288 E.00784
G1 X47.881 Y67.867 E.21502
G1 X48.188 Y67.867 E.00784
G1 X48.188 Y76.288 E.21502
G1 X48.496 Y76.288 E.00786
G1 X48.496 Y67.867 E.21502
G1 X48.803 Y67.867 E.00784
G1 X48.803 Y76.426 E.21854
G1 E-3.5 F1500
G1 X38.055 Y76.426 F54000
G1 E3.5 F1500
G1 F1800
G1 X38.055 Y65.059 E.29024
G1 X38.362 Y65.059 E.00784
G1 X38.362 Y76.288 E.28672
G1 X38.669 Y76.288 E.00784
G1 X38.669 Y65.059 E.28672
G1 X38.976 Y65.059 E.00784
G1 X38.976 Y76.288 E.28672
G1 X39.283 Y76.288 E.00784
G1 X39.283 Y65.059 E.28672
G1 X39.59 Y65.059 E.00784
G1 X39.59 Y76.288 E.28672
G1 X39.897 Y76.288 E.00784
G1 X39.897 Y65.059 E.28672
G1 X40.204 Y65.059 E.00784
G1 X40.204 Y76.288 E.28672
G1 X40.512 Y76.288 E.00786
G1 X40.512 Y65.059 E.28672
G1 X40.625 Y65.059 E.00289
G1 X40.625 Y62.252 E.07167
G1 X40.819 Y62.252 E.00495
G1 X40.819 Y76.288 E.35839
G1 X41.126 Y76.288 E.00784
G1 X41.126 Y62.252 E.35839
G1 X41.433 Y62.252 E.00784
G1 X41.433 Y76.288 E.35839
G1 X41.74 Y76.288 E.00784
G1 X41.74 Y62.252 E.35839
G1 X42.047 Y62.252 E.00784
G1 X42.047 Y76.288 E.35839
G1 X42.354 Y76.288 E.00784
G1 X42.354 Y62.252 E.35839
G1 X42.661 Y62.252 E.00784
G1 X42.661 Y76.288 E.35839
G1 X42.968 Y76.288 E.00784
G1 X42.968 Y62.252 E.35839
G1 X43.275 Y62.252 E.00784
G1 X43.275 Y76.288 E.35839
G1 X43.582 Y76.288 E.00784
G1 X43.582 Y59.445 E.43007
G1 X43.889 Y59.445 E.00784
G1 X43.889 Y76.288 E.43007
G1 X44.196 Y76.288 E.00784
G1 X44.196 Y59.445 E.43007
G1 X44.504 Y59.445 E.00786
G1 X44.504 Y76.288 E.43007
G1 X44.811 Y76.288 E.00784
G1 X44.811 Y59.445 E.43007
G1 X45.118 Y59.445 E.00784
G1 X45.118 Y76.288 E.43007
G1 X45.425 Y76.288 E.00784
G1 X45.425 Y59.445 E.43007
G1 X45.732 Y59.445 E.00784
G1 X45.732 Y76.288 E.43007
G1 X46.039 Y76.288 E.00784
G1 X46.039 Y59.445 E.43007
G1 X46.346 Y59.445 E.00784
G1 X46.346 Y61.481 E.05199
G1 X46.653 Y61.174 E.01109
G1 X46.653 Y59.445 E.04415
G1 X46.96 Y59.445 E.00784
G1 X46.96 Y60.866 E.03628
G1 X47.267 Y60.559 E.01109
G1 X47.267 Y59.445 E.02844
G1 X47.574 Y59.445 E.00784
G1 X47.574 Y60.252 E.02061
G1 X47.881 Y59.945 E.01109
G1 X47.881 Y59.445 E.01277
G1 X48.188 Y59.445 E.00784
G1 X48.188 Y59.834 E.00993
G1 E-3.5 F1500
G1 X56.927 Y60.016 F54000
G1 E3.5 F1500
;TYPE:Perimeter
;WIDTH:0.424603
G1 F1800
G1 X56.883 Y60.03 E.00147
G1 X56.08 Y60.114 E.02562
;WIDTH:0.419852
G1 X55.276 Y60.074 E.02523
;WIDTH:0.419999
G1 X54.287 Y59.787 E.03229
G1 X53.539 Y59.382 E.02667
G1 X52.918 Y58.866 E.02532
G1 X52.479 Y58.338 E.02153
G1 X52.272 Y58.033 E.01156
G1 X52.018 Y57.535 E.01753
G1 X51.771 Y56.767 E.02529
G1 X51.671 Y55.966 E.02531
G1 X51.724 Y55.161 E.02529
G1 X51.927 Y54.379 E.02533
G1 X52.272 Y53.65 E.02529
G1 X52.683 Y53.082 E.02198
G1 X52.918 Y52.817 E.01111
G1 X53.337 Y52.448 E.01751
G1 X54.02 Y52.017 E.02532
G1 X54.498 Y51.82 E.01621
G1 X55.052 Y51.654 E.01813
G1 X55.788 Y51.561 E.02326
G1 X56.637 Y51.609 E.02666
G1 X57.419 Y51.811 E.02532
G1 X58.148 Y52.157 E.0253
G1 X58.8 Y52.633 E.02531
G1 X59.351 Y53.222 E.02529
G1 X59.781 Y53.904 E.02528
G1 X60.001 Y54.477 E.01924
G1 X60.172 Y55.035 E.0183
G1 X60.19 Y55.161 E.00399
G1 X60.243 Y55.727 E.01782
G1 X60.19 Y56.523 E.02501
G1 X59.987 Y57.304 E.0253
G1 X59.64 Y58.036 E.0254
G1 X59.007 Y58.85 E.03233
G1 X58.358 Y59.393 E.02653
G1 X57.65 Y59.78 E.0253
;WIDTH:0.424603
G1 X56.984 Y59.997 E.02223
G1 X56.646 Y59.681 F54000
;WIDTH:0.419999
G1 F1800
G1 X56.046 Y59.752 E.01894
G1 X55.312 Y59.699 E.02307
G1 X54.403 Y59.428 E.02974
G1 X53.731 Y59.057 E.02407
G1 X53.167 Y58.583 E.0231
G1 X52.777 Y58.107 E.01929
G1 X52.608 Y57.862 E.00933
G1 X52.354 Y57.363 E.01756
G1 X52.133 Y56.661 E.02308
G1 X52.047 Y55.93 E.02308
G1 X52.099 Y55.196 E.02307
G1 X52.289 Y54.485 E.02308
G1 X52.608 Y53.821 E.0231
G1 X52.981 Y53.313 E.01976
G1 X53.167 Y53.1 E.00887
G1 X53.587 Y52.73 E.01755
G1 X54.212 Y52.341 E.02308
G1 X54.898 Y52.077 E.02305
