; File Parsed By Flow Comp Script
; Script Ver. V0.7.1
; Flow Model Ver. V0.2.1
; Logger Ver. V0.0.1
; Flow Comp Model Points:
; (0, 0)
; (0.2, 0.4444)
; (0.4, 0.6145)
; (0.6, 0.7059)
; (0.8, 0.7619)
; (1.5, 0.8571)
; (2, 0.8889)
; (3, 0.9231)
; (5, 0.952)
; (10, 1)

; generated by PrusaSlicer 2.9.1 on 2025-03-15 at 18:05:26 UTC

; 

; external perimeters extrusion width = 0.45mm
; perimeters extrusion width = 0.45mm
; infill extrusion width = 0.45mm
; solid infill extrusion width = 0.45mm
; top infill extrusion width = 0.40mm
; first layer extrusion width = 0.42mm

; external perimeters extrusion width = 0.45mm
; perimeters extrusion width = 0.45mm
; infill extrusion width = 0.45mm
; solid infill extrusion width = 0.45mm
; top infill extrusion width = 0.40mm
; first layer extrusion width = 0.42mm

;TYPE:Custom
G90 ; use absolute coordinates
M83 ; extruder relative mode
M104 S210 ; set temporary nozzle temp to prevent oozing during homing
M140 S58 ; set final bed temp
G4 S30 ; allow partial nozzle warmup
G28 ; home all axis
G1 Z50 F240
G1 X2.0 Y10 F3000
M104 S208 ; set final nozzle temp
M190 S58 ; wait for bed temp to stabilize
M109 S208 ; wait for nozzle temp to stabilize
G1 Z0.28 F240
G92 E0
G1 X2.0 Y140 E10 F1500 ; prime the nozzle
G1 X2.3 Y140 F5000
G92 E0
G1 X2.3 Y10 E10 F1200 ; prime the nozzle
G92 E0
G21 ; set units to millimeters
G90 ; use absolute coordinates
M83 ; use relative distances for extrusion
; Filament gcode
M107
;LAYER_CHANGE
;Z:0.2
;HEIGHT:0.2
G1 E-3.5 F1500
G1 Z.2 F54000
G1 X20.673 Y77.36
G1 Z.2
G1 E3.5 F1500
M204 S3500
;TYPE:Skirt/Brim
;WIDTH:0.42
G1 F1800
G1 X22.64 Y76.834 E.06384
G1 X39.836 Y76.836 E.53917
G1 X67.964 Y77.46 E.88215
G1 X70.203 Y77.906 E.07158
G1 X72.154 Y79.093 E.0716
G1 X73.58 Y80.875 E.07156
G1 X74.384 Y84.024 E.1019
G1 X74.384 Y111.524 E.86224
G1 X73.987 Y113.772 E.07158
G1 X72.845 Y115.748 E.07156
G1 X71.094 Y117.214 E.0716
G1 X67.819 Y118.089 E.10629
G1 X43.819 Y118.089 E.7525
G1 X41.367 Y117.614 E.07831
G1 X20.189 Y109.091 E.71578
G1 X18.252 Y107.883 E.07158
G1 X16.845 Y106.085 E.07158
G1 X16.075 Y103 E.0997
G1 X16.075 Y83.4 E.61454
G1 X16.472 Y81.152 E.07158
G1 X17.615 Y79.175 E.0716
G1 X19.365 Y77.71 E.07156
G1 X20.615 Y77.375 E.04058
G1 X20.696 Y77.698 F54000
G1 F1800
G1 X22.64 Y77.211 E.06284
G1 X39.828 Y77.213 E.53892
G1 X67.956 Y77.837 E.88215
G1 X70.127 Y78.282 E.06949
G1 X72.002 Y79.463 E.06948
G1 X73.34 Y81.229 E.06947
G1 X74.007 Y84.024 E.0901
G1 X74.007 Y111.524 E.86224
G1 X73.611 Y113.704 E.06947
G1 X72.471 Y115.604 E.06947
G1 X70.735 Y116.982 E.06949
G1 X67.819 Y117.712 E.09425
G1 X43.819 Y117.712 E.7525
G1 X41.508 Y117.265 E.0738
G1 X20.33 Y108.741 E.71579
G1 X18.455 Y107.559 E.0695
G1 X17.118 Y105.792 E.06948
G1 X16.452 Y103 E.09
G1 X16.452 Y83.4 E.61454
G1 X16.849 Y81.22 E.06948
G1 X17.988 Y79.319 E.06948
G1 X19.724 Y77.942 E.06948
G1 X20.638 Y77.713 E.02954
G1 E-3.5 F1500
G1 X60.607 Y98.092 F54000
G1 E3.5 F1500
;TYPE:Perimeter
;WIDTH:0.419999
G1 F1800
G1 X60.7 Y97.886 E.00709
G1 X61.003 Y97.457 E.01647
G1 X61.381 Y97.093 E.01645
G1 X61.82 Y96.806 E.01644
G1 X62.306 Y96.606 E.01648
G1 X62.948 Y96.493 E.02044
G1 X63.517 Y96.514 E.01785
G1 X64.028 Y96.638 E.01649
G1 X64.506 Y96.855 E.01646
G1 X64.935 Y97.158 E.01647
G1 X65.299 Y97.536 E.01645
G1 X65.643 Y98.096 E.02061
;WIDTH:0.445535
G1 X65.844 Y98.626 E.01898
;WIDTH:0.488676
G1 X65.889 Y98.747 E.00478
;WIDTH:0.531817
G1 X65.934 Y98.868 E.00525
G1 X65.953 Y99.403 E.02176
;WIDTH:0.540465
G1 X65.923 Y99.788 E.01598
G1 X65.83 Y100.009 E.00992
;WIDTH:0.50031
G1 X65.737 Y100.23 E.00912
;WIDTH:0.460155
G1 X65.643 Y100.451 E.00833
;WIDTH:0.419999
G1 X65.299 Y101.011 E.02061
G1 X64.935 Y101.389 E.01645
G1 X64.506 Y101.692 E.01647
G1 X64.028 Y101.909 E.01646
G1 X63.519 Y102.033 E.01643
G1 X62.994 Y102.059 E.01648
G1 X62.475 Y101.987 E.01643
G1 X61.941 Y101.798 E.01776
G1 X61.493 Y101.543 E.01616
G1 X61.082 Y101.182 E.01715
G1 X60.744 Y100.741 E.01742
G1 X60.483 Y100.183 E.01931
G1 X60.359 Y99.674 E.01643
G1 X60.332 Y99.159 E.01617
G1 X60.406 Y98.63 E.01675
G1 X60.483 Y98.364 E.00868
G1 X60.582 Y98.146 E.00751
G1 X60.95 Y98.253 F54000
G1 F1800
G1 X61.093 Y97.96 E.01022
G1 X61.423 Y97.559 E.01628
G1 X61.774 Y97.272 E.01422
G1 X62.173 Y97.055 E.01424
G1 X62.634 Y96.913 E.01512
G1 X63.202 Y96.863 E.01788
G1 X63.657 Y96.923 E.01439
G1 X64.089 Y97.065 E.01426
G1 X64.485 Y97.286 E.01422
G1 X64.833 Y97.577 E.01422
G1 X65.136 Y97.955 E.01519
G1 X65.392 Y98.469 E.018
G1 X65.503 Y98.909 E.01423
G1 X65.529 Y99.362 E.01423
G1 X65.47 Y99.812 E.01423
G1 X65.313 Y100.27 E.01518
G1 X65.017 Y100.762 E.018
G1 X64.704 Y101.091 E.01424
G1 X64.335 Y101.356 E.01424
G1 X63.923 Y101.547 E.01424
G1 X63.483 Y101.658 E.01423
G1 X63.03 Y101.684 E.01423
G1 X62.58 Y101.624 E.01423
G1 X62.123 Y101.468 E.01514
G1 X61.631 Y101.171 E.01802
G1 X61.301 Y100.859 E.01424
G1 X61.036 Y100.49 E.01424
G1 X60.845 Y100.078 E.01424
G1 X60.735 Y99.638 E.01422
G1 X60.709 Y99.185 E.01423
G1 X60.768 Y98.734 E.01426
G1 X60.845 Y98.469 E.00865
G1 X60.924 Y98.307 E.00565
G1 X61.29 Y98.413 F54000
G1 F1800
G1 X61.429 Y98.138 E.00966
G1 X61.672 Y97.842 E.01201
G1 X61.966 Y97.596 E.01202
G1 X62.301 Y97.41 E.01201
G1 X62.682 Y97.287 E.01255
G1 X63.167 Y97.239 E.01528
G1 X63.552 Y97.285 E.01216
G1 X63.917 Y97.401 E.01201
G1 X64.254 Y97.584 E.01202
G1 X64.55 Y97.827 E.01201
G1 X64.805 Y98.136 E.01256
G1 X65.03 Y98.574 E.01544
G1 X65.127 Y98.945 E.01202
G1 X65.153 Y99.327 E.01201
G1 X65.107 Y99.707 E.012
G1 X64.983 Y100.088 E.01256
G1 X64.734 Y100.512 E.01542
G1 X64.473 Y100.793 E.01202
G1 X64.164 Y101.02 E.01202
G1 X63.818 Y101.185 E.01202
G1 X63.448 Y101.282 E.01199
G1 X63.065 Y101.308 E.01204
G1 X62.685 Y101.262 E.012
G1 X62.304 Y101.137 E.01257
G1 X61.88 Y100.889 E.0154
G1 X61.599 Y100.628 E.01202
G1 X61.372 Y100.319 E.01202
G1 X61.207 Y99.973 E.01202
G1 X61.11 Y99.602 E.01202
G1 X61.084 Y99.22 E.01201
G1 X61.13 Y98.839 E.01203
G1 X61.207 Y98.574 E.00865
G1 X61.262 Y98.466 E.0038
G1 X61.625 Y98.571 F54000
;TYPE:External perimeter
G1 F1800
G1 X61.727 Y98.37 E.00707
G1 X61.921 Y98.125 E.0098
G1 X62.158 Y97.921 E.0098
G1 X62.428 Y97.765 E.00978
G1 X62.729 Y97.661 E.00999
G1 X63.132 Y97.614 E.01272
G1 X63.447 Y97.647 E.00993
G1 X63.746 Y97.737 E.00979
G1 X64.023 Y97.882 E.0098
G1 X64.268 Y98.076 E.0098
G1 X64.475 Y98.318 E.00998
G1 X64.668 Y98.679 E.01283
G1 X64.752 Y98.98 E.0098
G1 X64.778 Y99.291 E.00979
G1 X64.745 Y99.602 E.00981
G1 X64.652 Y99.906 E.00997
G1 X64.451 Y100.263 E.01285
G1 X64.242 Y100.495 E.00979
G1 X63.993 Y100.684 E.0098
G1 X63.713 Y100.823 E.0098
G1 X63.412 Y100.907 E.0098
G1 X62.888 Y100.913 E.01643
G1 X62.486 Y100.807 E.01304
G1 X62.129 Y100.606 E.01285
G1 X61.897 Y100.396 E.00981
G1 X61.708 Y100.148 E.00978
G1 X61.569 Y99.868 E.0098
G1 X61.486 Y99.567 E.00979
G1 X61.459 Y99.256 E.00979
G1 X61.492 Y98.944 E.00984
G1 X61.569 Y98.679 E.00865
G1 X61.598 Y98.624 E.00195
G1 X61.806 Y98.282 F54000
G1 E-3.5 F1500
G1 X51.39 Y99.099 F54000
G1 E3.5 F1500
;TYPE:Perimeter
G1 F1800
G1 X51.405 Y99.389 E.0091
G1 X51.332 Y99.917 E.01671
G1 X51.163 Y100.415 E.01649
G1 X50.903 Y100.873 E.01651
G1 X50.529 Y101.301 E.01782
G1 X50.134 Y101.618 E.01588
G1 X49.528 Y101.909 E.02108
G1 X49.019 Y102.033 E.01643
G1 X48.494 Y102.059 E.01648
G1 X47.975 Y101.986 E.01643
G1 X47.441 Y101.798 E.01775
G1 X46.881 Y101.454 E.02061
G1 X46.503 Y101.09 E.01645
G1 X46.2 Y100.661 E.01647
G1 X45.983 Y100.184 E.01643
;WIDTH:0.462708
G1 X45.935 Y100.086 E.00381
;WIDTH:0.505417
G1 X45.886 Y99.988 E.00421
;WIDTH:0.548126
G1 X45.838 Y99.89 E.00458
;WIDTH:0.590835
G1 X45.789 Y99.792 E.00499
G1 X45.759 Y99.405 E.01768
;WIDTH:0.581911
G1 X45.779 Y98.866 E.02417
G1 X45.83 Y98.74 E.00609
;WIDTH:0.541433
G1 X45.881 Y98.615 E.0056
;WIDTH:0.500955
G1 X45.932 Y98.489 E.00518
;WIDTH:0.460477
G1 X45.983 Y98.364 E.00469
;WIDTH:0.419999
G1 X46.2 Y97.886 E.01646
G1 X46.503 Y97.457 E.01647
G1 X46.881 Y97.093 E.01645
G1 X47.32 Y96.806 E.01644
G1 X47.806 Y96.606 E.01648
G1 X48.448 Y96.493 E.02044
G1 X49.017 Y96.514 E.01785
G1 X49.528 Y96.638 E.01649
G1 X50.006 Y96.855 E.01646
G1 X50.435 Y97.158 E.01647
G1 X50.799 Y97.536 E.01645
G1 X51.111 Y98.036 E.01848
G1 X51.255 Y98.365 E.01126
G1 X51.378 Y98.874 E.01642
G1 X51.387 Y99.039 E.00518
G1 X51.015 Y99.123 F54000
G1 F1800
G1 X51.029 Y99.363 E.00754
G1 X50.97 Y99.812 E.0142
G1 X50.827 Y100.243 E.01424
G1 X50.605 Y100.641 E.01429
G1 X50.289 Y101.011 E.01526
G1 X49.836 Y101.356 E.01785
G1 X49.423 Y101.547 E.01427
G1 X48.983 Y101.658 E.01423
G1 X48.53 Y101.684 E.01423
G1 X48.08 Y101.624 E.01423
G1 X47.623 Y101.468 E.01514
G1 X47.131 Y101.171 E.01802
G1 X46.801 Y100.859 E.01424
G1 X46.536 Y100.49 E.01424
G1 X46.345 Y100.078 E.01424
G1 X46.235 Y99.638 E.01422
G1 X46.209 Y99.362 E.00869
G1 X46.235 Y98.909 E.01423
G1 X46.411 Y98.304 E.01976
G1 X46.631 Y97.907 E.01423
G1 X46.923 Y97.559 E.01424
G1 X47.274 Y97.272 E.01422
G1 X47.673 Y97.055 E.01424
G1 X48.134 Y96.913 E.01512
G1 X48.702 Y96.863 E.01788
G1 X49.175 Y96.928 E.01497
G1 X49.588 Y97.065 E.01364
G1 X49.985 Y97.286 E.01425
G1 X50.333 Y97.577 E.01422
G1 X50.636 Y97.955 E.01519
G1 X50.892 Y98.469 E.018
G1 X51.003 Y98.909 E.01423
G1 X51.012 Y99.063 E.00484
G1 X50.641 Y99.146 F54000
G1 F1800
G1 X50.653 Y99.327 E.00569
G1 X50.607 Y99.707 E.012
G1 X50.491 Y100.072 E.01201
G1 X50.308 Y100.409 E.01202
G1 X50.049 Y100.72 E.01269
G1 X49.664 Y101.02 E.0153
G1 X49.318 Y101.185 E.01202
G1 X48.781 Y101.298 E.01721
G1 X48.29 Y101.282 E.0154
G1 X47.804 Y101.137 E.0159
G1 X47.38 Y100.889 E.0154
G1 X47.099 Y100.628 E.01202
G1 X46.872 Y100.319 E.01202
G1 X46.707 Y99.973 E.01202
G1 X46.61 Y99.603 E.01199
G1 X46.584 Y99.327 E.00869
G1 X46.63 Y98.84 E.01534
G1 X46.747 Y98.475 E.01202
G1 X46.929 Y98.139 E.01198
G1 X47.172 Y97.842 E.01203
G1 X47.466 Y97.596 E.01202
G1 X47.801 Y97.41 E.01201
G1 X48.182 Y97.287 E.01255
G1 X48.667 Y97.239 E.01528
G1 X49.07 Y97.29 E.01274
G1 X49.417 Y97.401 E.01142
G1 X49.754 Y97.584 E.01202
G1 X50.05 Y97.827 E.01201
G1 X50.305 Y98.136 E.01256
G1 X50.53 Y98.575 E.01547
G1 X50.627 Y98.945 E.01199
G1 X50.637 Y99.087 E.00446
G1 X50.268 Y99.17 F54000
;TYPE:External perimeter
G1 F1800
G1 X50.278 Y99.292 E.00384
G1 X50.245 Y99.602 E.00977
G1 X50.155 Y99.901 E.00979
G1 X50.01 Y100.178 E.0098
G1 X49.809 Y100.429 E.01008
G1 X49.493 Y100.684 E.01273
G1 X49.213 Y100.823 E.0098
G1 X48.745 Y100.923 E.01501
G1 X48.29 Y100.9 E.01428
G1 X47.986 Y100.807 E.00997
G1 X47.629 Y100.606 E.01285
G1 X47.397 Y100.396 E.00981
G1 X47.208 Y100.148 E.00978
G1 X47.069 Y99.868 E.0098
G1 X46.986 Y99.567 E.00979
G1 X46.959 Y99.291 E.0087
G1 X46.992 Y98.945 E.0109
G1 X47.083 Y98.646 E.0098
G1 X47.227 Y98.37 E.00976
G1 X47.421 Y98.125 E.0098
G1 X47.658 Y97.921 E.0098
G1 X47.928 Y97.765 E.00978
G1 X48.229 Y97.661 E.00999
G1 X48.632 Y97.614 E.01272
G1 X48.965 Y97.652 E.01051
G1 X49.246 Y97.737 E.0092
G1 X49.523 Y97.882 E.0098
G1 X49.768 Y98.076 E.0098
G1 X49.975 Y98.318 E.00998
G1 X50.168 Y98.68 E.01286
G1 X50.252 Y98.98 E.00977
G1 X50.263 Y99.11 E.00409
G1 X50.251 Y99.51 F54000
G1 E-3.5 F1500
G1 X45.16 Y110.182 F54000
G1 E3.5 F1500
;TYPE:Perimeter
G1 F1800
G1 X45.16 Y100.301 E.30981
;WIDTH:0.462708
G1 X45.181 Y100.185 E.00411
;WIDTH:0.505417
G1 X45.203 Y100.07 E.0045
;WIDTH:0.548126
G1 X45.224 Y99.955 E.00491
;WIDTH:0.590835
G1 X45.245 Y99.839 E.00537
G1 X45.234 Y99.43 E.01864
;WIDTH:0.581911
G1 X45.241 Y98.841 E.0264
G1 X45.221 Y98.692 E.00674
;WIDTH:0.541433
G1 X45.2 Y98.544 E.0062
;WIDTH:0.500955
G1 X45.18 Y98.395 E.00573
;WIDTH:0.460477
G1 X45.16 Y98.247 E.00519
;WIDTH:0.419999
G1 X45.16 Y85.365 E.40391
G1 X66.478 Y85.365 E.66841
G1 X66.478 Y91.092 E.17957
G1 X66.478 Y97.882 E.2129
;WIDTH:0.445535
G1 X66.465 Y98.538 E.02197
;WIDTH:0.482141
G1 X66.446 Y98.83 E.01069
;WIDTH:0.518746
G1 X66.428 Y99.122 E.01157
;WIDTH:0.531817
G1 X66.422 Y99.702 E.02358
G1 X66.44 Y99.897 E.00796
;WIDTH:0.494545
G1 X66.459 Y100.092 E.00736
;WIDTH:0.457272
G1 X66.478 Y100.287 E.00675
;WIDTH:0.419999
G1 X66.478 Y110.182 E.31025
G1 X45.22 Y110.182 E.66653
G1 X44.783 Y110.559 F54000
G1 F1800
G1 X44.783 Y84.988 E.80176
G1 X66.855 Y84.988 E.69205
G1 X66.855 Y91.092 E.19139
G1 X66.855 Y110.559 E.61037
G1 X44.843 Y110.559 E.69017
G1 X44.406 Y110.937 F54000
G1 F1800
G1 X44.406 Y84.611 E.82543
G1 X67.232 Y84.611 E.71569
G1 X67.232 Y91.092 E.20321
G1 X67.232 Y110.937 E.62222
G1 X44.466 Y110.937 E.71381
G1 X44.029 Y111.314 F54000
;TYPE:External perimeter
G1 F1800
G1 X44.029 Y84.234 E.84907
G1 X67.609 Y84.234 E.73933
G1 X67.609 Y91.092 E.21503
G1 X67.609 Y111.314 E.63405
G1 X44.089 Y111.314 E.73745
G1 X44.029 Y110.918 F54000
G1 E-3.5 F1500
G1 X46.043 Y110.069 F54000
G1 E3.5 F1500
;TYPE:Solid infill
;WIDTH:0.423576
G1 F1800
G1 X45.443 Y109.469 E0.02074; Old Flow Value: 0.02686   Length: 0.84853
G1 X45.443 Y108.931 E0.01159; Old Flow Value: 0.01703   Length: 0.53800
G1 X46.411 Y109.9 E0.03666; Old Flow Value: 0.04335   Length: 1.36967
G1 X46.95 Y109.9 E0.01162; Old Flow Value: 0.01706   Length: 0.53900
G1 X45.443 Y108.393 E0.06038; Old Flow Value: 0.06746   Length: 2.13122
G1 X45.443 Y107.854 E0.01162; Old Flow Value: 0.01706   Length: 0.53900
G1 X47.488 Y109.9 E0.08428; Old Flow Value: 0.09156   Length: 2.89278
G1 X48.026 Y109.9 E0.01159; Old Flow Value: 0.01703   Length: 0.53800
G1 X45.443 Y107.316 E0.10821; Old Flow Value: 0.11564   Length: 3.65362
G1 X45.443 Y106.778 E0.01159; Old Flow Value: 0.01703   Length: 0.53800
G1 X48.565 Y109.9 E0.13219; Old Flow Value: 0.13975   Length: 4.41517
G1 X49.103 Y109.9 E0.01159; Old Flow Value: 0.01703   Length: 0.53800
G1 X45.443 Y106.239 E0.15627; Old Flow Value: 0.16385   Length: 5.17673
G1 X45.443 Y105.701 E0.01159; Old Flow Value: 0.01703   Length: 0.53800
G1 X49.641 Y109.9 E0.18065; Old Flow Value: 0.18793   Length: 5.93758
G1 X50.18 Y109.9 E0.01162; Old Flow Value: 0.01706   Length: 0.53900
G1 X45.443 Y105.163 E0.20540; Old Flow Value: 0.21204   Length: 6.69913
G1 X45.443 Y104.624 E0.01162; Old Flow Value: 0.01706   Length: 0.53900
G1 X50.718 Y109.9 E0.23047; Old Flow Value: 0.23614   Length: 7.46068
G1 X51.256 Y109.9 E0.01159; Old Flow Value: 0.01703   Length: 0.53800
G1 X45.443 Y104.086 E0.25587; Old Flow Value: 0.26023   Length: 8.22153
G1 X45.443 Y103.548 E0.01159; Old Flow Value: 0.01703   Length: 0.53800
G1 X51.795 Y109.9 E0.28161; Old Flow Value: 0.28433   Length: 8.98309
G1 X52.333 Y109.9 E0.01159; Old Flow Value: 0.01703   Length: 0.53800
G1 X45.443 Y103.009 E0.30769; Old Flow Value: 0.30843   Length: 9.74464
G1 X45.443 Y102.471 E0.01159; Old Flow Value: 0.01703   Length: 0.53800
G1 X52.871 Y109.9 E.33252; Old Flow Value: 0.33252   Length: 10.50548
G1 X53.41 Y109.9 E0.01162; Old Flow Value: 0.01706   Length: 0.53900
G1 X45.443 Y101.933 E.35662; Old Flow Value: 0.35662   Length: 11.26704
G1 X45.443 Y101.394 E0.01162; Old Flow Value: 0.01706   Length: 0.53900
G1 X53.948 Y109.9 E.38073; Old Flow Value: 0.38073   Length: 12.02860
G1 X54.486 Y109.9 E0.01159; Old Flow Value: 0.01703   Length: 0.53800
G1 X45.443 Y100.856 E.40481; Old Flow Value: 0.40481   Length: 12.78944
G1 X45.443 Y100.318 E0.01159; Old Flow Value: 0.01703   Length: 0.53800
G1 X55.194 Y110.069 E.43648; Old Flow Value: 0.43648   Length: 13.79000
G1 E-3.5 F1500
G1 X49.863 Y96.662 F54000
G1 E3.5 F1500; Old Flow Value: 3.5   Length: 0.00000
G1 F1800
G1 X45.443 Y92.243 E0.19077; Old Flow Value: 0.19783   Length: 6.25012
G1 X45.443 Y92.781 E0.01159; Old Flow Value: 0.01703   Length: 0.53800
G1 X48.879 Y96.217 E0.14620; Old Flow Value: 0.1538   Length: 4.85924
G1 X48.344 Y96.221 E0.01150; Old Flow Value: 0.01693   Length: 0.53501
G1 X45.443 Y93.319 E0.12237; Old Flow Value: 0.12988   Length: 4.10334
G1 X45.443 Y93.858 E0.01162; Old Flow Value: 0.01706   Length: 0.53900
G1 X47.883 Y96.298 E0.10183; Old Flow Value: 0.10922   Length: 3.45068
G1 X47.473 Y96.426 E0.00855; Old Flow Value: 0.01359   Length: 0.42952
G1 X45.443 Y94.396 E0.08360; Old Flow Value: 0.09087   Length: 2.87085
G1 X45.443 Y94.934 E0.01159; Old Flow Value: 0.01703   Length: 0.53799
G1 X47.11 Y96.602 E0.06750; Old Flow Value: 0.07464   Length: 2.35820
