; File Parsed By Flow Comp Script
; Script Ver. V0.7.1
; Flow Model Ver. V0.2.1
; Logger Ver. V0.0.1
; Flow Comp Model Points:
; (0, 0)
; (0.2, 0.4444)
; (0.4, 0.6145)
; (0.6, 0.7059)
; (0.8, 0.7619)
; (1.5, 0.8571)
; (2, 0.8889)
; (3, 0.9231)
; (5, 0.952)
; (10, 1)

; generated by PrusaSlicer 2.9.1 on 2025-04-04 at 22:49:01 UTC

; 

; external perimeters extrusion width = 0.45mm
; perimeters extrusion width = 0.45mm
; infill extrusion width = 0.45mm
; solid infill extrusion width = 0.45mm
; top infill extrusion width = 0.40mm
; support material extrusion width = 0.35mm
; first layer extrusion width = 0.42mm

; external perimeters extrusion width = 0.45mm
; perimeters extrusion width = 0.45mm
; infill extrusion width = 0.45mm
; solid infill extrusion width = 0.45mm
; top infill extrusion width = 0.40mm
; support material extrusion width = 0.35mm
; first layer extrusion width = 0.42mm

;TYPE:Custom
G90 ; use absolute coordinates
M83 ; extruder relative mode
CALCULATE_PA BOWDEN_LENGTH=34.0 MATERIAL=PLA LAYER_HEIGHT=0.2 NOZZLE_SIZE=0.4 PRINT_SPEED=120 FILAMENT_DIAMETER=1.75 LINE_WIDTH=0.45 ; auto pressure advance
M104 S210 ; set temporary nozzle temp to prevent oozing during homing
M140 S58 ; set final bed temp
G4 S30 ; allow partial nozzle warmup
G28 ; home all axis
G1 Z50 F240
G1 X2.0 Y10 F3000
M104 S208 ; set final nozzle temp
M190 S58 ; wait for bed temp to stabilize
M109 S208 ; wait for nozzle temp to stabilize
G1 Z0.28 F240
G92 E0
G1 X2.0 Y140 E10 F1500 ; prime the nozzle
G1 X2.3 Y140 F5000
G92 E0
G1 X2.3 Y10 E10 F1200 ; prime the nozzle
G92 E0
G21 ; set units to millimeters
G90 ; use absolute coordinates
M83 ; use relative distances for extrusion
; Filament gcode
M107
;LAYER_CHANGE
;Z:0.2
;HEIGHT:0.2
G1 E-3.5 F1500
G1 Z.2 F54000
G1 X13.214 Y72.329
G1 Z.2
G1 E3.5 F1500
M204 S3500
;TYPE:Skirt/Brim
;WIDTH:0.42
G1 F1800
G1 X37.214 Y72.329 E.7525
G1 X39.395 Y72.726 E.06951
G1 X41.295 Y73.865 E.06946
G1 X42.673 Y75.601 E.06949
G1 X43.403 Y78.517 E.09425
G1 X43.403 Y124.517 E1.4423
G1 X43.006 Y126.698 E.06951
G1 X41.867 Y128.598 E.06946
G1 X40.131 Y129.976 E.06949
G1 X37.214 Y130.706 E.09428
G1 X13.214 Y130.706 E.7525
G1 X11.034 Y130.309 E.06948
G1 X9.134 Y129.17 E.06946
G1 X7.756 Y127.434 E.06949
G1 X7.026 Y124.517 E.09428
G1 X7.026 Y78.517 E1.4423
G1 X7.423 Y76.337 E.06948
G1 X8.562 Y74.436 E.06948
G1 X10.298 Y73.059 E.06948
G1 X13.156 Y72.343 E.09238
G1 E-3.5 F1500
G1 X23.871 Y112.933 F54000
G1 E3.5 F1500
;TYPE:External perimeter
;WIDTH:0.419999
G1 F1800
G1 X23.823 Y112.852 E.00295
G1 X23.75 Y112.402 E.01429
G1 X23.849 Y111.957 E.01429
G1 X24.104 Y111.579 E.0143
G1 X24.486 Y111.32 E.01447
;WIDTH:0.450121
G1 X24.745 Y111.255 E.00904
;WIDTH:0.480243
G1 X25.004 Y111.191 E.0097
G1 X25.226 Y111.255 E.0084
;WIDTH:0.450121
G1 X25.448 Y111.319 E.00782
;WIDTH:0.419999
G1 X25.829 Y111.58 E.01448
G1 X26.111 Y112.022 E.01644
G1 X26.184 Y112.473 E.01432
G1 X26.085 Y112.918 E.01429
G1 X25.825 Y113.299 E.01446
G1 X25.401 Y113.577 E.0159
G1 X24.932 Y113.654 E.0149
G1 X24.481 Y113.552 E.0145
G1 X24.061 Y113.252 E.01618
G1 X23.901 Y112.984 E.00979
G1 X23.789 Y112.6 F54000
G1 E-3.5 F1500
G1 X17.156 Y112.261 F54000
G1 E3.5 F1500
G1 F1800
G1 X17.224 Y111.957 E.00977
G1 X17.479 Y111.579 E.0143
G1 X17.861 Y111.32 E.01447
;WIDTH:0.450121
G1 X18.12 Y111.255 E.00904
;WIDTH:0.480242
G1 X18.379 Y111.191 E.0097
G1 X18.601 Y111.255 E.0084
;WIDTH:0.450121
G1 X18.823 Y111.319 E.00782
;WIDTH:0.419999
G1 X19.204 Y111.579 E.01446
G1 X19.486 Y112.022 E.01647
G1 X19.559 Y112.473 E.01432
G1 X19.457 Y112.923 E.01447
G1 X19.162 Y113.339 E.01599
G1 X18.757 Y113.582 E.01481
G1 X18.301 Y113.653 E.01447
G1 X17.806 Y113.532 E.01598
G1 X17.431 Y113.244 E.01483
G1 X17.198 Y112.852 E.0143
G1 X17.125 Y112.402 E.01429
G1 X17.143 Y112.32 E.00263
G1 X17.257 Y111.936 F54000
G1 E-3.5 F1500
G1 X16.665 Y107.972 F54000
G1 E3.5 F1500
G1 F1800
G1 X16.604 Y107.891 E.00318
G1 X16.465 Y107.612 E.00977
G1 X16.381 Y107.311 E.0098
G1 X16.355 Y107 E.00979
G1 X16.395 Y106.665 E.01058
G1 X16.478 Y106.39 E.00901
G1 X16.623 Y106.113 E.0098
G1 X16.817 Y105.869 E.00977
G1 X17.053 Y105.665 E.00978
;WIDTH:0.459274
G1 X17.224 Y105.563 E.00689
;WIDTH:0.498548
G1 X17.394 Y105.461 E.00751
;WIDTH:0.537822
G1 X17.565 Y105.359 E.00819
;WIDTH:0.546433
G1 X18.012 Y105.294 E.01891
G1 X18.357 Y105.341 E.01458
;WIDTH:0.523746
G1 X18.534 Y105.43 E.00792
;WIDTH:0.489164
G1 X18.711 Y105.518 E.00733
;WIDTH:0.454582
G1 X18.889 Y105.607 E.00681
;WIDTH:0.419999
G1 X19.163 Y105.82 E.01088
G1 X19.372 Y106.064 E.01007
G1 X19.564 Y106.423 E.01276
G1 X19.648 Y106.724 E.0098
G1 X19.674 Y107.035 E.00979
G1 X19.641 Y107.346 E.00981
G1 X19.551 Y107.645 E.00979
G1 X19.406 Y107.921 E.00978
G1 X19.212 Y108.166 E.0098
G1 X18.97 Y108.373 E.00998
;WIDTH:0.459649
G1 X18.766 Y108.482 E.00801
;WIDTH:0.499299
G1 X18.563 Y108.592 E.00876
;WIDTH:0.538949
G1 X18.359 Y108.701 E.00954
;WIDTH:0.547531
G1 X17.991 Y108.74 E.01553
G1 X17.672 Y108.694 E.01352
;WIDTH:0.523946
G1 X17.468 Y108.587 E.00921
;WIDTH:0.489297
G1 X17.264 Y108.481 E.00853
;WIDTH:0.454648
G1 X17.061 Y108.375 E.00784
;WIDTH:0.419999
G1 X16.793 Y108.14 E.01118
G1 X16.702 Y108.02 E.00472
G1 X16.501 Y107.674 F54000
G1 E-3.5 F1500
G1 X20.412 Y120.934 F54000
G1 E3.5 F1500
;TYPE:Perimeter
G1 F1800
G1 X20.13 Y121.333 E.01532
G1 X19.752 Y121.698 E.01648
G1 X19.192 Y122.042 E.02061
G1 X18.658 Y122.23 E.01775
G1 X18.139 Y122.303 E.01643
G1 X17.614 Y122.277 E.01648
G1 X17.104 Y122.153 E.01646
G1 X16.519 Y121.868 E.0204
G1 X16.102 Y121.544 E.01656
G1 X15.729 Y121.115 E.01782
G1 X15.47 Y120.658 E.01647
;WIDTH:0.465827
G1 X15.364 Y120.416 E.00929
;WIDTH:0.511654
G1 X15.258 Y120.174 E.0103
;WIDTH:0.551244
G1 X15.221 Y120.105 E.00331
;WIDTH:0.590834
G1 X15.185 Y120.036 E.00355
G1 X15.151 Y119.517 E.0237
;WIDTH:0.581912
G1 X15.174 Y119.11 E.01827
G1 X15.226 Y118.984 E.00611
;WIDTH:0.541434
G1 X15.277 Y118.859 E.0056
;WIDTH:0.500956
G1 X15.328 Y118.733 E.00518
;WIDTH:0.460478
G1 X15.379 Y118.607 E.00472
;WIDTH:0.419999
G1 X15.596 Y118.13 E.01643
G1 X15.899 Y117.701 E.01647
G1 X16.277 Y117.337 E.01645
G1 X16.716 Y117.05 E.01644
G1 X17.202 Y116.85 E.01648
G1 X17.842 Y116.737 E.02038
G1 X18.412 Y116.758 E.01788
G1 X18.924 Y116.882 E.01652
G1 X19.402 Y117.099 E.01646
G1 X19.831 Y117.402 E.01647
G1 X20.195 Y117.78 E.01645
G1 X20.539 Y118.339 E.02058
G1 X20.727 Y118.873 E.01775
G1 X20.798 Y119.377 E.01596
G1 X20.774 Y119.917 E.01695
G1 X20.65 Y120.427 E.01646
G1 X20.443 Y120.883 E.0157
G1 X19.975 Y120.89 F54000
G1 F1800
G1 X19.711 Y121.232 E.01355
G1 X19.333 Y121.534 E.01517
G1 X18.819 Y121.791 E.01802
G1 X18.379 Y121.901 E.01422
G1 X17.926 Y121.927 E.01423
G1 X17.476 Y121.868 E.01423
G1 X17.019 Y121.712 E.01514
G1 X16.532 Y121.419 E.01782
G1 X16.197 Y121.102 E.01446
G1 X15.932 Y120.734 E.01422
G1 X15.741 Y120.322 E.01424
G1 X15.63 Y119.882 E.01423
G1 X15.604 Y119.429 E.01423
G1 X15.664 Y118.979 E.01423
G1 X15.806 Y118.547 E.01426
G1 X16.027 Y118.151 E.01422
G1 X16.318 Y117.803 E.01422
G1 X16.67 Y117.515 E.01426
G1 X17.069 Y117.299 E.01423
G1 X17.571 Y117.151 E.01641
G1 X18.096 Y117.107 E.01652
G1 X18.553 Y117.167 E.01445
G1 X18.984 Y117.309 E.01423
G1 X19.386 Y117.534 E.01444
G1 X19.797 Y117.898 E.01721
G1 X20.031 Y118.198 E.01193
G1 X20.288 Y118.712 E.01802
G1 X20.398 Y119.153 E.01425
G1 X20.424 Y119.606 E.01423
G1 X20.365 Y120.056 E.01423
G1 X20.223 Y120.487 E.01423
G1 X20.097 Y120.734 E.00869
G1 X20.012 Y120.843 E.00433
G1 X19.531 Y120.859 F54000
G1 F1800
G1 X19.461 Y120.949 E.00357
G1 X19.152 Y121.204 E.01256
G1 X18.714 Y121.429 E.01544
G1 X18.343 Y121.526 E.01202
G1 X17.961 Y121.552 E.01201
G1 X17.581 Y121.506 E.012
G1 X17.2 Y121.381 E.01257
G1 X16.78 Y121.136 E.01525
G1 X16.495 Y120.871 E.0122
G1 X16.268 Y120.563 E.012
G1 X16.103 Y120.217 E.01202
G1 X16.006 Y119.846 E.01202
G1 X15.98 Y119.464 E.01201
G1 X16.026 Y119.084 E.012
G1 X16.142 Y118.719 E.01201
G1 X16.325 Y118.382 E.01202
G1 X16.568 Y118.086 E.01201
G1 X16.862 Y117.84 E.01202
G1 X17.196 Y117.654 E.01199
G1 X17.619 Y117.526 E.01386
G1 X18.062 Y117.483 E.01396
G1 X18.448 Y117.529 E.01219
G1 X18.813 Y117.645 E.01201
G1 X19.155 Y117.832 E.01222
G1 X19.514 Y118.147 E.01497
G1 X19.701 Y118.38 E.00937
G1 X19.926 Y118.817 E.01541
G1 X20.023 Y119.188 E.01202
G1 X20.049 Y119.571 E.01204
G1 X20.003 Y119.951 E.012
G1 X19.887 Y120.316 E.01201
G1 X19.761 Y120.563 E.00869
G1 X19.567 Y120.812 E.0099
G1 X19.049 Y120.805 F54000
;TYPE:External perimeter
G1 F1800
G1 X18.97 Y120.873 E.00327
G1 X18.609 Y121.067 E.01285
G1 X18.308 Y121.15 E.00979
G1 X17.997 Y121.177 E.00979
G1 X17.686 Y121.144 E.00981
G1 X17.382 Y121.051 E.00997
G1 X17.029 Y120.852 E.01271
G1 X16.793 Y120.64 E.00995
G1 X16.604 Y120.391 E.0098
G1 X16.465 Y120.112 E.00977
G1 X16.381 Y119.811 E.0098
G1 X16.355 Y119.5 E.00979
G1 X16.388 Y119.189 E.00981
G1 X16.478 Y118.89 E.00979
G1 X16.623 Y118.613 E.0098
G1 X16.817 Y118.369 E.00977
G1 X17.053 Y118.164 E.0098
G1 X17.324 Y118.008 E.0098
G1 X17.667 Y117.9 E.01128
G1 X18.027 Y117.858 E.01136
G1 X18.551 Y117.951 E.01669
G1 X18.923 Y118.13 E.01294
G1 X19.231 Y118.397 E.01278
G1 X19.37 Y118.562 E.00676
G1 X19.594 Y119.029 E.01624
G1 X19.674 Y119.5 E.01498
G1 X19.641 Y119.846 E.0109
G1 X19.551 Y120.145 E.00979
G1 X19.425 Y120.391 E.00867
G1 X19.212 Y120.666 E.01091
G1 X19.095 Y120.766 E.00483
G1 X18.758 Y120.982 F54000
G1 E-3.5 F1500
G1 X30.764 Y121.672 F54000
G1 E3.5 F1500
;TYPE:Perimeter
G1 F1800
G1 X30.517 Y121.463 E.01014
G1 X30.188 Y121.054 E.01646
G1 X29.941 Y120.591 E.01645
G1 X29.786 Y120.09 E.01644
G1 X29.727 Y119.569 E.01644
G1 X29.769 Y119.034 E.01683
G1 X29.909 Y118.516 E.01682
G1 X30.185 Y117.98 E.0189
G1 X30.561 Y117.527 E.01846
G1 X30.978 Y117.191 E.01679
G1 X31.441 Y116.944 E.01645
G1 X31.92 Y116.792 E.01576
G1 X32.422 Y116.729 E.01586
G1 X32.935 Y116.759 E.01611
G1 X33.027 Y116.779 E.00295
G1 X33.655 Y116.973 E.02061
G1 X34.112 Y117.232 E.01647
G1 X34.512 Y117.572 E.01646
G1 X34.841 Y117.981 E.01646
G1 X35.088 Y118.444 E.01645
;WIDTH:0.462797
G1 X35.161 Y118.608 E.00627
;WIDTH:0.505594
G1 X35.234 Y118.771 E.00687
;WIDTH:0.548391
G1 X35.307 Y118.935 E.00754
G1 X35.351 Y119.468 E.02248
;WIDTH:0.533158
G1 X35.33 Y119.94 E.01926
G1 X35.24 Y120.179 E.01041
;WIDTH:0.495439
G1 X35.149 Y120.419 E.00966
;WIDTH:0.457719
G1 X35.059 Y120.658 E.00881
;WIDTH:0.419999
G1 X34.8 Y121.115 E.01647
G1 X34.46 Y121.515 E.01646
G1 X34.051 Y121.844 E.01646
G1 X33.588 Y122.091 E.01645
G1 X33.108 Y122.243 E.01579
G1 X32.607 Y122.306 E.01583
G1 X32.001 Y122.256 E.01907
G1 X31.374 Y122.062 E.02058
G1 X30.917 Y121.803 E.01647
G1 X30.809 Y121.711 E.00445
G1 X30.853 Y121.258 F54000
G1 F1800
G1 X30.8 Y121.214 E.00216
G1 X30.512 Y120.862 E.01426
G1 X30.296 Y120.463 E.01423
G1 X30.158 Y120.031 E.01422
G1 X30.104 Y119.58 E.01424
G1 X30.141 Y119.098 E.01516
G1 X30.306 Y118.548 E.018
G1 X30.527 Y118.151 E.01425
G1 X30.818 Y117.803 E.01422
G1 X31.267 Y117.458 E.01775
G1 X31.569 Y117.299 E.0107
G1 X32.001 Y117.161 E.01422
G1 X32.451 Y117.106 E.01421
G1 X32.934 Y117.144 E.01519
G1 X33.484 Y117.309 E.018
G1 X33.881 Y117.53 E.01425
G1 X34.229 Y117.821 E.01422
G1 X34.516 Y118.173 E.01424
G1 X34.733 Y118.572 E.01424
G1 X34.871 Y119.004 E.01422
G1 X34.925 Y119.454 E.01421
G1 X34.887 Y119.936 E.01516
G1 X34.723 Y120.487 E.01803
G1 X34.502 Y120.884 E.01425
G1 X34.121 Y121.311 E.01794
G1 X33.859 Y121.519 E.01049
G1 X33.46 Y121.736 E.01424
G1 X33.028 Y121.874 E.01422
G1 X32.577 Y121.928 E.01424
G1 X32.095 Y121.89 E.01516
G1 X31.545 Y121.726 E.018
G1 X31.148 Y121.505 E.01425
G1 X30.899 Y121.297 E.01017
G1 X30.965 Y120.824 F54000
G1 F1800
G1 X30.837 Y120.67 E.00628
G1 X30.651 Y120.335 E.01201
G1 X30.53 Y119.972 E.012
G1 X30.48 Y119.592 E.01202
G1 X30.507 Y119.192 E.01257
G1 X30.642 Y118.719 E.01542
G1 X30.825 Y118.382 E.01202
G1 X31.068 Y118.086 E.01201
G1 X31.459 Y117.782 E.01553
G1 X31.957 Y117.56 E.0171
G1 X32.44 Y117.483 E.01534
G1 X32.84 Y117.509 E.01257
G1 X33.313 Y117.645 E.01543
G1 X33.65 Y117.828 E.01202
G1 X33.946 Y118.071 E.01201
G1 X34.192 Y118.364 E.012
G1 X34.378 Y118.699 E.01201
G1 X34.498 Y119.063 E.01202
G1 X34.548 Y119.443 E.01202
G1 X34.522 Y119.843 E.01257
G1 X34.387 Y120.316 E.01542
G1 X34.204 Y120.652 E.012
G1 X33.872 Y121.028 E.01573
G1 X33.429 Y121.336 E.01692
G1 X32.969 Y121.501 E.01532
G1 X32.589 Y121.551 E.01202
G1 X32.189 Y121.525 E.01257
G1 X31.716 Y121.39 E.01542
G1 X31.379 Y121.207 E.01202
G1 X31.083 Y120.964 E.01201
G1 X31.004 Y120.87 E.00385
G1 X31.082 Y120.339 F54000
;TYPE:External perimeter
G1 F1800
G1 X31.006 Y120.208 E.00475
G1 X30.903 Y119.913 E.0098
G1 X30.857 Y119.604 E.0098
G1 X30.872 Y119.286 E.00998
G1 X30.978 Y118.89 E.01285
G1 X31.123 Y118.613 E.0098
G1 X31.317 Y118.369 E.00977
G1 X31.651 Y118.107 E.01331
G1 X32.116 Y117.906 E.01588
G1 X32.428 Y117.86 E.00989
G1 X32.746 Y117.875 E.00998
G1 X33.141 Y117.981 E.01282
G1 X33.418 Y118.126 E.0098
G1 X33.663 Y118.32 E.0098
G1 X33.867 Y118.556 E.00978
G1 X34.023 Y118.827 E.0098
G1 X34.126 Y119.122 E.0098
G1 X34.171 Y119.431 E.00979
G1 X34.157 Y119.749 E.00998
G1 X34.051 Y120.144 E.01282
G1 X33.906 Y120.421 E.0098
G1 X33.622 Y120.745 E.01351
G1 X33.205 Y121.026 E.01577
G1 X32.91 Y121.129 E.0098
G1 X32.601 Y121.174 E.00979
G1 X32.283 Y121.16 E.00998
G1 X31.887 Y121.054 E.01285
G1 X31.61 Y120.909 E.0098
G1 X31.366 Y120.715 E.00977
G1 X31.162 Y120.478 E.0098
G1 X31.112 Y120.391 E.00315
G1 X30.948 Y120.026 F54000
G1 E-3.5 F1500
G1 X33.916 Y107.863 F54000
G1 E3.5 F1500
G1 F1800
G1 X33.78 Y108.082 E.00808
G1 X33.418 Y108.409 E.0153
;WIDTH:0.460921
G1 X33.232 Y108.507 E.00731
;WIDTH:0.501843
G1 X33.046 Y108.605 E.00802
;WIDTH:0.542764
G1 X32.86 Y108.703 E.00874
;WIDTH:0.547531
G1 X32.491 Y108.74 E.01556
G1 X32.172 Y108.694 E.01352
;WIDTH:0.523918
G1 X31.995 Y108.605 E.00792
;WIDTH:0.489279
G1 X31.817 Y108.516 E.00739
;WIDTH:0.454639
G1 X31.64 Y108.428 E.00677
;WIDTH:0.419999
G1 X31.36 Y108.208 E.01116
G1 X31.104 Y107.892 E.01275
G1 X30.965 Y107.612 E.0098
G1 X30.881 Y107.311 E.0098
G1 X30.855 Y107 E.00979
G1 X30.888 Y106.689 E.00981
G1 X30.978 Y106.39 E.00979
G1 X31.123 Y106.113 E.0098
G1 X31.317 Y105.869 E.00977
G1 X31.553 Y105.665 E.00978
;WIDTH:0.459275
G1 X31.724 Y105.563 E.00689
;WIDTH:0.498551
G1 X31.894 Y105.461 E.00751
;WIDTH:0.537826
G1 X32.065 Y105.359 E.00819
;WIDTH:0.546432
G1 X32.512 Y105.294 E.01891
G1 X32.857 Y105.341 E.01458
;WIDTH:0.523753
G1 X33.034 Y105.43 E.00792
;WIDTH:0.489169
G1 X33.211 Y105.518 E.00733
;WIDTH:0.454584
G1 X33.388 Y105.607 E.00678
;WIDTH:0.419999
G1 X33.663 Y105.82 E.01091
G1 X33.872 Y106.064 E.01007
G1 X34.064 Y106.423 E.01276
G1 X34.148 Y106.724 E.0098
G1 X34.174 Y107.035 E.00979
G1 X34.141 Y107.346 E.00981
G1 X34.048 Y107.65 E.00997
G1 X33.948 Y107.812 E.00597
G1 X33.708 Y108.132 F54000
G1 E-3.5 F1500
G1 X15.014 Y108.078 F54000
G1 E3.5 F1500
;TYPE:Perimeter
;WIDTH:0.61547
G1 F1800
G1 X14.653 Y108.078 E.01719
G1 X14.652 Y107.767 E.01481
;WIDTH:0.611965
G1 X14.63 Y107.173 E.02813
;WIDTH:0.581915
G1 X14.637 Y106.584 E.0264
;WIDTH:0.615469
G1 X14.653 Y105.956 E.02991
G1 X15.334 Y105.956 E.03242
G1 X15.209 Y106.347 E.01954
;WIDTH:0.611965
G1 X15.151 Y107.017 E.03182
;WIDTH:0.590836
G1 X15.185 Y107.536 E.0237
;WIDTH:0.61547
G1 X15.334 Y108.078 E.02676
G1 X15.074 Y108.078 E.01238
G1 X16.01 Y108.553 F54000
;WIDTH:0.419999
G1 F1800
G1 X14.179 Y108.553 E.05741
G1 X14.179 Y105.481 E.09632
G1 X16.159 Y105.481 E.06208
G1 X16.027 Y105.651 E.00675
G1 X15.806 Y106.048 E.01425
G1 X15.671 Y106.455 E.01344
G1 X15.604 Y106.929 E.01501
G1 X15.63 Y107.382 E.01423
G1 X15.741 Y107.822 E.01423
G1 X15.932 Y108.234 E.01424
G1 X16.159 Y108.553 E.01228
G1 X16.07 Y108.553 E.00279
G1 X16.579 Y108.449 F54000
G1 F1800
G1 X16.778 Y108.634 E.00852
G1 X17.314 Y108.929 E.01918
G1 X13.802 Y108.93 E.11012
G1 X13.802 Y105.104 E.11996
G1 X16.663 Y105.104 E.0897
;WIDTH:0.429815
G1 X17.249 Y105.119 E.01886
G1 X16.862 Y105.34 E.01434
;WIDTH:0.419999
G1 X16.568 Y105.586 E.01202
G1 X16.325 Y105.882 E.01201
G1 X16.142 Y106.219 E.01202
G1 X16.033 Y106.56 E.01122
G1 X15.98 Y106.964 E.01278
G1 X16.006 Y107.346 E.01201
G1 X16.103 Y107.717 E.01202
G1 X16.268 Y108.063 E.01202
