; File Parsed By Flow Comp Script
; Script Ver. V0.7.1
; Flow Model Ver. V0.2.1
; Logger Ver. V0.0.1
; Flow Comp Model Points:
; (0, 0)
; (0.2, 0.4444)
; (0.4, 0.6145)
; (0.6, 0.7059)
; (0.8, 0.7619)
; (1.5, 0.8571)
; (2, 0.8889)
; (3, 0.9231)
; (5, 0.952)
; (10, 1)

; generated by PrusaSlicer 2.9.1 on 2025-03-17 at 23:48:19 UTC

; 

; external perimeters extrusion width = 0.45mm
; perimeters extrusion width = 0.45mm
; infill extrusion width = 0.45mm
; solid infill extrusion width = 0.45mm
; top infill extrusion width = 0.40mm
; support material extrusion width = 0.35mm
; first layer extrusion width = 0.42mm

; external perimeters extrusion width = 0.45mm
; perimeters extrusion width = 0.45mm
; infill extrusion width = 0.45mm
; solid infill extrusion width = 0.45mm
; top infill extrusion width = 0.40mm
; support material extrusion width = 0.35mm
; first layer extrusion width = 0.42mm

; external perimeters extrusion width = 0.45mm
; perimeters extrusion width = 0.45mm
; infill extrusion width = 0.45mm
; solid infill extrusion width = 0.45mm
; top infill extrusion width = 0.40mm
; support material extrusion width = 0.35mm
; first layer extrusion width = 0.42mm

;TYPE:Custom
G90 ; use absolute coordinates
M83 ; extruder relative mode
M104 S210 ; set temporary nozzle temp to prevent oozing during homing
M140 S58 ; set final bed temp
G4 S30 ; allow partial nozzle warmup
G28 ; home all axis
G1 Z50 F240
G1 X2.0 Y10 F3000
M104 S208 ; set final nozzle temp
M190 S58 ; wait for bed temp to stabilize
M109 S208 ; wait for nozzle temp to stabilize
G1 Z0.28 F240
G92 E0
G1 X2.0 Y140 E10 F1500 ; prime the nozzle
G1 X2.3 Y140 F5000
G92 E0
G1 X2.3 Y10 E10 F1200 ; prime the nozzle
G92 E0
G21 ; set units to millimeters
G90 ; use absolute coordinates
M83 ; use relative distances for extrusion
; Filament gcode
M107
;LAYER_CHANGE
;Z:0.2
;HEIGHT:0.2
G1 E-3.5 F1500
G1 Z.2 F54000
G1 X59.381 Y42.053
G1 Z.2
G1 E3.5 F1500
M204 S3500
;TYPE:Skirt/Brim
;WIDTH:0.42
G1 F1800
G1 X60.252 Y40.97 E.04358
G1 X60.946 Y40.275 E.0308
G1 X62.032 Y39.398 E.04377
G1 X63.215 Y38.669 E.04357
G1 X64.479 Y38.093 E.04355
G1 X65.533 Y37.751 E.03474
G1 X66.895 Y37.473 E.04359
G1 X68.211 Y37.368 E.04139
G1 X105.567 Y36.999 E1.17133
G1 X107.628 Y37.299 E.0653
G1 X109.219 Y37.815 E.05244
G1 X110.823 Y38.633 E.05645
G1 X112.484 Y39.887 E.06525
G1 X113.874 Y41.423 E.06495
G1 X114.777 Y42.844 E.05279
G1 X115.493 Y44.498 E.05651
G1 X115.973 Y46.524 E.06528
G1 X118.144 Y73.936 E.86218
G1 X118.164 Y80.202 E.19647
G1 X116.275 Y105.938 E.8091
G1 X115.713 Y108.15 E.07156
G1 X114.427 Y110.037 E.0716
G1 X112.077 Y111.583 E.0882
G1 X89.043 Y120.414 E.77347
G1 X86.693 Y120.849 E.07493
G1 X62.693 Y120.849 E.7525
G1 X60.445 Y120.453 E.07157
G1 X58.468 Y119.31 E.0716
G1 X57.002 Y117.559 E.0716
G1 X56.132 Y114.524 E.09899
G1 X54.983 Y83.111 E.98559
G1 X55.006 Y73.716 E.29457
G1 X57.403 Y47.412 E.82816
G1 X57.579 Y46.228 E.03753
G1 X57.853 Y45.157 E.03466
G1 X58.653 Y43.236 E.06525
G1 X59.35 Y42.104 E.04168
G1 X59.67 Y42.301 F54000
G1 F1800
G1 X59.686 Y42.274 E.00098
G1 X60.527 Y41.228 E.04208
G1 X61.204 Y40.549 E.03006
G1 X62.254 Y39.703 E.04228
G1 X63.397 Y38.999 E.04209
G1 X64.618 Y38.444 E.04205
G1 X65.627 Y38.116 E.03327
G1 X66.942 Y37.847 E.04208
G1 X68.215 Y37.746 E.04004
G1 X105.543 Y37.376 E1.17045
G1 X107.535 Y37.664 E.06311
G1 X109.08 Y38.166 E.05094
G1 X110.621 Y38.951 E.05422
G1 X112.226 Y40.162 E.06304
G1 X113.57 Y41.645 E.06275
G1 X114.447 Y43.025 E.05127
G1 X115.134 Y44.614 E.05428
G1 X115.599 Y46.571 E.06307
G1 X117.768 Y73.966 E.86164
G1 X117.787 Y80.202 E.19553
G1 X115.899 Y105.91 E.80823
G1 X115.342 Y108.055 E.06949
G1 X114.065 Y109.866 E.06948
G1 X111.942 Y111.231 E.07914
G1 X88.908 Y120.062 E.77347
G1 X86.693 Y120.472 E.07063
G1 X62.693 Y120.472 E.7525
G1 X60.513 Y120.076 E.06947
G1 X58.612 Y118.936 E.0695
G1 X57.235 Y117.2 E.06948
G1 X56.508 Y114.51 E.08737
G1 X55.36 Y83.097 E.98559
G1 X55.381 Y73.75 E.29307
G1 X57.778 Y47.446 E.82816
G1 X57.949 Y46.298 E.03639
G1 X58.211 Y45.274 E.03314
G1 X58.984 Y43.417 E.06307
G1 X59.639 Y42.352 E.0392
G1 E-3.5 F1500
G1 X111.598 Y80.202 F54000
G1 E3.5 F1500
;TYPE:Support material interface
;WIDTH:0.35
G1 F1800
G1 X111.598 Y74.45 E.14687
G1 X111.291 Y74.45 E.00784
G1 X111.291 Y80.064 E.14335
G1 X110.984 Y80.064 E.00784
G1 X110.984 Y74.45 E.14335
G1 X110.677 Y74.45 E.00784
G1 X110.677 Y80.064 E.14335
G1 X110.37 Y80.064 E.00784
G1 X110.37 Y74.45 E.14335
G1 X110.063 Y74.45 E.00784
G1 X110.063 Y80.064 E.14335
G1 X109.756 Y80.064 E.00784
G1 X109.756 Y74.45 E.14335
G1 X109.449 Y74.45 E.00784
G1 X109.449 Y80.064 E.14335
G1 X109.141 Y80.064 E.00786
G1 X109.141 Y74.45 E.14335
G1 X109.028 Y74.45 E.00289
G1 X109.028 Y71.643 E.07167
G1 X108.834 Y71.643 E.00495
G1 X108.834 Y82.871 E.28669
G1 X108.527 Y82.871 E.00784
G1 X108.527 Y71.643 E.28669
G1 X108.22 Y71.643 E.00784
G1 X108.22 Y82.871 E.28669
G1 X107.913 Y82.871 E.00784
G1 X107.913 Y71.643 E.28669
G1 X107.606 Y71.643 E.00784
G1 X107.606 Y82.871 E.28669
G1 X107.299 Y82.871 E.00784
G1 X107.299 Y71.643 E.28669
G1 X106.992 Y71.643 E.00784
G1 X106.992 Y82.871 E.28669
G1 X106.685 Y82.871 E.00784
G1 X106.685 Y71.643 E.28669
G1 X106.378 Y71.643 E.00784
G1 X106.378 Y82.871 E.28669
G1 X106.221 Y82.871 E.00401
G1 X106.221 Y85.678 E.07167
G1 X106.071 Y85.678 E.00383
G1 X106.071 Y68.836 E.43004
G1 X105.764 Y68.836 E.00784
G1 X105.764 Y85.678 E.43004
G1 X105.457 Y85.678 E.00784
G1 X105.457 Y68.836 E.43004
G1 X105.149 Y68.836 E.00786
G1 X105.149 Y85.678 E.43004
G1 X104.842 Y85.678 E.00784
G1 X104.842 Y68.836 E.43004
G1 X104.535 Y68.836 E.00784
G1 X104.535 Y85.678 E.43004
G1 X104.228 Y85.678 E.00784
G1 X104.228 Y68.836 E.43004
G1 X103.921 Y68.836 E.00784
G1 X103.921 Y85.678 E.43004
G1 X103.614 Y85.678 E.00784
G1 X103.614 Y68.836 E.43004
G1 X103.414 Y68.836 E.00511
G1 X103.414 Y66.028 E.0717
G1 X103.307 Y66.028 E.00273
G1 X103.307 Y82.871 E.43007
G1 X103 Y82.871 E.00784
G1 X103 Y66.028 E.43007
G1 X102.693 Y66.028 E.00784
G1 X102.693 Y82.871 E.43007
G1 X102.386 Y82.871 E.00784
G1 X102.386 Y66.028 E.43007
G1 X102.079 Y66.028 E.00784
G1 X102.079 Y82.871 E.43007
G1 X101.772 Y82.871 E.00784
G1 X101.772 Y66.028 E.43007
G1 X101.464 Y66.028 E.00786
G1 X101.464 Y82.871 E.43007
G1 X101.157 Y82.871 E.00784
G1 X101.157 Y68.803 E.35921
G1 X100.85 Y68.803 E.00784
G1 X100.85 Y82.871 E.35921
G1 X100.543 Y82.871 E.00784
G1 X100.543 Y68.803 E.35921
G1 X100.236 Y68.803 E.00784
G1 X100.236 Y71.643 E.07252
G1 X99.929 Y71.643 E.00784
G1 X99.929 Y68.803 E.07252
G1 X99.622 Y68.803 E.00784
G1 X99.622 Y71.643 E.07252
G1 X99.315 Y71.643 E.00784
G1 X99.315 Y68.803 E.07252
G1 X99.008 Y68.803 E.00784
G1 X99.008 Y71.643 E.07252
G1 X98.701 Y71.643 E.00784
G1 X98.701 Y68.803 E.07252
G1 X98.394 Y68.803 E.00784
G1 X98.394 Y71.643 E.07252
G1 X98.087 Y71.643 E.00784
G1 X98.087 Y68.803 E.07252
G1 X97.8 Y68.803 E.00733
G1 X97.78 Y80.064 E.28754
G1 X97.472 Y80.064 E.00786
G1 X97.472 Y71.643 E.21502
G1 X97.165 Y71.643 E.00784
G1 X97.165 Y80.064 E.21502
G1 X96.858 Y80.064 E.00784
G1 X96.858 Y71.643 E.21502
G1 X96.551 Y71.643 E.00784
G1 X96.551 Y80.064 E.21502
G1 X96.244 Y80.064 E.00784
G1 X96.244 Y71.643 E.21502
G1 X95.937 Y71.643 E.00784
G1 X95.937 Y80.064 E.21502
G1 X95.63 Y80.064 E.00784
G1 X95.63 Y71.643 E.21502
G1 X95.323 Y71.643 E.00784
G1 X95.323 Y80.064 E.21502
G1 X95.016 Y80.064 E.00784
G1 X94.992 Y68.836 E.28669
G1 X94.709 Y68.836 E.00723
G1 X94.709 Y77.257 E.21502
G1 X94.402 Y77.257 E.00784
G1 X94.402 Y68.836 E.21502
G1 X94.095 Y68.836 E.00784
G1 X94.095 Y77.257 E.21502
G1 X93.788 Y77.257 E.00784
G1 X93.788 Y68.836 E.21502
G1 X93.48 Y68.836 E.00786
G1 X93.48 Y77.257 E.21502
G1 X93.173 Y77.257 E.00784
G1 X93.173 Y68.836 E.21502
G1 X92.866 Y68.836 E.00784
G1 X92.866 Y77.257 E.21502
G1 X92.559 Y77.257 E.00784
G1 X92.559 Y68.836 E.21502
G1 X92.252 Y68.836 E.00784
G1 X92.252 Y77.257 E.21502
G1 X92.185 Y77.257 E.00171
G1 X92.185 Y74.45 E.07167
G1 X91.945 Y74.45 E.00613
G1 X91.945 Y68.836 E.14335
G1 X91.638 Y68.836 E.00784
G1 X91.638 Y74.45 E.14335
G1 X91.331 Y74.45 E.00784
G1 X91.331 Y68.836 E.14335
G1 X91.024 Y68.836 E.00784
G1 X91.024 Y74.45 E.14335
G1 X90.717 Y74.45 E.00784
G1 X90.717 Y68.836 E.14335
G1 X90.41 Y68.836 E.00784
G1 X90.41 Y74.45 E.14335
G1 X90.103 Y74.45 E.00784
G1 X90.103 Y68.836 E.14335
G1 X89.795 Y68.836 E.00786
G1 X89.795 Y74.45 E.14335
G1 X89.488 Y74.45 E.00784
G1 X89.488 Y68.836 E.14335
G1 X89.181 Y68.836 E.00784
G1 X89.181 Y74.45 E.14335
G1 X88.874 Y74.45 E.00784
G1 X88.874 Y68.836 E.14335
G1 X88.567 Y68.836 E.00784
G1 X88.567 Y74.45 E.14335
G1 X88.26 Y74.45 E.00784
G1 X88.26 Y68.836 E.14335
G1 X87.953 Y68.836 E.00784
G1 X87.953 Y74.45 E.14335
G1 X87.646 Y74.45 E.00784
G1 X87.646 Y68.836 E.14335
G1 X87.339 Y68.836 E.00784
G1 X87.339 Y74.45 E.14335
G1 X87.032 Y74.45 E.00784
G1 X87.032 Y68.836 E.14335
G1 X86.725 Y68.836 E.00784
G1 X86.725 Y74.45 E.14335
G1 X86.418 Y74.45 E.00784
G1 X86.418 Y68.836 E.14335
G1 X86.111 Y68.836 E.00784
G1 X86.111 Y74.45 E.14335
G1 X85.803 Y74.45 E.00786
G1 X85.803 Y68.836 E.14335
G1 X85.496 Y68.836 E.00784
G1 X85.496 Y74.45 E.14335
G1 X85.189 Y74.45 E.00784
G1 X85.189 Y68.836 E.14335
G1 X84.882 Y68.836 E.00784
G1 X84.882 Y74.45 E.14335
G1 X84.575 Y74.45 E.00784
G1 X84.575 Y68.836 E.14335
G1 X84.268 Y68.836 E.00784
G1 X84.268 Y74.45 E.14335
G1 X83.961 Y74.45 E.00784
G1 X83.961 Y68.836 E.14335
G1 X83.654 Y68.836 E.00784
G1 X83.654 Y74.45 E.14335
G1 X83.347 Y74.45 E.00784
G1 X83.347 Y68.836 E.14335
G1 X83.04 Y68.836 E.00784
G1 X83.04 Y74.45 E.14335
G1 X82.733 Y74.45 E.00784
G1 X82.733 Y68.836 E.14335
G1 X82.426 Y68.836 E.00784
G1 X82.426 Y74.45 E.14335
G1 X82.119 Y74.45 E.00784
G1 X82.119 Y68.836 E.14335
G1 X81.811 Y68.836 E.00786
G1 X81.811 Y74.45 E.14335
G1 X81.504 Y74.45 E.00784
G1 X81.504 Y68.836 E.14335
G1 X81.197 Y68.836 E.00784
G1 X81.197 Y74.45 E.14335
G1 X80.89 Y74.45 E.00784
G1 X80.89 Y68.836 E.14335
G1 X80.583 Y68.836 E.00784
G1 X80.583 Y74.45 E.14335
G1 X80.276 Y74.45 E.00784
G1 X80.276 Y68.836 E.14335
G1 X79.969 Y68.836 E.00784
G1 X79.969 Y74.45 E.14335
G1 X79.662 Y74.45 E.00784
G1 X79.662 Y68.836 E.14335
G1 X79.355 Y68.836 E.00784
G1 X79.355 Y74.45 E.14335
G1 X79.048 Y74.45 E.00784
G1 X79.048 Y68.836 E.14335
G1 X78.741 Y68.836 E.00784
G1 X78.741 Y74.45 E.14335
G1 X78.434 Y74.45 E.00784
G1 X78.434 Y68.836 E.14335
G1 X78.15 Y68.836 E.00725
G1 X78.126 Y77.257 E.21502
G1 X77.819 Y77.257 E.00784
G1 X77.819 Y71.643 E.14335
G1 X77.512 Y71.643 E.00784
G1 X77.512 Y77.257 E.14335
G1 X77.205 Y77.257 E.00784
G1 X77.205 Y71.643 E.14335
G1 X76.898 Y71.643 E.00784
G1 X76.898 Y77.257 E.14335
G1 X76.591 Y77.257 E.00784
G1 X76.591 Y71.643 E.14335
G1 X76.284 Y71.643 E.00784
G1 X76.284 Y77.257 E.14335
G1 X75.977 Y77.257 E.00784
G1 X75.977 Y71.643 E.14335
G1 X75.67 Y71.643 E.00784
G1 X75.67 Y77.257 E.14335
G1 X75.363 Y77.257 E.00784
G1 X75.343 Y68.803 E.21586
G1 X75.056 Y68.803 E.00733
G1 X75.056 Y71.643 E.07252
G1 X74.749 Y71.643 E.00784
G1 X74.749 Y68.803 E.07252
G1 X74.442 Y68.803 E.00784
G1 X74.442 Y71.643 E.07252
G1 X74.134 Y71.643 E.00786
G1 X74.134 Y68.803 E.07252
G1 X73.827 Y68.803 E.00784
G1 X73.827 Y71.643 E.07252
G1 X73.52 Y71.643 E.00784
G1 X73.52 Y68.803 E.07252
G1 X73.213 Y68.803 E.00784
G1 X73.213 Y71.643 E.07252
G1 X72.906 Y71.643 E.00784
G1 X72.906 Y68.803 E.07252
G1 X72.599 Y68.803 E.00784
G1 X72.599 Y80.064 E.28754
G1 X72.906 Y80.064 E.00784
G1 X72.906 Y74.45 E.14335
G1 X73.213 Y74.45 E.00784
G1 X73.213 Y80.064 E.14335
G1 X73.52 Y80.064 E.00784
G1 X73.52 Y74.45 E.14335
G1 X73.827 Y74.45 E.00784
G1 X73.827 Y80.064 E.14335
G1 X74.134 Y80.064 E.00784
G1 X74.134 Y74.45 E.14335
G1 X74.442 Y74.45 E.00786
G1 X74.442 Y80.064 E.14335
G1 X74.749 Y80.064 E.00784
G1 X74.749 Y74.45 E.14335
G1 X75.056 Y74.45 E.00784
G1 X75.056 Y80.202 E.14687
G1 E-3.5 F1500
G1 X72.292 Y83.009 F54000
G1 E3.5 F1500
G1 F1800
G1 X72.292 Y68.803 E.36273
G1 X71.985 Y68.803 E.00784
G1 X71.985 Y82.871 E.35921
G1 X71.678 Y82.871 E.00784
G1 X71.678 Y68.803 E.35921
G1 X71.371 Y68.803 E.00784
G1 X71.371 Y82.871 E.35921
G1 X71.064 Y82.871 E.00784
G1 X71.064 Y66.028 E.43007
G1 X71.371 Y66.028 E.00784
G1 X71.371 Y68.028 E.05107
G1 X71.678 Y67.721 E.01109
G1 X71.678 Y66.028 E.04323
G1 X71.985 Y66.028 E.00784
G1 X71.985 Y67.414 E.03539
G1 X72.292 Y67.107 E.01109
G1 X72.292 Y65.89 E.03107
G1 X74.011 Y65.308 F54000
;TYPE:Support material
;WIDTH:0.42
G1 F1800
G1 X72.899 Y66.42 E.04931
G1 X72.899 Y65.665 E.02367
G1 X69.899 Y65.665 E.09406
G1 X69.899 Y63.085 E.08089
G1 X74.011 Y63.085 E.12893
G1 X74.011 Y65.252 E.06794
G1 X73.583 Y65.496 F54000
G1 F1800
G1 X73.583 Y63.424 E.06497
G1 X73.164 Y63.424 E.01314
G1 X73.164 Y65.325 E.0596
G1 X72.745 Y65.325 E.01314
G1 X72.745 Y63.424 E.0596
G1 X72.326 Y63.424 E.01314
G1 X72.326 Y65.325 E.0596
G1 X71.907 Y65.325 E.01314
G1 X71.907 Y63.424 E.0596
G1 X71.488 Y63.424 E.01314
G1 X71.488 Y65.325 E.0596
G1 X71.069 Y65.325 E.01314
G1 X71.069 Y63.424 E.0596
G1 X70.65 Y63.424 E.01314
G1 X70.65 Y65.495 E.06493
G1 E-3.5 F1500
G1 X69.365 Y68.472 F54000
G1 E3.5 F1500
G1 F1800
G1 X67.399 Y68.472 E.06164
G1 X67.299 Y68.372 E.00443
G1 X69.365 Y66.306 E.09161
G1 X69.365 Y68.415 E.06613
G1 X68.974 Y68.302 F54000
G1 F1800
G1 X68.974 Y67.177 E.03527
G1 X68.555 Y67.595 E.01856
G1 X68.555 Y68.133 E.01687
G1 X68.136 Y68.133 E.01314
G1 X68.136 Y67.774 E.01126
G1 E-3.5 F1500
G1 X61.544 Y74.312 F54000
G1 E3.5 F1500
;TYPE:Support material interface
;WIDTH:0.35
G1 F1800
G1 X61.544 Y82.871 E.21854
G1 X61.851 Y82.871 E.00784
G1 X61.851 Y74.45 E.21502
G1 X62.158 Y74.45 E.00784
G1 X62.158 Y82.871 E.21502
G1 X62.465 Y82.871 E.00784
G1 X62.465 Y74.45 E.21502
G1 X62.773 Y74.45 E.00786
G1 X62.773 Y82.871 E.21502
G1 X63.08 Y82.871 E.00784
G1 X63.08 Y74.45 E.21502
G1 X63.387 Y74.45 E.00784
G1 X63.387 Y82.871 E.21502
G1 X63.694 Y82.871 E.00784
G1 X63.694 Y74.45 E.21502
G1 X64.001 Y74.45 E.00784
G1 X64.001 Y82.871 E.21502
G1 X64.308 Y82.871 E.00784
G1 X64.308 Y71.643 E.28669
G1 X64.615 Y71.643 E.00784
G1 X64.615 Y82.871 E.28669
G1 X64.922 Y82.871 E.00784
G1 X64.922 Y71.643 E.28669
G1 X65.229 Y71.643 E.00784
G1 X65.229 Y82.871 E.28669
G1 X65.536 Y82.871 E.00784
G1 X65.536 Y71.643 E.28669
G1 X65.843 Y71.643 E.00784
G1 X65.843 Y82.871 E.28669
G1 X66.15 Y82.871 E.00784
G1 X66.15 Y71.643 E.28669
G1 X66.457 Y71.643 E.00784
G1 X66.457 Y82.871 E.28669
G1 X66.765 Y82.871 E.00786
G1 X66.765 Y71.643 E.28669
G1 X66.922 Y71.643 E.00401
G1 X66.922 Y68.836 E.07167
G1 X67.072 Y68.836 E.00383
G1 X67.072 Y82.871 E.35837
G1 X67.379 Y82.871 E.00784
G1 X67.379 Y68.836 E.35837
G1 X67.686 Y68.836 E.00784
G1 X67.686 Y82.871 E.35837
G1 X67.993 Y82.871 E.00784
G1 X67.993 Y68.836 E.35837
G1 X68.3 Y68.836 E.00784
G1 X68.3 Y82.871 E.35837
G1 X68.607 Y82.871 E.00784
G1 X68.607 Y68.836 E.35837
G1 X68.914 Y68.836 E.00784
G1 X68.914 Y82.871 E.35837
G1 X69.221 Y82.871 E.00784
G1 X69.221 Y68.836 E.35837
G1 X69.528 Y68.836 E.00784
G1 X69.528 Y82.871 E.35837
G1 X69.835 Y82.871 E.00784
G1 X69.835 Y66.028 E.43007
G1 X70.142 Y66.028 E.00784
G1 X70.142 Y82.871 E.43007
G1 X70.45 Y82.871 E.00786
G1 X70.45 Y66.028 E.43007
G1 X70.757 Y66.028 E.00784
G1 X70.757 Y83.009 E.43359
G1 E-3.5 F1500
G1 X98.087 Y83.009 F54000
G1 E3.5 F1500
G1 F1800
G1 X98.087 Y74.45 E.21854
G1 X98.394 Y74.45 E.00784
G1 X98.394 Y82.871 E.21502
G1 X98.701 Y82.871 E.00784
G1 X98.701 Y74.45 E.21502
G1 X99.008 Y74.45 E.00784
G1 X99.008 Y82.871 E.21502
G1 X99.315 Y82.871 E.00784
G1 X99.315 Y74.45 E.21502
G1 X99.622 Y74.45 E.00784
G1 X99.622 Y82.871 E.21502
G1 X99.929 Y82.871 E.00784
G1 X99.929 Y74.45 E.21502
G1 X100.236 Y74.45 E.00784
G1 X100.236 Y83.009 E.21854
G1 E-3.5 F1500
G1 X101.157 Y68.196 F54000
G1 E3.5 F1500
G1 F1800
G1 X101.157 Y66.028 E.05536
G1 X100.85 Y66.028 E.00784
G1 X100.85 Y67.889 E.04752
G1 E-3.5 F1500
G1 X103.243 Y65.665 F54000
G1 E3.5 F1500
;TYPE:Support material
;WIDTH:0.42
G1 F1800
G1 X100.243 Y65.665 E.09406
G1 X100.243 Y67.006 E.04205
G1 X99.131 Y65.895 E.04929
G1 X99.131 Y63.085 E.08811
G1 X103.243 Y63.085 E.12893
G1 X103.243 Y65.608 E.07911
G1 X102.492 Y65.495 F54000
G1 F1800
G1 X102.492 Y63.424 E.06493
G1 X102.073 Y63.424 E.01314
