; File Parsed By Flow Comp Script
; Script Ver. V0.7.1
; Flow Model Ver. V0.2.1
; Logger Ver. V0.0.1
; Flow Comp Model Points:
; (0, 0)
; (0.2, 0.4444)
; (0.4, 0.6145)
; (0.6, 0.7059)
; (0.8, 0.7619)
; (1.5, 0.8571)
; (2, 0.8889)
; (3, 0.9231)
; (5, 0.952)
; (10, 1)

; generated by PrusaSlicer 2.9.1 on 2025-03-17 at 14:24:34 UTC

; 

; external perimeters extrusion width = 0.45mm
; perimeters extrusion width = 0.45mm
; infill extrusion width = 0.45mm
; solid infill extrusion width = 0.45mm
; top infill extrusion width = 0.40mm
; support material extrusion width = 0.35mm
; first layer extrusion width = 0.42mm

; external perimeters extrusion width = 0.45mm
; perimeters extrusion width = 0.45mm
; infill extrusion width = 0.45mm
; solid infill extrusion width = 0.45mm
; top infill extrusion width = 0.40mm
; support material extrusion width = 0.35mm
; first layer extrusion width = 0.42mm

;TYPE:Custom
G90 ; use absolute coordinates
M83 ; extruder relative mode
M104 S210 ; set temporary nozzle temp to prevent oozing during homing
M140 S58 ; set final bed temp
G4 S30 ; allow partial nozzle warmup
G28 ; home all axis
G1 Z50 F240
G1 X2.0 Y10 F3000
M104 S208 ; set final nozzle temp
M190 S58 ; wait for bed temp to stabilize
M109 S208 ; wait for nozzle temp to stabilize
G1 Z0.28 F240
G92 E0
G1 X2.0 Y140 E10 F1500 ; prime the nozzle
G1 X2.3 Y140 F5000
G92 E0
G1 X2.3 Y10 E10 F1200 ; prime the nozzle
G92 E0
G21 ; set units to millimeters
G90 ; use absolute coordinates
M83 ; use relative distances for extrusion
; Filament gcode
M107
;LAYER_CHANGE
;Z:0.2
;HEIGHT:0.2
G1 E-3.5 F1500
G1 Z.2 F54000
G1 X59.418 Y81.108
G1 Z.2
G1 E3.5 F1500
M204 S3500
;TYPE:Skirt/Brim
;WIDTH:0.42
G1 F1800
G1 X62.689 Y80.233 E.10617
G1 X86.693 Y80.218 E.75263
G1 X110.187 Y81.853 E.73842
G1 X112.402 Y82.407 E.07159
G1 X114.294 Y83.685 E.07159
G1 X115.633 Y85.534 E.07158
G1 X116.293 Y88.402 E.09227
G1 X116.293 Y105.452 E.53459
G1 X115.896 Y107.701 E.07161
G1 X114.753 Y109.677 E.07157
G1 X112.077 Y111.583 E.10301
G1 X89.043 Y120.414 E.77347
G1 X86.693 Y120.849 E.07493
G1 X62.693 Y120.849 E.7525
G1 X60.445 Y120.453 E.07157
G1 X58.468 Y119.31 E.0716
G1 X57.002 Y117.559 E.0716
G1 X56.127 Y114.284 E.10629
G1 X56.127 Y86.798 E.8618
G1 X56.524 Y84.55 E.07158
G1 X57.667 Y82.574 E.07157
G1 X59.372 Y81.146 E.06973
G1 X59.622 Y81.462 F54000
G1 F1800
G1 X59.776 Y81.34 E.00616
G1 X62.689 Y80.61 E.09416
G1 X86.693 Y80.595 E.75263
G1 X110.161 Y82.229 E.7376
G1 X112.308 Y82.778 E.06948
G1 X114.124 Y84.048 E.06948
G1 X115.376 Y85.876 E.06947
G1 X115.916 Y88.402 E.08099
G1 X115.916 Y105.452 E.53459
G1 X115.519 Y107.633 E.06951
G1 X114.379 Y109.533 E.06947
G1 X111.942 Y111.231 E.09313
G1 X88.908 Y120.062 E.77347
G1 X86.693 Y120.472 E.07063
G1 X62.693 Y120.472 E.7525
G1 X60.513 Y120.076 E.06947
G1 X58.612 Y118.936 E.0695
G1 X57.235 Y117.2 E.06948
G1 X56.504 Y114.284 E.09426
G1 X56.504 Y86.798 E.8618
G1 X56.901 Y84.618 E.06948
G1 X58.041 Y82.717 E.0695
G1 X59.575 Y81.5 E.0614
G1 E-3.5 F1500
G1 X79.967 Y100.131 F54000
G1 E3.5 F1500
;TYPE:Perimeter
;WIDTH:0.419999
G1 F1800
G1 X80.255 Y99.853 E.01255
G1 X80.695 Y99.566 E.01647
G1 X81.18 Y99.367 E.01644
G1 X81.822 Y99.253 E.02044
G1 X82.391 Y99.274 E.01785
G1 X82.903 Y99.398 E.01652
G1 X83.381 Y99.616 E.01647
G1 X83.809 Y99.918 E.01642
G1 X84.174 Y100.296 E.01648
G1 X84.518 Y100.856 E.02061
;WIDTH:0.445535
G1 X84.718 Y101.387 E.019
;WIDTH:0.488676
G1 X84.763 Y101.508 E.00478
;WIDTH:0.531817
G1 X84.808 Y101.629 E.00525
G1 X84.827 Y102.163 E.02172
;WIDTH:0.540465
G1 X84.798 Y102.548 E.01597
G1 X84.704 Y102.769 E.00994
;WIDTH:0.50031
G1 X84.611 Y102.991 E.00915
;WIDTH:0.460155
G1 X84.518 Y103.212 E.00832
;WIDTH:0.419999
G1 X84.174 Y103.771 E.02058
G1 X83.809 Y104.149 E.01648
G1 X83.381 Y104.452 E.01644
G1 X82.903 Y104.67 E.01647
G1 X82.393 Y104.793 E.01645
G1 X81.869 Y104.819 E.01645
G1 X81.349 Y104.747 E.01646
G1 X80.815 Y104.559 E.01775
G1 X80.367 Y104.303 E.01618
G1 X79.956 Y103.943 E.01713
G1 X79.618 Y103.501 E.01745
G1 X79.357 Y102.944 E.01929
G1 X79.233 Y102.434 E.01646
G1 X79.207 Y101.919 E.01617
G1 X79.28 Y101.39 E.01674
G1 X79.357 Y101.124 E.00868
G1 X79.574 Y100.646 E.01646
G1 X79.877 Y100.218 E.01644
G1 X79.924 Y100.173 E.00204
G1 X80.24 Y100.388 F54000
G1 F1800
G1 X80.297 Y100.319 E.00281
G1 X80.648 Y100.032 E.01422
G1 X81.047 Y99.815 E.01424
G1 X81.508 Y99.673 E.01512
G1 X82.076 Y99.624 E.01788
G1 X82.531 Y99.683 E.01439
G1 X82.963 Y99.826 E.01427
G1 X83.359 Y100.046 E.0142
G1 X83.707 Y100.338 E.01424
G1 X84.01 Y100.715 E.01517
G1 X84.266 Y101.229 E.018
G1 X84.377 Y101.669 E.01423
G1 X84.403 Y102.123 E.01426
G1 X84.344 Y102.572 E.0142
G1 X84.187 Y103.03 E.01518
G1 X83.891 Y103.522 E.018
G1 X83.578 Y103.851 E.01424
G1 X83.209 Y104.116 E.01424
G1 X82.797 Y104.307 E.01424
G1 X82.357 Y104.418 E.01423
G1 X81.904 Y104.444 E.01423
G1 X81.454 Y104.385 E.01423
G1 X80.997 Y104.228 E.01515
G1 X80.505 Y103.932 E.018
G1 X80.175 Y103.619 E.01426
G1 X79.91 Y103.25 E.01424
G1 X79.719 Y102.838 E.01424
G1 X79.609 Y102.398 E.01422
G1 X79.583 Y101.945 E.01423
G1 X79.642 Y101.494 E.01426
G1 X79.719 Y101.229 E.00865
G1 X79.968 Y100.72 E.01777
G1 X80.202 Y100.434 E.01159
G1 X80.512 Y100.644 F54000
G1 F1800
G1 X80.546 Y100.602 E.00169
G1 X80.84 Y100.356 E.01202
G1 X81.175 Y100.17 E.01201
G1 X81.556 Y100.047 E.01255
G1 X82.041 Y99.999 E.01528
G1 X82.426 Y100.045 E.01216
G1 X82.791 Y100.162 E.01202
G1 X83.128 Y100.344 E.01201
G1 X83.424 Y100.587 E.01201
G1 X83.679 Y100.897 E.01259
G1 X83.904 Y101.334 E.01541
G1 X84.001 Y101.705 E.01202
G1 X84.028 Y102.087 E.01201
G1 X83.982 Y102.467 E.012
G1 X83.857 Y102.848 E.01257
G1 X83.608 Y103.273 E.01544
G1 X83.347 Y103.554 E.01202
G1 X83.038 Y103.78 E.012
G1 X82.692 Y103.945 E.01202
G1 X82.322 Y104.042 E.01199
G1 X81.94 Y104.069 E.01201
G1 X81.559 Y104.023 E.01203
G1 X81.178 Y103.898 E.01257
G1 X80.754 Y103.649 E.01542
G1 X80.473 Y103.388 E.01202
G1 X80.246 Y103.079 E.01202
G1 X80.081 Y102.733 E.01202
G1 X79.984 Y102.362 E.01202
G1 X79.958 Y101.981 E.01197
G1 X80.004 Y101.6 E.01203
G1 X80.081 Y101.334 E.00868
G1 X80.303 Y100.899 E.01531
G1 X80.474 Y100.69 E.00847
G1 X80.784 Y100.899 F54000
;TYPE:External perimeter
G1 F1800
G1 X80.795 Y100.885 E.00056
G1 X81.032 Y100.681 E.0098
G1 X81.302 Y100.525 E.00978
G1 X81.603 Y100.421 E.00999
G1 X82.006 Y100.375 E.01272
G1 X82.321 Y100.407 E.00993
G1 X82.62 Y100.498 E.0098
G1 X82.897 Y100.642 E.00979
G1 X83.142 Y100.836 E.0098
G1 X83.349 Y101.078 E.00998
G1 X83.542 Y101.439 E.01283
G1 X83.626 Y101.74 E.0098
G1 X83.652 Y102.052 E.00982
G1 X83.619 Y102.362 E.00977
G1 X83.526 Y102.667 E.01
G1 X83.325 Y103.023 E.01282
G1 X83.116 Y103.256 E.00981
G1 X82.867 Y103.444 E.00978
G1 X82.587 Y103.583 E.0098
G1 X82.286 Y103.667 E.0098
G1 X81.762 Y103.673 E.01643
G1 X81.36 Y103.567 E.01304
G1 X81.003 Y103.366 E.01285
G1 X80.771 Y103.157 E.00979
G1 X80.582 Y102.908 E.0098
G1 X80.444 Y102.628 E.00979
G1 X80.36 Y102.327 E.0098
G1 X80.334 Y102.016 E.00979
G1 X80.367 Y101.705 E.00981
G1 X80.444 Y101.44 E.00865
G1 X80.601 Y101.13 E.0109
G1 X80.747 Y100.946 E.00736
G1 X81.049 Y100.684 F54000
G1 E-3.5 F1500
G1 X70.264 Y101.86 F54000
G1 E3.5 F1500
;TYPE:Perimeter
G1 F1800
G1 X70.279 Y102.149 E.00907
G1 X70.206 Y102.678 E.01674
G1 X70.037 Y103.175 E.01646
G1 X69.777 Y103.633 E.01651
G1 X69.403 Y104.062 E.01784
G1 X69.008 Y104.378 E.01586
G1 X68.403 Y104.67 E.02106
G1 X67.893 Y104.793 E.01645
G1 X67.369 Y104.819 E.01645
G1 X66.849 Y104.747 E.01646
G1 X66.315 Y104.559 E.01775
G1 X65.755 Y104.215 E.02061
G1 X65.377 Y103.85 E.01648
G1 X65.075 Y103.422 E.01642
G1 X64.857 Y102.944 E.01647
;WIDTH:0.462708
G1 X64.809 Y102.846 E.00381
;WIDTH:0.505417
G1 X64.76 Y102.748 E.00421
;WIDTH:0.548126
G1 X64.712 Y102.65 E.00458
;WIDTH:0.590835
G1 X64.663 Y102.552 E.00499
G1 X64.633 Y102.165 E.01768
;WIDTH:0.581911
G1 X64.653 Y101.626 E.02417
G1 X64.704 Y101.501 E.00605
;WIDTH:0.541433
G1 X64.755 Y101.375 E.00563
;WIDTH:0.500955
G1 X64.806 Y101.25 E.00514
;WIDTH:0.460477
G1 X64.857 Y101.124 E.00472
;WIDTH:0.419999
G1 X65.075 Y100.646 E.01647
G1 X65.377 Y100.218 E.01642
G1 X65.755 Y99.853 E.01648
G1 X66.195 Y99.566 E.01647
G1 X66.68 Y99.367 E.01644
G1 X67.322 Y99.253 E.02044
G1 X67.891 Y99.274 E.01785
G1 X68.403 Y99.398 E.01652
G1 X68.881 Y99.615 E.01646
G1 X69.309 Y99.918 E.01644
G1 X69.674 Y100.296 E.01648
G1 X69.985 Y100.796 E.01846
G1 X70.129 Y101.125 E.01126
G1 X70.252 Y101.634 E.01642
G1 X70.261 Y101.8 E.00521
G1 X69.889 Y101.883 F54000
G1 F1800
G1 X69.903 Y102.123 E.00754
G1 X69.844 Y102.573 E.01423
G1 X69.701 Y103.004 E.01424
G1 X69.479 Y103.401 E.01426
G1 X69.163 Y103.771 E.01526
G1 X68.71 Y104.116 E.01785
G1 X68.297 Y104.307 E.01427
G1 X67.857 Y104.418 E.01423
G1 X67.404 Y104.444 E.01423
G1 X66.954 Y104.385 E.01423
G1 X66.497 Y104.228 E.01515
G1 X66.005 Y103.932 E.018
G1 X65.675 Y103.619 E.01426
G1 X65.41 Y103.25 E.01424
G1 X65.219 Y102.839 E.01421
G1 X65.109 Y102.398 E.01425
G1 X65.083 Y102.123 E.00866
G1 X65.109 Y101.669 E.01426
G1 X65.285 Y101.064 E.01976
G1 X65.505 Y100.668 E.0142
G1 X65.797 Y100.319 E.01427
G1 X66.148 Y100.032 E.01422
G1 X66.547 Y99.815 E.01424
G1 X67.008 Y99.673 E.01512
G1 X67.576 Y99.624 E.01788
G1 X68.05 Y99.688 E.015
G1 X68.463 Y99.826 E.01365
G1 X68.859 Y100.047 E.01422
G1 X69.207 Y100.338 E.01422
G1 X69.51 Y100.715 E.01517
G1 X69.766 Y101.229 E.018
G1 X69.877 Y101.669 E.01423
G1 X69.886 Y101.823 E.00484
G1 X69.515 Y101.907 F54000
G1 F1800
G1 X69.527 Y102.088 E.00569
G1 X69.482 Y102.467 E.01197
G1 X69.365 Y102.832 E.01202
G1 X69.182 Y103.17 E.01205
G1 X68.923 Y103.48 E.01267
G1 X68.538 Y103.78 E.0153
G1 X68.192 Y103.945 E.01202
G1 X67.655 Y104.058 E.01721
G1 X67.164 Y104.042 E.0154
G1 X66.678 Y103.898 E.01589
G1 X66.254 Y103.649 E.01542
G1 X65.973 Y103.388 E.01202
G1 X65.746 Y103.079 E.01202
G1 X65.581 Y102.733 E.01202
G1 X65.484 Y102.363 E.01199
G1 X65.458 Y102.087 E.00869
G1 X65.504 Y101.6 E.01534
G1 X65.621 Y101.235 E.01202
G1 X65.803 Y100.899 E.01198
G1 X66.046 Y100.602 E.01203
G1 X66.34 Y100.356 E.01202
G1 X66.675 Y100.17 E.01201
G1 X67.056 Y100.047 E.01255
G1 X67.541 Y99.999 E.01528
G1 X67.944 Y100.05 E.01274
G1 X68.291 Y100.162 E.01143
G1 X68.628 Y100.344 E.01201
G1 X68.924 Y100.587 E.01201
G1 X69.179 Y100.897 E.01259
G1 X69.404 Y101.335 E.01544
G1 X69.501 Y101.705 E.01199
G1 X69.511 Y101.847 E.00446
G1 X69.142 Y101.93 F54000
;TYPE:External perimeter
G1 F1800
G1 X69.152 Y102.052 E.00384
G1 X69.119 Y102.362 E.00977
G1 X69.029 Y102.661 E.00979
G1 X68.884 Y102.938 E.0098
G1 X68.683 Y103.189 E.01008
G1 X68.367 Y103.444 E.01273
G1 X68.087 Y103.583 E.0098
G1 X67.62 Y103.683 E.01497
G1 X67.165 Y103.66 E.01428
G1 X66.86 Y103.567 E.01
G1 X66.503 Y103.366 E.01285
G1 X66.271 Y103.157 E.00979
G1 X66.082 Y102.908 E.0098
G1 X65.944 Y102.628 E.00979
G1 X65.86 Y102.327 E.0098
G1 X65.834 Y102.052 E.00866
G1 X65.866 Y101.706 E.01089
G1 X65.957 Y101.407 E.0098
G1 X66.101 Y101.13 E.00979
G1 X66.295 Y100.885 E.0098
G1 X66.532 Y100.681 E.0098
G1 X66.802 Y100.525 E.00978
G1 X67.103 Y100.421 E.00999
G1 X67.506 Y100.375 E.01272
G1 X67.839 Y100.413 E.01051
G1 X68.12 Y100.498 E.0092
G1 X68.397 Y100.642 E.00979
G1 X68.642 Y100.836 E.0098
G1 X68.849 Y101.078 E.00998
G1 X69.042 Y101.44 E.01286
G1 X69.126 Y101.74 E.00977
G1 X69.137 Y101.87 E.00409
G1 X69.125 Y102.27 F54000
G1 E-3.5 F1500
G1 X64.034 Y112.943 F54000
G1 E3.5 F1500
;TYPE:Perimeter
G1 F1800
G1 X64.034 Y103.061 E.30984
;WIDTH:0.462708
G1 X64.055 Y102.946 E.00408
;WIDTH:0.505417
G1 X64.077 Y102.83 E.00454
;WIDTH:0.548126
G1 X64.098 Y102.715 E.00491
;WIDTH:0.590835
G1 X64.12 Y102.6 E.00533
G1 X64.109 Y102.19 E.01869
;WIDTH:0.581911
G1 X64.115 Y101.601 E.0264
G1 X64.095 Y101.452 E.00674
;WIDTH:0.541433
G1 X64.075 Y101.304 E.00619
;WIDTH:0.500955
G1 X64.054 Y101.155 E.00573
;WIDTH:0.460477
G1 X64.034 Y101.007 E.00519
;WIDTH:0.419999
G1 X64.034 Y88.125 E.40391
G1 X85.352 Y88.125 E.66841
G1 X85.352 Y93.852 E.17957
G1 X85.352 Y100.642 E.2129
;WIDTH:0.445535
G1 X85.339 Y101.298 E.02197
;WIDTH:0.482141
G1 X85.321 Y101.59 E.01068
;WIDTH:0.518746
G1 X85.302 Y101.883 E.01162
;WIDTH:0.531817
G1 X85.296 Y102.462 E.02354
G1 X85.314 Y102.657 E.00796
;WIDTH:0.494545
G1 X85.333 Y102.852 E.00736
;WIDTH:0.457272
G1 X85.352 Y103.047 E.00675
;WIDTH:0.419999
G1 X85.352 Y112.943 E.31028
G1 X64.094 Y112.943 E.66653
G1 X63.657 Y113.32 F54000
G1 F1800
G1 X63.657 Y87.748 E.80179
G1 X85.729 Y87.748 E.69205
G1 X85.729 Y93.852 E.19139
G1 X85.729 Y113.32 E.6104
G1 X63.717 Y113.32 E.69017
G1 X63.28 Y113.697 F54000
G1 F1800
G1 X63.28 Y87.371 E.82543
G1 X86.106 Y87.371 E.71569
G1 X86.106 Y93.852 E.20321
G1 X86.106 Y113.697 E.62222
G1 X63.34 Y113.697 E.71381
G1 X62.903 Y114.074 F54000
;TYPE:External perimeter
G1 F1800
G1 X62.903 Y86.994 E.84907
G1 X86.483 Y86.994 E.73933
G1 X86.483 Y93.852 E.21503
G1 X86.483 Y114.074 E.63405
G1 X62.963 Y114.074 E.73745
G1 X62.904 Y113.678 F54000
G1 E-3.5 F1500
G1 X64.917 Y112.83 F54000
G1 E3.5 F1500
;TYPE:Solid infill
;WIDTH:0.423576
G1 F1800
G1 X64.317 Y112.229 E0.02076; Old Flow Value: 0.02688   Length: 0.84924
G1 X64.317 Y111.691 E0.01159; Old Flow Value: 0.01703   Length: 0.53799
G1 X65.286 Y112.66 E0.03668; Old Flow Value: 0.04337   Length: 1.37038
G1 X65.824 Y112.66 E0.01159; Old Flow Value: 0.01703   Length: 0.53799
G1 X64.317 Y111.153 E0.06038; Old Flow Value: 0.06746   Length: 2.13122
G1 X64.317 Y110.614 E0.01162; Old Flow Value: 0.01706   Length: 0.53900
G1 X66.362 Y112.66 E0.08428; Old Flow Value: 0.09156   Length: 2.89278
G1 X66.901 Y112.66 E0.01162; Old Flow Value: 0.01706   Length: 0.53900
G1 X64.317 Y110.076 E0.10824; Old Flow Value: 0.11567   Length: 3.65433
G1 X64.317 Y109.538 E0.01159; Old Flow Value: 0.01703   Length: 0.53799
G1 X67.439 Y112.66 E0.13219; Old Flow Value: 0.13975   Length: 4.41518
G1 X67.977 Y112.66 E0.01159; Old Flow Value: 0.01703   Length: 0.53799
G1 X64.317 Y108.999 E0.15627; Old Flow Value: 0.16385   Length: 5.17673
G1 X64.317 Y108.461 E0.01159; Old Flow Value: 0.01703   Length: 0.53800
G1 X68.516 Y112.66 E0.18068; Old Flow Value: 0.18796   Length: 5.93828
G1 X69.054 Y112.66 E0.01159; Old Flow Value: 0.01703   Length: 0.53800
G1 X64.317 Y107.923 E0.20540; Old Flow Value: 0.21204   Length: 6.69913
G1 X64.317 Y107.385 E0.01159; Old Flow Value: 0.01703   Length: 0.53799
G1 X69.592 Y112.66 E0.23045; Old Flow Value: 0.23612   Length: 7.45998
G1 X70.131 Y112.66 E0.01162; Old Flow Value: 0.01706   Length: 0.53899
G1 X64.317 Y106.846 E0.25589; Old Flow Value: 0.26025   Length: 8.22224
G1 X64.317 Y106.308 E0.01159; Old Flow Value: 0.01703   Length: 0.53800
G1 X70.669 Y112.66 E0.28161; Old Flow Value: 0.28433   Length: 8.98309
G1 X71.207 Y112.66 E0.01159; Old Flow Value: 0.01703   Length: 0.53800
G1 X64.317 Y105.77 E0.30767; Old Flow Value: 0.30841   Length: 9.74394
G1 X64.317 Y105.231 E0.01162; Old Flow Value: 0.01706   Length: 0.53899
G1 X71.746 Y112.66 E.33254; Old Flow Value: 0.33254   Length: 10.50619
G1 X72.284 Y112.66 E0.01159; Old Flow Value: 0.01703   Length: 0.53799
G1 X64.317 Y104.693 E.35662; Old Flow Value: 0.35662   Length: 11.26704
G1 X64.317 Y104.155 E0.01159; Old Flow Value: 0.01703   Length: 0.53800
G1 X72.822 Y112.66 E.3807; Old Flow Value: 0.3807   Length: 12.02789
G1 X73.361 Y112.66 E0.01162; Old Flow Value: 0.01706   Length: 0.53900
G1 X64.317 Y103.616 E.40483; Old Flow Value: 0.40483   Length: 12.79015
G1 X64.317 Y103.078 E0.01159; Old Flow Value: 0.01703   Length: 0.53799
G1 X74.069 Y112.83 E.43652; Old Flow Value: 0.43652   Length: 13.79141
G1 E-3.5 F1500
G1 X68.737 Y99.423 F54000
G1 E3.5 F1500; Old Flow Value: 3.5   Length: 0.00000
G1 F1800
G1 X64.317 Y95.003 E0.19079; Old Flow Value: 0.19785   Length: 6.25082
G1 X64.317 Y95.541 E0.01159; Old Flow Value: 0.01703   Length: 0.53800
G1 X67.753 Y98.977 E0.14620; Old Flow Value: 0.1538   Length: 4.85923
G1 X67.219 Y98.981 E0.01147; Old Flow Value: 0.0169   Length: 0.53401
G1 X64.317 Y96.08 E0.12237; Old Flow Value: 0.12988   Length: 4.10334
G1 X64.317 Y96.618 E0.01159; Old Flow Value: 0.01703   Length: 0.53799
G1 X66.757 Y99.058 E0.10183; Old Flow Value: 0.10922   Length: 3.45068
