; File Parsed By Flow Comp Script
; Script Ver. V0.7.1
; Flow Model Ver. V0.2.1
; Logger Ver. V0.0.1
; Flow Comp Model Points:
; (0, 0)
; (0.2, 0.4444)
; (0.4, 0.6145)
; (0.6, 0.7059)
; (0.8, 0.7619)
; (1.5, 0.8571)
; (2, 0.8889)
; (3, 0.9231)
; (5, 0.952)
; (10, 1)

; generated by PrusaSlicer 2.9.1 on 2025-03-16 at 18:50:50 UTC

; 

; external perimeters extrusion width = 0.45mm
; perimeters extrusion width = 0.45mm
; infill extrusion width = 0.45mm
; solid infill extrusion width = 0.45mm
; top infill extrusion width = 0.40mm
; first layer extrusion width = 0.42mm

; external perimeters extrusion width = 0.45mm
; perimeters extrusion width = 0.45mm
; infill extrusion width = 0.45mm
; solid infill extrusion width = 0.45mm
; top infill extrusion width = 0.40mm
; first layer extrusion width = 0.42mm

;TYPE:Custom
G90 ; use absolute coordinates
M83 ; extruder relative mode
M104 S210 ; set temporary nozzle temp to prevent oozing during homing
M140 S58 ; set final bed temp
G4 S30 ; allow partial nozzle warmup
G28 ; home all axis
G1 Z50 F240
G1 X2.0 Y10 F3000
M104 S208 ; set final nozzle temp
M190 S58 ; wait for bed temp to stabilize
M109 S208 ; wait for nozzle temp to stabilize
G1 Z0.28 F240
G92 E0
G1 X2.0 Y140 E10 F1500 ; prime the nozzle
G1 X2.3 Y140 F5000
G92 E0
G1 X2.3 Y10 E10 F1200 ; prime the nozzle
G92 E0
G21 ; set units to millimeters
G90 ; use absolute coordinates
M83 ; use relative distances for extrusion
; Filament gcode
M107
;LAYER_CHANGE
;Z:0.2
;HEIGHT:0.2
G1 E-3.5 F1500
G1 Z.2 F54000
G1 X10.494 Y82.893
G1 Z.2
G1 E3.5 F1500
M204 S3500
;TYPE:Skirt/Brim
;WIDTH:0.42
G1 F1800
G1 X34.498 Y82.878 E.75263
G1 X61.271 Y85.694 E.84408
G1 X63.465 Y86.327 E.0716
G1 X65.309 Y87.673 E.07158
G1 X66.581 Y89.569 E.07159
G1 X67.141 Y92.223 E.08505
G1 X67.141 Y109.273 E.53459
G1 X66.744 Y111.521 E.07158
G1 X65.601 Y113.498 E.0716
G1 X63.851 Y114.963 E.07156
G1 X62.428 Y115.572 E.04853
G1 X36.351 Y123.243 E.85227
G1 X34.498 Y123.509 E.0587
G1 X10.498 Y123.509 E.7525
G1 X8.25 Y123.112 E.07158
G1 X6.273 Y121.97 E.07159
G1 X4.807 Y120.219 E.0716
G1 X3.932 Y116.944 E.10629
G1 X3.932 Y89.458 E.8618
G1 X4.329 Y87.21 E.07158
G1 X5.472 Y85.234 E.07157
G1 X7.223 Y83.768 E.0716
G1 X10.436 Y82.908 E.10429
G1 X10.494 Y83.27 F54000
G1 F1800
G1 X34.498 Y83.255 E.75263
G1 X61.231 Y86.069 E.84283
G1 X63.357 Y86.695 E.06949
G1 X65.126 Y88.029 E.06947
G1 X66.312 Y89.902 E.06951
G1 X66.764 Y92.223 E.07414
G1 X66.764 Y109.273 E.53459
G1 X66.367 Y111.453 E.06948
G1 X65.228 Y113.354 E.06948
G1 X63.492 Y114.731 E.06948
G1 X62.322 Y115.21 E.03964
G1 X36.244 Y122.881 E.8523
G1 X34.498 Y123.132 E.05531
G1 X10.498 Y123.132 E.7525
G1 X8.318 Y122.736 E.06947
G1 X6.417 Y121.596 E.0695
G1 X5.04 Y119.86 E.06948
G1 X4.309 Y116.944 E.09426
G1 X4.309 Y89.458 E.8618
G1 X4.706 Y87.278 E.06948
G1 X5.845 Y85.377 E.06948
G1 X7.581 Y84 E.06948
G1 X10.436 Y83.284 E.09229
G1 E-3.5 F1500
G1 X27.897 Y102.67 F54000
G1 E3.5 F1500
;TYPE:Perimeter
;WIDTH:0.419999
G1 F1800
G1 X28.06 Y102.513 E.0071
G1 X28.5 Y102.226 E.01647
G1 X28.985 Y102.027 E.01644
G1 X29.627 Y101.913 E.02044
G1 X30.196 Y101.934 E.01785
G1 X30.708 Y102.058 E.01652
G1 X31.186 Y102.275 E.01646
G1 X31.614 Y102.578 E.01644
G1 X31.978 Y102.956 E.01645
G1 X32.323 Y103.516 E.02062
;WIDTH:0.445535
G1 X32.523 Y104.047 E.019
;WIDTH:0.488676
G1 X32.568 Y104.168 E.00478
;WIDTH:0.531817
G1 X32.613 Y104.289 E.00525
G1 X32.632 Y104.823 E.02172
;WIDTH:0.540465
G1 X32.603 Y105.208 E.01597
G1 X32.509 Y105.429 E.00994
;WIDTH:0.50031
G1 X32.416 Y105.65 E.00912
;WIDTH:0.460155
G1 X32.323 Y105.872 E.00835
;WIDTH:0.419999
G1 X31.978 Y106.431 E.0206
G1 X31.614 Y106.809 E.01645
G1 X31.186 Y107.112 E.01644
G1 X30.708 Y107.33 E.01647
G1 X30.198 Y107.453 E.01645
G1 X29.674 Y107.479 E.01645
G1 X29.154 Y107.407 E.01646
G1 X28.62 Y107.219 E.01775
G1 X28.172 Y106.963 E.01618
G1 X27.761 Y106.603 E.01713
G1 X27.423 Y106.161 E.01745
G1 X27.162 Y105.604 E.01929
G1 X27.038 Y105.094 E.01646
G1 X27.012 Y104.579 E.01617
G1 X27.085 Y104.05 E.01674
G1 X27.162 Y103.784 E.00868
G1 X27.379 Y103.306 E.01646
G1 X27.682 Y102.878 E.01644
G1 X27.854 Y102.712 E.00749
G1 X28.15 Y102.939 F54000
G1 F1800
G1 X28.453 Y102.692 E.01226
G1 X28.852 Y102.475 E.01424
G1 X29.313 Y102.333 E.01512
G1 X29.881 Y102.284 E.01788
G1 X30.336 Y102.343 E.01439
G1 X30.768 Y102.486 E.01427
G1 X31.164 Y102.706 E.0142
G1 X31.512 Y102.998 E.01424
G1 X31.815 Y103.375 E.01517
G1 X32.071 Y103.889 E.018
G1 X32.182 Y104.329 E.01423
G1 X32.208 Y104.783 E.01426
G1 X32.149 Y105.232 E.0142
G1 X31.992 Y105.69 E.01518
G1 X31.696 Y106.182 E.018
G1 X31.383 Y106.511 E.01424
G1 X31.014 Y106.776 E.01424
G1 X30.602 Y106.967 E.01424
G1 X30.162 Y107.078 E.01423
G1 X29.709 Y107.104 E.01423
G1 X29.259 Y107.045 E.01423
G1 X28.802 Y106.888 E.01515
G1 X28.31 Y106.592 E.018
G1 X27.98 Y106.279 E.01426
G1 X27.715 Y105.91 E.01424
G1 X27.524 Y105.498 E.01424
G1 X27.414 Y105.058 E.01422
G1 X27.388 Y104.605 E.01423
G1 X27.447 Y104.154 E.01426
G1 X27.524 Y103.889 E.00865
G1 X27.773 Y103.38 E.01777
G1 X28.102 Y102.979 E.01626
G1 X28.104 Y102.977 E.00009
G1 X28.408 Y103.214 F54000
G1 F1800
G1 X28.645 Y103.016 E.00968
G1 X28.98 Y102.83 E.01201
G1 X29.361 Y102.707 E.01255
G1 X29.846 Y102.659 E.01528
G1 X30.231 Y102.705 E.01216
G1 X30.596 Y102.822 E.01202
G1 X30.933 Y103.004 E.01201
G1 X31.229 Y103.247 E.01201
G1 X31.484 Y103.557 E.01259
G1 X31.709 Y103.994 E.01541
G1 X31.806 Y104.365 E.01202
G1 X31.832 Y104.747 E.01201
G1 X31.786 Y105.127 E.012
G1 X31.662 Y105.508 E.01256
G1 X31.413 Y105.933 E.01544
G1 X31.152 Y106.213 E.012
G1 X30.843 Y106.44 E.01202
G1 X30.497 Y106.605 E.01202
G1 X30.127 Y106.702 E.01199
G1 X29.745 Y106.728 E.01201
G1 X29.364 Y106.682 E.01203
G1 X28.983 Y106.558 E.01256
G1 X28.559 Y106.309 E.01542
G1 X28.278 Y106.048 E.01202
G1 X28.051 Y105.739 E.01202
G1 X27.886 Y105.393 E.01202
G1 X27.789 Y105.022 E.01202
G1 X27.763 Y104.641 E.01197
G1 X27.809 Y104.26 E.01203
G1 X27.886 Y103.994 E.00868
G1 X28.108 Y103.559 E.01531
G1 X28.351 Y103.262 E.01203
G1 X28.362 Y103.253 E.00045
G1 X28.666 Y103.489 F54000
;TYPE:External perimeter
G1 F1800
G1 X28.837 Y103.341 E.00709
G1 X29.107 Y103.185 E.00978
G1 X29.408 Y103.081 E.00999
G1 X29.811 Y103.035 E.01272
G1 X30.126 Y103.067 E.00993
G1 X30.425 Y103.158 E.0098
G1 X30.702 Y103.302 E.00979
G1 X30.947 Y103.496 E.0098
G1 X31.154 Y103.738 E.00998
G1 X31.347 Y104.099 E.01283
G1 X31.431 Y104.4 E.0098
G1 X31.457 Y104.712 E.00982
G1 X31.424 Y105.022 E.00977
G1 X31.331 Y105.327 E.01
G1 X31.13 Y105.683 E.01282
G1 X30.921 Y105.916 E.00981
G1 X30.672 Y106.104 E.00978
G1 X30.392 Y106.243 E.0098
G1 X30.091 Y106.327 E.0098
G1 X29.567 Y106.333 E.01643
G1 X29.165 Y106.227 E.01304
G1 X28.808 Y106.026 E.01285
G1 X28.576 Y105.817 E.00979
G1 X28.387 Y105.568 E.0098
G1 X28.249 Y105.288 E.00979
G1 X28.165 Y104.987 E.0098
G1 X28.139 Y104.676 E.00979
G1 X28.172 Y104.365 E.00981
G1 X28.249 Y104.1 E.00865
G1 X28.406 Y103.79 E.0109
G1 X28.6 Y103.545 E.0098
G1 X28.621 Y103.528 E.00085
G1 X28.941 Y103.289 F54000
G1 E-3.5 F1500
G1 X18.069 Y104.52 F54000
G1 E3.5 F1500
;TYPE:Perimeter
G1 F1800
G1 X18.084 Y104.809 E.00907
G1 X18.011 Y105.338 E.01674
G1 X17.842 Y105.835 E.01646
G1 X17.582 Y106.293 E.01651
G1 X17.208 Y106.722 E.01784
G1 X16.813 Y107.038 E.01586
G1 X16.208 Y107.33 E.02106
G1 X15.698 Y107.453 E.01645
G1 X15.174 Y107.479 E.01645
G1 X14.654 Y107.407 E.01646
G1 X14.121 Y107.219 E.01772
G1 X13.565 Y106.878 E.02045
G1 X13.182 Y106.51 E.01665
G1 X12.88 Y106.082 E.01642
G1 X12.662 Y105.604 E.01647
;WIDTH:0.462708
G1 X12.614 Y105.506 E.00381
;WIDTH:0.505417
G1 X12.565 Y105.408 E.00421
;WIDTH:0.548126
G1 X12.517 Y105.31 E.00458
;WIDTH:0.590835
G1 X12.468 Y105.212 E.00499
G1 X12.438 Y104.825 E.01768
;WIDTH:0.581911
G1 X12.458 Y104.286 E.02417
G1 X12.509 Y104.161 E.00605
;WIDTH:0.541433
G1 X12.56 Y104.035 E.00563
;WIDTH:0.500955
G1 X12.611 Y103.91 E.00514
;WIDTH:0.460477
G1 X12.662 Y103.784 E.00472
;WIDTH:0.419999
G1 X12.88 Y103.306 E.01647
G1 X13.182 Y102.878 E.01642
G1 X13.56 Y102.513 E.01648
G1 X14 Y102.226 E.01647
G1 X14.485 Y102.027 E.01644
G1 X15.127 Y101.913 E.02044
G1 X15.696 Y101.934 E.01785
G1 X16.208 Y102.058 E.01652
G1 X16.685 Y102.275 E.01643
G1 X17.114 Y102.578 E.01647
G1 X17.479 Y102.956 E.01648
G1 X17.79 Y103.456 E.01846
G1 X17.934 Y103.785 E.01126
G1 X18.057 Y104.294 E.01642
G1 X18.066 Y104.46 E.00521
G1 X17.694 Y104.543 F54000
G1 F1800
G1 X17.708 Y104.783 E.00754
G1 X17.649 Y105.233 E.01423
G1 X17.506 Y105.664 E.01424
G1 X17.284 Y106.061 E.01426
G1 X16.968 Y106.431 E.01526
G1 X16.515 Y106.776 E.01785
G1 X16.102 Y106.967 E.01427
G1 X15.662 Y107.078 E.01423
G1 X15.209 Y107.104 E.01423
G1 X14.759 Y107.045 E.01423
G1 X14.302 Y106.889 E.01514
G1 X13.814 Y106.595 E.01786
G1 X13.48 Y106.279 E.01442
G1 X13.215 Y105.91 E.01424
G1 X13.024 Y105.499 E.01421
G1 X12.914 Y105.058 E.01425
G1 X12.888 Y104.783 E.00866
G1 X12.914 Y104.329 E.01426
G1 X13.09 Y103.724 E.01976
G1 X13.31 Y103.328 E.0142
G1 X13.602 Y102.979 E.01427
G1 X13.953 Y102.692 E.01422
G1 X14.352 Y102.475 E.01424
G1 X14.813 Y102.333 E.01512
G1 X15.381 Y102.284 E.01788
G1 X15.854 Y102.348 E.01497
G1 X16.268 Y102.486 E.01368
G1 X16.664 Y102.707 E.01422
G1 X17.012 Y102.998 E.01422
G1 X17.315 Y103.375 E.01517
G1 X17.571 Y103.889 E.018
G1 X17.682 Y104.329 E.01423
G1 X17.691 Y104.483 E.00484
G1 X17.32 Y104.567 F54000
G1 F1800
G1 X17.332 Y104.747 E.00566
G1 X17.286 Y105.127 E.012
G1 X17.17 Y105.492 E.01201
G1 X16.987 Y105.83 E.01205
G1 X16.728 Y106.14 E.01267
G1 X16.343 Y106.44 E.0153
G1 X15.997 Y106.605 E.01202
G1 X15.46 Y106.718 E.01721
G1 X14.969 Y106.702 E.0154
G1 X14.484 Y106.558 E.01586
G1 X14.063 Y106.312 E.01529
G1 X13.778 Y106.048 E.01218
G1 X13.551 Y105.739 E.01202
G1 X13.386 Y105.393 E.01202
G1 X13.289 Y105.023 E.01199
G1 X13.263 Y104.747 E.00869
G1 X13.309 Y104.26 E.01534
G1 X13.426 Y103.895 E.01202
G1 X13.608 Y103.559 E.01198
G1 X13.851 Y103.262 E.01203
G1 X14.145 Y103.016 E.01202
G1 X14.48 Y102.83 E.01201
G1 X14.861 Y102.707 E.01255
G1 X15.346 Y102.659 E.01528
G1 X15.749 Y102.71 E.01274
G1 X16.096 Y102.822 E.01143
G1 X16.433 Y103.004 E.01201
G1 X16.729 Y103.247 E.01201
G1 X16.984 Y103.557 E.01259
G1 X17.209 Y103.995 E.01544
G1 X17.306 Y104.365 E.01199
G1 X17.316 Y104.507 E.00446
G1 X16.947 Y104.59 F54000
;TYPE:External perimeter
G1 F1800
G1 X16.957 Y104.712 E.00384
G1 X16.924 Y105.022 E.00977
G1 X16.834 Y105.321 E.00979
G1 X16.689 Y105.598 E.0098
G1 X16.488 Y105.849 E.01008
G1 X16.172 Y106.104 E.01273
G1 X15.892 Y106.243 E.0098
G1 X15.425 Y106.343 E.01497
G1 X14.97 Y106.32 E.01428
G1 X14.665 Y106.227 E.01
G1 X14.312 Y106.028 E.01271
G1 X14.076 Y105.817 E.00993
G1 X13.887 Y105.568 E.0098
G1 X13.749 Y105.288 E.00979
G1 X13.665 Y104.987 E.0098
G1 X13.639 Y104.712 E.00866
G1 X13.671 Y104.366 E.01089
G1 X13.762 Y104.066 E.00983
G1 X13.906 Y103.79 E.00976
G1 X14.1 Y103.545 E.0098
G1 X14.337 Y103.341 E.0098
G1 X14.607 Y103.185 E.00978
G1 X14.908 Y103.081 E.00999
G1 X15.311 Y103.035 E.01272
G1 X15.644 Y103.073 E.01051
G1 X15.925 Y103.158 E.0092
G1 X16.202 Y103.302 E.00979
G1 X16.447 Y103.496 E.0098
G1 X16.654 Y103.738 E.00998
G1 X16.847 Y104.1 E.01286
G1 X16.931 Y104.4 E.00977
G1 X16.942 Y104.53 E.00409
G1 X16.93 Y104.93 F54000
G1 E-3.5 F1500
G1 X11.839 Y115.603 F54000
G1 E3.5 F1500
;TYPE:Perimeter
G1 F1800
G1 X11.839 Y105.721 E.30984
;WIDTH:0.462708
G1 X11.86 Y105.606 E.00408
;WIDTH:0.505417
G1 X11.882 Y105.49 E.00454
;WIDTH:0.548126
G1 X11.903 Y105.375 E.00491
;WIDTH:0.590835
G1 X11.924 Y105.26 E.00533
G1 X11.913 Y104.85 E.01869
;WIDTH:0.581911
G1 X11.92 Y104.261 E.0264
G1 X11.9 Y104.112 E.00674
;WIDTH:0.541433
G1 X11.88 Y103.964 E.00619
;WIDTH:0.500955
G1 X11.859 Y103.815 E.00573
;WIDTH:0.460477
G1 X11.839 Y103.667 E.00519
;WIDTH:0.419999
G1 X11.839 Y90.785 E.40391
G1 X33.157 Y90.785 E.66841
G1 X33.157 Y96.512 E.17957
G1 X33.157 Y103.302 E.2129
;WIDTH:0.445535
G1 X33.144 Y103.958 E.02197
;WIDTH:0.482141
G1 X33.126 Y104.25 E.01068
;WIDTH:0.518746
G1 X33.107 Y104.542 E.01158
;WIDTH:0.531817
G1 X33.101 Y105.122 E.02358
G1 X33.119 Y105.317 E.00796
;WIDTH:0.494545
G1 X33.138 Y105.512 E.00736
;WIDTH:0.457272
G1 X33.157 Y105.707 E.00675
;WIDTH:0.419999
G1 X33.157 Y115.603 E.31028
G1 X11.899 Y115.603 E.66653
G1 X11.462 Y115.98 F54000
G1 F1800
G1 X11.462 Y90.408 E.80179
G1 X33.534 Y90.408 E.69205
G1 X33.534 Y96.512 E.19139
G1 X33.534 Y115.98 E.6104
G1 X11.522 Y115.98 E.69017
G1 X11.085 Y116.357 F54000
G1 F1800
G1 X11.085 Y90.031 E.82543
G1 X33.911 Y90.031 E.71569
G1 X33.911 Y96.512 E.20321
G1 X33.911 Y116.357 E.62222
G1 X11.145 Y116.357 E.71381
G1 X10.708 Y116.734 F54000
;TYPE:External perimeter
G1 F1800
G1 X10.708 Y89.654 E.84907
G1 X34.288 Y89.654 E.73933
G1 X34.288 Y96.512 E.21503
G1 X34.288 Y116.734 E.63405
G1 X10.768 Y116.734 E.73745
G1 X10.708 Y116.338 F54000
G1 E-3.5 F1500
G1 X12.722 Y115.489 F54000
G1 E3.5 F1500
;TYPE:Solid infill
;WIDTH:0.423576
G1 F1800
G1 X12.122 Y114.889 E0.02074; Old Flow Value: 0.02686   Length: 0.84853
G1 X12.122 Y114.351 E0.01159; Old Flow Value: 0.01703   Length: 0.53800
G1 X13.091 Y115.32 E0.03668; Old Flow Value: 0.04337   Length: 1.37037
G1 X13.629 Y115.32 E0.01159; Old Flow Value: 0.01703   Length: 0.53800
G1 X12.122 Y113.813 E0.06038; Old Flow Value: 0.06746   Length: 2.13122
G1 X12.122 Y113.274 E0.01162; Old Flow Value: 0.01706   Length: 0.53900
G1 X14.167 Y115.32 E0.08428; Old Flow Value: 0.09156   Length: 2.89277
G1 X14.706 Y115.32 E0.01162; Old Flow Value: 0.01706   Length: 0.53900
G1 X12.122 Y112.736 E0.10824; Old Flow Value: 0.11567   Length: 3.65433
G1 X12.122 Y112.198 E0.01159; Old Flow Value: 0.01703   Length: 0.53800
G1 X15.244 Y115.32 E0.13219; Old Flow Value: 0.13975   Length: 4.41518
G1 X15.782 Y115.32 E0.01159; Old Flow Value: 0.01703   Length: 0.53800
G1 X12.122 Y111.659 E0.15627; Old Flow Value: 0.16385   Length: 5.17673
G1 X12.122 Y111.121 E0.01159; Old Flow Value: 0.01703   Length: 0.53799
G1 X16.321 Y115.32 E0.18068; Old Flow Value: 0.18796   Length: 5.93828
G1 X16.859 Y115.32 E0.01159; Old Flow Value: 0.01703   Length: 0.53800
G1 X12.122 Y110.583 E0.20540; Old Flow Value: 0.21204   Length: 6.69913
G1 X12.122 Y110.044 E0.01162; Old Flow Value: 0.01706   Length: 0.53900
G1 X17.397 Y115.32 E0.23047; Old Flow Value: 0.23614   Length: 7.46068
G1 X17.936 Y115.32 E0.01162; Old Flow Value: 0.01706   Length: 0.53900
G1 X12.122 Y109.506 E0.25589; Old Flow Value: 0.26025   Length: 8.22224
G1 X12.122 Y108.968 E0.01159; Old Flow Value: 0.01703   Length: 0.53799
G1 X18.474 Y115.32 E0.28161; Old Flow Value: 0.28433   Length: 8.98308
G1 X19.012 Y115.32 E0.01159; Old Flow Value: 0.01703   Length: 0.53800
G1 X12.122 Y108.429 E0.30769; Old Flow Value: 0.30843   Length: 9.74464
G1 X12.122 Y107.891 E0.01159; Old Flow Value: 0.01703   Length: 0.53800
G1 X19.551 Y115.32 E.33254; Old Flow Value: 0.33254   Length: 10.50619
G1 X20.089 Y115.32 E0.01159; Old Flow Value: 0.01703   Length: 0.53800
G1 X12.122 Y107.353 E.35662; Old Flow Value: 0.35662   Length: 11.26704
G1 X12.122 Y106.814 E0.01162; Old Flow Value: 0.01706   Length: 0.53899
G1 X20.627 Y115.32 E.38073; Old Flow Value: 0.38073   Length: 12.02859
G1 X21.166 Y115.32 E0.01162; Old Flow Value: 0.01706   Length: 0.53900
G1 X12.122 Y106.276 E.40483; Old Flow Value: 0.40483   Length: 12.79015
G1 X12.122 Y105.738 E0.01159; Old Flow Value: 0.01703   Length: 0.53800
G1 X21.874 Y115.489 E.4365; Old Flow Value: 0.4365   Length: 13.79070
G1 E-3.5 F1500
G1 X16.542 Y102.083 F54000
G1 E3.5 F1500; Old Flow Value: 3.5   Length: 0.00000
G1 F1800
G1 X12.122 Y97.663 E0.19079; Old Flow Value: 0.19785   Length: 6.25082
G1 X12.122 Y98.201 E0.01159; Old Flow Value: 0.01703   Length: 0.53799
G1 X15.558 Y101.637 E0.14620; Old Flow Value: 0.1538   Length: 4.85924
G1 X15.024 Y101.641 E0.01147; Old Flow Value: 0.0169   Length: 0.53401
G1 X12.122 Y98.74 E0.12237; Old Flow Value: 0.12988   Length: 4.10334
G1 X12.122 Y99.278 E0.01159; Old Flow Value: 0.01703   Length: 0.53800
G1 X14.562 Y101.718 E0.10183; Old Flow Value: 0.10922   Length: 3.45068
G1 X14.152 Y101.846 E0.00855; Old Flow Value: 0.01359   Length: 0.42952
