; File Parsed By Flow Comp Script
; Script Ver. V0.7.1
; Flow Model Ver. V0.2.1
; Logger Ver. V0.0.1
; Flow Comp Model Points:
; (0, 0)
; (0.2, 0.4444)
; (0.4, 0.6145)
; (0.6, 0.7059)
; (0.8, 0.7619)
; (1.5, 0.8571)
; (2, 0.8889)
; (3, 0.9231)
; (5, 0.952)
; (10, 1)

; generated by PrusaSlicer 2.9.1 on 2025-04-05 at 11:28:22 UTC

; 

; external perimeters extrusion width = 0.45mm
; perimeters extrusion width = 0.45mm
; infill extrusion width = 0.45mm
; solid infill extrusion width = 0.45mm
; top infill extrusion width = 0.40mm
; support material extrusion width = 0.35mm
; first layer extrusion width = 0.42mm

;TYPE:Custom
G90 ; use absolute coordinates
M83 ; extruder relative mode
CALCULATE_PA BOWDEN_LENGTH=34.5 MATERIAL=PLA LAYER_HEIGHT=0.2 NOZZLE_SIZE=0.4 PRINT_SPEED=120 FILAMENT_DIAMETER=1.75 LINE_WIDTH=0.45 ; auto pressure advance
M104 S210 ; set temporary nozzle temp to prevent oozing during homing
M140 S58 ; set final bed temp
G4 S30 ; allow partial nozzle warmup
G28 ; home all axis
G1 Z50 F240
G1 X2.0 Y10 F3000
M104 S208 ; set final nozzle temp
M190 S58 ; wait for bed temp to stabilize
M109 S208 ; wait for nozzle temp to stabilize
G1 Z0.28 F240
G92 E0
G1 X2.0 Y140 E10 F1500 ; prime the nozzle
G1 X2.3 Y140 F5000
G92 E0
G1 X2.3 Y10 E10 F1200 ; prime the nozzle
G92 E0
G21 ; set units to millimeters
G90 ; use absolute coordinates
M83 ; use relative distances for extrusion
; Filament gcode
M107
;LAYER_CHANGE
;Z:0.2
;HEIGHT:0.2
G1 E-3.5 F1500
G1 Z.2 F54000
G1 X39.018 Y23.141
G1 Z.2
G1 E3.5 F1500
M204 S3500
;TYPE:Skirt/Brim
;WIDTH:0.42
G1 F1800
G1 X40.271 Y21.567 E.06308
G1 X41.573 Y20.419 E.05443
G1 X43.29 Y19.372 E.06305
G1 X45.174 Y18.665 E.06309
G1 X47.156 Y18.324 E.06306
G1 X88.091 Y17.925 E1.28355
G1 X89.702 Y18.128 E.05091
G1 X91.365 Y18.611 E.0543
G1 X92.834 Y19.303 E.05091
G1 X94.483 Y20.455 E.06307
G1 X95.884 Y21.894 E.06297
G1 X96.858 Y23.327 E.05433
G1 X97.68 Y25.157 E.0629
G1 X98.085 Y26.735 E.05108
G1 X98.247 Y28.321 E.04999
G1 X98.833 Y54.862 E.83238
G1 X98.834 Y63.558 E.27266
G1 X98.437 Y65.738 E.06948
G1 X96.945 Y68.01 E.08522
G1 X94.181 Y70.679 E.12047
G1 X92.337 Y71.908 E.06948
G1 X89.882 Y72.416 E.07861
G1 X84.662 Y72.416 E.16367
G1 X42.2 Y69.734 E1.33402
G1 X40.049 Y69.2 E.06949
G1 X38.224 Y67.943 E.06948
G1 X36.96 Y66.123 E.06948
G1 X36.403 Y63.558 E.0823
G1 X36.408 Y51.959 E.36368
G1 X37.287 Y28.606 E.73274
G1 X37.497 Y26.847 E.05554
G1 X38.083 Y24.921 E.06312
G1 X38.99 Y23.194 E.06116
G1 E-3.5 F1500
G1 X84.29 Y45.407 F54000
G1 E3.5 F1500
;TYPE:Support material
G1 F1800
G1 X86.038 Y47.155 E.07751
G1 X84.825 Y48.368 E.05379
G1 X84.825 Y46.214 E.06754
G1 X81.679 Y46.214 E.09864
G1 X81.679 Y43.634 E.08089
G1 X84.29 Y43.634 E.08187
G1 X84.29 Y45.35 E.0538
G1 X85.216 Y47.737 F54000
G1 F1800
G1 X85.216 Y46.572 E.03653
G1 X83.959 Y46.044 F54000
G1 F1800
G1 X83.951 Y43.973 E.06494
G1 X83.54 Y43.973 E.01289
G1 X83.54 Y45.875 E.05964
G1 X83.121 Y45.875 E.01314
G1 X83.121 Y43.973 E.05964
G1 X82.702 Y43.973 E.01314
G1 X82.702 Y45.875 E.05964
G1 X82.283 Y45.875 E.01314
G1 X82.283 Y43.804 E.06493
G1 E-3.5 F1500
G1 X79.134 Y49.523 F54000
G1 E3.5 F1500
;TYPE:Support material interface
;WIDTH:0.35
G1 F1800
G1 X79.134 Y49.302 E.00564
G1 X79.748 Y49.385 E.01582
G1 X79.748 Y49.302 E.00212
G1 X80.055 Y49.302 E.00784
G1 X80.055 Y49.385 E.00212
G1 X80.362 Y49.385 E.00784
G1 X80.362 Y49.302 E.00212
G1 X80.67 Y49.302 E.00786
G1 X80.67 Y49.385 E.00212
G1 X80.977 Y49.385 E.00784
G1 X80.977 Y49.302 E.00212
G1 X81.284 Y49.302 E.00784
G1 X81.284 Y49.523 E.00564
G1 E-3.5 F1500
G1 X81.898 Y46.938 F54000
G1 E3.5 F1500
G1 F1800
G1 X81.898 Y46.578 E.00919
G1 X82.205 Y46.578 E.00784
G1 X82.205 Y47.05 E.01205
G1 X82.512 Y47.357 E.01109
G1 X82.512 Y46.578 E.01989
G1 X82.819 Y46.578 E.00784
G1 X82.819 Y47.664 E.02773
G1 X83.126 Y47.971 E.01109
G1 X83.126 Y46.578 E.03557
G1 X83.433 Y46.578 E.00784
G1 X83.433 Y48.278 E.04341
G1 X83.74 Y48.585 E.01109
G1 X83.74 Y46.578 E.05125
G1 X84.047 Y46.578 E.00784
G1 X84.047 Y52.192 E.14335
G1 X83.74 Y52.192 E.00784
G1 X83.74 Y49.302 E.07379
G1 X83.433 Y49.302 E.00784
G1 X83.433 Y52.192 E.07379
G1 X83.126 Y52.192 E.00784
G1 X83.126 Y49.302 E.07379
G1 X82.819 Y49.302 E.00784
G1 X82.819 Y52.192 E.07379
G1 X82.512 Y52.192 E.00784
G1 X82.512 Y49.302 E.07379
G1 X82.205 Y49.302 E.00784
G1 X82.205 Y52.192 E.07379
G1 X81.898 Y52.192 E.00784
G1 X81.898 Y49.302 E.07379
G1 X81.591 Y49.302 E.00784
G1 X81.591 Y60.613 E.28881
G1 X81.654 Y60.613 E.00161
G1 X81.654 Y63.42 E.07167
G1 X81.898 Y63.42 E.00623
G1 X81.898 Y54.999 E.21502
G1 X82.205 Y54.999 E.00784
G1 X82.205 Y63.42 E.21502
G1 X82.512 Y63.42 E.00784
G1 X82.512 Y54.999 E.21502
G1 X82.819 Y54.999 E.00784
G1 X82.819 Y63.42 E.21502
G1 X83.126 Y63.42 E.00784
G1 X83.126 Y54.999 E.21502
G1 X83.433 Y54.999 E.00784
G1 X83.433 Y63.42 E.21502
G1 X83.74 Y63.42 E.00784
G1 X83.74 Y54.999 E.21502
G1 X84.047 Y54.999 E.00784
G1 X84.047 Y63.42 E.21502
G1 X84.354 Y63.42 E.00784
G1 X84.354 Y46.578 E.43004
G1 X84.461 Y46.578 E.00273
G1 X84.461 Y49.385 E.07167
G1 X84.662 Y49.385 E.00513
G1 X84.662 Y66.227 E.43004
G1 X84.969 Y66.227 E.00784
G1 X84.969 Y49.385 E.43004
G1 X85.276 Y49.385 E.00784
G1 X85.276 Y66.227 E.43004
G1 X85.583 Y66.227 E.00784
G1 X85.583 Y49.385 E.43004
G1 X85.89 Y49.385 E.00784
G1 X85.89 Y66.227 E.43004
G1 X86.197 Y66.227 E.00784
G1 X86.197 Y49.385 E.43004
G1 X86.504 Y49.385 E.00784
G1 X86.504 Y66.227 E.43004
G1 X86.811 Y66.227 E.00784
G1 X86.811 Y49.385 E.43004
G1 X87.118 Y49.385 E.00784
G1 X87.118 Y66.227 E.43004
G1 X87.425 Y66.227 E.00784
G1 X87.425 Y52.192 E.35837
G1 X87.732 Y52.192 E.00784
G1 X87.732 Y66.227 E.35837
G1 X88.039 Y66.227 E.00784
G1 X88.039 Y52.192 E.35837
G1 X88.346 Y52.192 E.00784
G1 X88.346 Y66.227 E.35837
G1 X88.654 Y66.227 E.00786
G1 X88.654 Y52.192 E.35837
G1 X88.961 Y52.192 E.00784
G1 X88.961 Y66.227 E.35837
G1 X89.268 Y66.227 E.00784
G1 X89.268 Y52.192 E.35837
G1 X89.575 Y52.192 E.00784
G1 X89.575 Y66.227 E.35837
G1 X89.882 Y66.227 E.00784
G1 X89.882 Y52.192 E.35837
G1 X90.075 Y52.192 E.00493
G1 X90.075 Y54.999 E.07167
G1 X90.189 Y54.999 E.00291
G1 X90.189 Y63.42 E.21502
G1 X90.496 Y63.42 E.00784
G1 X90.496 Y54.999 E.21502
G1 X90.803 Y54.999 E.00784
G1 X90.803 Y63.42 E.21502
G1 X91.11 Y63.42 E.00784
G1 X91.11 Y54.999 E.21502
G1 X91.417 Y54.999 E.00784
G1 X91.417 Y63.42 E.21502
G1 X91.724 Y63.42 E.00784
G1 X91.724 Y54.999 E.21502
G1 X92.031 Y54.999 E.00784
G1 X92.031 Y63.42 E.21502
G1 X92.339 Y63.42 E.00786
G1 X92.339 Y54.999 E.21502
G1 X92.646 Y54.999 E.00784
G1 X92.646 Y63.558 E.21854
G1 E-3.5 F1500
G1 X81.284 Y60.751 F54000
G1 E3.5 F1500
G1 F1800
G1 X81.284 Y52.192 E.21854
G1 X80.977 Y52.192 E.00784
G1 X80.977 Y60.613 E.21502
G1 X80.67 Y60.613 E.00784
G1 X80.67 Y52.192 E.21502
G1 X80.362 Y52.192 E.00786
G1 X80.362 Y60.613 E.21502
G1 X80.055 Y60.613 E.00784
G1 X80.055 Y52.192 E.21502
G1 X79.748 Y52.192 E.00784
G1 X79.748 Y60.613 E.21502
G1 X79.441 Y60.613 E.00784
G1 X79.441 Y52.192 E.21502
G1 X79.134 Y52.192 E.00784
G1 X79.134 Y60.613 E.21502
G1 X78.847 Y60.613 E.00733
G1 X78.827 Y49.385 E.28669
G1 X78.52 Y49.385 E.00784
G1 X78.52 Y57.806 E.21502
G1 X78.213 Y57.806 E.00784
G1 X78.213 Y49.385 E.21502
G1 X77.906 Y49.385 E.00784
G1 X77.906 Y57.806 E.21502
G1 X77.599 Y57.806 E.00784
G1 X77.599 Y49.385 E.21502
G1 X77.292 Y49.385 E.00784
G1 X77.292 Y57.806 E.21502
G1 X76.985 Y57.806 E.00784
G1 X76.985 Y49.385 E.21502
G1 X76.677 Y49.385 E.00786
G1 X76.677 Y57.806 E.21502
G1 X76.37 Y57.806 E.00784
G1 X76.37 Y49.385 E.21502
G1 X76.063 Y49.385 E.00784
G1 X76.063 Y57.806 E.21502
G1 X76.04 Y54.999 E.07168
G1 X75.756 Y54.999 E.00725
G1 X75.756 Y49.385 E.14335
G1 X75.449 Y49.385 E.00784
G1 X75.449 Y54.999 E.14335
G1 X75.142 Y54.999 E.00784
G1 X75.142 Y49.385 E.14335
G1 X74.835 Y49.385 E.00784
G1 X74.835 Y54.999 E.14335
G1 X74.528 Y54.999 E.00784
G1 X74.528 Y49.385 E.14335
G1 X74.221 Y49.385 E.00784
G1 X74.221 Y54.999 E.14335
G1 X73.914 Y54.999 E.00784
G1 X73.914 Y49.385 E.14335
G1 X73.607 Y49.385 E.00784
G1 X73.607 Y54.999 E.14335
G1 X73.3 Y54.999 E.00784
G1 X73.3 Y49.385 E.14335
G1 X72.993 Y49.385 E.00784
G1 X72.993 Y54.999 E.14335
G1 X72.685 Y54.999 E.00786
G1 X72.685 Y49.385 E.14335
G1 X72.378 Y49.385 E.00784
G1 X72.378 Y54.999 E.14335
G1 X72.071 Y54.999 E.00784
G1 X72.071 Y49.385 E.14335
G1 X71.764 Y49.385 E.00784
G1 X71.764 Y54.999 E.14335
G1 X71.457 Y54.999 E.00784
G1 X71.457 Y49.385 E.14335
G1 X71.15 Y49.385 E.00784
G1 X71.15 Y54.999 E.14335
G1 X70.843 Y54.999 E.00784
G1 X70.843 Y49.385 E.14335
G1 X70.536 Y49.385 E.00784
G1 X70.536 Y54.999 E.14335
G1 X70.229 Y54.999 E.00784
G1 X70.229 Y49.385 E.14335
G1 X69.922 Y49.385 E.00784
G1 X69.922 Y54.999 E.14335
G1 X69.615 Y54.999 E.00784
G1 X69.615 Y49.385 E.14335
G1 X69.308 Y49.385 E.00784
G1 X69.308 Y54.999 E.14335
G1 X69.001 Y54.999 E.00784
G1 X69.001 Y49.385 E.14335
G1 X68.693 Y49.385 E.00786
G1 X68.693 Y54.999 E.14335
G1 X68.386 Y54.999 E.00784
G1 X68.386 Y49.385 E.14335
G1 X68.079 Y49.385 E.00784
G1 X68.079 Y54.999 E.14335
G1 X67.772 Y54.999 E.00784
G1 X67.772 Y49.385 E.14335
G1 X67.465 Y49.385 E.00784
G1 X67.465 Y54.999 E.14335
G1 X67.158 Y54.999 E.00784
G1 X67.158 Y49.385 E.14335
G1 X66.851 Y49.385 E.00784
G1 X66.851 Y54.999 E.14335
G1 X66.544 Y54.999 E.00784
G1 X66.544 Y49.385 E.14335
G1 X66.237 Y49.385 E.00784
G1 X66.237 Y54.999 E.14335
G1 X65.93 Y54.999 E.00784
G1 X65.93 Y49.385 E.14335
G1 X65.623 Y49.385 E.00784
G1 X65.623 Y54.999 E.14335
G1 X65.316 Y54.999 E.00784
G1 X65.316 Y49.385 E.14335
G1 X65.008 Y49.385 E.00786
G1 X65.008 Y54.999 E.14335
G1 X64.701 Y54.999 E.00784
G1 X64.701 Y49.385 E.14335
G1 X64.394 Y49.385 E.00784
G1 X64.394 Y54.999 E.14335
G1 X64.087 Y54.999 E.00784
G1 X64.087 Y49.385 E.14335
G1 X63.78 Y49.385 E.00784
G1 X63.78 Y54.999 E.14335
G1 X63.473 Y54.999 E.00784
G1 X63.473 Y49.385 E.14335
G1 X63.166 Y49.385 E.00784
G1 X63.166 Y54.999 E.14335
G1 X62.859 Y54.999 E.00784
G1 X62.859 Y49.385 E.14335
G1 X62.552 Y49.385 E.00784
G1 X62.552 Y54.999 E.14335
G1 X62.245 Y54.999 E.00784
G1 X62.245 Y49.385 E.14335
G1 X61.938 Y49.385 E.00784
G1 X61.938 Y54.999 E.14335
G1 X61.631 Y54.999 E.00784
G1 X61.631 Y49.385 E.14335
G1 X61.324 Y49.385 E.00784
G1 X61.324 Y54.999 E.14335
G1 X61.016 Y54.999 E.00786
G1 X61.016 Y49.385 E.14335
G1 X60.709 Y49.385 E.00784
G1 X60.709 Y54.999 E.14335
G1 X60.402 Y54.999 E.00784
G1 X60.402 Y49.385 E.14335
G1 X60.095 Y49.385 E.00784
G1 X60.095 Y54.999 E.14335
G1 X59.788 Y54.999 E.00784
G1 X59.788 Y49.385 E.14335
G1 X59.481 Y49.385 E.00784
G1 X59.481 Y54.999 E.14335
G1 X59.197 Y54.999 E.00725
G1 X59.197 Y57.806 E.07167
G1 X59.174 Y49.385 E.21502
G1 X58.867 Y49.385 E.00784
G1 X58.867 Y57.806 E.21502
G1 X58.56 Y57.806 E.00784
G1 X58.56 Y49.385 E.21502
G1 X58.253 Y49.385 E.00784
G1 X58.253 Y57.806 E.21502
G1 X57.946 Y57.806 E.00784
G1 X57.946 Y49.385 E.21502
G1 X57.639 Y49.385 E.00784
G1 X57.639 Y57.806 E.21502
G1 X57.331 Y57.806 E.00786
G1 X57.332 Y49.385 E.21502
G1 X57.024 Y49.385 E.00786
G1 X57.024 Y57.806 E.21502
G1 X56.717 Y57.806 E.00784
G1 X56.717 Y49.385 E.21502
G1 X56.41 Y49.385 E.00784
G1 X56.39 Y60.613 E.28669
G1 X56.103 Y60.613 E.00733
G1 X56.103 Y52.192 E.21502
G1 X55.796 Y52.192 E.00784
G1 X55.796 Y60.613 E.21502
G1 X55.489 Y60.613 E.00784
G1 X55.489 Y52.192 E.21502
G1 X55.182 Y52.192 E.00784
G1 X55.182 Y60.613 E.21502
G1 X54.875 Y60.613 E.00784
G1 X54.875 Y52.192 E.21502
G1 X54.568 Y52.192 E.00784
G1 X54.568 Y60.613 E.21502
G1 X54.261 Y60.613 E.00784
G1 X54.261 Y52.192 E.21502
G1 X53.954 Y52.192 E.00784
G1 X53.954 Y60.613 E.21502
G1 X53.647 Y60.613 E.00784
G1 X53.583 Y49.302 E.28882
G1 X53.339 Y49.302 E.00623
G1 X53.339 Y52.192 E.07379
G1 X53.032 Y52.192 E.00784
G1 X53.032 Y49.302 E.07379
G1 X52.725 Y49.302 E.00784
G1 X52.725 Y52.192 E.07379
G1 X52.418 Y52.192 E.00784
G1 X52.418 Y49.302 E.07379
G1 X52.111 Y49.302 E.00784
G1 X52.111 Y52.192 E.07379
G1 X51.804 Y52.192 E.00784
G1 X51.804 Y49.302 E.07379
G1 X51.497 Y49.302 E.00784
G1 X51.497 Y52.192 E.07379
G1 X51.19 Y52.192 E.00784
G1 X51.19 Y49.302 E.07379
G1 X50.883 Y49.302 E.00784
G1 X50.883 Y63.42 E.36049
G1 X51.19 Y63.42 E.00784
G1 X51.19 Y54.999 E.21502
G1 X51.497 Y54.999 E.00784
G1 X51.497 Y63.42 E.21502
G1 X51.804 Y63.42 E.00784
G1 X51.804 Y54.999 E.21502
G1 X52.111 Y54.999 E.00784
G1 X52.111 Y63.42 E.21502
G1 X52.418 Y63.42 E.00784
G1 X52.418 Y54.999 E.21502
G1 X52.725 Y54.999 E.00784
G1 X52.725 Y63.42 E.21502
G1 X53.032 Y63.42 E.00784
G1 X53.032 Y54.999 E.21502
G1 X53.339 Y54.999 E.00784
G1 X53.339 Y63.558 E.21854
G1 E-3.5 F1500
G1 X42.592 Y63.558 F54000
G1 E3.5 F1500
G1 F1800
G1 X42.592 Y52.192 E.29022
G1 X42.899 Y52.192 E.00784
G1 X42.899 Y63.42 E.28669
G1 X43.206 Y63.42 E.00784
G1 X43.206 Y52.192 E.28669
G1 X43.513 Y52.192 E.00784
G1 X43.513 Y63.42 E.28669
G1 X43.82 Y63.42 E.00784
G1 X43.82 Y52.192 E.28669
G1 X44.127 Y52.192 E.00784
G1 X44.127 Y63.42 E.28669
G1 X44.434 Y63.42 E.00784
G1 X44.434 Y52.192 E.28669
G1 X44.741 Y52.192 E.00784
G1 X44.741 Y63.42 E.28669
G1 X45.048 Y63.42 E.00784
G1 X45.048 Y52.192 E.28669
G1 X45.162 Y52.192 E.00291
G1 X45.162 Y49.385 E.07167
G1 X45.355 Y49.385 E.00493
G1 X45.355 Y63.42 E.35837
G1 X45.662 Y63.42 E.00784
G1 X45.662 Y49.385 E.35837
G1 X45.97 Y49.385 E.00786
G1 X45.97 Y63.42 E.35837
G1 X46.277 Y63.42 E.00784
G1 X46.277 Y49.385 E.35837
G1 X46.584 Y49.385 E.00784
G1 X46.584 Y63.42 E.35837
G1 X46.891 Y63.42 E.00784
G1 X46.891 Y49.385 E.35837
G1 X47.198 Y49.385 E.00784
G1 X47.198 Y63.42 E.35837
G1 X47.505 Y63.42 E.00784
G1 X47.505 Y49.385 E.35837
G1 X47.812 Y49.385 E.00784
G1 X47.812 Y63.42 E.35837
G1 X48.119 Y63.42 E.00784
G1 X48.119 Y46.578 E.43004
G1 X48.426 Y46.578 E.00784
G1 X48.426 Y63.42 E.43004
G1 X48.733 Y63.42 E.00784
G1 X48.733 Y46.578 E.43004
G1 X49.04 Y46.578 E.00784
G1 X49.04 Y63.42 E.43004
G1 X49.347 Y63.42 E.00784
G1 X49.347 Y46.578 E.43004
G1 X49.655 Y46.578 E.00786
G1 X49.655 Y63.42 E.43004
G1 X49.962 Y63.42 E.00784
G1 X49.962 Y46.578 E.43004
G1 X50.269 Y46.578 E.00784
G1 X50.269 Y63.42 E.43004
G1 X50.576 Y63.42 E.00784
G1 X50.576 Y46.578 E.43004
G1 X50.883 Y46.578 E.00784
G1 X50.883 Y48.613 E.05196
G1 X51.19 Y48.306 E.01109
G1 X51.19 Y46.578 E.04412
G1 X51.497 Y46.578 E.00784
G1 X51.497 Y47.999 E.03628
G1 X51.804 Y47.692 E.01109
G1 X51.804 Y46.578 E.02844
G1 X52.111 Y46.578 E.00784
G1 X52.111 Y47.385 E.02061
G1 X52.418 Y47.077 E.0111
G1 X52.418 Y46.578 E.01274
G1 X52.725 Y46.578 E.00784
G1 X52.725 Y46.966 E.00991
G1 E-3.5 F1500
G1 X61.464 Y47.148 F54000
G1 E3.5 F1500
;TYPE:Perimeter
;WIDTH:0.424603
G1 F1800
G1 X61.419 Y47.162 E.0015
G1 X60.617 Y47.246 E.02559
;WIDTH:0.419852
G1 X59.813 Y47.207 E.02523
;WIDTH:0.419999
G1 X58.824 Y46.919 E.0323
G1 X58.076 Y46.514 E.02667
G1 X57.455 Y45.998 E.02532
G1 X57.016 Y45.471 E.02151
G1 X56.809 Y45.165 E.01158
G1 X56.555 Y44.667 E.01753
G1 X56.307 Y43.899 E.0253
G1 X56.208 Y43.098 E.02531
G1 X56.261 Y42.293 E.02529
G1 X56.463 Y41.512 E.02529
G1 X56.809 Y40.782 E.02533
G1 X57.22 Y40.214 E.02198
G1 X57.455 Y39.95 E.01108
G1 X57.874 Y39.58 E.01753
G1 X58.557 Y39.149 E.02532
G1 X59.035 Y38.952 E.01621
G1 X59.588 Y38.786 E.0181
G1 X60.325 Y38.693 E.02329
G1 X61.174 Y38.741 E.02666
G1 X61.956 Y38.944 E.02533
G1 X62.685 Y39.289 E.02529
G1 X63.337 Y39.765 E.02531
G1 X63.888 Y40.354 E.02529
G1 X64.318 Y41.037 E.02531
G1 X64.538 Y41.609 E.01922
G1 X64.709 Y42.168 E.01833
G1 X64.779 Y42.849 E.02146
G1 X64.727 Y43.655 E.02532
G1 X64.524 Y44.436 E.0253
G1 X64.177 Y45.168 E.0254
G1 X63.544 Y45.982 E.03233
G1 X62.895 Y46.526 E.02655
G1 X62.187 Y46.913 E.0253
;WIDTH:0.424603
G1 X61.521 Y47.129 E.02222
G1 X61.182 Y46.813 F54000
;WIDTH:0.419999
G1 F1800
G1 X60.582 Y46.884 E.01894
G1 X59.848 Y46.831 E.02307
G1 X58.94 Y46.56 E.02971
G1 X58.268 Y46.19 E.02405
G1 X57.704 Y45.715 E.02312
G1 X57.314 Y45.24 E.01927
G1 X57.145 Y44.994 E.00936
G1 X56.891 Y44.496 E.01753
G1 X56.67 Y43.794 E.02308
G1 X56.584 Y43.063 E.02308
G1 X56.636 Y42.328 E.0231
G1 X56.826 Y41.617 E.02308
G1 X57.145 Y40.954 E.02307
G1 X57.518 Y40.445 E.01979
G1 X57.704 Y40.233 E.00884
G1 X58.124 Y39.863 E.01755
G1 X58.749 Y39.474 E.02308
G1 X59.435 Y39.209 E.02306
G1 X60.372 Y39.067 E.02971
G1 X61.139 Y39.116 E.0241
