; File Parsed By Flow Comp Script
; Script Ver. V0.7.1
; Flow Model Ver. V0.2.1
; Logger Ver. V0.0.1
; Flow Comp Model Points:
; (0, 0)
; (0.2, 0.4444)
; (0.4, 0.6145)
; (0.6, 0.7059)
; (0.8, 0.7619)
; (1.5, 0.8571)
; (2, 0.8889)
; (3, 0.9231)
; (5, 0.952)
; (10, 1)

; generated by PrusaSlicer 2.9.1 on 2025-03-15 at 12:33:34 UTC

; 

; external perimeters extrusion width = 0.45mm
; perimeters extrusion width = 0.45mm
; infill extrusion width = 0.45mm
; solid infill extrusion width = 0.45mm
; top infill extrusion width = 0.40mm
; first layer extrusion width = 0.42mm

; external perimeters extrusion width = 0.45mm
; perimeters extrusion width = 0.45mm
; infill extrusion width = 0.45mm
; solid infill extrusion width = 0.45mm
; top infill extrusion width = 0.40mm
; first layer extrusion width = 0.42mm

;TYPE:Custom
G90 ; use absolute coordinates
M83 ; extruder relative mode
M104 S210 ; set temporary nozzle temp to prevent oozing during homing
M140 S58 ; set final bed temp
G4 S30 ; allow partial nozzle warmup
G28 ; home all axis
G1 Z50 F240
G1 X2.0 Y10 F3000
M104 S208 ; set final nozzle temp
M190 S58 ; wait for bed temp to stabilize
M109 S208 ; wait for nozzle temp to stabilize
G1 Z0.28 F240
G92 E0
G1 X2.0 Y140 E10 F1500 ; prime the nozzle
G1 X2.3 Y140 F5000
G92 E0
G1 X2.3 Y10 E10 F1200 ; prime the nozzle
G92 E0
G21 ; set units to millimeters
G90 ; use absolute coordinates
M83 ; use relative distances for extrusion
; Filament gcode
M107
;LAYER_CHANGE
;Z:0.2
;HEIGHT:0.2
G1 E-3.5 F1500
G1 Z.2 F54000
G1 X16.152 Y21.57
G1 Z.2
G1 E3.5 F1500
M204 S3500
;TYPE:Skirt/Brim
;WIDTH:0.42
G1 F1800
G1 X18.318 Y20.789 E.07219
G1 X41.368 Y16.839 E.73325
G1 X42.477 Y16.744 E.0349
G1 X66.477 Y16.744 E.7525
G1 X68.726 Y17.141 E.07161
G1 X70.702 Y18.284 E.07157
G1 X72.168 Y20.035 E.0716
G1 X73.043 Y23.31 E.10629
G1 X73.043 Y50.81 E.86224
G1 X72.646 Y53.058 E.07158
G1 X71.503 Y55.035 E.0716
G1 X69.752 Y56.5 E.07158
G1 X66.477 Y57.376 E.1063
G1 X42.477 Y57.376 E.7525
G1 X41.368 Y57.281 E.0349
G1 X18.318 Y53.331 E.73325
G1 X16.169 Y52.56 E.07159
G1 X14.414 Y51.1 E.07158
G1 X13.265 Y49.127 E.07159
G1 X12.862 Y46.86 E.07219
G1 X12.862 Y27.26 E.61454
G1 X13.259 Y25.012 E.07158
G1 X14.401 Y23.035 E.07159
G1 X16.106 Y21.608 E.06971
G1 X16.357 Y21.924 F54000
G1 F1800
G1 X16.511 Y21.802 E.00616
G1 X18.382 Y21.16 E.06202
G1 X41.432 Y17.21 E.73325
G1 X42.477 Y17.121 E.03288
G1 X66.477 Y17.121 E.7525
G1 X68.657 Y17.518 E.06948
G1 X70.558 Y18.658 E.0695
G1 X71.936 Y20.394 E.06949
G1 X72.666 Y23.31 E.09425
G1 X72.666 Y50.81 E.86224
G1 X72.269 Y52.99 E.06948
G1 X71.13 Y54.891 E.06948
G1 X69.394 Y56.268 E.06948
G1 X66.477 Y56.999 E.09429
G1 X42.477 Y56.999 E.7525
G1 X41.432 Y56.91 E.03288
G1 X18.382 Y52.96 E.73325
G1 X16.3 Y52.2 E.06949
G1 X14.619 Y50.756 E.06948
G1 X13.555 Y48.813 E.06946
G1 X13.239 Y46.86 E.06203
G1 X13.239 Y27.26 E.61454
G1 X13.635 Y25.08 E.06947
G1 X14.775 Y23.179 E.0695
G1 X16.31 Y21.961 E.06144
G1 E-3.5 F1500
G1 X59.758 Y40.484 F54000
G1 E3.5 F1500
;TYPE:Perimeter
;WIDTH:0.419999
G1 F1800
G1 X59.741 Y40.469 E.00071
G1 X59.403 Y40.027 E.01745
G1 X59.142 Y39.47 E.01929
G1 X59.018 Y38.96 E.01646
G1 X58.991 Y38.445 E.01617
G1 X59.064 Y37.916 E.01674
G1 X59.142 Y37.65 E.00869
G1 X59.359 Y37.172 E.01646
G1 X59.662 Y36.744 E.01644
G1 X60.039 Y36.38 E.01643
G1 X60.479 Y36.092 E.01649
G1 X60.965 Y35.893 E.01647
G1 X61.606 Y35.779 E.02041
G1 X62.175 Y35.8 E.01785
G1 X62.687 Y35.924 E.01652
G1 X63.165 Y36.142 E.01647
G1 X63.593 Y36.444 E.01642
G1 X63.958 Y36.822 E.01648
G1 X64.302 Y37.382 E.02061
;WIDTH:0.445535
G1 X64.502 Y37.913 E.019
;WIDTH:0.488676
G1 X64.547 Y38.034 E.00478
;WIDTH:0.531817
G1 X64.592 Y38.155 E.00525
G1 X64.612 Y38.689 E.02172
;WIDTH:0.540465
G1 X64.582 Y39.074 E.01598
G1 X64.489 Y39.295 E.00992
;WIDTH:0.50031
G1 X64.395 Y39.517 E.00917
;WIDTH:0.460155
G1 X64.302 Y39.738 E.00832
;WIDTH:0.419999
G1 X63.958 Y40.298 E.02061
G1 X63.593 Y40.676 E.01648
G1 X63.165 Y40.978 E.01642
G1 X62.687 Y41.196 E.01647
G1 X62.177 Y41.319 E.01645
G1 X61.653 Y41.345 E.01645
G1 X61.133 Y41.273 E.01646
G1 X60.599 Y41.085 E.01775
G1 X60.151 Y40.829 E.01618
G1 X59.803 Y40.524 E.01451
G1 X59.953 Y40.137 F54000
G1 F1800
G1 X59.695 Y39.777 E.01389
G1 X59.504 Y39.365 E.01424
G1 X59.393 Y38.924 E.01426
G1 X59.367 Y38.471 E.01423
G1 X59.427 Y38.021 E.01423
G1 X59.504 Y37.755 E.00868
G1 X59.752 Y37.246 E.01775
G1 X60.081 Y36.846 E.01624
G1 X60.432 Y36.558 E.01424
G1 X60.831 Y36.341 E.01424
G1 X61.292 Y36.199 E.01512
G1 X61.86 Y36.15 E.01788
G1 X62.316 Y36.209 E.01442
G1 X62.747 Y36.352 E.01424
G1 X63.143 Y36.573 E.01422
G1 X63.492 Y36.864 E.01425
G1 X63.794 Y37.241 E.01515
G1 X64.051 Y37.755 E.01802
G1 X64.161 Y38.195 E.01422
G1 X64.187 Y38.649 E.01426
G1 X64.128 Y39.099 E.01423
G1 X63.971 Y39.556 E.01515
G1 X63.675 Y40.048 E.018
G1 X63.362 Y40.378 E.01426
G1 X62.994 Y40.642 E.0142
G1 X62.582 Y40.834 E.01425
G1 X62.142 Y40.944 E.01422
G1 X61.688 Y40.97 E.01426
G1 X61.239 Y40.911 E.0142
G1 X60.781 Y40.754 E.01518
G1 X60.289 Y40.458 E.018
G1 X59.995 Y40.179 E.01271
G1 X60.099 Y39.698 F54000
G1 F1800
G1 X60.031 Y39.605 E.00361
G1 X59.866 Y39.259 E.01202
G1 X59.769 Y38.889 E.01199
G1 X59.743 Y38.507 E.01201
G1 X59.789 Y38.126 E.01203
G1 X59.866 Y37.861 E.00865
G1 X60.088 Y37.425 E.01534
G1 X60.33 Y37.128 E.01201
G1 X60.624 Y36.883 E.012
G1 X60.959 Y36.696 E.01203
G1 X61.34 Y36.574 E.01254
G1 X61.826 Y36.525 E.01532
G1 X62.211 Y36.571 E.01216
G1 X62.576 Y36.688 E.01202
G1 X62.912 Y36.871 E.012
G1 X63.209 Y37.113 E.01201
G1 X63.464 Y37.423 E.01259
G1 X63.689 Y37.86 E.01541
G1 X63.786 Y38.231 E.01202
G1 X63.812 Y38.613 E.01201
G1 X63.766 Y38.993 E.012
G1 X63.641 Y39.375 E.0126
G1 X63.392 Y39.799 E.01542
G1 X63.131 Y40.08 E.01202
G1 X62.822 Y40.306 E.012
G1 X62.477 Y40.471 E.01199
G1 X62.106 Y40.569 E.01203
G1 X61.724 Y40.595 E.01201
G1 X61.344 Y40.549 E.012
G1 X60.963 Y40.424 E.01257
G1 X60.538 Y40.175 E.01544
G1 X60.258 Y39.914 E.012
G1 X60.134 Y39.746 E.00655
G1 X60.271 Y39.241 F54000
;TYPE:External perimeter
G1 F1800
G1 X60.228 Y39.154 E.00304
G1 X60.144 Y38.853 E.0098
G1 X60.118 Y38.542 E.00979
G1 X60.151 Y38.231 E.00981
G1 X60.228 Y37.966 E.00865
G1 X60.386 Y37.656 E.01091
G1 X60.58 Y37.411 E.0098
G1 X60.816 Y37.207 E.00978
G1 X61.087 Y37.051 E.0098
G1 X61.388 Y36.948 E.00997
G1 X61.791 Y36.901 E.01272
G1 X62.105 Y36.933 E.0099
G1 X62.405 Y37.024 E.00983
G1 X62.681 Y37.169 E.00978
G1 X62.926 Y37.363 E.0098
G1 X63.133 Y37.604 E.00996
G1 X63.326 Y37.965 E.01283
G1 X63.41 Y38.267 E.00983
G1 X63.436 Y38.578 E.00979
G1 X63.404 Y38.888 E.00977
G1 X63.311 Y39.193 E.01
G1 X63.109 Y39.549 E.01283
G1 X62.9 Y39.782 E.00981
G1 X62.651 Y39.97 E.00978
G1 X62.371 Y40.109 E.0098
G1 X62.071 Y40.193 E.00977
G1 X61.546 Y40.199 E.01646
G1 X61.144 Y40.093 E.01304
G1 X60.788 Y39.892 E.01282
G1 X60.555 Y39.683 E.00981
G1 X60.367 Y39.434 E.00978
G1 X60.297 Y39.294 E.00491
G1 X60.166 Y38.917 F54000
G1 E-3.5 F1500
G1 X44.448 Y39.079 F54000
G1 E3.5 F1500
;TYPE:Perimeter
;WIDTH:0.590835
G1 F1800
G1 X44.418 Y38.691 E.01773
;WIDTH:0.581911
G1 X44.437 Y38.152 E.02417
G1 X44.488 Y38.027 E.00605
;WIDTH:0.541433
G1 X44.539 Y37.901 E.00563
;WIDTH:0.500955
G1 X44.59 Y37.776 E.00514
;WIDTH:0.460477
G1 X44.642 Y37.65 E.00473
;WIDTH:0.419999
G1 X44.859 Y37.172 E.01646
G1 X45.162 Y36.744 E.01644
G1 X45.539 Y36.38 E.01643
G1 X45.979 Y36.092 E.01649
G1 X46.465 Y35.893 E.01647
G1 X47.106 Y35.779 E.02041
G1 X47.675 Y35.8 E.01785
G1 X48.187 Y35.924 E.01652
G1 X48.665 Y36.142 E.01647
G1 X49.094 Y36.445 E.01647
G1 X49.458 Y36.822 E.01643
G1 X49.769 Y37.323 E.01849
G1 X49.913 Y37.651 E.01123
G1 X50.037 Y38.16 E.01643
G1 X50.063 Y38.675 E.01617
G1 X49.99 Y39.204 E.01674
G1 X49.821 Y39.701 E.01646
G1 X49.561 Y40.159 E.01651
G1 X49.187 Y40.588 E.01784
G1 X48.792 Y40.904 E.01586
G1 X48.187 Y41.196 E.02106
G1 X47.677 Y41.319 E.01645
G1 X47.153 Y41.345 E.01645
G1 X46.633 Y41.273 E.01646
G1 X46.099 Y41.085 E.01775
G1 X45.54 Y40.741 E.02058
G1 X45.162 Y40.376 E.01648
G1 X44.859 Y39.948 E.01644
G1 X44.642 Y39.47 E.01646
;WIDTH:0.462708
G1 X44.593 Y39.372 E.00382
;WIDTH:0.505417
G1 X44.545 Y39.274 E.0042
;WIDTH:0.548126
G1 X44.496 Y39.176 E.0046
;WIDTH:0.590835
G1 X44.474 Y39.132 E.00224
G1 X44.891 Y38.901 F54000
;WIDTH:0.419999
G1 F1800
G1 X44.867 Y38.649 E.00794
G1 X44.893 Y38.196 E.01423
G1 X45.069 Y37.59 E.01979
G1 X45.29 Y37.194 E.01422
G1 X45.581 Y36.846 E.01422
G1 X45.932 Y36.558 E.01424
G1 X46.331 Y36.341 E.01424
G1 X46.792 Y36.199 E.01512
G1 X47.36 Y36.15 E.01788
G1 X47.834 Y36.214 E.015
G1 X48.247 Y36.352 E.01365
G1 X48.644 Y36.573 E.01425
G1 X48.992 Y36.864 E.01422
G1 X49.294 Y37.241 E.01515
G1 X49.551 Y37.755 E.01802
G1 X49.661 Y38.196 E.01425
G1 X49.687 Y38.649 E.01423
G1 X49.628 Y39.099 E.01423
G1 X49.485 Y39.53 E.01424
G1 X49.264 Y39.927 E.01425
G1 X48.947 Y40.297 E.01528
G1 X48.494 Y40.642 E.01785
G1 X48.082 Y40.834 E.01425
G1 X47.642 Y40.944 E.01422
G1 X47.188 Y40.97 E.01426
G1 X46.739 Y40.911 E.0142
G1 X46.281 Y40.754 E.01518
G1 X45.789 Y40.458 E.018
G1 X45.46 Y40.145 E.01424
G1 X45.195 Y39.777 E.01422
G1 X45.004 Y39.365 E.01424
G1 X44.902 Y38.96 E.0131
G1 X45.243 Y38.613 F54000
G1 F1800
G1 X45.289 Y38.126 E.01534
G1 X45.405 Y37.761 E.01201
G1 X45.588 Y37.425 E.012
G1 X45.83 Y37.128 E.01201
G1 X46.124 Y36.883 E.012
G1 X46.459 Y36.696 E.01203
G1 X46.84 Y36.574 E.01254
G1 X47.326 Y36.525 E.01532
G1 X47.729 Y36.577 E.01274
G1 X48.076 Y36.688 E.01142
G1 X48.412 Y36.871 E.012
G1 X48.709 Y37.113 E.01201
G1 X48.964 Y37.423 E.01259
G1 X49.189 Y37.861 E.01544
G1 X49.286 Y38.231 E.01199
G1 X49.312 Y38.614 E.01204
G1 X49.266 Y38.994 E.012
G1 X49.149 Y39.359 E.01202
G1 X48.966 Y39.696 E.01202
G1 X48.707 Y40.006 E.01267
G1 X48.323 Y40.306 E.01528
G1 X47.977 Y40.471 E.01202
G1 X47.439 Y40.584 E.01724
G1 X46.948 Y40.569 E.0154
G1 X46.463 Y40.424 E.01587
G1 X46.038 Y40.175 E.01544
G1 X45.758 Y39.914 E.012
G1 X45.531 Y39.605 E.01202
G1 X45.366 Y39.26 E.01199
G1 X45.269 Y38.889 E.01202
G1 X45.248 Y38.673 E.0068
G1 X45.643 Y38.317 F54000
;TYPE:External perimeter
G1 F1800
G1 X45.651 Y38.232 E.00268
G1 X45.741 Y37.933 E.00979
G1 X45.886 Y37.656 E.0098
G1 X46.08 Y37.411 E.0098
G1 X46.316 Y37.207 E.00978
G1 X46.587 Y37.051 E.0098
G1 X46.888 Y36.948 E.00997
G1 X47.291 Y36.901 E.01272
G1 X47.624 Y36.939 E.01051
G1 X47.904 Y37.024 E.00917
G1 X48.181 Y37.169 E.0098
G1 X48.426 Y37.363 E.0098
G1 X48.633 Y37.604 E.00996
G1 X48.827 Y37.967 E.01291
G1 X48.91 Y38.267 E.00976
G1 X48.936 Y38.578 E.00979
G1 X48.904 Y38.888 E.00977
G1 X48.813 Y39.187 E.0098
G1 X48.668 Y39.464 E.0098
G1 X48.467 Y39.716 E.01011
G1 X48.152 Y39.97 E.01269
G1 X47.871 Y40.109 E.00983
G1 X47.404 Y40.209 E.01497
G1 X46.949 Y40.187 E.01428
G1 X46.644 Y40.093 E.01001
G1 X46.288 Y39.892 E.01282
G1 X46.055 Y39.683 E.00981
G1 X45.867 Y39.434 E.00978
G1 X45.728 Y39.154 E.0098
G1 X45.644 Y38.854 E.00977
G1 X45.618 Y38.578 E.00869
G1 X45.637 Y38.377 E.00633
G1 X45.729 Y37.987 F54000
G1 E-3.5 F1500
G1 X59.324 Y49.469 F54000
G1 E3.5 F1500
;TYPE:Perimeter
G1 F1800
G1 X43.818 Y49.469 E.48618
G1 X43.818 Y39.587 E.30984
;WIDTH:0.462708
G1 X43.84 Y39.472 E.00409
;WIDTH:0.505417
G1 X43.861 Y39.356 E.00453
;WIDTH:0.548126
G1 X43.882 Y39.241 E.00491
;WIDTH:0.590835
G1 X43.904 Y39.126 E.00533
G1 X43.893 Y38.716 E.01869
;WIDTH:0.581911
G1 X43.899 Y38.127 E.0264
G1 X43.879 Y37.979 E.00669
;WIDTH:0.541433
G1 X43.859 Y37.83 E.00623
;WIDTH:0.500955
G1 X43.839 Y37.681 E.00573
;WIDTH:0.460477
G1 X43.818 Y37.533 E.00519
;WIDTH:0.419999
G1 X43.818 Y24.651 E.40391
G1 X65.136 Y24.651 E.66841
G1 X65.136 Y30.378 E.17957
G1 X65.136 Y37.168 E.2129
;WIDTH:0.445535
G1 X65.123 Y37.824 E.02197
;WIDTH:0.482141
G1 X65.105 Y38.117 E.01072
;WIDTH:0.518746
G1 X65.087 Y38.409 E.01157
;WIDTH:0.531817
G1 X65.08 Y38.988 E.02354
G1 X65.099 Y39.183 E.00796
;WIDTH:0.494545
G1 X65.117 Y39.378 E.00735
;WIDTH:0.457272
G1 X65.136 Y39.573 E.00675
;WIDTH:0.419999
G1 X65.136 Y49.469 E.31028
G1 X59.384 Y49.469 E.18035
G1 X58.947 Y49.846 F54000
G1 F1800
G1 X43.441 Y49.846 E.48618
G1 X43.441 Y24.274 E.80179
G1 X65.513 Y24.274 E.69205
G1 X65.513 Y30.378 E.19139
G1 X65.513 Y49.846 E.6104
G1 X59.007 Y49.846 E.20399
G1 X58.57 Y50.223 F54000
G1 F1800
G1 X43.064 Y50.223 E.48618
G1 X43.064 Y23.897 E.82543
G1 X65.89 Y23.897 E.71569
G1 X65.89 Y30.378 E.20321
G1 X65.89 Y50.223 E.62222
G1 X58.63 Y50.223 E.22763
G1 X58.193 Y50.6 F54000
;TYPE:External perimeter
G1 F1800
G1 X42.687 Y50.6 E.48618
G1 X42.687 Y23.52 E.84907
G1 X66.267 Y23.52 E.73933
G1 X66.267 Y30.378 E.21503
G1 X66.267 Y50.6 E.63405
G1 X58.253 Y50.6 E.25127
G1 X57.853 Y50.6 F54000
G1 E-3.5 F1500
G1 X53.853 Y49.356 F54000
G1 E3.5 F1500
;TYPE:Solid infill
;WIDTH:0.423576
G1 F1800
G1 X44.101 Y39.604 E.43652; Old Flow Value: 0.43652   Length: 13.79141
G1 X44.101 Y40.142 E0.01159; Old Flow Value: 0.01703   Length: 0.53800
G1 X53.145 Y49.186 E.40483; Old Flow Value: 0.40483   Length: 12.79015
G1 X52.607 Y49.186 E0.01159; Old Flow Value: 0.01703   Length: 0.53800
G1 X44.101 Y40.681 E.38073; Old Flow Value: 0.38073   Length: 12.02859
G1 X44.101 Y41.219 E0.01159; Old Flow Value: 0.01703   Length: 0.53800
G1 X52.068 Y49.186 E.35662; Old Flow Value: 0.35662   Length: 11.26704
G1 X51.53 Y49.186 E0.01159; Old Flow Value: 0.01703   Length: 0.53800
G1 X44.101 Y41.757 E.33254; Old Flow Value: 0.33254   Length: 10.50619
G1 X44.101 Y42.296 E0.01162; Old Flow Value: 0.01706   Length: 0.53900
G1 X50.992 Y49.186 E0.30769; Old Flow Value: 0.30843   Length: 9.74464
G1 X50.453 Y49.186 E0.01162; Old Flow Value: 0.01706   Length: 0.53900
G1 X44.101 Y42.834 E0.28161; Old Flow Value: 0.28433   Length: 8.98308
G1 X44.101 Y43.372 E0.01159; Old Flow Value: 0.01703   Length: 0.53800
G1 X49.915 Y49.186 E0.25589; Old Flow Value: 0.26025   Length: 8.22224
G1 X49.377 Y49.186 E0.01159; Old Flow Value: 0.01703   Length: 0.53800
G1 X44.101 Y43.911 E0.23047; Old Flow Value: 0.23614   Length: 7.46068
G1 X44.101 Y44.449 E0.01159; Old Flow Value: 0.01703   Length: 0.53800
G1 X48.838 Y49.186 E0.20540; Old Flow Value: 0.21204   Length: 6.69913
G1 X48.3 Y49.186 E0.01159; Old Flow Value: 0.01703   Length: 0.53800
G1 X44.101 Y44.987 E0.18068; Old Flow Value: 0.18796   Length: 5.93828
G1 X44.101 Y45.526 E0.01162; Old Flow Value: 0.01706   Length: 0.53900
G1 X47.762 Y49.186 E0.15627; Old Flow Value: 0.16385   Length: 5.17673
G1 X47.223 Y49.186 E0.01162; Old Flow Value: 0.01706   Length: 0.53900
G1 X44.101 Y46.064 E0.13219; Old Flow Value: 0.13975   Length: 4.41517
G1 X44.101 Y46.602 E0.01159; Old Flow Value: 0.01703   Length: 0.53800
G1 X46.685 Y49.186 E0.10824; Old Flow Value: 0.11567   Length: 3.65433
G1 X46.147 Y49.186 E0.01159; Old Flow Value: 0.01703   Length: 0.53800
G1 X44.101 Y47.141 E0.08428; Old Flow Value: 0.09156   Length: 2.89277
G1 X44.101 Y47.679 E0.01159; Old Flow Value: 0.01703   Length: 0.53800
G1 X45.608 Y49.186 E0.06038; Old Flow Value: 0.06746   Length: 2.13122
G1 X45.07 Y49.186 E0.01159; Old Flow Value: 0.01703   Length: 0.53800
G1 X44.101 Y48.217 E0.03668; Old Flow Value: 0.04337   Length: 1.37037
G1 X44.101 Y48.756 E0.01162; Old Flow Value: 0.01706   Length: 0.53900
G1 X44.701 Y49.356 E0.02074; Old Flow Value: 0.02686   Length: 0.84853
G1 E-3.5 F1500
G1 X48.521 Y35.949 F54000
G1 E3.5 F1500; Old Flow Value: 3.5   Length: 0.00000
G1 F1800
G1 X44.101 Y31.529 E0.19079; Old Flow Value: 0.19785   Length: 6.25082
G1 X44.101 Y32.067 E0.01159; Old Flow Value: 0.01703   Length: 0.53800
G1 X47.537 Y35.504 E0.14623; Old Flow Value: 0.15383   Length: 4.85994
G1 X47.003 Y35.507 E0.01147; Old Flow Value: 0.0169   Length: 0.53401
G1 X44.101 Y32.606 E0.12237; Old Flow Value: 0.12988   Length: 4.10334
G1 X44.101 Y33.144 E0.01159; Old Flow Value: 0.01703   Length: 0.53800
G1 X46.542 Y35.585 E0.10187; Old Flow Value: 0.10926   Length: 3.45209
G1 X46.131 Y35.712 E0.00858; Old Flow Value: 0.01362   Length: 0.43017
G1 X44.101 Y33.682 E0.08360; Old Flow Value: 0.09087   Length: 2.87085
G1 X44.101 Y34.221 E0.01162; Old Flow Value: 0.01706   Length: 0.53900
G1 X45.769 Y35.888 E0.06750; Old Flow Value: 0.07464   Length: 2.35820
