; File Parsed By Flow Comp Script
; Script Ver. V0.7.1
; Flow Model Ver. V0.2.1
; Logger Ver. V0.0.1
; Flow Comp Model Points:
; (0, 0)
; (0.2, 0.4444)
; (0.4, 0.6145)
; (0.6, 0.7059)
; (0.8, 0.7619)
; (1.5, 0.8571)
; (2, 0.8889)
; (3, 0.9231)
; (5, 0.952)
; (10, 1)

; generated by PrusaSlicer 2.9.2 on 2025-04-13 at 14:21:16 UTC

; 

; external perimeters extrusion width = 0.45mm
; perimeters extrusion width = 0.45mm
; infill extrusion width = 0.45mm
; solid infill extrusion width = 0.45mm
; top infill extrusion width = 0.40mm
; support material extrusion width = 0.35mm
; first layer extrusion width = 0.42mm

;TYPE:Custom
G90 ; use absolute coordinates
M83 ; extruder relative mode
CALCULATE_PA BOWDEN_LENGTH=34.3 MATERIAL=PLA LAYER_HEIGHT=0.2 NOZZLE_SIZE=0.4 PRINT_SPEED=120 FILAMENT_DIAMETER=1.75 LINE_WIDTH=0.45 ; auto pressure advance
M104 S210 ; set temporary nozzle temp to prevent oozing during homing
M140 S58 ; set final bed temp
G4 S30 ; allow partial nozzle warmup
G28 ; home all axis
G1 Z50 F240
G1 X2.0 Y10 F3000
M104 S208 ; set final nozzle temp
M190 S58 ; wait for bed temp to stabilize
M109 S208 ; wait for nozzle temp to stabilize
G1 Z0.28 F240
G92 E0
G1 X2.0 Y140 E10 F1500 ; prime the nozzle
G1 X2.3 Y140 F5000
G92 E0
G1 X2.3 Y10 E10 F1200 ; prime the nozzle
G92 E0
G21 ; set units to millimeters
G90 ; use absolute coordinates
M83 ; use relative distances for extrusion
; Filament gcode
M107
;LAYER_CHANGE
;Z:0.2
;HEIGHT:0.2
G1 E-3.5 F1500
G1 Z.2 F54000
G1 X9.805 Y26.275
G1 Z.2
G1 E3.5 F1500
M204 S3500
;TYPE:Skirt/Brim
;WIDTH:0.42
G1 F1800
G1 X12.722 Y25.544 E.09429
G1 X40.722 Y25.544 E.87792
G1 X42.902 Y25.941 E.06948
G1 X44.803 Y27.081 E.0695
G1 X46.18 Y28.817 E.06948
G1 X46.91 Y31.733 E.09425
G1 X46.91 Y59.733 E.87792
G1 X46.513 Y61.913 E.06948
G1 X45.374 Y63.814 E.06948
G1 X43.638 Y65.191 E.06948
G1 X40.722 Y65.922 E.09426
G1 X12.722 Y65.922 E.87792
G1 X10.541 Y65.525 E.06951
G1 X8.641 Y64.385 E.06947
G1 X7.263 Y62.649 E.06949
G1 X6.533 Y59.733 E.09425
G1 X6.533 Y31.733 E.87792
G1 X6.93 Y29.553 E.06948
G1 X8.069 Y27.652 E.06948
G1 X9.758 Y26.312 E.0676
G1 E-3.5 F1500
G1 X29.461 Y47.816 F54000
G1 E3.5 F1500
;TYPE:Perimeter
;WIDTH:0.419999
G1 F1800
G1 X29.176 Y47.936 E.0097
G1 X28.771 Y48.026 E.01301
G1 X28.258 Y48.029 E.01609
G1 X27.85 Y47.964 E.01295
G1 X27.368 Y47.787 E.0161
G1 X26.952 Y47.523 E.01545
G1 X26.54 Y47.099 E.01854
G1 X26.331 Y46.805 E.01131
G1 X26.116 Y46.28 E.01779
G1 X26.028 Y45.909 E.01196
G1 X26.023 Y45.794 E.00361
G1 X26.04 Y45.15 E.0202
G1 X26.275 Y44.475 E.02241
G1 X26.379 Y44.268 E.00726
G1 X26.835 Y43.743 E.0218
G1 X27.235 Y43.452 E.01551
G1 X27.626 Y43.268 E.01355
G1 X28.021 Y43.153 E.0129
G1 X28.47 Y43.107 E.01415
G1 X29.143 Y43.211 E.02135
G1 X29.605 Y43.393 E.01557
G1 X29.97 Y43.624 E.01354
G1 X30.33 Y43.963 E.0155
G1 X30.584 Y44.312 E.01353
G1 X30.772 Y44.68 E.01296
G1 X30.919 Y45.238 E.01809
G1 X30.94 Y45.694 E.01431
G1 X30.841 Y46.249 E.01768
G1 X30.705 Y46.631 E.01271
G1 X30.435 Y47.06 E.01589
G1 X30.151 Y47.387 E.01358
G1 X29.753 Y47.692 E.01572
G1 X29.516 Y47.792 E.00807
G1 X29.159 Y47.536 F54000
G1 F1800
G1 X28.976 Y47.607 E.00615
G1 X28.69 Y47.652 E.00908
G1 X28.171 Y47.648 E.01627
G1 X27.64 Y47.498 E.0173
G1 X27.194 Y47.234 E.01625
G1 X26.815 Y46.84 E.01714
G1 X26.625 Y46.542 E.01108
G1 X26.412 Y45.945 E.01987
G1 X26.4 Y45.794 E.00475
G1 X26.412 Y45.211 E.01828
G1 X26.625 Y44.614 E.01987
G1 X26.815 Y44.316 E.01108
G1 X27.11 Y44.001 E.01353
G1 X27.396 Y43.793 E.01109
G1 X28.025 Y43.534 E.02133
G1 X28.47 Y43.484 E.01404
G1 X29.073 Y43.581 E.01915
G1 X29.403 Y43.711 E.01112
G1 X29.768 Y43.943 E.01356
G1 X30.025 Y44.184 E.01105
G1 X30.279 Y44.534 E.01356
G1 X30.502 Y45.071 E.01823
G1 X30.568 Y45.552 E.01522
G1 X30.493 Y46.06 E.0161
G1 X30.374 Y46.451 E.01281
G1 X30.106 Y46.876 E.01575
G1 X29.911 Y47.096 E.00922
G1 X29.467 Y47.415 E.01714
G1 X29.214 Y47.514 E.00852
G1 X28.84 Y47.246 F54000
G1 F1800
G1 X28.69 Y47.275 E.00479
G1 X28.161 Y47.266 E.01659
G1 X27.696 Y47.107 E.01541
G1 X27.385 Y46.897 E.01177
G1 X27.027 Y46.502 E.01671
G1 X26.817 Y46.002 E.017
G1 X26.777 Y45.794 E.00664
G1 X26.785 Y45.272 E.01637
G1 X26.976 Y44.753 E.01734
G1 X27.09 Y44.574 E.00665
G1 X27.385 Y44.259 E.01353
G1 X27.556 Y44.135 E.00662
G1 X28.09 Y43.905 E.01823
G1 X28.575 Y43.871 E.01524
G1 X29.003 Y43.952 E.01366
G1 X29.201 Y44.03 E.00667
G1 X29.565 Y44.261 E.01352
G1 X29.72 Y44.406 E.00665
G1 X30.054 Y44.913 E.01904
G1 X30.168 Y45.309 E.01292
G1 X30.181 Y45.684 E.01176
G1 X30.073 Y46.203 E.01662
G1 X29.799 Y46.655 E.01657
G1 X29.452 Y46.986 E.01504
G1 X28.899 Y47.235 E.01902
G1 X28.48 Y46.894 F54000
;TYPE:External perimeter
G1 F1800
G1 X28.2 Y46.888 E.00878
G1 X27.788 Y46.723 E.01392
G1 X27.66 Y46.639 E.0048
G1 X27.327 Y46.264 E.01572
G1 X27.154 Y45.794 E.0157
G1 X27.168 Y45.293 E.01571
G1 X27.364 Y44.832 E.01571
G1 X27.717 Y44.476 E.01572
G1 X28.164 Y44.276 E.01535
G1 X28.505 Y44.241 E.01075
G1 X28.999 Y44.348 E.01585
G1 X29.415 Y44.628 E.01572
G1 X29.696 Y45.03 E.01538
G1 X29.793 Y45.344 E.0103
G1 X29.811 Y45.613 E.00845
G1 X29.704 Y46.103 E.01573
G1 X29.431 Y46.515 E.0155
G1 X29.161 Y46.725 E.01072
G1 X28.69 Y46.898 E.01573
G1 X28.54 Y46.895 E.0047
G1 X28.142 Y46.85 F54000
G1 E-3.5 F1500
G1 X22.698 Y47.893 F54000
G1 E3.5 F1500
;TYPE:Perimeter
G1 F1800
G1 X22.667 Y47.908 E.00108
G1 X22.097 Y48.026 E.01825
G1 X21.714 Y48.042 E.01202
G1 X21.178 Y47.945 E.01708
G1 X20.792 Y47.807 E.01285
G1 X20.349 Y47.528 E.01642
G1 X20.04 Y47.255 E.01293
G1 X19.743 Y46.87 E.01525
G1 X19.491 Y46.28 E.02012
G1 X19.398 Y45.794 E.01551
G1 X19.413 Y45.165 E.01973
G1 X19.65 Y44.475 E.02288
G1 X19.915 Y44.058 E.01549
G1 X20.21 Y43.743 E.01353
G1 X20.61 Y43.452 E.01551
G1 X21.001 Y43.268 E.01355
G1 X21.396 Y43.153 E.0129
G1 X21.845 Y43.107 E.01415
G1 X22.518 Y43.211 E.02135
G1 X22.98 Y43.393 E.01557
G1 X23.345 Y43.624 E.01354
G1 X23.705 Y43.963 E.0155
G1 X24.034 Y44.427 E.01783
G1 X24.235 Y44.954 E.01768
G1 X24.3 Y45.362 E.01295
G1 X24.295 Y45.909 E.01715
G1 X24.147 Y46.476 E.01837
G1 X23.959 Y46.844 E.01296
G1 X23.567 Y47.355 E.02019
G1 X23.065 Y47.709 E.01926
G1 X22.752 Y47.866 E.01098
G1 X22.503 Y47.559 F54000
G1 F1800
G1 X22.026 Y47.656 E.01526
G1 X21.672 Y47.656 E.0111
G1 X21.248 Y47.575 E.01353
G1 X20.919 Y47.444 E.0111
G1 X20.418 Y47.107 E.01893
G1 X20.067 Y46.677 E.0174
G1 X19.841 Y46.141 E.01824
G1 X19.775 Y45.794 E.01107
G1 X19.786 Y45.222 E.01794
G1 X20 Y44.614 E.02021
G1 X20.19 Y44.316 E.01108
G1 X20.485 Y44.001 E.01353
G1 X20.771 Y43.793 E.01109
G1 X21.4 Y43.534 E.02133
G1 X21.845 Y43.484 E.01404
G1 X22.448 Y43.581 E.01915
G1 X22.778 Y43.711 E.01112
G1 X23.143 Y43.943 E.01356
G1 X23.4 Y44.184 E.01105
G1 X23.707 Y44.616 E.01662
G1 X23.911 Y45.211 E.01972
G1 X23.923 Y45.794 E.01828
G1 X23.832 Y46.224 E.01378
G1 X23.654 Y46.622 E.01367
G1 X23.301 Y47.087 E.0183
G1 X22.863 Y47.391 E.01672
G1 X22.561 Y47.545 E.01063
G1 X22.176 Y47.241 F54000
G1 F1800
G1 X21.879 Y47.294 E.00946
G1 X21.319 Y47.204 E.01778
G1 X21.121 Y47.126 E.00667
G1 X20.674 Y46.83 E.01681
G1 X20.391 Y46.485 E.01399
G1 X20.192 Y46.002 E.01638
G1 X20.152 Y45.794 E.00664
G1 X20.159 Y45.278 E.01618
G1 X20.351 Y44.753 E.01753
G1 X20.464 Y44.574 E.00664
G1 X20.76 Y44.259 E.01355
G1 X20.931 Y44.135 E.00662
G1 X21.465 Y43.905 E.01823
G1 X21.95 Y43.871 E.01524
G1 X22.378 Y43.952 E.01366
G1 X22.576 Y44.03 E.00667
G1 X22.94 Y44.261 E.01352
G1 X23.095 Y44.406 E.00665
G1 X23.405 Y44.851 E.017
G1 X23.546 Y45.362 E.01662
G1 X23.539 Y45.885 E.0164
G1 X23.378 Y46.357 E.01564
G1 X23.083 Y46.765 E.01579
G1 X22.661 Y47.072 E.01636
G1 X22.379 Y47.204 E.00976
G1 X22.235 Y47.23 E.00459
G1 X21.844 Y46.91 F54000
;TYPE:External perimeter
G1 F1800
G1 X21.814 Y46.915 E.00095
G1 X21.39 Y46.834 E.01353
G1 X20.957 Y46.574 E.01584
G1 X20.702 Y46.265 E.01256
G1 X20.529 Y45.794 E.01573
G1 X20.543 Y45.293 E.01571
G1 X20.739 Y44.832 E.01571
G1 X21.092 Y44.476 E.01572
G1 X21.539 Y44.275 E.01537
G1 X21.88 Y44.241 E.01074
G1 X22.374 Y44.348 E.01585
G1 X22.79 Y44.628 E.01572
G1 X23.071 Y45.03 E.01538
G1 X23.169 Y45.362 E.01085
G1 X23.16 Y45.852 E.01537
G1 X23.044 Y46.179 E.01088
G1 X22.738 Y46.577 E.01574
G1 X22.308 Y46.834 E.01571
G1 X21.903 Y46.9 E.01287
G1 X21.506 Y46.852 F54000
G1 E-3.5 F1500
G1 X20.557 Y57.81 F54000
G1 E3.5 F1500
;TYPE:Perimeter
;WIDTH:0.431404
G1 F1800
G1 X20.167 Y57.951 E.0134
G1 X19.646 Y58.018 E.01697
;WIDTH:0.431596
G1 X19.121 Y57.998 E.01698
G1 X18.612 Y57.869 E.01697
;WIDTH:0.419999
G1 X18.024 Y57.582 E.02052
G1 X17.577 Y57.231 E.01782
G1 X17.236 Y56.83 E.0165
G1 X16.978 Y56.374 E.01643
G1 X16.809 Y55.877 E.01646
G1 X16.736 Y55.357 E.01646
G1 X16.736 Y55.109 E.00778
G1 X16.809 Y54.589 E.01646
G1 X16.978 Y54.092 E.01646
G1 X17.236 Y53.636 E.01643
G1 X17.576 Y53.236 E.01646
G1 X17.985 Y52.906 E.01648
G1 X18.448 Y52.66 E.01644
G1 X18.99 Y52.498 E.01774
G1 X19.55 Y52.442 E.01765
G1 X20.136 Y52.512 E.0185
G1 X20.662 Y52.689 E.0174
G1 X21.119 Y52.948 E.01647
G1 X21.519 Y53.287 E.01644
G1 X21.838 Y53.679 E.01585
G1 X22.082 Y54.126 E.01597
G1 X22.249 Y54.642 E.01701
G1 X22.307 Y55.109 E.01475
G1 X22.281 Y55.633 E.01645
G1 X22.157 Y56.143 E.01646
G1 X21.94 Y56.621 E.01646
G1 X21.637 Y57.049 E.01644
G1 X21.259 Y57.414 E.01648
G1 X20.699 Y57.758 E.02061
;WIDTH:0.431404
G1 X20.613 Y57.789 E.00295
G1 X20.252 Y57.525 F54000
;WIDTH:0.419999
G1 F1800
G1 X19.886 Y57.617 E.01183
G1 X19.433 Y57.643 E.01423
G1 X18.983 Y57.584 E.01423
G1 X18.526 Y57.428 E.01514
G1 X18.036 Y57.133 E.01793
G1 X17.704 Y56.818 E.01435
G1 X17.439 Y56.45 E.01422
G1 X17.248 Y56.038 E.01424
G1 X17.138 Y55.597 E.01425
G1 X17.112 Y55.144 E.01423
G1 X17.171 Y54.694 E.01423
G1 X17.313 Y54.263 E.01423
G1 X17.534 Y53.867 E.01422
G1 X17.825 Y53.519 E.01422
G1 X18.177 Y53.231 E.01426
G1 X18.719 Y52.963 E.01896
G1 X19.037 Y52.872 E.01037
G1 X19.541 Y52.819 E.01589
G1 X20.039 Y52.876 E.01572
G1 X20.491 Y53.025 E.01492
G1 X20.888 Y53.246 E.01425
G1 X21.236 Y53.537 E.01422
G1 X21.538 Y53.914 E.01515
G1 X21.773 Y54.361 E.01583
G1 X21.906 Y54.869 E.01646
G1 X21.932 Y55.322 E.01423
G1 X21.872 Y55.772 E.01423
G1 X21.73 Y56.203 E.01423
G1 X21.509 Y56.599 E.01422
G1 X21.218 Y56.947 E.01422
G1 X20.84 Y57.25 E.01519
G1 X20.326 Y57.506 E.018
G1 X20.311 Y57.51 E.00049
G1 X19.899 Y57.229 F54000
G1 F1800
G1 X19.851 Y57.242 E.00156
G1 X19.468 Y57.268 E.01204
G1 X19.088 Y57.222 E.012
G1 X18.707 Y57.097 E.01257
G1 X18.285 Y56.85 E.01533
G1 X18.002 Y56.587 E.01211
G1 X17.775 Y56.278 E.01202
G1 X17.61 Y55.933 E.01199
G1 X17.513 Y55.562 E.01202
G1 X17.487 Y55.18 E.01201
G1 X17.533 Y54.799 E.01203
G1 X17.649 Y54.434 E.01201
G1 X17.832 Y54.098 E.012
G1 X18.075 Y53.801 E.01203
G1 X18.369 Y53.556 E.012
G1 X18.846 Y53.318 E.01671
G1 X19.337 Y53.214 E.01574
G1 X19.85 Y53.224 E.01609
G1 X20.32 Y53.361 E.01535
G1 X20.657 Y53.544 E.01202
G1 X20.953 Y53.786 E.01199
G1 X21.208 Y54.096 E.01259
G1 X21.433 Y54.534 E.01544
G1 X21.53 Y54.904 E.01199
G1 X21.556 Y55.286 E.01201
G1 X21.51 Y55.667 E.01203
G1 X21.394 Y56.032 E.01201
G1 X21.211 Y56.368 E.012
G1 X20.968 Y56.665 E.01203
G1 X20.659 Y56.919 E.01254
G1 X20.221 Y57.144 E.01544
G1 X19.957 Y57.214 E.00856
G1 X19.528 Y56.89 F54000
;TYPE:External perimeter
G1 F1800
G1 X19.504 Y56.892 E.00076
G1 X19.193 Y56.86 E.0098
G1 X18.889 Y56.766 E.00998
G1 X18.534 Y56.567 E.01276
G1 X18.3 Y56.356 E.00988
G1 X18.111 Y56.107 E.0098
G1 X17.972 Y55.827 E.0098
G1 X17.888 Y55.526 E.0098
G1 X17.862 Y55.215 E.00979
G1 X17.895 Y54.905 E.00977
G1 X17.985 Y54.606 E.00979
G1 X18.13 Y54.329 E.0098
G1 X18.324 Y54.084 E.0098
G1 X18.561 Y53.88 E.0098
G1 X18.974 Y53.673 E.01448
G1 X19.495 Y53.574 E.01663
G1 X19.85 Y53.606 E.01118
G1 X20.149 Y53.697 E.0098
G1 X20.595 Y53.973 E.01645
G1 X20.878 Y54.277 E.01302
G1 X21.071 Y54.639 E.01286
G1 X21.155 Y54.94 E.0098
G1 X21.181 Y55.251 E.00979
G1 X21.148 Y55.561 E.00977
G1 X21.058 Y55.86 E.00979
G1 X20.913 Y56.137 E.0098
G1 X20.719 Y56.382 E.0098
G1 X20.477 Y56.589 E.00998
G1 X20.116 Y56.782 E.01283
G1 X19.815 Y56.866 E.0098
G1 X19.588 Y56.885 E.00714
G1 X19.19 Y56.847 F54000
G1 E-3.5 F1500
G1 X35.064 Y57.812 F54000
G1 E3.5 F1500
;TYPE:Perimeter
;WIDTH:0.431405
G1 F1800
G1 X34.667 Y57.951 E.01359
G1 X34.146 Y58.018 E.01697
;WIDTH:0.431595
G1 X33.621 Y57.998 E.01698
G1 X33.112 Y57.869 E.01697
;WIDTH:0.419999
G1 X32.634 Y57.651 E.01647
G1 X32.205 Y57.349 E.01645
G1 X31.841 Y56.971 E.01645
G1 X31.497 Y56.411 E.02061
G1 X31.309 Y55.877 E.01775
G1 X31.236 Y55.357 E.01646
G1 X31.262 Y54.833 E.01645
G1 X31.386 Y54.323 E.01646
G1 X31.603 Y53.845 E.01646
G1 X31.906 Y53.417 E.01644
G1 X32.284 Y53.053 E.01645
G1 X32.723 Y52.765 E.01646
G1 X33.209 Y52.566 E.01647
G1 X33.831 Y52.455 E.01981
G1 X34.42 Y52.473 E.01848
G1 X34.931 Y52.597 E.01649
G1 X35.409 Y52.815 E.01647
G1 X35.838 Y53.117 E.01645
G1 X36.202 Y53.495 E.01645
G1 X36.546 Y54.055 E.02061
G1 X36.735 Y54.589 E.01776
G1 X36.807 Y55.109 E.01646
G1 X36.781 Y55.633 E.01645
G1 X36.657 Y56.143 E.01646
G1 X36.369 Y56.734 E.02061
G1 X36.019 Y57.179 E.01775
G1 X35.619 Y57.518 E.01644
G1 X35.163 Y57.777 E.01644
;WIDTH:0.431405
G1 X35.12 Y57.792 E.00147
G1 X34.753 Y57.525 F54000
;WIDTH:0.419999
G1 F1800
G1 X34.386 Y57.617 E.01186
G1 X33.933 Y57.643 E.01423
G1 X33.483 Y57.584 E.01423
G1 X33.052 Y57.441 E.01424
G1 X32.655 Y57.22 E.01425
G1 X32.307 Y56.929 E.01422
G1 X32.005 Y56.552 E.01515
G1 X31.748 Y56.038 E.01802
G1 X31.638 Y55.598 E.01422
G1 X31.612 Y55.144 E.01426
G1 X31.671 Y54.694 E.01423
G1 X31.813 Y54.263 E.01423
G1 X32.034 Y53.867 E.01422
G1 X32.325 Y53.519 E.01422
G1 X32.677 Y53.231 E.01426
G1 X33.076 Y53.014 E.01424
G1 X33.537 Y52.872 E.01512
G1 X34.045 Y52.819 E.01601
G1 X34.56 Y52.882 E.01627
G1 X34.991 Y53.025 E.01424
G1 X35.388 Y53.246 E.01425
G1 X35.736 Y53.537 E.01422
G1 X36.038 Y53.914 E.01515
G1 X36.295 Y54.428 E.01802
G1 X36.406 Y54.868 E.01423
G1 X36.432 Y55.322 E.01426
G1 X36.372 Y55.772 E.01423
G1 X36.216 Y56.229 E.01514
G1 X35.919 Y56.721 E.01802
G1 X35.607 Y57.051 E.01424
G1 X35.388 Y57.22 E.00867
G1 X34.826 Y57.507 E.01979
G1 X34.811 Y57.51 E.00048
G1 X34.399 Y57.229 F54000
G1 F1800
G1 X34.351 Y57.242 E.00156
G1 X33.968 Y57.268 E.01204
G1 X33.588 Y57.222 E.012
G1 X33.223 Y57.105 E.01202
G1 X32.887 Y56.922 E.012
G1 X32.59 Y56.68 E.01201
G1 X32.335 Y56.37 E.01259
G1 X32.11 Y55.933 E.01541
G1 X32.013 Y55.562 E.01202
G1 X31.987 Y55.18 E.01201
G1 X32.033 Y54.799 E.01203
G1 X32.149 Y54.434 E.01201
G1 X32.332 Y54.098 E.012
G1 X32.575 Y53.801 E.01203
G1 X32.869 Y53.556 E.012
G1 X33.204 Y53.369 E.01203
G1 X33.585 Y53.247 E.01254
G1 X34.072 Y53.198 E.01535
G1 X34.455 Y53.244 E.01209
G1 X34.82 Y53.361 E.01202
G1 X35.157 Y53.544 E.01202
G1 X35.453 Y53.786 E.01199
G1 X35.708 Y54.096 E.01259
G1 X35.933 Y54.533 E.01541
G1 X36.03 Y54.904 E.01202
G1 X36.056 Y55.286 E.01201
G1 X36.01 Y55.666 E.012
G1 X35.885 Y56.048 E.0126
G1 X35.637 Y56.472 E.0154
G1 X35.376 Y56.753 E.01202
G1 X35.157 Y56.922 E.00867
G1 X34.721 Y57.144 E.01534
G1 X34.457 Y57.214 E.00856
G1 X34.028 Y56.89 F54000
;TYPE:External perimeter
G1 F1800
G1 X34.004 Y56.892 E.00076
G1 X33.693 Y56.86 E.0098
G1 X33.394 Y56.769 E.0098
G1 X33.118 Y56.625 E.00976
G1 X32.873 Y56.43 E.00982
G1 X32.666 Y56.189 E.00996
G1 X32.472 Y55.828 E.01285
G1 X32.388 Y55.526 E.00983
G1 X32.362 Y55.215 E.00979
G1 X32.395 Y54.904 E.00981
G1 X32.485 Y54.606 E.00976
G1 X32.63 Y54.329 E.0098
G1 X32.824 Y54.084 E.0098
G1 X33.061 Y53.88 E.0098
G1 X33.502 Y53.663 E.01541
G1 X33.995 Y53.574 E.01571
G1 X34.35 Y53.606 E.01118
G1 X34.649 Y53.697 E.0098
G1 X34.926 Y53.842 E.0098
G1 X35.17 Y54.036 E.00977
G1 X35.378 Y54.277 E.00998
G1 X35.571 Y54.638 E.01283
G1 X35.655 Y54.939 E.0098
G1 X35.681 Y55.251 E.00982
G1 X35.648 Y55.561 E.00977
G1 X35.555 Y55.866 E.01
G1 X35.354 Y56.222 E.01282
G1 X35.145 Y56.455 E.00981
G1 X34.926 Y56.624 E.00867
G1 X34.616 Y56.782 E.01091
G1 X34.315 Y56.866 E.0098
G1 X34.088 Y56.885 E.00714
G1 X33.69 Y56.847 F54000
G1 E-3.5 F1500
G1 X34.731 Y38.07 F54000
G1 E3.5 F1500
;TYPE:Perimeter
;WIDTH:0.487755
G1 F1800
G1 X34.718 Y38.077 E.00055
;WIDTH:0.530517
G1 X34.633 Y38.121 E.00388
;WIDTH:0.573279
G1 X34.547 Y38.165 E.00426
G1 X33.806 Y38.199 E.03271
;WIDTH:0.5634
