; File Parsed By Flow Comp Script
; Script Ver. V0.7.1
; Flow Model Ver. V0.2.1
; Logger Ver. V0.0.1
; Flow Comp Model Points:
; (0, 0)
; (0.2, 0.4444)
; (0.4, 0.6145)
; (0.6, 0.7059)
; (0.8, 0.7619)
; (1.5, 0.8571)
; (2, 0.8889)
; (3, 0.9231)
; (5, 0.952)
; (10, 1)

; generated by PrusaSlicer 2.9.1 on 2025-04-05 at 22:39:57 UTC

; 

; external perimeters extrusion width = 0.45mm
; perimeters extrusion width = 0.45mm
; infill extrusion width = 0.45mm
; solid infill extrusion width = 0.45mm
; top infill extrusion width = 0.40mm
; support material extrusion width = 0.35mm
; first layer extrusion width = 0.42mm

;TYPE:Custom
G90 ; use absolute coordinates
M83 ; extruder relative mode
CALCULATE_PA BOWDEN_LENGTH=34.3 MATERIAL=PLA LAYER_HEIGHT=0.2 NOZZLE_SIZE=0.4 PRINT_SPEED=120 FILAMENT_DIAMETER=1.75 LINE_WIDTH=0.45 ; auto pressure advance
M104 S210 ; set temporary nozzle temp to prevent oozing during homing
M140 S58 ; set final bed temp
G4 S30 ; allow partial nozzle warmup
G28 ; home all axis
G1 Z50 F240
G1 X2.0 Y10 F3000
M104 S208 ; set final nozzle temp
M190 S58 ; wait for bed temp to stabilize
M109 S208 ; wait for nozzle temp to stabilize
G1 Z0.28 F240
G92 E0
G1 X2.0 Y140 E10 F1500 ; prime the nozzle
G1 X2.3 Y140 F5000
G92 E0
G1 X2.3 Y10 E10 F1200 ; prime the nozzle
G92 E0
G21 ; set units to millimeters
G90 ; use absolute coordinates
M83 ; use relative distances for extrusion
; Filament gcode
M107
;LAYER_CHANGE
;Z:0.2
;HEIGHT:0.2
G1 E-3.5 F1500
G1 Z.2 F54000
G1 X13.387 Y31.781
G1 Z.2
G1 E3.5 F1500
M204 S3500
;TYPE:Skirt/Brim
;WIDTH:0.42
G1 F1800
G1 X16.303 Y31.051 E.09425
G1 X44.303 Y31.051 E.87792
G1 X46.483 Y31.448 E.06948
G1 X48.384 Y32.587 E.06948
G1 X49.761 Y34.323 E.06948
G1 X50.492 Y37.239 E.09426
G1 X50.492 Y65.239 E.87792
G1 X50.095 Y67.42 E.06951
G1 X48.955 Y69.32 E.06947
G1 X47.219 Y70.698 E.06949
G1 X44.303 Y71.428 E.09425
G1 X16.303 Y71.428 E.87792
G1 X14.123 Y71.031 E.06948
G1 X12.222 Y69.892 E.06948
G1 X10.845 Y68.156 E.06948
G1 X10.114 Y65.239 E.09429
G1 X10.114 Y37.239 E.87792
G1 X10.511 Y35.059 E.06948
G1 X11.651 Y33.159 E.06947
G1 X13.34 Y31.818 E.06762
G1 E-3.5 F1500
G1 X32.657 Y52.086 F54000
G1 E3.5 F1500
;TYPE:Perimeter
;WIDTH:0.419999
G1 F1800
G1 X32.547 Y52.129 E.0037
G1 X32.26 Y52.174 E.00911
G1 X31.682 Y52.159 E.01813
G1 X31.123 Y51.957 E.01864
G1 X30.869 Y51.807 E.00925
G1 X30.515 Y51.485 E.015
G1 X30.257 Y51.091 E.01477
G1 X30.076 Y50.62 E.01582
G1 X30.041 Y50.159 E.0145
G1 X30.076 Y49.698 E.0145
G1 X30.257 Y49.228 E.01579
G1 X30.447 Y48.929 E.01111
G1 X30.727 Y48.631 E.01282
G1 X31.012 Y48.424 E.01104
G1 X31.621 Y48.174 E.02064
G1 X32.052 Y48.125 E.0136
G1 X32.632 Y48.218 E.01842
G1 X32.963 Y48.349 E.01116
G1 X33.308 Y48.568 E.01281
G1 X33.703 Y48.974 E.01776
G1 X33.91 Y49.329 E.01288
G1 X34.073 Y49.983 E.02113
G1 X34.073 Y50.338 E.01113
G1 X33.972 Y50.836 E.01593
G1 X33.732 Y51.311 E.01669
G1 X33.335 Y51.722 E.01792
G1 X33.029 Y51.94 E.01178
G1 X32.713 Y52.064 E.01064
G1 X32.379 Y51.775 F54000
G1 F1800
G1 X32.26 Y51.797 E.00379
G1 X31.75 Y51.788 E.01599
G1 X31.262 Y51.607 E.01632
G1 X30.858 Y51.305 E.01582
G1 X30.608 Y50.953 E.01354
G1 X30.42 Y50.419 E.01775
G1 X30.42 Y49.9 E.01627
G1 X30.608 Y49.366 E.01775
G1 X30.722 Y49.187 E.00665
G1 X31.002 Y48.889 E.01282
G1 X31.173 Y48.765 E.00662
G1 X31.687 Y48.545 E.01753
G1 X32.157 Y48.512 E.01477
G1 X32.562 Y48.589 E.01293
G1 X32.76 Y48.667 E.00667
G1 X33.239 Y49.004 E.01836
G1 X33.481 Y49.317 E.01241
G1 X33.626 Y49.652 E.01145
G1 X33.711 Y50.207 E.0176
G1 X33.611 Y50.727 E.0166
G1 X33.351 Y51.188 E.01659
G1 X32.969 Y51.541 E.01631
G1 X32.468 Y51.758 E.01712
G1 X32.438 Y51.763 E.00095
G1 X32.05 Y51.414 F54000
;TYPE:External perimeter
G1 F1800
G1 X31.782 Y51.407 E.00841
G1 X31.35 Y51.226 E.01469
G1 X31.111 Y51.023 E.00983
G1 X30.959 Y50.814 E.0081
G1 X30.795 Y50.364 E.01502
G1 X30.808 Y49.886 E.01499
G1 X30.996 Y49.446 E.015
G1 X31.276 Y49.147 E.01284
G1 X31.752 Y48.916 E.01659
G1 X32.087 Y48.883 E.01055
G1 X32.558 Y48.985 E.01511
G1 X32.948 Y49.244 E.01468
G1 X33.145 Y49.489 E.00986
G1 X33.256 Y49.722 E.00809
G1 X33.332 Y50.195 E.01502
G1 X33.234 Y50.656 E.01478
G1 X33.068 Y50.938 E.01026
G1 X32.71 Y51.256 E.01501
G1 X32.26 Y51.42 E.01502
G1 X32.11 Y51.416 E.0047
G1 X31.713 Y51.363 F54000
G1 E-3.5 F1500
G1 X26.028 Y52.089 F54000
G1 E3.5 F1500
;TYPE:Perimeter
G1 F1800
G1 X25.982 Y52.108 E.00156
G1 X25.635 Y52.174 E.01107
G1 X25.129 Y52.169 E.01587
G1 X24.995 Y52.146 E.00426
G1 X24.52 Y51.966 E.01593
G1 X24.245 Y51.807 E.00996
G1 X23.89 Y51.485 E.01503
G1 X23.632 Y51.091 E.01477
G1 X23.433 Y50.542 E.01831
G1 X23.416 Y49.955 E.01841
G1 X23.482 Y49.608 E.01107
G1 X23.632 Y49.228 E.01281
G1 X23.822 Y48.929 E.01111
G1 X24.102 Y48.631 E.01282
G1 X24.387 Y48.423 E.01106
G1 X24.996 Y48.174 E.02063
G1 X25.514 Y48.129 E.0163
G1 X25.982 Y48.211 E.0149
G1 X26.362 Y48.361 E.01281
G1 X26.661 Y48.551 E.01111
G1 X26.959 Y48.831 E.01282
G1 X27.271 Y49.303 E.01774
G1 X27.371 Y49.581 E.00926
G1 X27.461 Y50.073 E.01568
G1 X27.448 Y50.336 E.00826
G1 X27.349 Y50.831 E.01583
G1 X27.241 Y51.067 E.00814
G1 X26.895 Y51.571 E.01917
G1 X26.475 Y51.904 E.01681
G1 X26.084 Y52.066 E.01327
G1 X25.758 Y51.784 F54000
G1 F1800
G1 X25.226 Y51.797 E.01669
G1 X25.088 Y51.78 E.00436
G1 X24.607 Y51.594 E.01617
G1 X24.275 Y51.343 E.01305
G1 X24.018 Y51.026 E.0128
G1 X23.803 Y50.471 E.01866
G1 X23.793 Y49.955 E.01618
G1 X23.832 Y49.747 E.00664
G1 X23.983 Y49.366 E.01285
G1 X24.097 Y49.187 E.00665
G1 X24.377 Y48.889 E.01282
G1 X24.548 Y48.765 E.00662
G1 X25.062 Y48.545 E.01753
G1 X25.479 Y48.505 E.01313
G1 X25.843 Y48.561 E.01155
G1 X26.224 Y48.712 E.01285
G1 X26.403 Y48.826 E.00665
G1 X26.809 Y49.246 E.01832
G1 X27.001 Y49.651 E.01405
G1 X27.088 Y50.159 E.01616
G1 X27.001 Y50.667 E.01616
G1 X26.923 Y50.864 E.00664
G1 X26.627 Y51.305 E.01665
G1 X26.226 Y51.606 E.01572
G1 X25.814 Y51.762 E.01381
G1 X25.425 Y51.418 F54000
;TYPE:External perimeter
G1 F1800
G1 X25.18 Y51.414 E.00768
G1 X24.725 Y51.226 E.01544
G1 X24.486 Y51.023 E.00983
G1 X24.334 Y50.814 E.0081
G1 X24.17 Y50.364 E.01502
G1 X24.183 Y49.886 E.01499
G1 X24.371 Y49.446 E.015
G1 X24.709 Y49.106 E.01503
G1 X25.135 Y48.915 E.01464
G1 X25.444 Y48.88 E.00975
G1 X25.704 Y48.912 E.00821
G1 X26.144 Y49.1 E.015
G1 X26.479 Y49.427 E.01468
G1 X26.631 Y49.722 E.01041
G1 X26.707 Y50.195 E.01502
G1 X26.605 Y50.662 E.01499
G1 X26.346 Y51.053 E.01471
G1 X26.085 Y51.256 E.01037
G1 X25.635 Y51.42 E.01502
G1 X25.485 Y51.418 E.0047
G1 X25.089 Y51.362 F54000
G1 E-3.5 F1500
G1 X26.097 Y63.334 F54000
G1 E3.5 F1500
;TYPE:Perimeter
G1 F1800
G1 X26.013 Y63.375 E.00293
;WIDTH:0.431593
G1 X25.504 Y63.505 E.01698
G1 X24.979 Y63.524 E.01698
;WIDTH:0.4232
G1 X24.459 Y63.454 E.01659
G1 X23.926 Y63.265 E.01788
;WIDTH:0.419999
G1 X23.368 Y62.922 E.02054
G1 X22.987 Y62.556 E.01656
G1 X22.685 Y62.127 E.01645
G1 X22.467 Y61.649 E.01647
G1 X22.344 Y61.139 E.01645
G1 X22.317 Y60.615 E.01645
G1 X22.39 Y60.095 E.01646
G1 X22.559 Y59.598 E.01646
G1 X22.818 Y59.142 E.01644
G1 X23.157 Y58.742 E.01644
G1 X23.552 Y58.421 E.01596
G1 X24.03 Y58.166 E.01699
G1 X24.571 Y58.005 E.0177
G1 X25.142 Y57.949 E.01799
G1 X25.747 Y58.027 E.01913
G1 X26.238 Y58.192 E.01624
G1 X26.7 Y58.454 E.01665
G1 X27.1 Y58.794 E.01646
G1 X27.45 Y59.239 E.01775
G1 X27.739 Y59.83 E.02063
G1 X27.862 Y60.339 E.01642
G1 X27.888 Y60.864 E.01648
G1 X27.816 Y61.383 E.01643
G1 X27.647 Y61.881 E.01649
G1 X27.388 Y62.337 E.01644
G1 X27.049 Y62.737 E.01644
G1 X26.603 Y63.087 E.01778
G1 X26.151 Y63.308 E.01578
G1 X25.834 Y63.032 F54000
G1 F1800
G1 X25.467 Y63.123 E.01186
G1 X25.014 Y63.15 E.01423
G1 X24.564 Y63.09 E.01423
G1 X24.107 Y62.934 E.01514
G1 X23.617 Y62.639 E.01793
G1 X23.285 Y62.325 E.01433
G1 X23.021 Y61.956 E.01423
G1 X22.829 Y61.544 E.01425
G1 X22.719 Y61.104 E.01422
G1 X22.693 Y60.651 E.01423
G1 X22.752 Y60.201 E.01423
G1 X22.895 Y59.77 E.01424
G1 X23.116 Y59.373 E.01425
G1 X23.407 Y59.025 E.01422
G1 X23.758 Y58.737 E.01424
G1 X24.157 Y58.521 E.01423
G1 X24.618 Y58.379 E.01512
G1 X25.13 Y58.326 E.01614
G1 X25.642 Y58.389 E.01617
G1 X26.073 Y58.531 E.01423
G1 X26.568 Y58.829 E.01812
G1 X26.817 Y59.043 E.01029
G1 X27.12 Y59.421 E.01519
G1 X27.376 Y59.935 E.018
G1 X27.487 Y60.375 E.01423
G1 X27.513 Y60.828 E.01423
G1 X27.454 Y61.278 E.01423
G1 X27.311 Y61.709 E.01424
G1 X27.09 Y62.106 E.01425
G1 X26.799 Y62.454 E.01422
G1 X26.422 Y62.756 E.01515
G1 X25.908 Y63.013 E.01802
G1 X25.892 Y63.017 E.00052
G1 X25.48 Y62.735 F54000
G1 F1800
G1 X25.432 Y62.748 E.00156
G1 X25.05 Y62.774 E.01201
G1 X24.67 Y62.728 E.012
G1 X24.289 Y62.603 E.01257
G1 X23.867 Y62.356 E.01533
G1 X23.583 Y62.093 E.01214
G1 X23.357 Y61.785 E.01198
G1 X23.192 Y61.439 E.01202
G1 X23.094 Y61.068 E.01203
G1 X23.068 Y60.686 E.01201
G1 X23.114 Y60.306 E.012
G1 X23.231 Y59.941 E.01202
G1 X23.414 Y59.604 E.01202
G1 X23.656 Y59.308 E.01199
G1 X23.95 Y59.062 E.01202
G1 X24.285 Y58.876 E.01201
G1 X24.666 Y58.753 E.01255
G1 X25.153 Y58.705 E.01534
G1 X25.536 Y58.751 E.01209
G1 X25.901 Y58.867 E.01201
G1 X26.337 Y59.127 E.01592
G1 X26.718 Y59.501 E.01674
G1 X27.014 Y60.04 E.01928
G1 X27.112 Y60.41 E.012
G1 X27.138 Y60.793 E.01204
G1 X27.092 Y61.173 E.012
G1 X26.975 Y61.538 E.01202
G1 X26.792 Y61.875 E.01202
G1 X26.55 Y62.171 E.01199
G1 X26.24 Y62.426 E.01259
G1 X25.803 Y62.651 E.01541
G1 X25.538 Y62.72 E.00859
G1 X25.11 Y62.397 F54000
;TYPE:External perimeter
G1 F1800
G1 X25.085 Y62.399 E.00079
G1 X24.775 Y62.366 E.00977
G1 X24.47 Y62.273 E.01
G1 X24.116 Y62.073 E.01275
G1 X23.881 Y61.862 E.0099
G1 X23.693 Y61.614 E.00976
G1 X23.554 Y61.334 E.0098
G1 X23.47 Y61.033 E.0098
G1 X23.444 Y60.722 E.00979
G1 X23.476 Y60.411 E.0098
G1 X23.567 Y60.112 E.0098
G1 X23.712 Y59.835 E.0098
G1 X23.906 Y59.591 E.00977
G1 X24.142 Y59.387 E.00978
G1 X24.413 Y59.231 E.0098
G1 X24.714 Y59.127 E.00999
G1 X25.118 Y59.08 E.01275
G1 X25.431 Y59.113 E.00987
G1 X25.73 Y59.203 E.00979
G1 X26.106 Y59.425 E.01369
G1 X26.448 Y59.767 E.01516
G1 X26.652 Y60.145 E.01347
G1 X26.736 Y60.446 E.0098
G1 X26.762 Y60.757 E.00979
G1 X26.73 Y61.068 E.0098
G1 X26.639 Y61.367 E.0098
G1 X26.494 Y61.643 E.00978
G1 X26.3 Y61.888 E.0098
G1 X26.059 Y62.095 E.00996
G1 X25.698 Y62.289 E.01285
G1 X25.396 Y62.373 E.00983
G1 X25.169 Y62.392 E.00714
G1 X24.771 Y62.353 F54000
G1 E-3.5 F1500
G1 X40.61 Y63.331 F54000
G1 E3.5 F1500
;TYPE:Perimeter
G1 F1800
G1 X40.513 Y63.375 E.00334
;WIDTH:0.431595
G1 X40.004 Y63.505 E.01698
G1 X39.479 Y63.524 E.01698
;WIDTH:0.4232
G1 X38.959 Y63.454 E.01659
G1 X38.462 Y63.284 E.01661
;WIDTH:0.419999
G1 X38.006 Y63.025 E.01644
G1 X37.606 Y62.685 E.01646
G1 X37.256 Y62.24 E.01775
G1 X36.967 Y61.65 E.0206
G1 X36.844 Y61.139 E.01648
G1 X36.818 Y60.615 E.01645
G1 X36.89 Y60.096 E.01643
G1 X37.059 Y59.598 E.01649
G1 X37.318 Y59.142 E.01644
G1 X37.657 Y58.742 E.01644
G1 X38.063 Y58.415 E.01635
G1 X38.53 Y58.166 E.01659
G1 X39.025 Y58.012 E.01625
G1 X39.723 Y57.954 E.02196
G1 X40.247 Y58.027 E.01659
G1 X40.744 Y58.195 E.01645
G1 X41.2 Y58.454 E.01644
G1 X41.6 Y58.794 E.01646
G1 X41.95 Y59.239 E.01775
G1 X42.239 Y59.829 E.0206
;WIDTH:0.457273
G1 X42.298 Y59.998 E.00617
;WIDTH:0.494547
G1 X42.358 Y60.166 E.0067
;WIDTH:0.53182
G1 X42.418 Y60.334 E.00725
G1 X42.438 Y60.868 E.02172
;WIDTH:0.540465
G1 X42.408 Y61.254 E.01602
G1 X42.314 Y61.475 E.00994
;WIDTH:0.50031
G1 X42.221 Y61.696 E.00912
;WIDTH:0.460155
G1 X42.128 Y61.917 E.00832
;WIDTH:0.419999
G1 X41.784 Y62.477 E.02061
G1 X41.419 Y62.855 E.01648
G1 X40.991 Y63.158 E.01644
G1 X40.665 Y63.306 E.01123
G1 X40.334 Y63.032 F54000
G1 F1800
G1 X39.968 Y63.123 E.01183
G1 X39.514 Y63.15 E.01426
G1 X39.064 Y63.09 E.01423
G1 X38.633 Y62.948 E.01423
G1 X38.237 Y62.727 E.01422
G1 X37.889 Y62.436 E.01422
G1 X37.586 Y62.058 E.01519
G1 X37.33 Y61.544 E.018
G1 X37.219 Y61.104 E.01423
G1 X37.193 Y60.651 E.01423
G1 X37.252 Y60.201 E.01423
G1 X37.395 Y59.77 E.01424
G1 X37.616 Y59.373 E.01425
G1 X37.907 Y59.025 E.01422
G1 X38.258 Y58.737 E.01424
G1 X38.657 Y58.521 E.01423
G1 X39.118 Y58.379 E.01512
G1 X39.688 Y58.329 E.01794
G1 X40.142 Y58.389 E.01436
G1 X40.573 Y58.531 E.01423
G1 X40.969 Y58.752 E.01422
G1 X41.317 Y59.043 E.01422
G1 X41.62 Y59.421 E.01519
G1 X41.876 Y59.935 E.018
G1 X41.987 Y60.375 E.01423
G1 X42.013 Y60.828 E.01423
G1 X41.954 Y61.278 E.01423
G1 X41.797 Y61.736 E.01518
G1 X41.501 Y62.228 E.018
G1 X41.188 Y62.557 E.01424
G1 X40.819 Y62.822 E.01424
G1 X40.408 Y63.013 E.01421
G1 X40.392 Y63.017 E.00052
G1 X39.98 Y62.735 F54000
G1 F1800
G1 X39.932 Y62.748 E.00156
G1 X39.55 Y62.774 E.01201
G1 X39.17 Y62.728 E.012
G1 X38.804 Y62.612 E.01204
G1 X38.468 Y62.429 E.012
G1 X38.171 Y62.186 E.01203
G1 X37.917 Y61.877 E.01254
G1 X37.692 Y61.439 E.01544
G1 X37.594 Y61.068 E.01203
G1 X37.568 Y60.686 E.01201
G1 X37.614 Y60.306 E.012
G1 X37.731 Y59.941 E.01202
G1 X37.914 Y59.604 E.01202
G1 X38.156 Y59.308 E.01199
G1 X38.45 Y59.062 E.01202
G1 X38.785 Y58.876 E.01201
G1 X39.166 Y58.753 E.01255
G1 X39.653 Y58.705 E.01534
G1 X40.036 Y58.751 E.01209
G1 X40.402 Y58.867 E.01204
G1 X40.738 Y59.05 E.012
G1 X41.035 Y59.293 E.01203
G1 X41.289 Y59.602 E.01254
G1 X41.514 Y60.04 E.01544
G1 X41.612 Y60.41 E.012
G1 X41.638 Y60.793 E.01204
G1 X41.592 Y61.173 E.012
G1 X41.467 Y61.554 E.01257
G1 X41.218 Y61.978 E.01542
G1 X40.957 Y62.259 E.01202
G1 X40.648 Y62.486 E.01202
G1 X40.302 Y62.651 E.01202
G1 X40.038 Y62.72 E.00856
G1 X39.61 Y62.397 F54000
;TYPE:External perimeter
G1 F1800
G1 X39.585 Y62.399 E.00079
G1 X39.275 Y62.366 E.00977
G1 X38.976 Y62.276 E.00979
G1 X38.699 Y62.131 E.0098
G1 X38.454 Y61.937 E.0098
G1 X38.247 Y61.695 E.00998
G1 X38.054 Y61.334 E.01283
G1 X37.97 Y61.033 E.0098
G1 X37.944 Y60.722 E.00979
G1 X37.976 Y60.411 E.0098
G1 X38.067 Y60.112 E.0098
G1 X38.212 Y59.835 E.0098
G1 X38.406 Y59.591 E.00977
G1 X38.822 Y59.28 E.01629
G1 X39.214 Y59.127 E.01319
G1 X39.618 Y59.08 E.01275
G1 X39.931 Y59.113 E.00987
G1 X40.23 Y59.203 E.00979
G1 X40.507 Y59.348 E.0098
G1 X40.752 Y59.542 E.0098
G1 X40.959 Y59.784 E.00998
G1 X41.152 Y60.145 E.01283
G1 X41.236 Y60.446 E.0098
G1 X41.262 Y60.757 E.00979
G1 X41.23 Y61.068 E.0098
G1 X41.136 Y61.372 E.00998
G1 X40.935 Y61.729 E.01285
G1 X40.726 Y61.961 E.00979
G1 X40.477 Y62.15 E.0098
G1 X40.197 Y62.289 E.0098
G1 X39.896 Y62.373 E.0098
G1 X39.669 Y62.392 E.00714
G1 X39.271 Y62.353 F54000
G1 E-3.5 F1500
G1 X40.321 Y43.531 F54000
G1 E3.5 F1500
;TYPE:Perimeter
G1 F1800
G1 X40.116 Y43.596 E.00674
G1 X39.666 Y43.65 E.01421
;WIDTH:0.423296
G1 X39.213 Y43.621 E.01436
;WIDTH:0.431221
G1 X38.771 Y43.509 E.01472
G1 X38.231 Y43.218 E.01981
;WIDTH:0.419999
G1 X37.937 Y42.976 E.01194
G1 X37.601 Y42.585 E.01616
G1 X37.384 Y42.185 E.01427
G1 X37.247 Y41.753 E.01421
G1 X37.192 Y41.303 E.01421
G1 X37.23 Y40.82 E.01519
G1 X37.395 Y40.27 E.018
G1 X37.616 Y39.873 E.01425
G1 X37.907 Y39.525 E.01422
G1 X38.258 Y39.238 E.01422
;WIDTH:0.453876
G1 X38.582 Y39.066 E.01253
;WIDTH:0.487753
G1 X38.906 Y38.895 E.01355
;WIDTH:0.530518
G1 X38.992 Y38.851 E.00392
;WIDTH:0.573282
G1 X39.078 Y38.807 E.00426
G1 X39.819 Y38.773 E.03271
;WIDTH:0.563398
G1 X40.009 Y38.79 E.00826
G1 X40.235 Y38.888 E.01066
;WIDTH:0.515599
G1 X40.46 Y38.986 E.00965
;WIDTH:0.467799
G1 X40.686 Y39.085 E.00872
;WIDTH:0.419999
G1 X41.071 Y39.326 E.01424
G1 X41.481 Y39.729 E.01803
G1 X41.746 Y40.133 E.01515
G1 X41.959 Y40.726 E.01976
G1 X42.014 Y41.176 E.01421
G1 X41.976 Y41.659 E.01519
G1 X41.811 Y42.209 E.018
G1 X41.59 Y42.606 E.01425
G1 X41.299 Y42.954 E.01422
G1 X40.847 Y43.301 E.01787
G1 X40.549 Y43.458 E.01056
G1 X40.378 Y43.513 E.00563
G1 X39.982 Y43.225 F54000
G1 F1800
G1 X39.678 Y43.273 E.00965
G1 X39.295 Y43.251 E.01203
G1 X38.924 Y43.158 E.01199
G1 X38.442 Y42.906 E.01705
G1 X38.05 Y42.545 E.01671
G1 X37.785 Y42.154 E.01481
G1 X37.619 Y41.694 E.01533
G1 X37.569 Y41.314 E.01202
G1 X37.595 Y40.914 E.01257
G1 X37.731 Y40.441 E.01543
G1 X37.914 Y40.104 E.01202
G1 X38.156 Y39.808 E.01199
G1 X38.45 Y39.562 E.01202
G1 X38.785 Y39.376 E.01201
G1 X39.149 Y39.256 E.01202
G1 X39.528 Y39.205 E.01199
G1 X39.911 Y39.228 E.01203
G1 X40.282 Y39.321 E.01199
G1 X40.63 Y39.482 E.01202
G1 X40.954 Y39.719 E.01259
G1 X41.28 Y40.086 E.01539
G1 X41.467 Y40.421 E.01203
