; File Parsed By Flow Comp Script
; Script Ver. V0.7.1
; Flow Model Ver. V0.2.1
; Logger Ver. V0.0.1
; Flow Comp Model Points:
; (0, 0)
; (0.2, 0.4444)
; (0.4, 0.6145)
; (0.6, 0.7059)
; (0.8, 0.7619)
; (1.5, 0.8571)
; (2, 0.8889)
; (3, 0.9231)
; (5, 0.952)
; (10, 1)

; generated by PrusaSlicer 2.9.2 on 2025-04-13 at 15:59:13 UTC

; 

; external perimeters extrusion width = 0.45mm
; perimeters extrusion width = 0.45mm
; infill extrusion width = 0.45mm
; solid infill extrusion width = 0.45mm
; top infill extrusion width = 0.40mm
; first layer extrusion width = 0.42mm

;TYPE:Custom
G90 ; use absolute coordinates
M83 ; extruder relative mode
CALCULATE_PA BOWDEN_LENGTH=34.3 MATERIAL=PLA LAYER_HEIGHT=0.2 NOZZLE_SIZE=0.4 PRINT_SPEED=120 FILAMENT_DIAMETER=1.75 LINE_WIDTH=0.45 ; auto pressure advance
M104 S210 ; set temporary nozzle temp to prevent oozing during homing
M140 S58 ; set final bed temp
G4 S30 ; allow partial nozzle warmup
G28 ; home all axis
G1 Z50 F240
G1 X2.0 Y10 F3000
M104 S208 ; set final nozzle temp
M190 S58 ; wait for bed temp to stabilize
M109 S208 ; wait for nozzle temp to stabilize
G1 Z0.28 F240
G92 E0
G1 X2.0 Y140 E10 F1500 ; prime the nozzle
G1 X2.3 Y140 F5000
G92 E0
G1 X2.3 Y10 E10 F1200 ; prime the nozzle
G92 E0
G21 ; set units to millimeters
G90 ; use absolute coordinates
M83 ; use relative distances for extrusion
; Filament gcode
M107
;LAYER_CHANGE
;Z:0.2
;HEIGHT:0.2
G1 E-3.5 F1500
G1 Z.2 F54000
G1 X37.968 Y114.866
G1 Z.2
G1 E3.5 F1500
M204 S3500
;TYPE:Skirt/Brim
;WIDTH:0.42
G1 F2100
G1 X40.885 Y114.136 E.09428
G1 X68.885 Y114.136 E.87792
G1 X71.065 Y114.533 E.06948
G1 X72.966 Y115.672 E.06948
G1 X74.343 Y117.408 E.06948
G1 X75.073 Y120.324 E.09425
G1 X75.073 Y148.324 E.87792
G1 X74.677 Y150.505 E.0695
G1 X73.537 Y152.405 E.06947
G1 X71.801 Y153.783 E.06949
G1 X68.885 Y154.513 E.09425
G1 X40.885 Y154.513 E.87792
G1 X38.705 Y154.116 E.06948
G1 X36.804 Y152.977 E.06948
G1 X35.426 Y151.241 E.06949
G1 X34.696 Y148.324 E.09428
G1 X34.696 Y120.324 E.87792
G1 X35.093 Y118.144 E.06948
G1 X36.232 Y116.244 E.06946
G1 X37.921 Y114.903 E.06762
G1 E-3.5 F1500
G1 X57.624 Y136.407 F54000
G1 E3.5 F1500
;TYPE:Perimeter
;WIDTH:0.419999
G1 F2100
G1 X57.339 Y136.528 E.00971
G1 X56.934 Y136.618 E.01301
G1 X56.421 Y136.62 E.01608
G1 X56.013 Y136.556 E.01295
G1 X55.531 Y136.379 E.0161
G1 X55.115 Y136.115 E.01545
G1 X54.703 Y135.69 E.01856
G1 X54.495 Y135.396 E.01129
G1 X54.279 Y134.871 E.0178
G1 X54.191 Y134.5 E.01196
G1 X54.186 Y133.954 E.01712
G1 X54.203 Y133.742 E.00667
G1 X54.438 Y133.067 E.02241
G1 X54.542 Y132.859 E.00729
G1 X54.998 Y132.334 E.0218
G1 X55.399 Y132.044 E.01552
G1 X55.789 Y131.86 E.01352
G1 X56.184 Y131.745 E.0129
G1 X56.633 Y131.698 E.01415
G1 X57.306 Y131.802 E.02135
G1 X57.768 Y131.984 E.01557
G1 X58.133 Y132.216 E.01356
G1 X58.493 Y132.554 E.01548
G1 X58.747 Y132.904 E.01356
G1 X58.935 Y133.272 E.01296
G1 X59.082 Y133.829 E.01806
G1 X59.103 Y134.286 E.01434
G1 X59.004 Y134.841 E.01768
G1 X58.868 Y135.222 E.01268
G1 X58.598 Y135.652 E.01592
G1 X58.314 Y135.978 E.01356
G1 X57.916 Y136.283 E.01572
G1 X57.679 Y136.384 E.00808
G1 X57.322 Y136.127 F54000
G1 F2100
G1 X57.139 Y136.199 E.00617
G1 X56.853 Y136.243 E.00907
G1 X56.334 Y136.239 E.01627
G1 X55.803 Y136.089 E.0173
G1 X55.357 Y135.825 E.01625
G1 X54.978 Y135.432 E.01712
G1 X54.788 Y135.133 E.01111
G1 X54.576 Y134.536 E.01986
G1 X54.576 Y133.802 E.02301
G1 X54.788 Y133.205 E.01986
G1 X54.978 Y132.907 E.01108
G1 X55.273 Y132.592 E.01353
G1 X55.559 Y132.385 E.01107
G1 X56.188 Y132.125 E.02134
G1 X56.633 Y132.075 E.01404
G1 X57.236 Y132.172 E.01915
G1 X57.566 Y132.303 E.01113
G1 X57.931 Y132.534 E.01354
G1 X58.188 Y132.776 E.01107
G1 X58.442 Y133.125 E.01353
G1 X58.665 Y133.662 E.01823
G1 X58.731 Y134.143 E.01522
G1 X58.656 Y134.652 E.01613
G1 X58.537 Y135.043 E.01281
G1 X58.269 Y135.467 E.01573
G1 X58.074 Y135.688 E.00924
G1 X57.63 Y136.006 E.01712
G1 X57.378 Y136.105 E.00849
G1 X57.003 Y135.838 F54000
G1 F2100
G1 X56.853 Y135.866 E.00478
G1 X56.324 Y135.858 E.01659
G1 X55.859 Y135.698 E.01542
G1 X55.548 Y135.488 E.01177
G1 X55.19 Y135.093 E.01671
G1 X54.98 Y134.593 E.017
G1 X54.94 Y134.385 E.00664
G1 X54.948 Y133.863 E.01637
G1 X55.139 Y133.344 E.01734
G1 X55.253 Y133.165 E.00665
G1 X55.548 Y132.851 E.01351
G1 X55.72 Y132.726 E.00667
G1 X56.253 Y132.497 E.01819
G1 X56.738 Y132.462 E.01525
G1 X57.166 Y132.543 E.01366
G1 X57.364 Y132.621 E.00667
G1 X57.729 Y132.852 E.01354
G1 X57.883 Y132.998 E.00665
G1 X58.217 Y133.505 E.01904
G1 X58.331 Y133.9 E.01289
G1 X58.344 Y134.275 E.01176
G1 X58.236 Y134.795 E.01665
G1 X57.962 Y135.246 E.01655
G1 X57.615 Y135.578 E.01506
G1 X57.062 Y135.826 E.019
G1 X56.643 Y135.485 F54000
;TYPE:External perimeter
G1 F2100
G1 X56.363 Y135.48 E.00878
G1 X55.951 Y135.314 E.01393
G1 X55.823 Y135.23 E.0048
G1 X55.49 Y134.856 E.0157
G1 X55.318 Y134.385 E.01572
G1 X55.32 Y133.923 E.01449
G1 X55.505 Y133.453 E.01584
G1 X55.88 Y133.067 E.01687
G1 X56.327 Y132.867 E.01535
G1 X56.668 Y132.833 E.01074
G1 X57.162 Y132.94 E.01585
G1 X57.578 Y133.219 E.01571
G1 X57.859 Y133.621 E.01538
G1 X57.956 Y133.936 E.01033
G1 X57.974 Y134.205 E.00845
G1 X57.867 Y134.695 E.01573
G1 X57.594 Y135.106 E.01547
G1 X57.324 Y135.317 E.01074
G1 X56.853 Y135.489 E.01572
G1 X56.703 Y135.486 E.0047
G1 X56.306 Y135.441 F54000
G1 E-3.5 F1500
G1 X50.861 Y136.484 F54000
G1 E3.5 F1500
;TYPE:Perimeter
G1 F2100
G1 X50.83 Y136.5 E.00109
G1 X50.26 Y136.617 E.01824
G1 X49.877 Y136.634 E.01202
G1 X49.341 Y136.536 E.01708
G1 X48.956 Y136.398 E.01282
G1 X48.512 Y136.119 E.01644
G1 X48.203 Y135.846 E.01293
G1 X47.906 Y135.462 E.01522
G1 X47.654 Y134.871 E.02014
G1 X47.561 Y134.385 E.01551
G1 X47.576 Y133.757 E.0197
G1 X47.813 Y133.067 E.02288
G1 X48.078 Y132.649 E.01552
G1 X48.373 Y132.334 E.01353
G1 X48.774 Y132.044 E.01552
G1 X49.164 Y131.86 E.01352
G1 X49.559 Y131.745 E.0129
G1 X50.008 Y131.698 E.01415
G1 X50.681 Y131.802 E.02135
G1 X51.143 Y131.984 E.01557
G1 X51.508 Y132.216 E.01356
G1 X51.868 Y132.554 E.01548
G1 X52.197 Y133.019 E.01786
G1 X52.399 Y133.546 E.0177
G1 X52.463 Y133.954 E.01295
G1 X52.458 Y134.5 E.01712
G1 X52.31 Y135.067 E.01837
G1 X52.122 Y135.435 E.01296
G1 X51.73 Y135.946 E.02019
G1 X51.228 Y136.301 E.01928
G1 X50.915 Y136.457 E.01097
G1 X50.666 Y136.15 F54000
G1 F2100
G1 X50.189 Y136.247 E.01526
G1 X49.835 Y136.247 E.0111
G1 X49.335 Y136.148 E.01598
G1 X49.082 Y136.035 E.00869
G1 X48.581 Y135.698 E.01893
G1 X48.23 Y135.269 E.01738
G1 X48.005 Y134.732 E.01826
G1 X47.938 Y134.385 E.01108
G1 X47.949 Y133.813 E.01794
G1 X48.163 Y133.205 E.02021
G1 X48.353 Y132.907 E.01108
G1 X48.648 Y132.592 E.01353
G1 X48.934 Y132.385 E.01107
G1 X49.563 Y132.125 E.02134
G1 X50.008 Y132.075 E.01404
G1 X50.611 Y132.172 E.01915
G1 X50.941 Y132.303 E.01113
G1 X51.306 Y132.534 E.01354
G1 X51.563 Y132.776 E.01107
G1 X51.871 Y133.208 E.01664
G1 X52.074 Y133.802 E.01968
G1 X52.086 Y134.385 E.01828
G1 X51.995 Y134.815 E.01378
G1 X51.817 Y135.214 E.0137
G1 X51.464 Y135.678 E.01828
G1 X51.026 Y135.982 E.01672
G1 X50.724 Y136.136 E.01063
G1 X50.339 Y135.832 F54000
G1 F2100
G1 X50.042 Y135.886 E.00946
G1 X49.482 Y135.796 E.01778
G1 X49.284 Y135.717 E.00668
G1 X48.837 Y135.421 E.01681
G1 X48.554 Y135.076 E.01399
G1 X48.355 Y134.593 E.01638
G1 X48.315 Y134.385 E.00664
G1 X48.322 Y133.869 E.01618
G1 X48.514 Y133.344 E.01753
G1 X48.628 Y133.165 E.00665
G1 X48.923 Y132.851 E.01351
G1 X49.095 Y132.726 E.00667
G1 X49.628 Y132.497 E.01819
G1 X50.113 Y132.462 E.01525
G1 X50.541 Y132.543 E.01366
G1 X50.739 Y132.621 E.00667
G1 X51.104 Y132.852 E.01354
G1 X51.258 Y132.998 E.00665
G1 X51.568 Y133.443 E.017
G1 X51.709 Y133.953 E.01659
G1 X51.702 Y134.476 E.0164
G1 X51.512 Y134.992 E.01724
G1 X51.199 Y135.411 E.0164
G1 X50.739 Y135.718 E.01734
G1 X50.542 Y135.796 E.00664
G1 X50.398 Y135.822 E.00459
G1 X50.007 Y135.501 F54000
;TYPE:External perimeter
G1 F2100
G1 X49.977 Y135.506 E.00095
G1 X49.487 Y135.399 E.01573
G1 X49.076 Y135.126 E.01547
G1 X48.865 Y134.856 E.01074
G1 X48.693 Y134.385 E.01572
G1 X48.706 Y133.884 E.01571
G1 X48.902 Y133.423 E.01571
G1 X49.255 Y133.067 E.01572
G1 X49.702 Y132.867 E.01535
G1 X50.043 Y132.833 E.01074
G1 X50.537 Y132.94 E.01585
G1 X50.953 Y133.219 E.01571
G1 X51.234 Y133.621 E.01538
G1 X51.332 Y133.954 E.01088
G1 X51.323 Y134.444 E.01537
G1 X51.207 Y134.77 E.01085
G1 X50.902 Y135.168 E.01572
G1 X50.472 Y135.425 E.01571
G1 X50.066 Y135.492 E.0129
G1 X49.67 Y135.435 F54000
G1 E-3.5 F1500
G1 X48.72 Y146.401 F54000
G1 E3.5 F1500
;TYPE:Perimeter
;WIDTH:0.431404
G1 F2100
G1 X48.33 Y146.543 E.01341
G1 X47.809 Y146.609 E.01696
;WIDTH:0.431596
G1 X47.284 Y146.59 E.01698
G1 X46.775 Y146.46 E.01698
;WIDTH:0.419999
G1 X46.187 Y146.173 E.02052
G1 X45.74 Y145.823 E.0178
G1 X45.399 Y145.422 E.0165
G1 X45.105 Y144.889 E.01909
G1 X44.939 Y144.328 E.01834
G1 X44.893 Y143.824 E.01587
G1 X44.972 Y143.18 E.02034
G1 X45.141 Y142.683 E.01646
G1 X45.399 Y142.227 E.01643
G1 X45.739 Y141.827 E.01646
G1 X46.148 Y141.498 E.01646
G1 X46.611 Y141.251 E.01645
G1 X47.153 Y141.09 E.01773
G1 X47.713 Y141.034 E.01765
G1 X48.299 Y141.103 E.0185
G1 X48.826 Y141.28 E.01743
G1 X49.282 Y141.539 E.01644
G1 X49.682 Y141.879 E.01646
G1 X50.001 Y142.27 E.01582
G1 X50.245 Y142.717 E.01597
G1 X50.412 Y143.234 E.01703
G1 X50.47 Y143.7 E.01472
G1 X50.444 Y144.224 E.01645
G1 X50.32 Y144.734 E.01646
G1 X50.103 Y145.212 E.01646
G1 X49.8 Y145.641 E.01647
G1 X49.422 Y146.005 E.01645
G1 X48.863 Y146.349 E.02058
;WIDTH:0.431404
G1 X48.776 Y146.381 E.00299
G1 X48.416 Y146.116 F54000
;WIDTH:0.419999
G1 F2100
G1 X48.049 Y146.208 E.01186
G1 X47.596 Y146.235 E.01423
G1 X47.146 Y146.175 E.01423
G1 X46.689 Y146.019 E.01514
G1 X46.199 Y145.724 E.01793
G1 X45.867 Y145.409 E.01435
G1 X45.602 Y145.041 E.01422
G1 X45.451 Y144.739 E.01059
G1 X45.301 Y144.189 E.01787
G1 X45.275 Y143.736 E.01423
G1 X45.334 Y143.286 E.01423
G1 X45.477 Y142.855 E.01424
G1 X45.697 Y142.458 E.01423
G1 X45.989 Y142.11 E.01424
G1 X46.34 Y141.822 E.01424
G1 X46.882 Y141.555 E.01894
G1 X47.2 Y141.464 E.01037
G1 X47.704 Y141.41 E.01589
G1 X48.203 Y141.468 E.01575
G1 X48.654 Y141.616 E.01488
G1 X49.051 Y141.837 E.01425
G1 X49.399 Y142.128 E.01422
G1 X49.702 Y142.506 E.01519
G1 X49.936 Y142.953 E.01582
G1 X50.069 Y143.46 E.01643
G1 X50.095 Y143.913 E.01423
G1 X50.036 Y144.363 E.01423
G1 X49.893 Y144.794 E.01424
G1 X49.672 Y145.191 E.01425
G1 X49.381 Y145.539 E.01422
G1 X49.004 Y145.841 E.01515
G1 X48.49 Y146.098 E.01802
G1 X48.474 Y146.102 E.00052
G1 X48.062 Y145.82 F54000
G1 F2100
G1 X48.014 Y145.833 E.00156
G1 X47.631 Y145.859 E.01204
G1 X47.251 Y145.813 E.012
G1 X46.871 Y145.688 E.01254
G1 X46.448 Y145.441 E.01536
G1 X46.165 Y145.178 E.01211
G1 X45.938 Y144.87 E.012
G1 X45.797 Y144.59 E.00983
G1 X45.676 Y144.153 E.01422
G1 X45.65 Y143.771 E.01201
G1 X45.696 Y143.391 E.012
G1 X45.813 Y143.026 E.01202
G1 X45.995 Y142.689 E.01201
G1 X46.238 Y142.393 E.01201
G1 X46.532 Y142.147 E.01202
G1 X47.009 Y141.909 E.01671
G1 X47.5 Y141.806 E.01573
G1 X48.013 Y141.816 E.01609
G1 X48.483 Y141.952 E.01534
G1 X48.82 Y142.135 E.01202
G1 X49.116 Y142.378 E.01201
G1 X49.371 Y142.687 E.01256
G1 X49.596 Y143.126 E.01547
G1 X49.693 Y143.495 E.01196
G1 X49.719 Y143.878 E.01204
G1 X49.673 Y144.258 E.012
G1 X49.557 Y144.623 E.01201
G1 X49.374 Y144.96 E.01202
G1 X49.132 Y145.256 E.01199
G1 X48.822 Y145.511 E.01259
G1 X48.384 Y145.736 E.01544
G1 X48.12 Y145.805 E.00856
G1 X47.691 Y145.482 F54000
;TYPE:External perimeter
G1 F2100
G1 X47.667 Y145.484 E.00076
G1 X47.356 Y145.451 E.00981
G1 X47.052 Y145.358 E.00997
G1 X46.697 Y145.158 E.01278
G1 X46.463 Y144.947 E.00988
G1 X46.274 Y144.698 E.0098
G1 X46.143 Y144.441 E.00904
G1 X46.052 Y144.118 E.01052
G1 X46.025 Y143.807 E.00979
G1 X46.058 Y143.496 E.00981
G1 X46.149 Y143.197 E.0098
G1 X46.293 Y142.92 E.00979
G1 X46.487 Y142.676 E.00977
G1 X46.724 Y142.472 E.0098
G1 X47.137 Y142.264 E.0145
G1 X47.658 Y142.166 E.01662
G1 X48.013 Y142.198 E.01118
G1 X48.312 Y142.288 E.00979
G1 X48.758 Y142.564 E.01645
G1 X49.041 Y142.869 E.01305
G1 X49.234 Y143.231 E.01286
G1 X49.318 Y143.531 E.00977
G1 X49.344 Y143.842 E.00979
G1 X49.311 Y144.153 E.00981
G1 X49.221 Y144.452 E.00979
G1 X49.076 Y144.728 E.00978
G1 X48.882 Y144.973 E.0098
G1 X48.64 Y145.18 E.00998
G1 X48.279 Y145.374 E.01285
G1 X47.978 Y145.458 E.0098
G1 X47.751 Y145.477 E.00714
G1 X47.353 Y145.438 F54000
G1 E-3.5 F1500
G1 X63.227 Y146.403 F54000
G1 E3.5 F1500
;TYPE:Perimeter
;WIDTH:0.431405
G1 F2100
G1 X62.83 Y146.543 E.0136
G1 X62.309 Y146.609 E.01696
;WIDTH:0.431595
G1 X61.784 Y146.59 E.01698
G1 X61.275 Y146.46 E.01698
;WIDTH:0.419999
G1 X60.797 Y146.243 E.01646
G1 X60.369 Y145.94 E.01644
G1 X60.004 Y145.562 E.01648
G1 X59.66 Y145.002 E.02061
G1 X59.472 Y144.468 E.01775
G1 X59.399 Y143.949 E.01643
G1 X59.425 Y143.424 E.01648
G1 X59.549 Y142.915 E.01643
G1 X59.766 Y142.437 E.01646
G1 X60.069 Y142.008 E.01647
G1 X60.447 Y141.644 E.01645
G1 X60.886 Y141.357 E.01644
G1 X61.372 Y141.157 E.01648
G1 X61.994 Y141.046 E.01981
G1 X62.583 Y141.065 E.01848
G1 X63.094 Y141.189 E.01649
G1 X63.572 Y141.406 E.01646
G1 X64.001 Y141.709 E.01647
G1 X64.365 Y142.087 E.01645
G1 X64.709 Y142.647 E.02061
G1 X64.898 Y143.181 E.01776
G1 X64.97 Y143.7 E.01643
G1 X64.944 Y144.224 E.01645
G1 X64.82 Y144.735 E.01649
G1 X64.532 Y145.325 E.02059
G1 X64.182 Y145.77 E.01775
G1 X63.782 Y146.11 E.01646
G1 X63.326 Y146.369 E.01644
;WIDTH:0.431405
G1 X63.283 Y146.383 E.00146
G1 X62.916 Y146.116 F54000
;WIDTH:0.419999
G1 F2100
G1 X62.549 Y146.208 E.01186
G1 X62.096 Y146.235 E.01423
G1 X61.646 Y146.175 E.01423
G1 X61.215 Y146.033 E.01423
G1 X60.819 Y145.812 E.01422
G1 X60.47 Y145.521 E.01425
G1 X60.168 Y145.143 E.01517
G1 X59.911 Y144.629 E.01802
G1 X59.801 Y144.189 E.01422
G1 X59.775 Y143.736 E.01423
G1 X59.834 Y143.285 E.01426
G1 X59.977 Y142.855 E.01421
G1 X60.102 Y142.608 E.00868
G1 X60.423 Y142.174 E.01693
G1 X60.84 Y141.822 E.01711
G1 X61.239 Y141.606 E.01423
G1 X61.7 Y141.464 E.01512
G1 X62.209 Y141.411 E.01605
G1 X62.723 Y141.474 E.01624
G1 X63.155 Y141.616 E.01426
G1 X63.551 Y141.837 E.01422
G1 X63.899 Y142.128 E.01422
G1 X64.202 Y142.506 E.01519
G1 X64.458 Y143.02 E.018
G1 X64.569 Y143.46 E.01423
G1 X64.595 Y143.913 E.01423
G1 X64.536 Y144.363 E.01423
G1 X64.379 Y144.821 E.01518
G1 X64.083 Y145.313 E.018
G1 X63.77 Y145.642 E.01424
G1 X63.401 Y145.907 E.01424
G1 X62.989 Y146.098 E.01424
G1 X62.974 Y146.102 E.00049
G1 X62.562 Y145.82 F54000
G1 F2100
G1 X62.514 Y145.833 E.00156
G1 X62.131 Y145.859 E.01204
G1 X61.751 Y145.813 E.012
G1 X61.386 Y145.697 E.01201
G1 X61.05 Y145.514 E.012
G1 X60.753 Y145.271 E.01203
G1 X60.498 Y144.962 E.01256
G1 X60.273 Y144.524 E.01544
G1 X60.176 Y144.153 E.01202
G1 X60.15 Y143.771 E.01201
G1 X60.196 Y143.39 E.01203
G1 X60.313 Y143.026 E.01199
G1 X60.438 Y142.779 E.00868
G1 X60.738 Y142.393 E.01533
G1 X61.032 Y142.147 E.01202
G1 X61.367 Y141.961 E.01201
G1 X61.748 Y141.838 E.01255
G1 X62.235 Y141.79 E.01534
G1 X62.618 Y141.836 E.01209
G1 X62.983 Y141.952 E.01201
G1 X63.32 Y142.135 E.01202
G1 X63.616 Y142.378 E.01201
G1 X63.871 Y142.687 E.01256
G1 X64.096 Y143.125 E.01544
G1 X64.193 Y143.495 E.01199
G1 X64.219 Y143.878 E.01204
G1 X64.173 Y144.258 E.012
G1 X64.049 Y144.639 E.01256
G1 X63.8 Y145.063 E.01542
G1 X63.539 Y145.344 E.01202
G1 X63.23 Y145.571 E.01202
G1 X62.884 Y145.736 E.01202
G1 X62.62 Y145.805 E.00856
G1 X62.191 Y145.482 F54000
;TYPE:External perimeter
G1 F2100
G1 X62.167 Y145.484 E.00076
G1 X61.856 Y145.451 E.00981
G1 X61.557 Y145.361 E.00979
G1 X61.281 Y145.216 E.00978
G1 X61.036 Y145.022 E.0098
G1 X60.829 Y144.78 E.00998
G1 X60.636 Y144.419 E.01283
G1 X60.552 Y144.118 E.0098
G1 X60.525 Y143.807 E.00979
G1 X60.558 Y143.495 E.00984
G1 X60.649 Y143.197 E.00977
G1 X60.774 Y142.95 E.00868
G1 X60.987 Y142.676 E.01088
G1 X61.224 Y142.472 E.0098
G1 X61.665 Y142.254 E.01542
G1 X62.158 Y142.166 E.0157
G1 X62.513 Y142.198 E.01118
G1 X62.812 Y142.288 E.00979
G1 X63.089 Y142.433 E.0098
G1 X63.334 Y142.627 E.0098
G1 X63.541 Y142.869 E.00998
G1 X63.734 Y143.23 E.01283
G1 X63.818 Y143.531 E.0098
G1 X63.844 Y143.842 E.00979
G1 X63.811 Y144.153 E.00981
