; File Parsed By Flow Comp Script
; Script Ver. V0.7.1
; Flow Model Ver. V0.2.1
; Logger Ver. V0.0.1
; Flow Comp Model Points:
; (0, 0)
; (0.2, 0.4444)
; (0.4, 0.6145)
; (0.6, 0.7059)
; (0.8, 0.7619)
; (1.5, 0.8571)
; (2, 0.8889)
; (3, 0.9231)
; (5, 0.952)
; (10, 1)

; generated by PrusaSlicer 2.9.2 on 2025-04-13 at 12:31:26 UTC

; 

; external perimeters extrusion width = 0.45mm
; perimeters extrusion width = 0.45mm
; infill extrusion width = 0.45mm
; solid infill extrusion width = 0.45mm
; top infill extrusion width = 0.40mm
; support material extrusion width = 0.35mm
; first layer extrusion width = 0.42mm

;TYPE:Custom
G90 ; use absolute coordinates
M83 ; extruder relative mode
CALCULATE_PA BOWDEN_LENGTH=34.3 MATERIAL=PLA LAYER_HEIGHT=0.2 NOZZLE_SIZE=0.4 PRINT_SPEED=120 FILAMENT_DIAMETER=1.75 LINE_WIDTH=0.45 ; auto pressure advance
M104 S210 ; set temporary nozzle temp to prevent oozing during homing
M140 S58 ; set final bed temp
G4 S30 ; allow partial nozzle warmup
G28 ; home all axis
G1 Z50 F240
G1 X2.0 Y10 F3000
M104 S208 ; set final nozzle temp
M190 S58 ; wait for bed temp to stabilize
M109 S208 ; wait for nozzle temp to stabilize
G1 Z0.28 F240
G92 E0
G1 X2.0 Y140 E10 F1500 ; prime the nozzle
G1 X2.3 Y140 F5000
G92 E0
G1 X2.3 Y10 E10 F1200 ; prime the nozzle
G92 E0
G21 ; set units to millimeters
G90 ; use absolute coordinates
M83 ; use relative distances for extrusion
; Filament gcode
M107
;LAYER_CHANGE
;Z:0.2
;HEIGHT:0.2
G1 E-3.5 F1500
G1 Z.2 F54000
G1 X12.562 Y82.699
G1 Z.2
G1 E3.5 F1500
M204 S3500
;TYPE:Skirt/Brim
;WIDTH:0.42
G1 F1800
G1 X40.562 Y82.699 E.87792
G1 X42.742 Y83.095 E.06947
G1 X44.643 Y84.235 E.0695
G1 X46.021 Y85.971 E.06949
G1 X46.751 Y88.887 E.09425
G1 X46.751 Y116.887 E.87792
G1 X46.354 Y119.067 E.06948
G1 X45.215 Y120.968 E.06948
G1 X43.479 Y122.345 E.06948
G1 X40.562 Y123.076 E.09429
G1 X12.562 Y123.076 E.87792
G1 X10.382 Y122.679 E.06948
G1 X8.481 Y121.539 E.0695
G1 X7.104 Y119.803 E.06948
G1 X6.374 Y116.887 E.09425
G1 X6.374 Y88.887 E.87792
G1 X6.77 Y86.707 E.06947
G1 X7.91 Y84.806 E.0695
G1 X9.646 Y83.429 E.06948
G1 X12.504 Y82.713 E.09238
G1 E-3.5 F1500
G1 X29.301 Y104.97 F54000
G1 E3.5 F1500
;TYPE:Perimeter
;WIDTH:0.419999
G1 F1800
G1 X29.016 Y105.09 E.0097
G1 X28.612 Y105.181 E.01298
G1 X28.099 Y105.183 E.01608
G1 X27.691 Y105.118 E.01295
G1 X27.208 Y104.941 E.01613
G1 X26.793 Y104.678 E.0154
G1 X26.38 Y104.253 E.01858
G1 X26.172 Y103.959 E.01129
G1 X25.928 Y103.356 E.0204
G1 X25.864 Y102.948 E.01295
G1 X25.881 Y102.305 E.02017
G1 X26.115 Y101.629 E.02243
G1 X26.219 Y101.422 E.00726
G1 X26.676 Y100.897 E.02182
G1 X27.076 Y100.606 E.01551
G1 X27.467 Y100.422 E.01355
G1 X27.862 Y100.307 E.0129
G1 X28.311 Y100.261 E.01415
G1 X28.984 Y100.365 E.02135
G1 X29.446 Y100.547 E.01557
G1 X29.81 Y100.778 E.01352
G1 X30.171 Y101.117 E.01553
G1 X30.425 Y101.466 E.01353
G1 X30.612 Y101.834 E.01294
G1 X30.76 Y102.392 E.0181
G1 X30.774 Y102.907 E.01615
G1 X30.682 Y103.403 E.01582
G1 X30.546 Y103.785 E.01271
G1 X30.276 Y104.214 E.01589
G1 X29.992 Y104.541 E.01358
G1 X29.594 Y104.846 E.01572
G1 X29.356 Y104.947 E.00811
G1 X28.999 Y104.69 F54000
G1 F1800
G1 X28.817 Y104.762 E.00614
G1 X28.53 Y104.806 E.0091
G1 X28.011 Y104.802 E.01627
G1 X27.48 Y104.652 E.0173
G1 X27.034 Y104.388 E.01625
G1 X26.655 Y103.994 E.01714
G1 X26.466 Y103.696 E.01106
G1 X26.287 Y103.239 E.01539
G1 X26.241 Y102.948 E.00924
G1 X26.253 Y102.365 E.01828
G1 X26.466 Y101.768 E.01987
G1 X26.655 Y101.47 E.01106
G1 X26.951 Y101.155 E.01355
G1 X27.237 Y100.947 E.01109
G1 X27.866 Y100.688 E.02133
G1 X28.311 Y100.638 E.01404
G1 X28.914 Y100.735 E.01915
G1 X29.244 Y100.866 E.01113
G1 X29.608 Y101.097 E.01352
G1 X29.866 Y101.339 E.01109
G1 X30.12 Y101.688 E.01353
G1 X30.342 Y102.225 E.01822
G1 X30.405 Y102.643 E.01325
G1 X30.392 Y102.909 E.00835
G1 X30.266 Y103.492 E.0187
G1 X29.958 Y104.012 E.01895
G1 X29.752 Y104.25 E.00987
G1 X29.308 Y104.569 E.01714
G1 X29.055 Y104.668 E.00852
G1 X28.681 Y104.4 F54000
G1 F1800
G1 X28.53 Y104.429 E.00482
G1 X28.002 Y104.421 E.01656
G1 X27.537 Y104.261 E.01542
G1 X27.226 Y104.051 E.01177
G1 X26.867 Y103.656 E.01674
G1 X26.646 Y103.123 E.01809
G1 X26.618 Y102.516 E.01905
G1 X26.71 Y102.176 E.01104
G1 X26.861 Y101.818 E.01218
G1 X27.226 Y101.413 E.01709
G1 X27.397 Y101.289 E.00662
G1 X27.931 Y101.06 E.01822
G1 X28.416 Y101.025 E.01525
G1 X28.844 Y101.106 E.01366
G1 X29.042 Y101.184 E.00667
G1 X29.406 Y101.415 E.01352
G1 X29.561 Y101.56 E.00665
G1 X29.895 Y102.067 E.01904
G1 X30.009 Y102.463 E.01292
G1 X30.022 Y102.838 E.01176
G1 X29.914 Y103.358 E.01665
G1 X29.64 Y103.809 E.01655
G1 X29.292 Y104.14 E.01506
G1 X28.74 Y104.389 E.01899
G1 X28.32 Y104.048 F54000
;TYPE:External perimeter
G1 F1800
G1 X28.04 Y104.043 E.00878
G1 X27.628 Y103.877 E.01393
G1 X27.5 Y103.793 E.0048
G1 X27.167 Y103.419 E.0157
G1 X27.004 Y103.006 E.01392
G1 X26.997 Y102.486 E.01631
G1 X27.182 Y102.016 E.01584
G1 X27.558 Y101.63 E.0169
G1 X28.005 Y101.43 E.01535
G1 X28.346 Y101.395 E.01075
G1 X28.84 Y101.502 E.01585
G1 X29.256 Y101.782 E.01572
G1 X29.536 Y102.184 E.01536
G1 X29.634 Y102.498 E.01031
G1 X29.651 Y102.767 E.00845
G1 X29.544 Y103.257 E.01573
G1 X29.271 Y103.669 E.0155
G1 X29.001 Y103.88 E.01074
G1 X28.53 Y104.052 E.01572
G1 X28.38 Y104.049 E.0047
G1 X27.983 Y104.004 F54000
G1 E-3.5 F1500
G1 X22.554 Y105.041 F54000
G1 E3.5 F1500
;TYPE:Perimeter
G1 F1800
G1 X22.507 Y105.062 E.00161
G1 X21.937 Y105.18 E.01825
G1 X21.554 Y105.196 E.01202
G1 X21.018 Y105.099 E.01708
G1 X20.633 Y104.961 E.01282
G1 X20.189 Y104.682 E.01644
G1 X19.881 Y104.409 E.0129
G1 X19.583 Y104.024 E.01527
G1 X19.331 Y103.434 E.02012
G1 X19.239 Y102.948 E.01551
G1 X19.254 Y102.32 E.0197
G1 X19.49 Y101.629 E.02289
G1 X19.755 Y101.212 E.01549
G1 X20.051 Y100.897 E.01355
G1 X20.451 Y100.606 E.01551
G1 X20.842 Y100.422 E.01355
G1 X21.237 Y100.307 E.0129
G1 X21.686 Y100.261 E.01415
G1 X22.359 Y100.365 E.02135
G1 X22.821 Y100.547 E.01557
G1 X23.185 Y100.778 E.01352
G1 X23.546 Y101.117 E.01553
G1 X23.874 Y101.581 E.01782
G1 X24.076 Y102.108 E.0177
G1 X24.141 Y102.516 E.01295
G1 X24.124 Y103.16 E.0202
G1 X23.93 Y103.775 E.02022
G1 X23.546 Y104.347 E.0216
G1 X23.286 Y104.615 E.01171
G1 X22.821 Y104.917 E.01738
G1 X22.609 Y105.015 E.00732
G1 X22.326 Y104.699 F54000
G1 F1800
G1 X21.866 Y104.81 E.01484
G1 X21.513 Y104.81 E.01107
G1 X21.012 Y104.711 E.01601
G1 X20.759 Y104.598 E.00869
G1 X20.259 Y104.261 E.01891
G1 X19.908 Y103.832 E.01738
G1 X19.682 Y103.295 E.01827
G1 X19.616 Y102.948 E.01107
G1 X19.626 Y102.376 E.01794
G1 X19.841 Y101.768 E.02022
G1 X20.03 Y101.47 E.01106
G1 X20.326 Y101.155 E.01355
G1 X20.612 Y100.947 E.01109
G1 X21.241 Y100.688 E.02133
G1 X21.686 Y100.638 E.01404
G1 X22.289 Y100.735 E.01915
G1 X22.619 Y100.866 E.01113
G1 X22.983 Y101.097 E.01352
G1 X23.241 Y101.339 E.01109
G1 X23.548 Y101.77 E.01659
G1 X23.751 Y102.365 E.01971
G1 X23.751 Y103.099 E.02301
G1 X23.588 Y103.617 E.01703
G1 X23.241 Y104.126 E.01932
G1 X22.983 Y104.367 E.01107
G1 X22.523 Y104.652 E.01697
G1 X22.385 Y104.685 E.00445
G1 X22.017 Y104.395 F54000
G1 F1800
G1 X21.72 Y104.448 E.00946
G1 X21.16 Y104.358 E.01778
G1 X20.962 Y104.28 E.00667
G1 X20.515 Y103.984 E.01681
G1 X20.232 Y103.639 E.01399
G1 X20.033 Y103.156 E.01638
G1 X19.993 Y102.948 E.00664
G1 X19.999 Y102.432 E.01618
G1 X20.192 Y101.907 E.01754
G1 X20.305 Y101.728 E.00664
G1 X20.601 Y101.413 E.01355
G1 X20.772 Y101.289 E.00662
G1 X21.306 Y101.06 E.01822
G1 X21.791 Y101.025 E.01525
G1 X22.219 Y101.106 E.01366
G1 X22.417 Y101.184 E.00667
G1 X22.781 Y101.415 E.01352
G1 X22.936 Y101.56 E.00665
G1 X23.246 Y102.005 E.017
G1 X23.387 Y102.516 E.01662
G1 X23.379 Y103.039 E.0164
G1 X23.218 Y103.511 E.01564
G1 X22.924 Y103.919 E.01577
G1 X22.501 Y104.227 E.01641
G1 X22.22 Y104.358 E.00972
G1 X22.076 Y104.384 E.00459
G1 X21.684 Y104.064 F54000
;TYPE:External perimeter
G1 F1800
G1 X21.654 Y104.069 E.00095
G1 X21.164 Y103.962 E.01573
G1 X20.753 Y103.689 E.01547
G1 X20.542 Y103.419 E.01074
G1 X20.37 Y102.948 E.01572
G1 X20.383 Y102.447 E.01571
G1 X20.58 Y101.986 E.01572
G1 X20.933 Y101.63 E.01572
G1 X21.38 Y101.43 E.01535
G1 X21.721 Y101.395 E.01075
G1 X22.215 Y101.502 E.01585
G1 X22.631 Y101.782 E.01572
G1 X22.911 Y102.184 E.01536
G1 X23.009 Y102.516 E.01085
G1 X23.007 Y102.978 E.01449
G1 X22.884 Y103.333 E.01178
G1 X22.579 Y103.731 E.01572
G1 X22.149 Y103.988 E.01571
G1 X21.743 Y104.054 E.0129
G1 X21.347 Y103.998 F54000
G1 E-3.5 F1500
G1 X26.562 Y98.097 F54000
G1 E3.5 F1500
G1 F1800
G1 X14.541 Y98.097 E.37691
G1 X14.431 Y98.062 E.00362
G1 X14.397 Y97.995 E.00236
G1 X14.107 Y97.923 E.00937
G1 X13.713 Y97.636 E.01528
;WIDTH:0.448439
G1 X13.484 Y97.279 E.0143
;WIDTH:0.483973
G1 X13.445 Y97.187 E.00366
;WIDTH:0.519507
G1 X13.406 Y97.095 E.00396
;WIDTH:0.55504
G1 X13.368 Y97.003 E.00424
;WIDTH:0.584245
G1 X13.394 Y96.56 E.01997
G1 X13.42 Y96.545 E.00135
;WIDTH:0.543184
G1 X13.447 Y96.529 E.00131
;WIDTH:0.502122
G1 X13.473 Y96.514 E.00115
;WIDTH:0.461061
G1 X13.5 Y96.498 E.00109
;WIDTH:0.419999
G1 X13.761 Y96.087 E.01527
G1 X14.112 Y95.848 E.01331
G1 X14.526 Y95.755 E.0133
G1 X14.951 Y95.825 E.01351
G1 X15.366 Y96.091 E.01546
G1 X15.627 Y96.502 E.01527
G1 X15.662 Y96.677 E.0056
G1 X37.463 Y96.677 E.68355
G1 X37.523 Y96.438 E.00773
G1 X37.761 Y96.087 E.0133
G1 X38.112 Y95.848 E.01331
G1 X38.533 Y95.756 E.01351
G1 X39.012 Y95.848 E.01529
G1 X39.363 Y96.086 E.0133
G1 X39.603 Y96.443 E.01349
;WIDTH:0.466304
G1 X39.658 Y96.591 E.00556
;WIDTH:0.512609
G1 X39.712 Y96.739 E.00615
;WIDTH:0.558913
G1 X39.767 Y96.887 E.00677
G1 X39.712 Y97.037 E.00685
;WIDTH:0.512609
G1 X39.657 Y97.187 E.00624
;WIDTH:0.466304
G1 X39.601 Y97.337 E.00564
;WIDTH:0.419999
G1 X39.358 Y97.691 E.01346
G1 X38.947 Y97.952 E.01527
G1 X38.728 Y97.995 E.007
G1 X38.682 Y98.07 E.00276
G1 X38.584 Y98.097 E.00319
G1 X26.622 Y98.097 E.37506
G1 X26.222 Y98.097 F54000
G1 E-3.5 F1500
G1 X20.052 Y95.235 F54000
G1 E3.5 F1500
;TYPE:Perimeter
;WIDTH:0.530514
G1 F1800
G1 X19.973 Y95.275 E.00359
;WIDTH:0.573282
G1 X19.888 Y95.319 E.00422
G1 X19.391 Y95.359 E.02199
;WIDTH:0.580891
G1 X18.801 Y95.315 E.02647
G1 X18.637 Y95.229 E.00828
;WIDTH:0.540668
G1 X18.474 Y95.142 E.00765
;WIDTH:0.500445
G1 X18.31 Y95.056 E.00704
;WIDTH:0.460222
G1 X18.146 Y94.97 E.00643
;WIDTH:0.419999
G1 X17.648 Y94.583 E.01977
G1 X17.36 Y94.232 E.01424
G1 X17.101 Y93.715 E.01813
G1 X17.006 Y93.401 E.01029
G1 X16.951 Y92.95 E.01425
G1 X16.982 Y92.497 E.01424
G1 X17.11 Y92.031 E.01515
G1 X17.375 Y91.521 E.01802
G1 X17.666 Y91.173 E.01422
G1 X18.017 Y90.885 E.01424
;WIDTH:0.453872
G1 X18.341 Y90.714 E.01252
;WIDTH:0.487744
G1 X18.665 Y90.543 E.01355
;WIDTH:0.530514
G1 X18.751 Y90.499 E.00392
;WIDTH:0.573284
G1 X18.837 Y90.455 E.00426
G1 X19.301 Y90.414 E.02054
;WIDTH:0.568155
G1 X19.8 Y90.442 E.02183
G1 X19.977 Y90.521 E.00847
;WIDTH:0.51877
G1 X20.154 Y90.6 E.00767
;WIDTH:0.469385
G1 X20.332 Y90.679 E.00691
;WIDTH:0.419999
G1 X20.729 Y90.9 E.01425
G1 X21.077 Y91.191 E.01422
G1 X21.364 Y91.542 E.01422
G1 X21.581 Y91.941 E.01424
G1 X21.719 Y92.374 E.01425
G1 X21.772 Y92.854 E.01514
G1 X21.713 Y93.426 E.01803
G1 X21.57 Y93.857 E.01424
G1 X21.35 Y94.253 E.0142
G1 X21.058 Y94.602 E.01427
G1 X20.707 Y94.889 E.01422
;WIDTH:0.453873
G1 X20.383 Y95.06 E.01252
;WIDTH:0.487746
G1 X20.105 Y95.207 E.01163
G1 X19.744 Y94.88 F54000
;WIDTH:0.419999
G1 F1800
G1 X19.419 Y94.92 E.01027
G1 X18.929 Y94.876 E.01543
G1 X18.564 Y94.759 E.01202
G1 X18.227 Y94.577 E.01201
G1 X17.931 Y94.334 E.01201
G1 X17.685 Y94.04 E.01202
G1 X17.456 Y93.587 E.01592
G1 X17.335 Y93.068 E.01671
G1 X17.35 Y92.579 E.01534
G1 X17.451 Y92.191 E.01257
G1 X17.673 Y91.752 E.01542
G1 X17.915 Y91.455 E.01201
G1 X18.209 Y91.21 E.012
G1 X18.544 Y91.023 E.01203
G1 X18.805 Y90.93 E.00869
G1 X19.288 Y90.853 E.01534
G1 X19.688 Y90.879 E.01257
G1 X20.16 Y91.015 E.0154
G1 X20.497 Y91.198 E.01202
G1 X20.794 Y91.44 E.01201
G1 X21.04 Y91.734 E.01202
G1 X21.226 Y92.069 E.01201
G1 X21.346 Y92.433 E.01202
G1 X21.395 Y92.831 E.01257
G1 X21.351 Y93.32 E.01539
G1 X21.234 Y93.686 E.01205
G1 X21.052 Y94.022 E.01198
G1 X20.809 Y94.319 E.01203
G1 X20.515 Y94.564 E.012
G1 X20.18 Y94.751 E.01203
G1 X19.817 Y94.871 E.01199
G1 X19.804 Y94.873 E.00041
G1 X19.368 Y94.539 F54000
;TYPE:External perimeter
G1 F1800
G1 X19.034 Y94.514 E.0105
G1 X18.735 Y94.423 E.0098
G1 X18.458 Y94.279 E.00979
G1 X18.213 Y94.085 E.0098
G1 X18.009 Y93.848 E.0098
G1 X17.811 Y93.46 E.01366
G1 X17.705 Y92.974 E.0156
G1 X17.718 Y92.662 E.00979
G1 X17.792 Y92.352 E.00999
G1 X17.971 Y91.983 E.01286
G1 X18.165 Y91.738 E.0098
G1 X18.401 Y91.534 E.00978
G1 X18.672 Y91.378 E.0098
G1 X18.932 Y91.284 E.00867
G1 X19.276 Y91.23 E.01092
G1 X19.594 Y91.245 E.00998
G1 X19.989 Y91.351 E.01282
G1 X20.266 Y91.496 E.0098
G1 X20.511 Y91.69 E.0098
G1 X20.715 Y91.926 E.00978
G1 X20.871 Y92.197 E.0098
G1 X20.974 Y92.492 E.0098
G1 X21.019 Y92.807 E.00998
G1 X20.989 Y93.215 E.01283
G1 X20.898 Y93.514 E.0098
G1 X20.754 Y93.791 E.00979
G1 X20.56 Y94.036 E.0098
G1 X20.323 Y94.24 E.0098
G1 X20.053 Y94.396 E.00978
G1 X19.758 Y94.499 E.0098
G1 X19.442 Y94.544 E.01001
G1 X19.428 Y94.543 E.00044
G1 X19.03 Y94.501 F54000
G1 E-3.5 F1500
G1 X34.572 Y95.224 F54000
G1 E3.5 F1500
;TYPE:Perimeter
;WIDTH:0.487755
G1 F1800
G1 X34.559 Y95.231 E.00055
;WIDTH:0.530517
G1 X34.473 Y95.275 E.00392
;WIDTH:0.573279
G1 X34.388 Y95.319 E.00422
G1 X33.646 Y95.353 E.03276
;WIDTH:0.5634
G1 X33.457 Y95.337 E.00821
G1 X33.231 Y95.239 E.01066
;WIDTH:0.5156
G1 X33.005 Y95.14 E.0097
;WIDTH:0.4678
G1 X32.779 Y95.042 E.0087
;WIDTH:0.419999
G1 X32.394 Y94.801 E.01424
G1 X31.985 Y94.398 E.018
G1 X31.719 Y93.993 E.01519
G1 X31.506 Y93.401 E.01973
G1 X31.451 Y92.95 E.01425
G1 X31.489 Y92.468 E.01516
G1 X31.654 Y91.918 E.018
G1 X31.875 Y91.521 E.01425
G1 X32.166 Y91.173 E.01422
G1 X32.517 Y90.885 E.01424
;WIDTH:0.453876
G1 X32.841 Y90.714 E.01252
;WIDTH:0.487752
G1 X33.166 Y90.543 E.01358
;WIDTH:0.530516
G1 X33.251 Y90.499 E.00388
;WIDTH:0.57328
G1 X33.337 Y90.455 E.00426
G1 X34.078 Y90.421 E.03271
;WIDTH:0.563398
G1 X34.268 Y90.437 E.00825
G1 X34.494 Y90.536 E.01068
;WIDTH:0.515599
G1 X34.72 Y90.634 E.00968
;WIDTH:0.467799
G1 X34.946 Y90.732 E.0087
;WIDTH:0.419999
G1 X35.33 Y90.974 E.01423
G1 X35.74 Y91.377 E.01803
G1 X36.005 Y91.781 E.01515
G1 X36.219 Y92.374 E.01977
G1 X36.273 Y92.824 E.01421
G1 X36.235 Y93.306 E.01516
G1 X36.071 Y93.856 E.018
G1 X35.85 Y94.253 E.01425
G1 X35.558 Y94.602 E.01427
G1 X35.207 Y94.889 E.01422
;WIDTH:0.453877
G1 X34.883 Y95.06 E.01252
;WIDTH:0.487755
G1 X34.625 Y95.196 E.01079
G1 X34.245 Y94.881 F54000
;WIDTH:0.419999
G1 F1800
G1 X33.937 Y94.921 E.00974
G1 X33.554 Y94.899 E.01203
G1 X33.183 Y94.806 E.01199
G1 X32.836 Y94.645 E.01199
G1 X32.512 Y94.408 E.01259
G1 X32.185 Y94.04 E.01544
G1 X31.999 Y93.705 E.01201
G1 X31.878 Y93.342 E.012
G1 X31.828 Y92.962 E.01202
G1 X31.854 Y92.562 E.01257
G1 X31.99 Y92.089 E.01543
G1 X32.173 Y91.752 E.01202
G1 X32.415 Y91.456 E.01199
G1 X32.709 Y91.21 E.01202
G1 X33.044 Y91.023 E.01203
G1 X33.408 Y90.903 E.01202
G1 X33.788 Y90.853 E.01202
G1 X34.17 Y90.875 E.012
G1 X34.542 Y90.969 E.01203
G1 X34.889 Y91.13 E.01199
G1 X35.213 Y91.366 E.01257
G1 X35.539 Y91.734 E.01541
G1 X35.726 Y92.069 E.01203
G1 X35.846 Y92.433 E.01202
G1 X35.896 Y92.812 E.01199
G1 X35.845 Y93.309 E.01566
G1 X35.699 Y93.755 E.01471
G1 X35.431 Y94.178 E.0157
G1 X35.101 Y94.502 E.0145
G1 X34.68 Y94.751 E.01534
G1 X34.317 Y94.871 E.01199
G1 X34.305 Y94.873 E.00038
G1 X33.869 Y94.541 F54000
;TYPE:External perimeter
G1 F1800
G1 X33.637 Y94.531 E.00728
G1 X33.333 Y94.46 E.00979
G1 X33.047 Y94.333 E.00981
G1 X32.786 Y94.15 E.00999
G1 X32.51 Y93.848 E.01283
G1 X32.353 Y93.578 E.00979
G1 X32.251 Y93.283 E.00979
G1 X32.205 Y92.974 E.0098
G1 X32.22 Y92.655 E.01001
G1 X32.326 Y92.26 E.01282
G1 X32.471 Y91.983 E.0098
G1 X32.665 Y91.738 E.0098
G1 X32.901 Y91.534 E.00978
G1 X33.172 Y91.378 E.0098
G1 X33.467 Y91.276 E.00979
G1 X33.776 Y91.23 E.0098
G1 X34.088 Y91.243 E.00979
G1 X34.392 Y91.315 E.0098
G1 X34.677 Y91.442 E.00978
G1 X34.938 Y91.624 E.00998
G1 X35.215 Y91.926 E.01285
G1 X35.371 Y92.197 E.0098
G1 X35.474 Y92.492 E.0098
