; File Parsed By Flow Comp Script
; Script Ver. V0.7.1
; Flow Model Ver. V0.2.1
; Logger Ver. V0.0.1
; Flow Comp Model Points:
; (0, 0)
; (0.2, 0.4444)
; (0.4, 0.6145)
; (0.6, 0.7059)
; (0.8, 0.7619)
; (1.5, 0.8571)
; (2, 0.8889)
; (3, 0.9231)
; (5, 0.952)
; (10, 1)

; generated by PrusaSlicer 2.9.1 on 2025-03-15 at 21:04:57 UTC

; 

; external perimeters extrusion width = 0.45mm
; perimeters extrusion width = 0.45mm
; infill extrusion width = 0.45mm
; solid infill extrusion width = 0.45mm
; top infill extrusion width = 0.40mm
; first layer extrusion width = 0.42mm

;TYPE:Custom
G90 ; use absolute coordinates
M83 ; extruder relative mode
M104 S210 ; set temporary nozzle temp to prevent oozing during homing
M140 S58 ; set final bed temp
G4 S30 ; allow partial nozzle warmup
G28 ; home all axis
G1 Z50 F240
G1 X2.0 Y10 F3000
M104 S208 ; set final nozzle temp
M190 S58 ; wait for bed temp to stabilize
M109 S208 ; wait for nozzle temp to stabilize
G1 Z0.28 F240
G92 E0
G1 X2.0 Y140 E10 F1500 ; prime the nozzle
G1 X2.3 Y140 F5000
G92 E0
G1 X2.3 Y10 E10 F1200 ; prime the nozzle
G92 E0
G21 ; set units to millimeters
G90 ; use absolute coordinates
M83 ; use relative distances for extrusion
; Filament gcode
M107
;LAYER_CHANGE
;Z:0.2
;HEIGHT:0.2
G1 E-3.5 F1500
G1 Z.2 F54000
G1 X10.456 Y53.555
G1 Z.2
G1 E3.5 F1500
M204 S3500
;TYPE:Skirt/Brim
;WIDTH:0.42
G1 F1800
G1 X27.506 Y53.555 E.53459
G1 X29.755 Y53.952 E.07161
G1 X31.731 Y55.094 E.07156
G1 X33.197 Y56.845 E.0716
G1 X34.072 Y60.12 E.10629
G1 X34.072 Y79.72 E.61454
G1 X33.675 Y81.969 E.07161
G1 X32.532 Y83.945 E.07157
G1 X30.781 Y85.411 E.0716
G1 X27.506 Y86.286 E.10629
G1 X10.456 Y86.286 E.53459
G1 X8.208 Y85.889 E.07158
G1 X6.231 Y84.746 E.0716
G1 X4.766 Y82.995 E.07158
G1 X3.891 Y79.72 E.10629
G1 X3.891 Y60.12 E.61454
G1 X4.288 Y57.872 E.07158
G1 X5.43 Y55.895 E.07159
G1 X7.181 Y54.43 E.07158
G1 X10.398 Y53.57 E.10441
G1 X10.456 Y53.932 F54000
G1 F1800
G1 X27.506 Y53.932 E.53459
G1 X29.686 Y54.328 E.06947
G1 X31.587 Y55.468 E.0695
G1 X32.965 Y57.204 E.06949
G1 X33.695 Y60.12 E.09425
G1 X33.695 Y79.72 E.61454
G1 X33.298 Y81.9 E.06948
G1 X32.159 Y83.801 E.06948
G1 X30.423 Y85.178 E.06948
G1 X27.506 Y85.909 E.09429
G1 X10.456 Y85.909 E.53459
G1 X8.276 Y85.512 E.06948
G1 X6.375 Y84.373 E.06948
G1 X4.998 Y82.637 E.06948
G1 X4.268 Y79.72 E.09428
G1 X4.268 Y60.12 E.61454
G1 X4.664 Y57.94 E.06947
G1 X5.804 Y56.039 E.0695
G1 X7.54 Y54.662 E.06948
G1 X10.398 Y53.946 E.09238
G1 E-3.5 F1500
G1 X17.708 Y61.498 F54000
G1 E3.5 F1500
;TYPE:External perimeter
;WIDTH:0.419999
G1 F1800
G1 X17.796 Y61.411 E.00388
G1 X18.06 Y61.236 E.00993
G1 X18.359 Y61.112 E.01015
G1 X18.768 Y61.038 E.01303
G1 X19.085 Y61.051 E.00995
G1 X19.394 Y61.124 E.00996
G1 X19.688 Y61.256 E.0101
G1 X20.022 Y61.504 E.01304
G1 X20.229 Y61.745 E.00996
G1 X20.388 Y62.019 E.00993
G1 X20.492 Y62.319 E.00996
G1 X20.538 Y62.632 E.00992
G1 X20.51 Y63.015 E.01204
G1 X20.341 Y63.516 E.01658
G1 X20.072 Y63.886 E.01434
G1 X19.832 Y64.093 E.00994
G1 X19.557 Y64.252 E.00996
G1 X19.272 Y64.353 E.00948
G1 X18.944 Y64.402 E.0104
G1 X18.621 Y64.388 E.01014
G1 X18.22 Y64.28 E.01302
G1 X17.939 Y64.133 E.00994
G1 X17.69 Y63.936 E.00996
G1 X17.483 Y63.696 E.00994
G1 X17.325 Y63.421 E.00994
G1 X17.219 Y63.111 E.01027
G1 X17.174 Y62.808 E.0096
G1 X17.187 Y62.491 E.00995
G1 X17.26 Y62.183 E.00992
G1 X17.389 Y61.893 E.00995
G1 X17.57 Y61.633 E.00993
G1 X17.665 Y61.54 E.00417
G1 X17.981 Y61.294 F54000
G1 E-3.5 F1500
G1 X18.751 Y75.541 F54000
G1 E3.5 F1500
G1 F1800
G1 X18.768 Y75.538 E.00054
G1 X19.085 Y75.551 E.00995
G1 X19.394 Y75.624 E.00996
G1 X19.683 Y75.753 E.00992
G1 X19.943 Y75.934 E.00993
G1 X20.165 Y76.16 E.00993
G1 X20.341 Y76.424 E.00995
G1 X20.465 Y76.723 E.01015
G1 X20.538 Y77.132 E.01303
G1 X20.525 Y77.449 E.00995
G1 X20.453 Y77.758 E.00995
G1 X20.324 Y78.047 E.00992
G1 X20.143 Y78.307 E.00993
G1 X19.916 Y78.529 E.00996
;WIDTH:0.454419
G1 X19.716 Y78.651 E.00802
;WIDTH:0.488839
G1 X19.517 Y78.772 E.00864
;WIDTH:0.523259
G1 X19.317 Y78.893 E.00934
;WIDTH:0.53843
G1 X18.989 Y78.959 E.01379
;WIDTH:0.545862
G1 X18.614 Y78.95 E.01569
G1 X18.429 Y78.869 E.00845
;WIDTH:0.503908
G1 X18.245 Y78.787 E.00772
;WIDTH:0.461954
G1 X18.06 Y78.705 E.00705
;WIDTH:0.419999
G1 X17.769 Y78.507 E.01104
G1 X17.547 Y78.28 E.00996
G1 X17.372 Y78.016 E.00993
G1 X17.248 Y77.718 E.01012
G1 X17.177 Y77.35 E.01175
G1 X17.203 Y76.924 E.01338
G1 X17.372 Y76.424 E.01655
G1 X17.57 Y76.133 E.01104
G1 X17.796 Y75.911 E.00993
G1 X18.066 Y75.733 E.01014
G1 X18.454 Y75.584 E.01303
G1 X18.691 Y75.55 E.00751
G1 X19.091 Y75.564 F54000
G1 E-3.5 F1500
G1 X11.797 Y78.379 F54000
G1 E3.5 F1500
;TYPE:Perimeter
G1 F1800
G1 X11.797 Y61.461 E.53045
G1 X16.334 Y61.475 E.14225
G1 X16.145 Y61.97 E.01661
G1 X16.052 Y62.491 E.01659
G1 X16.059 Y63.021 E.01662
G1 X16.165 Y63.539 E.01658
G1 X16.366 Y64.029 E.01661
G1 X16.655 Y64.473 E.01661
G1 X17.023 Y64.854 E.01661
G1 X17.455 Y65.16 E.0166
G1 X17.977 Y65.39 E.01789
G1 X18.627 Y65.524 E.02081
G1 X19.157 Y65.517 E.01662
G1 X19.68 Y65.41 E.01674
G1 X20.165 Y65.21 E.01645
G1 X20.609 Y64.921 E.01661
G1 X21.015 Y64.52 E.01789
G1 X21.379 Y63.966 E.02078
G1 X21.568 Y63.471 E.01661
G1 X21.66 Y62.949 E.01662
G1 X21.653 Y62.42 E.01659
G1 X21.548 Y61.901 E.0166
G1 X21.37 Y61.461 E.01488
G1 X26.165 Y61.461 E.15034
G1 X26.165 Y63.765 E.07224
G1 X26.165 Y78.379 E.45821
G1 X21.416 Y78.379 E.1489
G1 X21.491 Y78.207 E.00588
G1 X21.629 Y77.696 E.0166
G1 X21.669 Y77.167 E.01663
G1 X21.575 Y76.506 E.02093
G1 X21.379 Y75.975 E.01775
G1 X21.101 Y75.524 E.01661
G1 X20.743 Y75.134 E.0166
G1 X20.319 Y74.817 E.0166
G1 X19.746 Y74.548 E.01985
G1 X19.229 Y74.429 E.01663
G1 X18.699 Y74.408 E.01663
G1 X18.196 Y74.483 E.01595
G1 X17.65 Y74.681 E.01821
G1 X17.16 Y74.976 E.01793
G1 X16.77 Y75.333 E.01658
G1 X16.453 Y75.757 E.0166
G1 X16.222 Y76.234 E.01662
G1 X16.083 Y76.745 E.0166
G1 X16.043 Y77.273 E.0166
G1 X16.136 Y77.93 E.02081
G1 X16.296 Y78.379 E.01495
G1 X11.857 Y78.379 E.13918
G1 X11.42 Y78.756 F54000
G1 F1800
G1 X11.42 Y61.084 E.55409
G1 X17.03 Y61.084 E.1759
G1 X16.765 Y61.469 E.01465
G1 X16.568 Y61.883 E.01438
G1 X16.451 Y62.327 E.0144
G1 X16.42 Y62.785 E.01439
G1 X16.474 Y63.229 E.01402
G1 X16.615 Y63.677 E.01473
G1 X16.834 Y64.08 E.01438
G1 X17.125 Y64.435 E.01439
G1 X17.477 Y64.729 E.01438
G1 X17.878 Y64.952 E.01439
G1 X18.434 Y65.118 E.01819
G1 X18.921 Y65.156 E.01532
G1 X19.376 Y65.101 E.01437
G1 X19.813 Y64.961 E.01439
G1 X20.216 Y64.742 E.01438
G1 X20.571 Y64.452 E.01437
G1 X20.93 Y63.996 E.0182
G1 X21.145 Y63.557 E.01533
G1 X21.246 Y63.18 E.01224
G1 X21.292 Y62.656 E.01649
G1 X21.237 Y62.201 E.01437
G1 X21.097 Y61.764 E.01439
G1 X20.878 Y61.361 E.01438
G1 X20.657 Y61.084 E.01111
G1 X26.542 Y61.084 E.18452
G1 X26.542 Y63.765 E.08406
G1 X26.542 Y78.756 E.47003
G1 X20.746 Y78.756 E.18173
G1 X20.947 Y78.471 E.01093
G1 X21.145 Y78.057 E.01439
G1 X21.261 Y77.613 E.01439
G1 X21.292 Y77.156 E.01436
G1 X21.206 Y76.581 E.01823
G1 X21.033 Y76.125 E.01529
G1 X20.789 Y75.736 E.0144
G1 X20.477 Y75.4 E.01438
G1 X20.107 Y75.129 E.01438
G1 X19.693 Y74.932 E.01438
G1 X19.25 Y74.815 E.01437
G1 X18.792 Y74.784 E.01439
G1 X18.279 Y74.851 E.01622
G1 X17.789 Y75.032 E.01638
G1 X17.372 Y75.288 E.01534
G1 X17.037 Y75.6 E.01435
G1 X16.765 Y75.969 E.01437
G1 X16.568 Y76.383 E.01438
G1 X16.467 Y76.759 E.01221
G1 X16.42 Y77.285 E.01656
G1 X16.507 Y77.859 E.0182
G1 X16.68 Y78.316 E.01532
G1 X16.966 Y78.756 E.01645
G1 X11.48 Y78.756 E.17201
G1 X11.043 Y79.133 F54000
G1 F1800
G1 X11.043 Y60.707 E.57773
G1 X18.155 Y60.707 E.22299
G1 X18.659 Y60.689 E.01581
;WIDTH:0.4185
G1 X18.288 Y60.742 E.0117
;WIDTH:0.419999
G1 X17.911 Y60.89 E.0127
G1 X17.584 Y61.099 E.01217
G1 X17.303 Y61.366 E.01215
G1 X17.077 Y61.681 E.01216
G1 X16.914 Y62.033 E.01216
G1 X16.819 Y62.409 E.01216
G1 X16.797 Y62.796 E.01215
G1 X16.846 Y63.17 E.01183
G1 X16.97 Y63.549 E.0125
G1 X17.159 Y63.888 E.01217
G1 X17.407 Y64.185 E.01213
G1 X17.708 Y64.431 E.01219
G1 X18.049 Y64.616 E.01216
G1 X18.528 Y64.753 E.01562
G1 X18.932 Y64.779 E.01269
G1 X19.317 Y64.728 E.01218
G1 X19.685 Y64.607 E.01215
G1 X20.024 Y64.418 E.01217
G1 X20.321 Y64.169 E.01215
G1 X20.625 Y63.774 E.01563
G1 X20.799 Y63.407 E.01273
G1 X20.878 Y63.098 E.01
G1 X20.915 Y62.644 E.01428
G1 X20.864 Y62.26 E.01215
G1 X20.743 Y61.891 E.01218
G1 X20.554 Y61.553 E.01214
G1 X20.305 Y61.255 E.01218
G1 X19.91 Y60.951 E.01563
G1 X19.543 Y60.778 E.01272
;WIDTH:0.419785
G1 X19.165 Y60.695 E.01213
;WIDTH:0.419999
G1 X26.919 Y60.707 E.24312
G1 X26.919 Y63.765 E.09588
G1 X26.919 Y79.133 E.48185
G1 X19.595 Y79.133 E.22964
G1 X19.785 Y79.058 E.0064
G1 X20.128 Y78.841 E.01273
G1 X20.409 Y78.574 E.01215
G1 X20.635 Y78.259 E.01216
G1 X20.799 Y77.907 E.01218
G1 X20.893 Y77.531 E.01215
G1 X20.915 Y77.144 E.01215
G1 X20.835 Y76.652 E.01563
G1 X20.687 Y76.275 E.0127
G1 X20.477 Y75.948 E.01219
G1 X20.21 Y75.667 E.01215
G1 X19.895 Y75.441 E.01216
G1 X19.543 Y75.278 E.01216
G1 X19.167 Y75.183 E.01216
G1 X18.78 Y75.161 E.01215
G1 X18.395 Y75.212 E.01218
G1 X17.927 Y75.383 E.01562
G1 X17.584 Y75.599 E.01271
G1 X17.303 Y75.866 E.01215
G1 X17.077 Y76.181 E.01216
G1 X16.914 Y76.533 E.01216
G1 X16.835 Y76.842 E.01
G1 X16.797 Y77.297 E.01432
G1 X16.877 Y77.788 E.0156
G1 X17.026 Y78.166 E.01274
G1 X17.235 Y78.492 E.01214
G1 X17.502 Y78.773 E.01215
G1 X17.817 Y78.999 E.01216
G1 X18.101 Y79.133 E.00985
G1 X11.103 Y79.133 E.21942
G1 E-3.5 F1500
G1 X18.667 Y60.688 F54000
G1 E3.5 F1500
;WIDTH:0.395878
G1 F1800
G1 X19.165 Y60.695 E.01462
G1 E-3.5 F1500
G1 X27.296 Y60.33 F54000
G1 E3.5 F1500
;TYPE:External perimeter
;WIDTH:0.419999
G1 F1800
G1 X27.296 Y63.765 E.1077
G1 X27.296 Y79.51 E.49367
G1 X19.936 Y79.51 E.23077
;WIDTH:0.466869
G1 X19.727 Y79.487 E.00741
;WIDTH:0.513739
G1 X19.518 Y79.463 E.00824
;WIDTH:0.560609
G1 X19.31 Y79.44 E.00901
G1 X18.559 Y79.447 E.03233
;WIDTH:0.545862
G1 X18.337 Y79.468 E.00933
;WIDTH:0.503908
G1 X18.115 Y79.489 E.00855
;WIDTH:0.461954
G1 X17.894 Y79.51 E.00773
;WIDTH:0.419999
G1 X10.666 Y79.51 E.22663
G1 X10.666 Y60.33 E.60137
G1 X27.236 Y60.33 E.51954
G1 X27.296 Y60.726 F54000
G1 E-3.5 F1500
G1 X26.052 Y62.35 F54000
G1 E3.5 F1500
;TYPE:Solid infill
;WIDTH:0.426345
G1 F1800
G1 X25.446 Y61.744 E0.02114; Old Flow Value: 0.02732   Length: 0.85701
G1 X24.904 Y61.744 E0.01179; Old Flow Value: 0.01728   Length: 0.54200
G1 X25.882 Y62.723 E0.03737; Old Flow Value: 0.04412   Length: 1.38381
G1 X25.882 Y63.265 E0.01179; Old Flow Value: 0.01728   Length: 0.54200
G1 X24.361 Y61.744 E0.06145; Old Flow Value: 0.06858   Length: 2.15102
G1 X23.819 Y61.744 E0.01179; Old Flow Value: 0.01728   Length: 0.54200
G1 X25.882 Y63.807 E0.08569; Old Flow Value: 0.09302   Length: 2.91752
G1 X25.882 Y64.35 E0.01182; Old Flow Value: 0.01731   Length: 0.54300
G1 X23.277 Y61.744 E0.10999; Old Flow Value: 0.11748   Length: 3.68473
G1 X22.735 Y61.744 E0.01179; Old Flow Value: 0.01728   Length: 0.54200
G1 X25.882 Y64.892 E0.13429; Old Flow Value: 0.14191   Length: 4.45124
G1 X25.882 Y65.434 E0.01179; Old Flow Value: 0.01728   Length: 0.54200
G1 X22.192 Y61.744 E0.15875; Old Flow Value: 0.16637   Length: 5.21845
G1 X21.784 Y61.744 E0.00805; Old Flow Value: 0.01301   Length: 0.40800
G1 X21.841 Y61.935 E0.00282; Old Flow Value: 0.00635   Length: 0.19933
G1 X25.882 Y65.976 E0.17475; Old Flow Value: 0.1822   Length: 5.71483
G1 X25.882 Y66.519 E0.01182; Old Flow Value: 0.01731   Length: 0.54300
G1 X21.946 Y62.583 E0.16995; Old Flow Value: 0.17747   Length: 5.56634
G1 X21.925 Y63.103 E0.01116; Old Flow Value: 0.01659   Length: 0.52042
G1 X25.882 Y67.061 E0.17093; Old Flow Value: 0.17844   Length: 5.59675
G1 X25.882 Y67.603 E0.01179; Old Flow Value: 0.01728   Length: 0.54200
G1 X21.836 Y63.557 E0.17498; Old Flow Value: 0.18243   Length: 5.72191
G1 X21.692 Y63.955 E0.00845; Old Flow Value: 0.01349   Length: 0.42325
G1 X25.882 Y68.145 E0.18158; Old Flow Value: 0.18892   Length: 5.92555
G1 X25.882 Y68.688 E0.01182; Old Flow Value: 0.01731   Length: 0.54301
G1 X21.506 Y64.311 E0.19017; Old Flow Value: 0.19733   Length: 6.18931
G1 X21.284 Y64.631 E0.00757; Old Flow Value: 0.01242   Length: 0.38947
G1 X25.882 Y69.23 E0.20045; Old Flow Value: 0.20734   Length: 6.50327
G1 X25.882 Y69.772 E0.01179; Old Flow Value: 0.01728   Length: 0.54200
G1 X21.031 Y64.921 E0.21221; Old Flow Value: 0.21872   Length: 6.86035
G1 X20.741 Y65.173 E0.00743; Old Flow Value: 0.01225   Length: 0.38419
G1 X25.882 Y70.314 E0.22582; Old Flow Value: 0.2318   Length: 7.27048
G1 X25.882 Y70.857 E0.01182; Old Flow Value: 0.01731   Length: 0.54300
G1 X20.416 Y65.391 E0.24117; Old Flow Value: 0.24645   Length: 7.73009
G1 X20.057 Y65.573 E0.00790; Old Flow Value: 0.01283   Length: 0.40250
G1 X25.882 Y71.399 E0.25830; Old Flow Value: 0.26266   Length: 8.23850
G1 X25.882 Y71.941 E0.01179; Old Flow Value: 0.01728   Length: 0.54200
G1 X19.653 Y65.712 E0.27770; Old Flow Value: 0.28085   Length: 8.80914
G1 X19.196 Y65.797 E0.00958; Old Flow Value: 0.01482   Length: 0.46484
G1 X25.882 Y72.483 E0.29992; Old Flow Value: 0.30146   Length: 9.45544
G1 X25.882 Y73.026 E0.01182; Old Flow Value: 0.01731   Length: 0.54300
G1 X18.655 Y65.798 E.32587; Old Flow Value: 0.32587   Length: 10.22123
G1 X18.37 Y65.78 E0.00495; Old Flow Value: 0.0091   Length: 0.28557
G1 X18.001 Y65.687 E0.00733; Old Flow Value: 0.01213   Length: 0.38054
G1 X25.882 Y73.568 E.35534; Old Flow Value: 0.35534   Length: 11.14542
G1 X25.882 Y74.11 E0.01179; Old Flow Value: 0.01728   Length: 0.54200
G1 X13.516 Y61.744 E.55756; Old Flow Value: 0.55756   Length: 17.48816
G1 X14.059 Y61.744 E0.01182; Old Flow Value: 0.01731   Length: 0.54300
G1 X15.893 Y63.579 E0.07546; Old Flow Value: 0.08271   Length: 2.59437
G1 X15.829 Y63.375 E0.00317; Old Flow Value: 0.00682   Length: 0.21380
G1 X15.77 Y62.913 E0.00961; Old Flow Value: 0.01485   Length: 0.46575
G1 X14.601 Y61.744 E0.04578; Old Flow Value: 0.05271   Length: 1.65322
G1 X15.143 Y61.744 E0.01179; Old Flow Value: 0.01728   Length: 0.54200
G1 X15.782 Y62.383 E0.02256; Old Flow Value: 0.02881   Length: 0.90368
G1 X15.865 Y61.924 E0.00963; Old Flow Value: 0.01487   Length: 0.46644
G1 X15.516 Y61.575 E0.01040; Old Flow Value: 0.01574   Length: 0.49356
G1 E-3.5 F1500
G1 X12.686 Y78.266 F54000
G1 E3.5 F1500; Old Flow Value: 3.5   Length: 0.00000
G1 F1800
G1 X12.08 Y77.66 E0.02114; Old Flow Value: 0.02732   Length: 0.85701
G1 X12.08 Y77.118 E0.01179; Old Flow Value: 0.01728   Length: 0.54201
G1 X13.059 Y78.096 E0.03737; Old Flow Value: 0.04412   Length: 1.38381
G1 X13.601 Y78.096 E0.01179; Old Flow Value: 0.01728   Length: 0.54200
G1 X12.08 Y76.575 E0.06145; Old Flow Value: 0.06858   Length: 2.15102
G1 X12.08 Y76.033 E0.01179; Old Flow Value: 0.01728   Length: 0.54200
G1 X14.143 Y78.096 E0.08569; Old Flow Value: 0.09302   Length: 2.91752
G1 X14.685 Y78.096 E0.01179; Old Flow Value: 0.01728   Length: 0.54200
G1 X12.08 Y75.491 E0.10996; Old Flow Value: 0.11745   Length: 3.68403
G1 X12.08 Y74.949 E0.01179; Old Flow Value: 0.01728   Length: 0.54200
G1 X15.228 Y78.096 E0.13429; Old Flow Value: 0.14191   Length: 4.45124
G1 X15.77 Y78.096 E0.01179; Old Flow Value: 0.01728   Length: 0.54200
G1 X12.08 Y74.406 E0.15875; Old Flow Value: 0.16637   Length: 5.21845
G1 X12.08 Y73.864 E0.01179; Old Flow Value: 0.01728   Length: 0.54200
G1 X15.784 Y77.568 E0.15939; Old Flow Value: 0.16701   Length: 5.23825
G1 X15.761 Y77.269 E0.00531; Old Flow Value: 0.00956   Length: 0.29989
G1 X15.769 Y77.01 E0.00429; Old Flow Value: 0.00826   Length: 0.25912
G1 X12.08 Y73.322 E0.15869; Old Flow Value: 0.16631   Length: 5.21633
G1 X12.08 Y72.78 E0.01179; Old Flow Value: 0.01728   Length: 0.54200
G1 X15.84 Y76.539 E0.16191; Old Flow Value: 0.16951   Length: 5.31674
G1 X15.963 Y76.12 E0.00881; Old Flow Value: 0.01392   Length: 0.43668
G1 X12.08 Y72.237 E0.16753; Old Flow Value: 0.17508   Length: 5.49139
G1 X12.08 Y71.695 E0.01179; Old Flow Value: 0.01728   Length: 0.54200
G1 X16.135 Y75.75 E0.17539; Old Flow Value: 0.18283   Length: 5.73464
G1 X16.343 Y75.416 E0.00766; Old Flow Value: 0.01254   Length: 0.39347
