; File Parsed By Flow Comp Script
; Script Ver. V0.7.1
; Flow Model Ver. V0.2.1
; Logger Ver. V0.0.1
; Flow Comp Model Points:
; (0, 0)
; (0.2, 0.4444)
; (0.4, 0.6145)
; (0.6, 0.7059)
; (0.8, 0.7619)
; (1.5, 0.8571)
; (2, 0.8889)
; (3, 0.9231)
; (5, 0.952)
; (10, 1)

; generated by PrusaSlicer 2.9.1 on 2025-04-05 at 10:13:35 UTC

; 

; external perimeters extrusion width = 0.45mm
; perimeters extrusion width = 0.45mm
; infill extrusion width = 0.45mm
; solid infill extrusion width = 0.45mm
; top infill extrusion width = 0.40mm
; support material extrusion width = 0.35mm
; first layer extrusion width = 0.42mm

;TYPE:Custom
G90 ; use absolute coordinates
M83 ; extruder relative mode
CALCULATE_PA BOWDEN_LENGTH=34.4 MATERIAL=PLA LAYER_HEIGHT=0.2 NOZZLE_SIZE=0.4 PRINT_SPEED=120 FILAMENT_DIAMETER=1.75 LINE_WIDTH=0.45 ; auto pressure advance
M104 S210 ; set temporary nozzle temp to prevent oozing during homing
M140 S58 ; set final bed temp
G4 S30 ; allow partial nozzle warmup
G28 ; home all axis
G1 Z50 F240
G1 X2.0 Y10 F3000
M104 S208 ; set final nozzle temp
M190 S58 ; wait for bed temp to stabilize
M109 S208 ; wait for nozzle temp to stabilize
G1 Z0.28 F240
G92 E0
G1 X2.0 Y140 E10 F1500 ; prime the nozzle
G1 X2.3 Y140 F5000
G92 E0
G1 X2.3 Y10 E10 F1200 ; prime the nozzle
G92 E0
G21 ; set units to millimeters
G90 ; use absolute coordinates
M83 ; use relative distances for extrusion
; Filament gcode
M107
;LAYER_CHANGE
;Z:0.2
;HEIGHT:0.2
G1 E-3.5 F1500
G1 Z.2 F54000
G1 X17.081 Y48.01
G1 Z.2
G1 E3.5 F1500
M204 S3500
;TYPE:Skirt/Brim
;WIDTH:0.42
G1 F1800
G1 X19.997 Y47.279 E.09426
G1 X45.997 Y47.279 E.81521
G1 X48.177 Y47.676 E.06948
G1 X50.078 Y48.815 E.06948
G1 X51.455 Y50.551 E.06948
G1 X52.186 Y53.468 E.09429
G1 X52.186 Y77.468 E.7525
G1 X51.789 Y79.648 E.06948
G1 X50.649 Y81.549 E.0695
G1 X48.913 Y82.926 E.06948
G1 X45.997 Y83.656 E.09425
G1 X19.997 Y83.656 E.81521
G1 X17.817 Y83.26 E.06947
G1 X15.916 Y82.12 E.0695
G1 X14.539 Y80.384 E.06948
G1 X13.808 Y77.468 E.09426
G1 X13.808 Y53.468 E.7525
G1 X14.205 Y51.288 E.06948
G1 X15.345 Y49.387 E.0695
G1 X17.034 Y48.047 E.0676
G1 E-3.5 F1500
G1 X34.389 Y68.238 F54000
G1 E3.5 F1500
;TYPE:Perimeter
;WIDTH:0.419999
G1 F1800
G1 X33.926 Y68.345 E.0149
G1 X33.573 Y68.345 E.01107
G1 X33.001 Y68.215 E.01839
G1 X32.546 Y67.927 E.01688
G1 X32.289 Y67.716 E.01043
G1 X31.994 Y67.273 E.01669
G1 X31.864 Y66.944 E.01109
G1 X31.775 Y66.388 E.01765
G1 X31.864 Y65.831 E.01769
G1 X31.994 Y65.503 E.01106
G1 X32.201 Y65.177 E.01211
G1 X32.443 Y64.919 E.01109
G1 X32.756 Y64.692 E.01212
G1 X33.103 Y64.535 E.01194
G1 X33.583 Y64.428 E.01542
G1 X33.921 Y64.43 E.0106
G1 X34.304 Y64.502 E.01222
G1 X34.634 Y64.633 E.01113
G1 X34.961 Y64.84 E.01213
G1 X35.236 Y65.106 E.012
G1 X35.488 Y65.478 E.01409
G1 X35.635 Y65.831 E.01199
G1 X35.724 Y66.405 E.01821
G1 X35.641 Y66.909 E.01602
G1 X35.514 Y67.257 E.01162
G1 X35.211 Y67.704 E.01693
G1 X34.961 Y67.936 E.01069
G1 X34.507 Y68.211 E.01664
G1 X34.448 Y68.224 E.00189
G1 X34.08 Y67.925 F54000
G1 F1800
G1 X33.689 Y67.982 E.01239
G1 X33.148 Y67.867 E.01734
G1 X32.68 Y67.562 E.01751
G1 X32.52 Y67.397 E.00721
G1 X32.268 Y66.983 E.0152
G1 X32.162 Y66.494 E.01569
G1 X32.162 Y66.282 E.00665
G1 X32.268 Y65.792 E.01572
G1 X32.52 Y65.379 E.01517
G1 X32.665 Y65.224 E.00665
G1 X32.978 Y64.997 E.01212
G1 X33.186 Y64.903 E.00716
G1 X33.648 Y64.799 E.01485
G1 X33.851 Y64.801 E.00637
G1 X34.234 Y64.873 E.01222
G1 X34.432 Y64.951 E.00667
G1 X34.759 Y65.158 E.01213
G1 X34.924 Y65.318 E.00721
G1 X35.177 Y65.69 E.01411
G1 X35.264 Y65.902 E.00719
G1 X35.347 Y66.398 E.01577
G1 X35.258 Y66.902 E.01605
G1 X35.177 Y67.085 E.00627
G1 X34.875 Y67.519 E.01658
G1 X34.432 Y67.825 E.01688
G1 X34.235 Y67.903 E.00664
G1 X34.139 Y67.916 E.00304
G1 X33.744 Y67.6 F54000
;TYPE:External perimeter
G1 F1800
G1 X33.714 Y67.605 E.00095
G1 X33.264 Y67.503 E.01447
G1 X32.844 Y67.203 E.01618
G1 X32.605 Y66.803 E.01461
G1 X32.533 Y66.352 E.01432
G1 X32.631 Y65.907 E.01429
G1 X32.887 Y65.529 E.01431
G1 X33.269 Y65.27 E.01447
G1 X33.713 Y65.171 E.01426
G1 X34.23 Y65.269 E.0165
G1 X34.612 Y65.53 E.01451
G1 X34.894 Y65.973 E.01647
G1 X34.966 Y66.423 E.01429
G1 X34.865 Y66.873 E.01446
G1 X34.573 Y67.287 E.01588
G1 X34.165 Y67.532 E.01492
G1 X33.803 Y67.59 E.01149
G1 X33.407 Y67.531 F54000
G1 E-3.5 F1500
G1 X27.766 Y68.239 F54000
G1 E3.5 F1500
;TYPE:Perimeter
G1 F1800
G1 X27.301 Y68.345 E.01495
G1 X26.948 Y68.345 E.01107
G1 X26.401 Y68.225 E.01756
G1 X25.909 Y67.932 E.01795
G1 X25.635 Y67.666 E.01197
G1 X25.296 Y67.131 E.01986
G1 X25.167 Y66.564 E.01823
G1 X25.167 Y66.211 E.01107
G1 X25.239 Y65.831 E.01213
G1 X25.369 Y65.503 E.01106
G1 X25.577 Y65.177 E.01212
G1 X25.818 Y64.919 E.01107
G1 X26.131 Y64.692 E.01212
G1 X26.478 Y64.535 E.01194
G1 X27.121 Y64.414 E.02051
G1 X27.679 Y64.502 E.01771
G1 X28.009 Y64.633 E.01113
G1 X28.336 Y64.84 E.01213
G1 X28.61 Y65.106 E.01197
G1 X28.955 Y65.648 E.02014
G1 X29.082 Y66.211 E.0181
G1 X29.082 Y66.565 E.0111
G1 X28.955 Y67.127 E.01807
G1 X28.61 Y67.67 E.02017
G1 X28.336 Y67.936 E.01197
G1 X27.873 Y68.215 E.01695
G1 X27.824 Y68.226 E.00157
G1 X27.448 Y67.929 F54000
G1 F1800
G1 X27.167 Y67.983 E.00897
G1 X26.639 Y67.903 E.01674
G1 X26.403 Y67.8 E.00807
G1 X25.983 Y67.501 E.01616
G1 X25.697 Y67.085 E.01583
G1 X25.61 Y66.874 E.00716
G1 X25.527 Y66.388 E.01546
G1 X25.61 Y65.902 E.01546
G1 X25.688 Y65.705 E.00664
G1 X25.895 Y65.379 E.01211
G1 X26.04 Y65.224 E.00665
G1 X26.353 Y64.997 E.01212
G1 X26.561 Y64.903 E.00716
G1 X27.121 Y64.791 E.01791
G1 X27.609 Y64.873 E.01552
G1 X27.807 Y64.951 E.00667
G1 X28.134 Y65.158 E.01213
G1 X28.298 Y65.318 E.00718
G1 X28.606 Y65.792 E.01772
G1 X28.712 Y66.282 E.01572
G1 X28.712 Y66.494 E.00665
G1 X28.606 Y66.984 E.01572
G1 X28.298 Y67.458 E.01772
G1 X28.131 Y67.619 E.00727
G1 X27.677 Y67.886 E.01651
G1 X27.507 Y67.918 E.00542
G1 X27.119 Y67.6 F54000
;TYPE:External perimeter
G1 F1800
G1 X27.089 Y67.605 E.00095
G1 X26.643 Y67.506 E.01432
G1 X26.26 Y67.243 E.01457
G1 X25.98 Y66.803 E.01635
G1 X25.908 Y66.352 E.01432
G1 X26.006 Y65.907 E.01429
G1 X26.262 Y65.529 E.01431
G1 X26.644 Y65.27 E.01447
G1 X27.156 Y65.171 E.01635
G1 X27.605 Y65.269 E.01441
G1 X27.932 Y65.477 E.01215
G1 X28.239 Y65.902 E.01644
G1 X28.344 Y66.404 E.01608
G1 X28.239 Y66.874 E.0151
G1 X27.945 Y67.29 E.01597
G1 X27.54 Y67.532 E.01479
G1 X27.178 Y67.59 E.01149
G1 X26.782 Y67.533 F54000
G1 E-3.5 F1500
G1 X27.179 Y58.961 F54000
G1 E3.5 F1500
;TYPE:Perimeter
G1 F1800
G1 X26.854 Y59.001 E.01027
G1 X26.364 Y58.957 E.01543
G1 X25.998 Y58.84 E.01205
G1 X25.662 Y58.657 E.012
G1 X25.365 Y58.415 E.01201
G1 X25.12 Y58.121 E.012
G1 X24.933 Y57.786 E.01203
G1 X24.813 Y57.422 E.01202
G1 X24.763 Y57.042 E.01202
G1 X24.788 Y56.647 E.01241
G1 X24.886 Y56.272 E.01215
G1 X25.107 Y55.833 E.01541
G1 X25.35 Y55.536 E.01203
G1 X25.644 Y55.29 E.01202
G1 X25.979 Y55.104 E.01201
G1 X26.343 Y54.984 E.01202
G1 X26.722 Y54.934 E.01199
G1 X27.122 Y54.96 E.01257
G1 X27.595 Y55.095 E.01542
G1 X27.932 Y55.278 E.01202
G1 X28.229 Y55.521 E.01203
G1 X28.474 Y55.815 E.012
G1 X28.661 Y56.15 E.01203
G1 X28.781 Y56.513 E.01199
G1 X28.831 Y56.893 E.01202
G1 X28.805 Y57.293 E.01257
G1 X28.713 Y57.65 E.01156
G1 X28.486 Y58.103 E.01589
G1 X28.244 Y58.399 E.01199
G1 X27.95 Y58.645 E.01202
G1 X27.615 Y58.832 E.01203
G1 X27.251 Y58.952 E.01202
G1 X27.239 Y58.953 E.00038
G1 X26.803 Y58.619 F54000
;TYPE:External perimeter
G1 F1800
G1 X26.469 Y58.594 E.0105
G1 X26.17 Y58.504 E.00979
G1 X25.893 Y58.359 E.0098
G1 X25.648 Y58.165 E.0098
G1 X25.444 Y57.929 E.00978
G1 X25.288 Y57.658 E.0098
G1 X25.185 Y57.363 E.0098
G1 X25.14 Y57.054 E.00979
G1 X25.156 Y56.729 E.0102
G1 X25.227 Y56.432 E.00957
G1 X25.405 Y56.064 E.01282
G1 X25.6 Y55.819 E.00982
G1 X25.836 Y55.615 E.00978
G1 X26.107 Y55.459 E.0098
G1 X26.402 Y55.356 E.0098
G1 X26.71 Y55.311 E.00976
G1 X27.029 Y55.325 E.01001
G1 X27.424 Y55.431 E.01282
G1 X27.701 Y55.576 E.0098
G1 X27.946 Y55.77 E.0098
G1 X28.15 Y56.007 E.0098
G1 X28.306 Y56.277 E.00978
G1 X28.409 Y56.572 E.0098
G1 X28.454 Y56.881 E.00979
G1 X28.44 Y57.199 E.00998
G1 X28.348 Y57.556 E.01156
G1 X28.188 Y57.872 E.01111
G1 X27.994 Y58.117 E.0098
G1 X27.758 Y58.321 E.00978
G1 X27.487 Y58.477 E.0098
G1 X27.192 Y58.579 E.00979
G1 X26.877 Y58.625 E.00998
G1 X26.863 Y58.624 E.00044
G1 X26.465 Y58.582 F54000
G1 E-3.5 F1500
G1 X41.664 Y58.958 F54000
G1 E3.5 F1500
;TYPE:Perimeter
G1 F1800
G1 X41.601 Y58.976 E.00205
G1 X41.095 Y58.993 E.01587
G1 X40.618 Y58.886 E.01533
G1 X40.27 Y58.725 E.01202
G1 X39.946 Y58.489 E.01257
G1 X39.62 Y58.121 E.01541
G1 X39.433 Y57.786 E.01203
G1 X39.313 Y57.422 E.01202
G1 X39.263 Y57.043 E.01199
G1 X39.289 Y56.642 E.0126
G1 X39.425 Y56.17 E.0154
G1 X39.608 Y55.833 E.01202
G1 X39.85 Y55.536 E.01201
G1 X40.144 Y55.29 E.01202
G1 X40.479 Y55.104 E.01201
G1 X40.843 Y54.984 E.01202
G1 X41.222 Y54.934 E.01199
G1 X41.605 Y54.956 E.01203
G1 X41.976 Y55.049 E.01199
G1 X42.324 Y55.21 E.01202
G1 X42.648 Y55.447 E.01259
G1 X42.974 Y55.815 E.01541
G1 X43.161 Y56.15 E.01203
G1 X43.281 Y56.513 E.01199
G1 X43.331 Y56.893 E.01202
G1 X43.305 Y57.293 E.01257
G1 X43.169 Y57.766 E.01543
G1 X42.986 Y58.103 E.01202
G1 X42.744 Y58.399 E.01199
G1 X42.45 Y58.645 E.01202
G1 X42.115 Y58.832 E.01203
G1 X41.721 Y58.942 E.01283
G1 X41.304 Y58.622 F54000
;TYPE:External perimeter
G1 F1800
G1 X41.299 Y58.622 E.00016
G1 X40.801 Y58.551 E.01577
G1 X40.482 Y58.413 E.0109
G1 X40.221 Y58.231 E.00998
G1 X39.944 Y57.929 E.01285
G1 X39.788 Y57.658 E.0098
G1 X39.685 Y57.363 E.0098
G1 X39.64 Y57.054 E.00979
G1 X39.654 Y56.736 E.00998
G1 X39.761 Y56.341 E.01283
G1 X39.906 Y56.064 E.0098
G1 X40.1 Y55.819 E.0098
G1 X40.336 Y55.615 E.00978
G1 X40.607 Y55.459 E.0098
G1 X40.902 Y55.356 E.0098
G1 X41.211 Y55.311 E.00979
G1 X41.523 Y55.324 E.00979
G1 X41.827 Y55.395 E.00979
G1 X42.112 Y55.522 E.00978
G1 X42.373 Y55.705 E.00999
G1 X42.65 Y56.007 E.01285
G1 X42.806 Y56.277 E.00978
G1 X42.908 Y56.572 E.00979
G1 X42.954 Y56.881 E.0098
G1 X42.94 Y57.199 E.00998
G1 X42.833 Y57.595 E.01286
G1 X42.688 Y57.872 E.0098
G1 X42.494 Y58.117 E.0098
G1 X42.095 Y58.417 E.01565
G1 X41.692 Y58.579 E.01362
G1 X41.363 Y58.615 E.01038
G1 X40.965 Y58.573 F54000
G1 E-3.5 F1500
G1 X42.008 Y75.789 F54000
G1 E3.5 F1500
;TYPE:Perimeter
;WIDTH:0.513917
G1 F1800
G1 X41.849 Y75.864 E.00688
;WIDTH:0.558117
G1 X41.668 Y75.921 E.00813
G1 X41.202 Y75.94 E.01998
G1 X40.926 Y75.921 E.01185
G1 X40.718 Y75.834 E.00966
;WIDTH:0.512079
G1 X40.509 Y75.748 E.00882
;WIDTH:0.466039
G1 X40.301 Y75.662 E.00792
;WIDTH:0.419999
G1 X39.809 Y75.366 E.018
G1 X39.479 Y75.053 E.01426
G1 X39.215 Y74.684 E.01423
G1 X39.023 Y74.272 E.01425
G1 X38.913 Y73.832 E.01422
G1 X38.887 Y73.379 E.01423
G1 X38.946 Y72.929 E.01423
G1 X39.089 Y72.498 E.01424
G1 X39.31 Y72.102 E.01422
G1 X39.601 Y71.753 E.01425
G1 X39.952 Y71.466 E.01422
G1 X40.351 Y71.249 E.01424
G1 X40.812 Y71.107 E.01512
G1 X41.319 Y71.054 E.01598
G1 X41.836 Y71.117 E.01633
G1 X42.267 Y71.26 E.01424
G1 X42.513 Y71.385 E.00865
G1 X43.012 Y71.772 E.0198
G1 X43.315 Y72.151 E.01521
G1 X43.57 Y72.663 E.01793
G1 X43.681 Y73.103 E.01423
G1 X43.707 Y73.557 E.01426
G1 X43.647 Y74.007 E.01423
G1 X43.49 Y74.467 E.01524
G1 X43.239 Y74.902 E.01575
G1 X42.882 Y75.285 E.01642
G1 X42.513 Y75.55 E.01424
;WIDTH:0.466958
G1 X42.181 Y75.707 E.01295
;WIDTH:0.513917
G1 X42.062 Y75.763 E.00515
G1 X41.674 Y75.464 F54000
;WIDTH:0.419999
G1 F1800
G1 X41.626 Y75.476 E.00155
G1 X41.244 Y75.502 E.01201
G1 X40.864 Y75.456 E.012
G1 X40.482 Y75.332 E.01259
G1 X40.058 Y75.083 E.01542
G1 X39.777 Y74.822 E.01202
G1 X39.551 Y74.513 E.012
G1 X39.386 Y74.167 E.01202
G1 X39.288 Y73.797 E.012
G1 X39.262 Y73.414 E.01204
G1 X39.308 Y73.034 E.012
G1 X39.425 Y72.669 E.01202
G1 X39.608 Y72.333 E.012
G1 X39.85 Y72.036 E.01201
G1 X40.144 Y71.79 E.01202
G1 X40.479 Y71.604 E.01201
G1 X40.86 Y71.481 E.01255
G1 X41.347 Y71.433 E.01534
G1 X41.73 Y71.479 E.01209
G1 X42.096 Y71.596 E.01205
G1 X42.342 Y71.721 E.00865
G1 X42.729 Y72.021 E.01535
G1 X42.985 Y72.333 E.01265
G1 X43.208 Y72.768 E.01533
G1 X43.306 Y73.139 E.01203
G1 X43.332 Y73.521 E.01201
G1 X43.285 Y73.902 E.01204
G1 X43.16 Y74.285 E.01263
G1 X42.912 Y74.707 E.01535
G1 X42.651 Y74.987 E.012
G1 X42.342 Y75.214 E.01202
G1 X41.996 Y75.379 E.01202
G1 X41.732 Y75.449 E.00856
G1 X41.304 Y75.125 F54000
;TYPE:External perimeter
G1 F1800
G1 X41.279 Y75.127 E.00079
G1 X40.969 Y75.094 E.00977
G1 X40.664 Y75.001 E.01
G1 X40.308 Y74.8 E.01282
G1 X40.075 Y74.591 E.00981
G1 X39.887 Y74.342 E.00978
G1 X39.748 Y74.062 E.0098
G1 X39.664 Y73.761 E.0098
G1 X39.638 Y73.45 E.00979
G1 X39.67 Y73.139 E.0098
G1 X39.761 Y72.84 E.0098
G1 X39.906 Y72.564 E.00978
G1 X40.234 Y72.2 E.01536
G1 X40.607 Y71.959 E.01392
G1 X40.908 Y71.855 E.00999
G1 X41.312 Y71.809 E.01275
G1 X41.625 Y71.841 E.00987
G1 X41.924 Y71.932 E.0098
G1 X42.171 Y72.057 E.00868
G1 X42.446 Y72.271 E.01093
G1 X42.654 Y72.514 E.01003
G1 X42.846 Y72.873 E.01276
G1 X42.93 Y73.174 E.0098
G1 X42.956 Y73.486 E.00982
G1 X42.923 Y73.796 E.00977
G1 X42.829 Y74.103 E.01007
G1 X42.629 Y74.457 E.01275
G1 X42.42 Y74.689 E.00979
G1 X42.171 Y74.878 E.0098
G1 X41.891 Y75.017 E.0098
G1 X41.59 Y75.101 E.0098
G1 X41.363 Y75.12 E.00714
G1 X40.965 Y75.081 F54000
G1 E-3.5 F1500
G1 X27.517 Y75.776 F54000
G1 E3.5 F1500
;TYPE:Perimeter
;WIDTH:0.466038
G1 F1800
G1 X27.457 Y75.801 E.00229
;WIDTH:0.512076
G1 X27.313 Y75.861 E.00609
;WIDTH:0.558114
G1 X27.168 Y75.921 E.00672
G1 X26.702 Y75.94 E.01998
G1 X26.426 Y75.921 E.01185
G1 X26.218 Y75.834 E.00966
;WIDTH:0.512079
G1 X26.01 Y75.748 E.00878
;WIDTH:0.466039
G1 X25.801 Y75.662 E.00795
;WIDTH:0.419999
G1 X25.311 Y75.368 E.01792
G1 X24.979 Y75.053 E.01435
G1 X24.715 Y74.684 E.01423
G1 X24.589 Y74.438 E.00867
G1 X24.423 Y73.906 E.01747
G1 X24.387 Y73.379 E.01656
G1 X24.446 Y72.929 E.01423
G1 X24.589 Y72.498 E.01424
G1 X24.81 Y72.102 E.01422
G1 X25.101 Y71.753 E.01425
G1 X25.452 Y71.466 E.01422
G1 X25.893 Y71.234 E.01562
G1 X26.313 Y71.107 E.01376
G1 X26.882 Y71.058 E.01791
G1 X27.336 Y71.117 E.01435
G1 X27.767 Y71.26 E.01424
G1 X28.166 Y71.483 E.01433
G1 X28.533 Y71.796 E.01512
G1 X28.851 Y72.2 E.01612
G1 X29.07 Y72.663 E.01606
G1 X29.181 Y73.103 E.01423
G1 X29.207 Y73.557 E.01426
G1 X29.148 Y74.007 E.01423
G1 X29.005 Y74.438 E.01424
G1 X28.784 Y74.834 E.01422
G1 X28.493 Y75.182 E.01422
G1 X28.116 Y75.485 E.01517
G1 X27.602 Y75.741 E.018
;WIDTH:0.466038
G1 X27.573 Y75.753 E.0011
G1 X27.174 Y75.464 F54000
;WIDTH:0.419999
G1 F1800
G1 X27.126 Y75.476 E.00155
G1 X26.744 Y75.502 E.01201
G1 X26.364 Y75.456 E.012
G1 X25.983 Y75.332 E.01256
G1 X25.561 Y75.085 E.01533
G1 X25.277 Y74.822 E.01214
G1 X25.051 Y74.513 E.012
G1 X24.925 Y74.266 E.00869
G1 X24.788 Y73.797 E.01532
G1 X24.762 Y73.415 E.01201
G1 X24.808 Y73.034 E.01203
G1 X24.925 Y72.669 E.01202
G1 X25.108 Y72.333 E.012
G1 X25.35 Y72.036 E.01201
G1 X25.644 Y71.79 E.01202
G1 X26.021 Y71.589 E.0134
G1 X26.36 Y71.481 E.01116
G1 X26.847 Y71.433 E.01534
G1 X27.23 Y71.479 E.01209
G1 X27.595 Y71.596 E.01202
G1 X27.935 Y71.781 E.01214
G1 X28.242 Y72.037 E.01253
G1 X28.543 Y72.422 E.01532
G1 X28.739 Y72.875 E.01548
G1 X28.832 Y73.415 E.01718
G1 X28.786 Y73.901 E.01531
G1 X28.669 Y74.266 E.01202
G1 X28.486 Y74.603 E.01202
G1 X28.244 Y74.899 E.01199
G1 X27.934 Y75.154 E.01259
G1 X27.497 Y75.379 E.01541
G1 X27.232 Y75.449 E.00859
G1 X26.804 Y75.125 F54000
;TYPE:External perimeter
G1 F1800
G1 X26.779 Y75.127 E.00079
G1 X26.469 Y75.094 E.00977
G1 X26.164 Y75.001 E.01
G1 X25.81 Y74.801 E.01275
G1 X25.575 Y74.591 E.00988
G1 X25.387 Y74.342 E.00978
G1 X25.261 Y74.095 E.00869
G1 X25.164 Y73.761 E.01091
G1 X25.138 Y73.45 E.00979
G1 X25.17 Y73.139 E.0098
G1 X25.261 Y72.84 E.0098
G1 X25.406 Y72.564 E.00978
G1 X25.6 Y72.319 E.0098
G1 X25.836 Y72.115 E.00978
G1 X26.149 Y71.944 E.01118
G1 X26.576 Y71.834 E.01383
G1 X26.812 Y71.809 E.00744
G1 X27.334 Y71.902 E.01662
G1 X27.704 Y72.078 E.01285
G1 X27.952 Y72.277 E.00997
G1 X28.207 Y72.593 E.01273
G1 X28.377 Y72.98 E.01325
G1 X28.456 Y73.45 E.01494
G1 X28.424 Y73.796 E.01089
G1 X28.333 Y74.095 E.0098
G1 X28.188 Y74.372 E.0098
G1 X27.994 Y74.617 E.0098
G1 X27.753 Y74.824 E.00996
