; File Parsed By Flow Comp Script
; Script Ver. V0.7.1
; Flow Model Ver. V0.2.1
; Logger Ver. V0.0.1
; Flow Comp Model Points:
; (0, 0)
; (0.2, 0.4444)
; (0.4, 0.6145)
; (0.6, 0.7059)
; (0.8, 0.7619)
; (1.5, 0.8571)
; (2, 0.8889)
; (3, 0.9231)
; (5, 0.952)
; (10, 1)

; generated by PrusaSlicer 2.9.1 on 2025-04-05 at 14:36:24 UTC

; 

; external perimeters extrusion width = 0.45mm
; perimeters extrusion width = 0.45mm
; infill extrusion width = 0.45mm
; solid infill extrusion width = 0.45mm
; top infill extrusion width = 0.40mm
; support material extrusion width = 0.35mm
; first layer extrusion width = 0.42mm

;TYPE:Custom
G90 ; use absolute coordinates
M83 ; extruder relative mode
CALCULATE_PA BOWDEN_LENGTH=34.3 MATERIAL=PLA LAYER_HEIGHT=0.2 NOZZLE_SIZE=0.4 PRINT_SPEED=120 FILAMENT_DIAMETER=1.75 LINE_WIDTH=0.45 ; auto pressure advance
M104 S210 ; set temporary nozzle temp to prevent oozing during homing
M140 S58 ; set final bed temp
G4 S30 ; allow partial nozzle warmup
G28 ; home all axis
G1 Z50 F240
G1 X2.0 Y10 F3000
M104 S208 ; set final nozzle temp
M190 S58 ; wait for bed temp to stabilize
M109 S208 ; wait for nozzle temp to stabilize
G1 Z0.28 F240
G92 E0
G1 X2.0 Y140 E10 F1500 ; prime the nozzle
G1 X2.3 Y140 F5000
G92 E0
G1 X2.3 Y10 E10 F1200 ; prime the nozzle
G92 E0
G21 ; set units to millimeters
G90 ; use absolute coordinates
M83 ; use relative distances for extrusion
; Filament gcode
M107
;LAYER_CHANGE
;Z:0.2
;HEIGHT:0.2
G1 E-3.5 F1500
G1 Z.2 F54000
G1 X34.287 Y107.092
G1 Z.2
G1 E3.5 F1500
M204 S3500
;TYPE:Skirt/Brim
;WIDTH:0.42
G1 F1800
G1 X36.268 Y106.751 E.06303
G1 X77.203 Y106.352 E1.28355
G1 X78.814 Y106.555 E.05091
G1 X80.477 Y107.038 E.0543
G1 X81.947 Y107.73 E.05094
G1 X83.595 Y108.882 E.06304
G1 X84.996 Y110.321 E.06297
G1 X85.97 Y111.754 E.05433
G1 X86.792 Y113.584 E.0629
G1 X87.198 Y115.162 E.05109
G1 X87.359 Y116.748 E.04998
G1 X87.945 Y143.289 E.83238
G1 X87.946 Y151.985 E.27266
G1 X87.55 Y154.165 E.06947
G1 X86.057 Y156.437 E.08524
G1 X83.293 Y159.106 E.12047
G1 X81.449 Y160.335 E.06948
G1 X78.994 Y160.843 E.07861
G1 X73.774 Y160.843 E.16367
G1 X31.312 Y158.161 E1.33402
G1 X29.161 Y157.627 E.06949
G1 X27.337 Y156.37 E.06946
G1 X26.072 Y154.55 E.0695
G1 X25.515 Y151.985 E.0823
G1 X25.52 Y140.386 E.36368
G1 X26.399 Y117.033 E.73274
G1 X26.609 Y115.274 E.05554
G1 X27.195 Y113.348 E.06312
G1 X28.13 Y111.568 E.06304
G1 X29.383 Y109.994 E.06308
G1 X30.685 Y108.846 E.05443
G1 X32.403 Y107.799 E.06308
G1 X34.23 Y107.113 E.06119
G1 E-3.5 F1500
G1 X73.403 Y133.834 F54000
G1 E3.5 F1500
;TYPE:Support material
G1 F1800
G1 X75.151 Y135.582 E.07751
G1 X73.937 Y136.795 E.05381
G1 X73.937 Y134.641 E.06754
G1 X70.791 Y134.641 E.09864
G1 X70.791 Y132.061 E.08089
G1 X73.403 Y132.061 E.0819
G1 X73.403 Y133.777 E.0538
G1 X74.328 Y136.164 F54000
G1 F1800
G1 X74.328 Y134.999 E.03653
G1 X73.071 Y134.471 F54000
G1 F1800
G1 X73.063 Y132.4 E.06494
G1 X72.652 Y132.4 E.01289
G1 X72.652 Y134.302 E.05964
G1 X72.233 Y134.302 E.01314
G1 X72.233 Y132.4 E.05964
G1 X71.814 Y132.4 E.01314
G1 X71.814 Y134.302 E.05964
G1 X71.395 Y134.302 E.01314
G1 X71.395 Y132.231 E.06493
G1 E-3.5 F1500
G1 X68.246 Y137.95 F54000
G1 E3.5 F1500
;TYPE:Support material interface
;WIDTH:0.35
G1 F1800
G1 X68.246 Y137.729 E.00564
G1 X68.861 Y137.812 E.01585
G1 X68.861 Y137.729 E.00212
G1 X69.168 Y137.729 E.00784
G1 X69.168 Y137.812 E.00212
G1 X69.475 Y137.812 E.00784
G1 X69.475 Y137.729 E.00212
G1 X69.782 Y137.729 E.00784
G1 X69.782 Y137.812 E.00212
G1 X70.089 Y137.812 E.00784
G1 X70.089 Y137.729 E.00212
G1 X70.396 Y137.729 E.00784
G1 X70.396 Y137.95 E.00564
G1 E-3.5 F1500
G1 X71.01 Y135.365 F54000
G1 E3.5 F1500
G1 F1800
G1 X71.01 Y135.005 E.00919
G1 X71.317 Y135.005 E.00784
G1 X71.317 Y135.477 E.01205
G1 X71.624 Y135.784 E.01109
G1 X71.624 Y135.005 E.01989
G1 X71.931 Y135.005 E.00784
G1 X71.931 Y136.091 E.02773
G1 X72.238 Y136.398 E.01109
G1 X72.238 Y135.005 E.03557
G1 X72.546 Y135.005 E.00786
G1 X72.546 Y136.705 E.04341
G1 X72.853 Y137.012 E.01109
G1 X72.853 Y135.005 E.05125
G1 X73.16 Y135.005 E.00784
G1 X73.16 Y140.619 E.14335
G1 X72.853 Y140.619 E.00784
G1 X72.853 Y137.729 E.07379
G1 X72.546 Y137.729 E.00784
G1 X72.546 Y140.619 E.07379
G1 X72.238 Y140.619 E.00786
G1 X72.238 Y137.729 E.07379
G1 X71.931 Y137.729 E.00784
G1 X71.931 Y140.619 E.07379
G1 X71.624 Y140.619 E.00784
G1 X71.624 Y137.729 E.07379
G1 X71.317 Y137.729 E.00784
G1 X71.317 Y140.619 E.07379
G1 X71.01 Y140.619 E.00784
G1 X71.01 Y137.729 E.07379
G1 X70.703 Y137.729 E.00784
G1 X70.703 Y149.04 E.28881
G1 X70.766 Y149.04 E.00161
G1 X70.766 Y151.847 E.07167
G1 X71.01 Y151.847 E.00623
G1 X71.01 Y143.426 E.21502
G1 X71.317 Y143.426 E.00784
G1 X71.317 Y151.847 E.21502
G1 X71.624 Y151.847 E.00784
G1 X71.624 Y143.426 E.21502
G1 X71.931 Y143.426 E.00784
G1 X71.931 Y151.847 E.21502
G1 X72.238 Y151.847 E.00784
G1 X72.238 Y143.426 E.21502
G1 X72.546 Y143.426 E.00786
G1 X72.546 Y151.847 E.21502
G1 X72.853 Y151.847 E.00784
G1 X72.853 Y143.426 E.21502
G1 X73.16 Y143.426 E.00784
G1 X73.16 Y151.847 E.21502
G1 X73.467 Y151.847 E.00784
G1 X73.467 Y135.005 E.43004
G1 X73.574 Y135.005 E.00273
G1 X73.574 Y137.812 E.07167
G1 X73.774 Y137.812 E.00511
G1 X73.774 Y154.654 E.43004
G1 X74.081 Y154.654 E.00784
G1 X74.081 Y137.812 E.43004
G1 X74.388 Y137.812 E.00784
G1 X74.388 Y154.654 E.43004
G1 X74.695 Y154.654 E.00784
G1 X74.695 Y137.812 E.43004
G1 X75.002 Y137.812 E.00784
G1 X75.002 Y154.654 E.43004
G1 X75.309 Y154.654 E.00784
G1 X75.309 Y137.812 E.43004
G1 X75.616 Y137.812 E.00784
G1 X75.616 Y154.654 E.43004
G1 X75.923 Y154.654 E.00784
G1 X75.923 Y137.812 E.43004
G1 X76.23 Y137.812 E.00784
G1 X76.23 Y154.654 E.43004
G1 X76.538 Y154.654 E.00786
G1 X76.538 Y140.619 E.35837
G1 X76.845 Y140.619 E.00784
G1 X76.845 Y154.654 E.35837
G1 X77.152 Y154.654 E.00784
G1 X77.152 Y140.619 E.35837
G1 X77.459 Y140.619 E.00784
G1 X77.459 Y154.654 E.35837
G1 X77.766 Y154.654 E.00784
G1 X77.766 Y140.619 E.35837
G1 X78.073 Y140.619 E.00784
G1 X78.073 Y154.654 E.35837
G1 X78.38 Y154.654 E.00784
G1 X78.38 Y140.619 E.35837
G1 X78.687 Y140.619 E.00784
G1 X78.687 Y154.654 E.35837
G1 X78.994 Y154.654 E.00784
G1 X78.994 Y140.619 E.35837
G1 X79.188 Y140.619 E.00495
G1 X79.188 Y143.426 E.07167
G1 X79.301 Y143.426 E.00289
G1 X79.301 Y151.847 E.21502
G1 X79.608 Y151.847 E.00784
G1 X79.608 Y143.426 E.21502
G1 X79.915 Y143.426 E.00784
G1 X79.915 Y151.847 E.21502
G1 X80.222 Y151.847 E.00784
G1 X80.223 Y143.426 E.21502
G1 X80.53 Y143.426 E.00784
G1 X80.53 Y151.847 E.21502
G1 X80.837 Y151.847 E.00784
G1 X80.837 Y143.426 E.21502
G1 X81.144 Y143.426 E.00784
G1 X81.144 Y151.847 E.21502
G1 X81.451 Y151.847 E.00784
G1 X81.451 Y143.426 E.21502
G1 X81.758 Y143.426 E.00784
G1 X81.758 Y151.985 E.21854
G1 E-3.5 F1500
G1 X70.396 Y149.178 F54000
G1 E3.5 F1500
G1 F1800
G1 X70.396 Y140.619 E.21854
G1 X70.089 Y140.619 E.00784
G1 X70.089 Y149.04 E.21502
G1 X69.782 Y149.04 E.00784
G1 X69.782 Y140.619 E.21502
G1 X69.475 Y140.619 E.00784
G1 X69.475 Y149.04 E.21502
G1 X69.168 Y149.04 E.00784
G1 X69.168 Y140.619 E.21502
G1 X68.861 Y140.619 E.00784
G1 X68.861 Y149.04 E.21502
G1 X68.553 Y149.04 E.00786
G1 X68.553 Y140.619 E.21502
G1 X68.246 Y140.619 E.00784
G1 X68.246 Y149.04 E.21502
G1 X67.959 Y149.04 E.00733
G1 X67.939 Y137.812 E.28669
G1 X67.632 Y137.812 E.00784
G1 X67.632 Y146.233 E.21502
G1 X67.325 Y146.233 E.00784
G1 X67.325 Y137.812 E.21502
G1 X67.018 Y137.812 E.00784
G1 X67.018 Y146.233 E.21502
G1 X66.711 Y146.233 E.00784
G1 X66.711 Y137.812 E.21502
G1 X66.404 Y137.812 E.00784
G1 X66.404 Y146.233 E.21502
G1 X66.097 Y146.233 E.00784
G1 X66.097 Y137.812 E.21502
G1 X65.79 Y137.812 E.00784
G1 X65.79 Y146.233 E.21502
G1 X65.483 Y146.233 E.00784
G1 X65.483 Y137.812 E.21502
G1 X65.176 Y137.812 E.00784
G1 X65.176 Y146.233 E.21502
G1 X65.152 Y143.426 E.07168
G1 X64.869 Y143.426 E.00723
G1 X64.869 Y137.812 E.14335
G1 X64.561 Y137.812 E.00786
G1 X64.561 Y143.426 E.14335
G1 X64.254 Y143.426 E.00784
G1 X64.254 Y137.812 E.14335
G1 X63.947 Y137.812 E.00784
G1 X63.947 Y143.426 E.14335
G1 X63.64 Y143.426 E.00784
G1 X63.64 Y137.812 E.14335
G1 X63.333 Y137.812 E.00784
G1 X63.333 Y143.426 E.14335
G1 X63.026 Y143.426 E.00784
G1 X63.026 Y137.812 E.14335
G1 X62.719 Y137.812 E.00784
G1 X62.719 Y143.426 E.14335
G1 X62.412 Y143.426 E.00784
G1 X62.412 Y137.812 E.14335
G1 X62.105 Y137.812 E.00784
G1 X62.105 Y143.426 E.14335
G1 X61.798 Y143.426 E.00784
G1 X61.798 Y137.812 E.14335
G1 X61.491 Y137.812 E.00784
G1 X61.491 Y143.426 E.14335
G1 X61.184 Y143.426 E.00784
G1 X61.184 Y137.812 E.14335
G1 X60.877 Y137.812 E.00784
G1 X60.877 Y143.426 E.14335
G1 X60.569 Y143.426 E.00786
G1 X60.569 Y137.812 E.14335
G1 X60.262 Y137.812 E.00784
G1 X60.262 Y143.426 E.14335
G1 X59.955 Y143.426 E.00784
G1 X59.955 Y137.812 E.14335
G1 X59.648 Y137.812 E.00784
G1 X59.648 Y143.426 E.14335
G1 X59.341 Y143.426 E.00784
G1 X59.341 Y137.812 E.14335
G1 X59.034 Y137.812 E.00784
G1 X59.034 Y143.426 E.14335
G1 X58.727 Y143.426 E.00784
G1 X58.727 Y137.812 E.14335
G1 X58.42 Y137.812 E.00784
G1 X58.42 Y143.426 E.14335
G1 X58.113 Y143.426 E.00784
G1 X58.113 Y137.812 E.14335
G1 X57.806 Y137.812 E.00784
G1 X57.806 Y143.426 E.14335
G1 X57.499 Y143.426 E.00784
G1 X57.499 Y137.812 E.14335
G1 X57.192 Y137.812 E.00784
G1 X57.192 Y143.426 E.14335
G1 X56.884 Y143.426 E.00786
G1 X56.884 Y137.812 E.14335
G1 X56.577 Y137.812 E.00784
G1 X56.577 Y143.426 E.14335
G1 X56.27 Y143.426 E.00784
G1 X56.27 Y137.812 E.14335
G1 X55.963 Y137.812 E.00784
G1 X55.963 Y143.426 E.14335
G1 X55.656 Y143.426 E.00784
G1 X55.656 Y137.812 E.14335
G1 X55.349 Y137.812 E.00784
G1 X55.349 Y143.426 E.14335
G1 X55.042 Y143.426 E.00784
G1 X55.042 Y137.812 E.14335
G1 X54.735 Y137.812 E.00784
G1 X54.735 Y143.426 E.14335
G1 X54.428 Y143.426 E.00784
G1 X54.428 Y137.812 E.14335
G1 X54.121 Y137.812 E.00784
G1 X54.121 Y143.426 E.14335
G1 X53.814 Y143.426 E.00784
G1 X53.814 Y137.812 E.14335
G1 X53.507 Y137.812 E.00784
G1 X53.507 Y143.426 E.14335
G1 X53.2 Y143.426 E.00784
G1 X53.2 Y137.812 E.14335
G1 X52.892 Y137.812 E.00786
G1 X52.892 Y143.426 E.14335
G1 X52.585 Y143.426 E.00784
G1 X52.585 Y137.812 E.14335
G1 X52.278 Y137.812 E.00784
G1 X52.278 Y143.426 E.14335
G1 X51.971 Y143.426 E.00784
G1 X51.971 Y137.812 E.14335
G1 X51.664 Y137.812 E.00784
G1 X51.664 Y143.426 E.14335
G1 X51.357 Y143.426 E.00784
G1 X51.357 Y137.812 E.14335
G1 X51.05 Y137.812 E.00784
G1 X51.05 Y143.426 E.14335
G1 X50.743 Y143.426 E.00784
G1 X50.743 Y137.812 E.14335
G1 X50.436 Y137.812 E.00784
G1 X50.436 Y143.426 E.14335
G1 X50.129 Y143.426 E.00784
G1 X50.129 Y137.812 E.14335
G1 X49.822 Y137.812 E.00784
G1 X49.822 Y143.426 E.14335
G1 X49.515 Y143.426 E.00784
G1 X49.515 Y137.812 E.14335
G1 X49.208 Y137.812 E.00784
G1 X49.208 Y143.426 E.14335
G1 X48.9 Y143.426 E.00786
G1 X48.9 Y137.812 E.14335
G1 X48.593 Y137.812 E.00784
G1 X48.593 Y143.426 E.14335
G1 X48.31 Y143.426 E.00723
G1 X48.31 Y146.233 E.07167
G1 X48.286 Y137.812 E.21502
G1 X47.979 Y137.812 E.00784
G1 X47.979 Y146.233 E.21502
G1 X47.672 Y146.233 E.00784
G1 X47.672 Y137.812 E.21502
G1 X47.365 Y137.812 E.00784
G1 X47.365 Y146.233 E.21502
G1 X47.058 Y146.233 E.00784
G1 X47.058 Y137.812 E.21502
G1 X46.751 Y137.812 E.00784
G1 X46.751 Y146.233 E.21502
G1 X46.444 Y146.233 E.00784
G1 X46.444 Y137.812 E.21502
G1 X46.137 Y137.812 E.00784
G1 X46.137 Y146.233 E.21502
G1 X45.83 Y146.233 E.00784
G1 X45.83 Y137.812 E.21502
G1 X45.523 Y137.812 E.00784
G1 X45.503 Y149.04 E.28669
G1 X45.215 Y149.04 E.00735
G1 X45.215 Y140.619 E.21502
G1 X44.908 Y140.619 E.00784
G1 X44.908 Y149.04 E.21502
G1 X44.601 Y149.04 E.00784
G1 X44.601 Y140.619 E.21502
G1 X44.294 Y140.619 E.00784
G1 X44.294 Y149.04 E.21502
G1 X43.987 Y149.04 E.00784
G1 X43.987 Y140.619 E.21502
G1 X43.68 Y140.619 E.00784
G1 X43.68 Y149.04 E.21502
G1 X43.373 Y149.04 E.00784
G1 X43.373 Y140.619 E.21502
G1 X43.066 Y140.619 E.00784
G1 X43.066 Y149.04 E.21502
G1 X42.759 Y149.04 E.00784
G1 X42.696 Y137.729 E.28882
G1 X42.452 Y137.729 E.00623
G1 X42.452 Y140.619 E.07379
G1 X42.145 Y140.619 E.00784
G1 X42.145 Y137.729 E.07379
G1 X41.838 Y137.729 E.00784
G1 X41.838 Y140.619 E.07379
G1 X41.531 Y140.619 E.00784
G1 X41.531 Y137.729 E.07379
G1 X41.223 Y137.729 E.00786
G1 X41.223 Y140.619 E.07379
G1 X40.916 Y140.619 E.00784
G1 X40.916 Y137.729 E.07379
G1 X40.609 Y137.729 E.00784
G1 X40.609 Y140.619 E.07379
G1 X40.302 Y140.619 E.00784
G1 X40.302 Y137.729 E.07379
G1 X39.995 Y137.729 E.00784
G1 X39.995 Y151.847 E.36049
G1 X40.302 Y151.847 E.00784
G1 X40.302 Y143.426 E.21502
G1 X40.609 Y143.426 E.00784
G1 X40.609 Y151.847 E.21502
G1 X40.916 Y151.847 E.00784
G1 X40.916 Y143.426 E.21502
G1 X41.223 Y143.426 E.00784
G1 X41.223 Y151.847 E.21502
G1 X41.531 Y151.847 E.00786
G1 X41.531 Y143.426 E.21502
G1 X41.838 Y143.426 E.00784
G1 X41.838 Y151.847 E.21502
G1 X42.145 Y151.847 E.00784
G1 X42.145 Y143.426 E.21502
G1 X42.452 Y143.426 E.00784
G1 X42.452 Y151.985 E.21854
G1 E-3.5 F1500
G1 X31.704 Y151.985 F54000
G1 E3.5 F1500
G1 F1800
G1 X31.704 Y140.619 E.29022
G1 X32.011 Y140.619 E.00784
G1 X32.011 Y151.847 E.28669
G1 X32.318 Y151.847 E.00784
G1 X32.318 Y140.619 E.28669
G1 X32.625 Y140.619 E.00784
G1 X32.625 Y151.847 E.28669
G1 X32.932 Y151.847 E.00784
G1 X32.932 Y140.619 E.28669
G1 X33.239 Y140.619 E.00784
G1 X33.239 Y151.847 E.28669
G1 X33.546 Y151.847 E.00784
G1 X33.546 Y140.619 E.28669
G1 X33.854 Y140.619 E.00786
G1 X33.854 Y151.847 E.28669
G1 X34.161 Y151.847 E.00784
G1 X34.161 Y140.619 E.28669
G1 X34.274 Y140.619 E.00289
G1 X34.274 Y137.812 E.07167
G1 X34.468 Y137.812 E.00495
G1 X34.468 Y151.847 E.35837
G1 X34.775 Y151.847 E.00784
G1 X34.775 Y137.812 E.35837
G1 X35.082 Y137.812 E.00784
G1 X35.082 Y151.847 E.35837
G1 X35.389 Y151.847 E.00784
G1 X35.389 Y137.812 E.35837
G1 X35.696 Y137.812 E.00784
G1 X35.696 Y151.847 E.35837
G1 X36.003 Y151.847 E.00784
G1 X36.003 Y137.812 E.35837
G1 X36.31 Y137.812 E.00784
G1 X36.31 Y151.847 E.35837
G1 X36.617 Y151.847 E.00784
G1 X36.617 Y137.812 E.35837
G1 X36.924 Y137.812 E.00784
G1 X36.924 Y151.847 E.35837
G1 X37.231 Y151.847 E.00784
G1 X37.231 Y135.005 E.43004
G1 X37.539 Y135.005 E.00786
G1 X37.539 Y151.847 E.43004
G1 X37.846 Y151.847 E.00784
G1 X37.846 Y135.005 E.43004
G1 X38.153 Y135.005 E.00784
G1 X38.153 Y151.847 E.43004
G1 X38.46 Y151.847 E.00784
G1 X38.46 Y135.005 E.43004
G1 X38.767 Y135.005 E.00784
G1 X38.767 Y151.847 E.43004
G1 X39.074 Y151.847 E.00784
G1 X39.074 Y135.005 E.43004
G1 X39.381 Y135.005 E.00784
G1 X39.381 Y151.847 E.43004
G1 X39.688 Y151.847 E.00784
G1 X39.688 Y135.005 E.43004
G1 X39.995 Y135.005 E.00784
G1 X39.995 Y137.04 E.05196
G1 X40.302 Y136.733 E.01109
G1 X40.302 Y135.005 E.04412
G1 X40.609 Y135.005 E.00784
G1 X40.609 Y136.426 E.03628
G1 X40.916 Y136.119 E.01109
G1 X40.916 Y135.005 E.02844
G1 X41.223 Y135.005 E.00784
G1 X41.223 Y135.812 E.02061
G1 X41.531 Y135.504 E.01112
G1 X41.531 Y135.005 E.01274
G1 X41.838 Y135.005 E.00784
G1 X41.838 Y135.393 E.00991
G1 E-3.5 F1500
G1 X50.576 Y135.575 F54000
G1 E3.5 F1500
;TYPE:Perimeter
;WIDTH:0.424603
G1 F1800
G1 X50.532 Y135.589 E.00147
G1 X49.729 Y135.673 E.02562
;WIDTH:0.419852
G1 X48.925 Y135.634 E.02523
;WIDTH:0.419999
G1 X47.936 Y135.346 E.0323
G1 X47.188 Y134.941 E.02667
G1 X46.567 Y134.425 E.02532
G1 X46.128 Y133.898 E.02151
G1 X45.921 Y133.592 E.01158
G1 X45.667 Y133.094 E.01753
G1 X45.42 Y132.326 E.02529
G1 X45.321 Y131.525 E.02531
G1 X45.373 Y130.72 E.02529
G1 X45.576 Y129.939 E.0253
G1 X45.921 Y129.209 E.02532
G1 X46.333 Y128.641 E.022
G1 X46.567 Y128.377 E.01106
G1 X46.987 Y128.007 E.01755
G1 X47.669 Y127.576 E.0253
G1 X48.147 Y127.379 E.01621
G1 X48.701 Y127.213 E.01813
G1 X49.437 Y127.12 E.02326
G1 X50.286 Y127.168 E.02666
G1 X51.068 Y127.371 E.02533
G1 X51.797 Y127.716 E.02529
G1 X52.449 Y128.192 E.02531
G1 X53 Y128.781 E.02529
G1 X53.431 Y129.463 E.0253
G1 X53.65 Y130.036 E.01923
G1 X53.821 Y130.595 E.01833
G1 X53.891 Y131.276 E.02146
G1 X53.839 Y132.082 E.02532
G1 X53.636 Y132.863 E.0253
G1 X53.289 Y133.595 E.0254
G1 X52.656 Y134.409 E.03233
G1 X52.007 Y134.953 E.02655
G1 X51.299 Y135.34 E.0253
;WIDTH:0.424603
G1 X50.633 Y135.556 E.02222
G1 X50.295 Y135.24 F54000
;WIDTH:0.419999
G1 F1800
