; File Parsed By Flow Comp Script
; Script Ver. V0.7.1
; Flow Model Ver. V0.2.1
; Logger Ver. V0.0.1
; Flow Comp Model Points:
; (0, 0)
; (0.2, 0.4444)
; (0.4, 0.6145)
; (0.6, 0.7059)
; (0.8, 0.7619)
; (1.5, 0.8571)
; (2, 0.8889)
; (3, 0.9231)
; (5, 0.952)
; (10, 1)

; generated by PrusaSlicer 2.9.1 on 2025-03-16 at 19:47:54 UTC

; 

; external perimeters extrusion width = 0.45mm
; perimeters extrusion width = 0.45mm
; infill extrusion width = 0.45mm
; solid infill extrusion width = 0.45mm
; top infill extrusion width = 0.40mm
; first layer extrusion width = 0.42mm

;TYPE:Custom
G90 ; use absolute coordinates
M83 ; extruder relative mode
M104 S210 ; set temporary nozzle temp to prevent oozing during homing
M140 S58 ; set final bed temp
G4 S30 ; allow partial nozzle warmup
G28 ; home all axis
G1 Z50 F240
G1 X2.0 Y10 F3000
M104 S208 ; set final nozzle temp
M190 S58 ; wait for bed temp to stabilize
M109 S208 ; wait for nozzle temp to stabilize
G1 Z0.28 F240
G92 E0
G1 X2.0 Y140 E10 F1500 ; prime the nozzle
G1 X2.3 Y140 F5000
G92 E0
G1 X2.3 Y10 E10 F1200 ; prime the nozzle
G92 E0
G21 ; set units to millimeters
G90 ; use absolute coordinates
M83 ; use relative distances for extrusion
; Filament gcode
M107
;LAYER_CHANGE
;Z:0.2
;HEIGHT:0.2
G1 E-3.5 F1500
G1 Z.2 F54000
G1 X10.687 Y82.397
G1 Z.2
G1 E3.5 F1500
M204 S3500
;TYPE:Skirt/Brim
;WIDTH:0.42
G1 F1800
G1 X27.737 Y82.397 E.53459
G1 X29.985 Y82.794 E.07158
G1 X31.962 Y83.937 E.0716
G1 X33.428 Y85.687 E.07158
G1 X34.303 Y88.962 E.10629
G1 X34.303 Y108.562 E.61454
G1 X33.906 Y110.811 E.07161
G1 X32.763 Y112.787 E.07157
G1 X31.012 Y114.253 E.0716
G1 X27.737 Y115.128 E.10629
G1 X10.687 Y115.128 E.53459
G1 X8.439 Y114.731 E.07158
G1 X6.462 Y113.588 E.0716
G1 X4.997 Y111.838 E.07156
G1 X4.122 Y108.562 E.10632
G1 X4.122 Y88.962 E.61454
G1 X4.518 Y86.714 E.07157
G1 X5.661 Y84.738 E.07157
G1 X7.412 Y83.272 E.0716
G1 X10.629 Y82.412 E.10441
G1 X10.687 Y82.774 F54000
G1 F1800
G1 X27.737 Y82.774 E.53459
G1 X29.917 Y83.171 E.06948
G1 X31.818 Y84.31 E.06948
G1 X33.195 Y86.046 E.06948
G1 X33.926 Y88.962 E.09426
G1 X33.926 Y108.562 E.61454
G1 X33.529 Y110.743 E.06951
G1 X32.389 Y112.643 E.06947
G1 X30.654 Y114.021 E.06947
G1 X27.737 Y114.751 E.09428
G1 X10.687 Y114.751 E.53459
G1 X8.507 Y114.354 E.06948
G1 X6.606 Y113.215 E.06948
G1 X5.229 Y111.479 E.06948
G1 X4.499 Y108.562 E.09428
G1 X4.499 Y88.962 E.61454
G1 X4.895 Y86.782 E.06947
G1 X6.035 Y84.881 E.0695
G1 X7.771 Y83.504 E.06948
G1 X10.629 Y82.788 E.09238
G1 E-3.5 F1500
G1 X18.722 Y104.508 F54000
G1 E3.5 F1500
;TYPE:External perimeter
;WIDTH:0.419999
G1 F1800
G1 X18.935 Y104.427 E.00715
G1 X19.249 Y104.38 E.00995
G1 X19.566 Y104.394 E.00995
G1 X19.874 Y104.466 E.00992
G1 X20.164 Y104.595 E.00995
G1 X20.424 Y104.776 E.00993
G1 X20.646 Y105.002 E.00993
G1 X20.822 Y105.267 E.00997
G1 X20.964 Y105.662 E.01316
G1 X21.019 Y105.974 E.00993
G1 X21.006 Y106.291 E.00995
G1 X20.933 Y106.6 E.00996
G1 X20.805 Y106.889 E.00991
G1 X20.624 Y107.15 E.00996
G1 X20.397 Y107.371 E.00993
;WIDTH:0.454419
G1 X20.197 Y107.493 E.00802
;WIDTH:0.488839
G1 X19.998 Y107.614 E.00864
;WIDTH:0.523259
G1 X19.798 Y107.735 E.00934
;WIDTH:0.53843
G1 X19.47 Y107.801 E.01379
;WIDTH:0.545862
G1 X19.095 Y107.793 E.01569
G1 X18.91 Y107.711 E.00846
;WIDTH:0.503908
G1 X18.726 Y107.629 E.00772
;WIDTH:0.461954
G1 X18.541 Y107.547 E.00705
;WIDTH:0.419999
G1 X18.25 Y107.349 E.01104
G1 X18.028 Y107.122 E.00996
G1 X17.853 Y106.858 E.00993
G1 X17.728 Y106.56 E.01013
G1 X17.658 Y106.192 E.01175
G1 X17.668 Y105.834 E.01123
G1 X17.741 Y105.525 E.00996
G1 X17.87 Y105.235 E.00995
G1 X18.051 Y104.975 E.00993
G1 X18.277 Y104.753 E.00993
G1 X18.547 Y104.575 E.01014
G1 X18.666 Y104.53 E.00399
G1 X19.05 Y104.418 F54000
G1 E-3.5 F1500
G1 X19.232 Y93.236 F54000
G1 E3.5 F1500
G1 F1800
G1 X19.108 Y93.231 E.00389
G1 X18.8 Y93.159 E.00992
G1 X18.505 Y93.026 E.01015
G1 X18.171 Y92.778 E.01304
G1 X17.964 Y92.538 E.00994
G1 X17.806 Y92.263 E.00994
G1 X17.701 Y91.964 E.00994
G1 X17.655 Y91.65 E.00995
G1 X17.668 Y91.334 E.00992
G1 X17.741 Y91.025 E.00996
G1 X17.873 Y90.73 E.01013
G1 X18.121 Y90.397 E.01302
G1 X18.362 Y90.189 E.00998
G1 X18.636 Y90.031 E.00992
G1 X18.935 Y89.927 E.00993
G1 X19.249 Y89.88 E.00995
G1 X19.566 Y89.894 E.00995
G1 X19.874 Y89.966 E.00992
G1 X20.169 Y90.099 E.01015
G1 X20.503 Y90.346 E.01302
G1 X20.71 Y90.587 E.00996
G1 X20.869 Y90.861 E.00993
G1 X20.973 Y91.161 E.00996
G1 X21.019 Y91.474 E.00992
G1 X21.006 Y91.791 E.00995
G1 X20.933 Y92.1 E.00996
G1 X20.801 Y92.394 E.0101
G1 X20.553 Y92.728 E.01304
G1 X20.313 Y92.935 E.00994
G1 X20.038 Y93.094 E.00996
G1 X19.739 Y93.198 E.00993
G1 X19.425 Y93.244 E.00995
G1 X19.292 Y93.239 E.00417
G1 X18.897 Y93.177 F54000
G1 E-3.5 F1500
G1 X26.396 Y90.304 F54000
G1 E3.5 F1500
;TYPE:Perimeter
G1 F1800
G1 X26.396 Y92.468 E.06785
G1 X26.396 Y107.221 E.46257
G1 X21.897 Y107.221 E.14106
G1 X21.972 Y107.049 E.00588
G1 X22.11 Y106.538 E.0166
G1 X22.15 Y106.01 E.0166
G1 X22.057 Y105.353 E.02081
G1 X21.86 Y104.817 E.01791
G1 X21.582 Y104.367 E.01658
G1 X21.224 Y103.976 E.01662
G1 X20.8 Y103.659 E.0166
G1 X20.324 Y103.428 E.01659
G1 X19.71 Y103.271 E.01987
G1 X19.18 Y103.25 E.01663
G1 X18.657 Y103.329 E.01658
G1 X18.131 Y103.524 E.01759
G1 X17.641 Y103.818 E.01792
G1 X17.251 Y104.175 E.01658
G1 X16.934 Y104.6 E.01662
G1 X16.703 Y105.076 E.01659
G1 X16.564 Y105.587 E.0166
G1 X16.524 Y106.115 E.0166
G1 X16.617 Y106.772 E.02081
G1 X16.777 Y107.221 E.01495
G1 X12.028 Y107.221 E.1489
G1 X12.028 Y90.304 E.53042
G1 X16.815 Y90.317 E.15009
G1 X16.626 Y90.812 E.01661
G1 X16.533 Y91.333 E.01659
G1 X16.54 Y91.863 E.01662
G1 X16.646 Y92.382 E.01661
G1 X16.847 Y92.871 E.01658
G1 X17.136 Y93.315 E.01661
G1 X17.537 Y93.721 E.01789
G1 X18.092 Y94.085 E.02081
G1 X18.587 Y94.274 E.01661
G1 X19.108 Y94.366 E.01659
G1 X19.638 Y94.359 E.01662
G1 X20.156 Y94.254 E.01657
G1 X20.646 Y94.052 E.01662
G1 X21.09 Y93.763 E.01661
G1 X21.496 Y93.362 E.01789
G1 X21.86 Y92.808 E.02078
G1 X22.048 Y92.313 E.0166
G1 X22.141 Y91.791 E.01662
G1 X22.134 Y91.262 E.01659
G1 X22.028 Y90.743 E.01661
G1 X21.851 Y90.304 E.01484
G1 X26.336 Y90.304 E.14062
G1 X26.773 Y89.927 F54000
G1 F1800
G1 X26.773 Y92.468 E.07967
G1 X26.773 Y107.598 E.47439
G1 X21.227 Y107.598 E.17389
G1 X21.428 Y107.313 E.01093
G1 X21.626 Y106.899 E.01439
G1 X21.742 Y106.456 E.01436
G1 X21.773 Y105.998 E.01439
G1 X21.687 Y105.424 E.0182
G1 X21.514 Y104.967 E.01532
G1 X21.27 Y104.579 E.01437
G1 X20.958 Y104.243 E.01438
G1 X20.588 Y103.971 E.0144
G1 X20.174 Y103.774 E.01438
G1 X19.73 Y103.658 E.01439
G1 X19.244 Y103.626 E.01527
G1 X18.745 Y103.696 E.0158
G1 X18.269 Y103.874 E.01593
G1 X17.853 Y104.13 E.01532
G1 X17.517 Y104.442 E.01438
G1 X17.246 Y104.811 E.01435
G1 X17.049 Y105.226 E.0144
G1 X16.932 Y105.669 E.01437
G1 X16.901 Y106.127 E.01439
G1 X16.988 Y106.701 E.0182
G1 X17.161 Y107.158 E.01532
G1 X17.447 Y107.598 E.01645
G1 X11.651 Y107.598 E.18173
G1 X11.651 Y89.927 E.55406
G1 X17.536 Y89.927 E.18452
G1 X17.263 Y90.287 E.01417
G1 X17.049 Y90.725 E.01528
G1 X16.932 Y91.169 E.0144
G1 X16.901 Y91.627 E.01439
G1 X16.957 Y92.082 E.01437
G1 X17.096 Y92.519 E.01438
G1 X17.315 Y92.922 E.01438
G1 X17.606 Y93.277 E.01439
G1 X18.062 Y93.636 E.0182
G1 X18.5 Y93.851 E.0153
G1 X18.944 Y93.967 E.01439
G1 X19.401 Y93.998 E.01436
G1 X19.857 Y93.943 E.0144
G1 X20.294 Y93.803 E.01439
G1 X20.697 Y93.584 E.01438
G1 X21.052 Y93.294 E.01437
G1 X21.411 Y92.838 E.0182
G1 X21.626 Y92.399 E.01533
G1 X21.742 Y91.956 E.01436
G1 X21.773 Y91.498 E.01439
G1 X21.718 Y91.043 E.01437
G1 X21.578 Y90.606 E.01439
G1 X21.359 Y90.203 E.01438
G1 X21.138 Y89.927 E.01109
G1 X26.713 Y89.927 E.1748
G1 X27.15 Y89.549 F54000
G1 F1800
G1 X27.15 Y92.468 E.09152
G1 X27.15 Y107.975 E.48621
G1 X20.076 Y107.975 E.2218
G1 X20.266 Y107.9 E.0064
G1 X20.609 Y107.683 E.01273
G1 X20.89 Y107.416 E.01215
G1 X21.116 Y107.101 E.01216
G1 X21.28 Y106.749 E.01218
G1 X21.374 Y106.373 E.01215
G1 X21.396 Y105.986 E.01215
G1 X21.335 Y105.591 E.01253
G1 X21.168 Y105.117 E.01576
G1 X20.958 Y104.79 E.01219
G1 X20.691 Y104.509 E.01215
G1 X20.376 Y104.283 E.01216
G1 X20.024 Y104.12 E.01216
G1 X19.648 Y104.026 E.01215
G1 X19.261 Y104.003 E.01216
G1 X18.876 Y104.054 E.01218
G1 X18.408 Y104.225 E.01562
G1 X18.065 Y104.441 E.01271
G1 X17.784 Y104.708 E.01215
G1 X17.507 Y105.117 E.01549
G1 X17.34 Y105.575 E.01529
G1 X17.278 Y106.139 E.01779
G1 X17.358 Y106.631 E.01563
G1 X17.507 Y107.008 E.01271
G1 X17.716 Y107.334 E.01214
G1 X17.983 Y107.615 E.01215
G1 X18.298 Y107.842 E.01217
G1 X18.582 Y107.975 E.00983
G1 X11.274 Y107.975 E.22914
G1 X11.274 Y89.549 E.57773
G1 X18.365 Y89.549 E.22233
;WIDTH:0.42632
G1 X18.867 Y89.553 E.016
G1 X18.508 Y89.676 E.0121
;WIDTH:0.420227
G1 X18.17 Y89.865 E.01215
;WIDTH:0.419999
G1 X17.872 Y90.114 E.01218
G1 X17.568 Y90.509 E.01563
G1 X17.395 Y90.875 E.01269
G1 X17.3 Y91.251 E.01216
G1 X17.278 Y91.639 E.01218
G1 X17.329 Y92.023 E.01215
G1 X17.451 Y92.391 E.01216
G1 X17.64 Y92.73 E.01217
G1 X17.889 Y93.028 E.01218
G1 X18.283 Y93.331 E.01558
G1 X18.65 Y93.505 E.01273
G1 X19.026 Y93.599 E.01215
G1 X19.413 Y93.621 E.01215
G1 X19.798 Y93.571 E.01217
G1 X20.166 Y93.449 E.01216
G1 X20.505 Y93.26 E.01217
G1 X20.802 Y93.011 E.01215
G1 X21.106 Y92.616 E.01563
G1 X21.28 Y92.249 E.01273
G1 X21.374 Y91.873 E.01215
G1 X21.396 Y91.486 E.01215
G1 X21.345 Y91.102 E.01215
G1 X21.223 Y90.734 E.01216
G1 X21.035 Y90.395 E.01215
G1 X20.786 Y90.097 E.01218
G1 X20.391 Y89.793 E.01563
G1 X20.024 Y89.62 E.01272
;WIDTH:0.419787
G1 X19.645 Y89.537 E.01216
;WIDTH:0.419999
G1 X27.09 Y89.549 E.23343
G1 E-3.5 F1500
G1 X18.867 Y89.553 F54000
G1 E3.5 F1500
;WIDTH:0.42632
G1 F1800
G1 X19.542 Y89.531 E.02153
;WIDTH:0.395878
G1 X19.645 Y89.537 E.00303
G1 E-3.5 F1500
G1 X27.527 Y89.172 F54000
G1 E3.5 F1500
;TYPE:External perimeter
;WIDTH:0.419999
G1 F1800
G1 X27.527 Y92.468 E.10334
G1 X27.527 Y108.352 E.49803
G1 X20.417 Y108.352 E.22293
;WIDTH:0.466869
G1 X20.208 Y108.329 E.00741
;WIDTH:0.513738
G1 X19.999 Y108.305 E.00824
;WIDTH:0.560607
G1 X19.791 Y108.282 E.00901
G1 X19.04 Y108.289 E.03233
;WIDTH:0.545862
G1 X18.818 Y108.31 E.00933
;WIDTH:0.503908
G1 X18.596 Y108.331 E.00855
;WIDTH:0.461954
G1 X18.375 Y108.352 E.00773
;WIDTH:0.419999
G1 X10.897 Y108.352 E.23447
G1 X10.897 Y89.172 E.60137
G1 X27.467 Y89.172 E.51954
G1 X27.526 Y89.568 F54000
G1 E-3.5 F1500
G1 X26.283 Y91.192 F54000
G1 E3.5 F1500
;TYPE:Solid infill
;WIDTH:0.426345
G1 F1800
G1 X25.677 Y90.586 E0.02114; Old Flow Value: 0.02732   Length: 0.85702
G1 X25.134 Y90.586 E0.01182; Old Flow Value: 0.01731   Length: 0.54300
G1 X26.113 Y91.565 E0.03739; Old Flow Value: 0.04414   Length: 1.38452
G1 X26.113 Y92.107 E0.01179; Old Flow Value: 0.01728   Length: 0.54200
G1 X24.592 Y90.586 E0.06145; Old Flow Value: 0.06858   Length: 2.15102
G1 X24.05 Y90.586 E0.01179; Old Flow Value: 0.01728   Length: 0.54200
G1 X26.113 Y92.65 E0.08571; Old Flow Value: 0.09304   Length: 2.91823
G1 X26.113 Y93.192 E0.01179; Old Flow Value: 0.01728   Length: 0.54200
G1 X23.508 Y90.586 E0.10999; Old Flow Value: 0.11748   Length: 3.68474
G1 X22.966 Y90.586 E0.01179; Old Flow Value: 0.01728   Length: 0.54200
G1 X26.113 Y93.734 E0.13429; Old Flow Value: 0.14191   Length: 4.45124
G1 X26.113 Y94.276 E0.01179; Old Flow Value: 0.01728   Length: 0.54200
G1 X22.423 Y90.586 E0.15875; Old Flow Value: 0.16637   Length: 5.21845
G1 X22.265 Y90.586 E0.00187; Old Flow Value: 0.00504   Length: 0.15800
G1 X22.369 Y90.933 E0.00687; Old Flow Value: 0.01155   Length: 0.36225
G1 X22.395 Y91.1 E0.00211; Old Flow Value: 0.00539   Length: 0.16901
G1 X26.113 Y94.818 E0.16002; Old Flow Value: 0.16764   Length: 5.25805
G1 X26.113 Y95.361 E0.01182; Old Flow Value: 0.01731   Length: 0.54300
G1 X22.428 Y91.675 E0.15855; Old Flow Value: 0.16617   Length: 5.21208
G1 X22.372 Y92.162 E0.01030; Old Flow Value: 0.01563   Length: 0.49021
G1 X26.113 Y95.903 E0.16106; Old Flow Value: 0.16867   Length: 5.29057
G1 X26.113 Y96.445 E0.01179; Old Flow Value: 0.01728   Length: 0.54200
G1 X22.256 Y92.588 E0.16634; Old Flow Value: 0.1739   Length: 5.45462
G1 X22.093 Y92.967 E0.00816; Old Flow Value: 0.01315   Length: 0.41257
G1 X26.113 Y96.987 E0.17378; Old Flow Value: 0.18125   Length: 5.68514
G1 X26.113 Y97.53 E0.01182; Old Flow Value: 0.01731   Length: 0.54300
G1 X21.888 Y93.304 E0.18321; Old Flow Value: 0.19052   Length: 5.97576
G1 X21.651 Y93.61 E0.00750; Old Flow Value: 0.01234   Length: 0.38705
G1 X26.113 Y98.072 E0.19412; Old Flow Value: 0.20118   Length: 6.31022
G1 X26.113 Y98.614 E0.01179; Old Flow Value: 0.01728   Length: 0.54200
G1 X21.382 Y93.883 E0.20661; Old Flow Value: 0.21331   Length: 6.69064
G1 X21.077 Y94.121 E0.00750; Old Flow Value: 0.01233   Length: 0.38687
G1 X26.113 Y99.156 E0.22085; Old Flow Value: 0.22704   Length: 7.12127
G1 X26.113 Y99.699 E0.01182; Old Flow Value: 0.01731   Length: 0.54300
G1 X20.736 Y94.322 E0.23695; Old Flow Value: 0.24244   Length: 7.60423
G1 X20.354 Y94.482 E0.00821; Old Flow Value: 0.0132   Length: 0.41416
G1 X26.113 Y100.241 E0.25512; Old Flow Value: 0.25966   Length: 8.14445
G1 X26.113 Y100.783 E0.01179; Old Flow Value: 0.01728   Length: 0.54200
G1 X19.924 Y94.595 E0.27575; Old Flow Value: 0.27903   Length: 8.75186
G1 X19.445 Y94.658 E0.01009; Old Flow Value: 0.0154   Length: 0.48312
G1 X26.113 Y101.325 E0.29901; Old Flow Value: 0.30062   Length: 9.42927
G1 X26.113 Y101.868 E0.01182; Old Flow Value: 0.01731   Length: 0.54300
G1 X18.867 Y94.621 E.32673; Old Flow Value: 0.32673   Length: 10.24809
G1 X18.355 Y94.502 E0.01132; Old Flow Value: 0.01676   Length: 0.52565
G1 X18.097 Y94.394 E0.00480; Old Flow Value: 0.00892   Length: 0.27969
G1 X26.113 Y102.41 E.36142; Old Flow Value: 0.36142   Length: 11.33634
G1 X26.113 Y102.952 E0.01179; Old Flow Value: 0.01728   Length: 0.54200
G1 X13.747 Y90.586 E.55756; Old Flow Value: 0.55756   Length: 17.48817
G1 X14.29 Y90.586 E0.01182; Old Flow Value: 0.01731   Length: 0.54300
G1 X16.501 Y92.797 E0.09231; Old Flow Value: 0.09969   Length: 3.12682
G1 X16.313 Y92.236 E0.01325; Old Flow Value: 0.01886   Length: 0.59166
G1 X16.281 Y92.036 E0.00290; Old Flow Value: 0.00646   Length: 0.20254
G1 X14.832 Y90.586 E0.05825; Old Flow Value: 0.06535   Length: 2.04991
G1 X15.374 Y90.586 E0.01179; Old Flow Value: 0.01728   Length: 0.54200
G1 X16.246 Y91.459 E0.03272; Old Flow Value: 0.03934   Length: 1.23390
G1 X16.301 Y90.971 E0.01032; Old Flow Value: 0.01566   Length: 0.49109
G1 X15.747 Y90.417 E0.01894; Old Flow Value: 0.02498   Length: 0.78348
G1 E-3.5 F1500
G1 X26.283 Y103.664 F54000
G1 E3.5 F1500; Old Flow Value: 3.5   Length: 0.00000
G1 F1800
G1 X13.205 Y90.586 E.58966; Old Flow Value: 0.58966   Length: 18.49509
G1 X12.663 Y90.586 E0.01179; Old Flow Value: 0.01728   Length: 0.54200
G1 X26.113 Y104.037 E.60645; Old Flow Value: 0.60645   Length: 19.02188
G1 X26.113 Y104.579 E0.01179; Old Flow Value: 0.01728   Length: 0.54200
G1 X12.311 Y90.777 E.6223; Old Flow Value: 0.6223   Length: 19.51898
G1 X12.311 Y91.319 E0.01179; Old Flow Value: 0.01728   Length: 0.54200
G1 X26.113 Y105.121 E.6223; Old Flow Value: 0.6223   Length: 19.51898
G1 X26.113 Y105.663 E0.01179; Old Flow Value: 0.01728   Length: 0.54200
G1 X12.311 Y91.861 E.6223; Old Flow Value: 0.6223   Length: 19.51898
G1 X12.311 Y92.404 E0.01182; Old Flow Value: 0.01731   Length: 0.54300
G1 X26.113 Y106.206 E.6223; Old Flow Value: 0.6223   Length: 19.51898
G1 X26.113 Y106.748 E0.01179; Old Flow Value: 0.01728   Length: 0.54200
G1 X12.311 Y92.946 E.6223; Old Flow Value: 0.6223   Length: 19.51898
G1 X12.311 Y93.488 E0.01179; Old Flow Value: 0.01728   Length: 0.54200
G1 X25.761 Y106.938 E.60643; Old Flow Value: 0.60643   Length: 19.02118
G1 X25.219 Y106.938 E0.01179; Old Flow Value: 0.01728   Length: 0.54200
G1 X12.311 Y94.03 E.58199; Old Flow Value: 0.58199   Length: 18.25467
G1 X12.311 Y94.573 E0.01182; Old Flow Value: 0.01731   Length: 0.54300
G1 X24.677 Y106.938 E.55753; Old Flow Value: 0.55753   Length: 17.48746
G1 X24.135 Y106.938 E0.01179; Old Flow Value: 0.01728   Length: 0.54200
G1 X22.264 Y105.068 E0.07708; Old Flow Value: 0.08434   Length: 2.64529
