; File Parsed By Flow Comp Script
; Script Ver. V0.7.1
; Flow Model Ver. V0.2.1
; Logger Ver. V0.0.1
; Flow Comp Model Points:
; (0, 0)
; (0.2, 0.4444)
; (0.4, 0.6145)
; (0.6, 0.7059)
; (0.8, 0.7619)
; (1.5, 0.8571)
; (2, 0.8889)
; (3, 0.9231)
; (5, 0.952)
; (10, 1)

; generated by PrusaSlicer 2.9.2 on 2025-04-14 at 17:23:02 UTC

; 

; external perimeters extrusion width = 0.45mm
; perimeters extrusion width = 0.45mm
; infill extrusion width = 0.45mm
; solid infill extrusion width = 0.45mm
; top infill extrusion width = 0.40mm
; support material extrusion width = 0.35mm
; first layer extrusion width = 0.42mm

;TYPE:Custom
G90 ; use absolute coordinates
M83 ; extruder relative mode
CALCULATE_PA BOWDEN_LENGTH=34.3 MATERIAL=PLA LAYER_HEIGHT=0.2 NOZZLE_SIZE=0.4 PRINT_SPEED=120 FILAMENT_DIAMETER=1.75 LINE_WIDTH=0.45 ; auto pressure advance
M104 S210 ; set temporary nozzle temp to prevent oozing during homing
M140 S58 ; set final bed temp
G4 S30 ; allow partial nozzle warmup
G28 ; home all axis
G1 Z50 F240
G1 X2.0 Y10 F3000
M104 S208 ; set final nozzle temp
M190 S58 ; wait for bed temp to stabilize
M109 S208 ; wait for nozzle temp to stabilize
G1 Z0.28 F240
G92 E0
G1 X2.0 Y140 E10 F1500 ; prime the nozzle
G1 X2.3 Y140 F5000
G92 E0
G1 X2.3 Y10 E10 F1200 ; prime the nozzle
G92 E0
G21 ; set units to millimeters
G90 ; use absolute coordinates
M83 ; use relative distances for extrusion
; Filament gcode
M107
;LAYER_CHANGE
;Z:0.2
;HEIGHT:0.2
G1 E-3.5 F1500
G1 Z.2 F54000
G1 X62.538 Y96.064
G1 Z.2
G1 E3.5 F1500
M204 S3500
;TYPE:Skirt/Brim
;WIDTH:0.42
G1 F2100
G1 X65.454 Y95.334 E.09425
G1 X121.868 Y95.334 E1.76882
G1 X124.049 Y95.731 E.06951
G1 X125.949 Y96.87 E.06946
G1 X127.327 Y98.606 E.06949
G1 X128.057 Y101.523 E.09428
G1 X128.057 Y118.638 E.53663
G1 X127.952 Y119.772 E.03571
G1 X123.627 Y142.784 E.73416
G1 X123.041 Y144.411 E.05422
G1 X122.41 Y145.597 E.04212
G1 X121.456 Y146.909 E.05086
G1 X120.231 Y148.134 E.05432
G1 X118.712 Y149.213 E.05842
G1 X110.396 Y154.047 E.30159
G1 X107.286 Y154.885 E.10099
G1 X80.036 Y154.885 E.8544
G1 X76.87 Y154.014 E.10296
G1 X67.872 Y148.643 E.32856
G1 X66.506 Y147.583 E.05421
G1 X65.573 Y146.616 E.04213
G1 X64.77 Y145.541 E.04207
G1 X64.111 Y144.378 E.04191
G1 X63.731 Y143.502 E.02994
G1 X63.333 Y142.219 E.04212
G1 X59.359 Y119.708 E.71673
G1 X59.266 Y118.638 E.03368
G1 X59.266 Y101.523 E.53663
G1 X59.662 Y99.342 E.0695
G1 X60.802 Y97.442 E.06947
G1 X62.491 Y96.102 E.0676
G1 E-3.5 F1500
G1 X82.569 Y104.33 F54000
G1 E3.5 F1500
;TYPE:Support material
G1 F2100
G1 X85.376 Y104.33 E.08801
G1 X85.376 Y107.137 E.08801
G1 X88.184 Y107.137 E.08804
G1 X88.184 Y109.944 E.08801
G1 X90.991 Y109.944 E.08801
G1 X90.991 Y112.751 E.08801
G1 X96.332 Y112.751 E.16746
G1 X96.332 Y109.944 E.08801
G1 X99.139 Y109.944 E.08801
G1 X99.139 Y107.137 E.08801
G1 X101.946 Y107.137 E.08801
G1 X101.946 Y104.33 E.08801
G1 X104.753 Y104.33 E.08801
G1 X104.753 Y101.523 E.08801
G1 X121.868 Y101.523 E.53663
G1 X121.868 Y118.638 E.53663
G1 X119.061 Y118.638 E.08801
G1 X119.061 Y121.445 E.08801
G1 X116.254 Y121.445 E.08801
G1 X116.254 Y124.252 E.08801
G1 X113.447 Y124.252 E.08801
G1 X113.447 Y127.059 E.08801
G1 X110.64 Y127.059 E.08801
G1 X110.64 Y129.866 E.08801
G1 X110.096 Y129.866 E.01706
G1 X107.721 Y127.491 E.10531
G1 X107.721 Y124.166 E.10425
G1 X107.466 Y123.912 E.01128
G1 X101.946 Y123.912 E.17308
G1 X101.946 Y121.445 E.07735
G1 X85.376 Y121.445 E.51954
G1 X85.376 Y123.912 E.07735
G1 X79.856 Y123.912 E.17308
G1 X79.601 Y124.166 E.01128
G1 X79.601 Y126.905 E.08588
G1 X76.682 Y129.824 E.12943
G1 X76.682 Y127.059 E.08669
G1 X73.875 Y127.059 E.08801
G1 X73.875 Y124.252 E.08801
G1 X71.068 Y124.252 E.08801
G1 X71.068 Y121.445 E.08801
G1 X68.261 Y121.445 E.08801
G1 X68.261 Y118.638 E.08801
G1 X65.454 Y118.638 E.08801
G1 X65.454 Y101.523 E.53663
G1 X82.569 Y101.523 E.53663
G1 X82.569 Y104.273 E.08622
G1 E-3.5 F1500
G1 X121.314 Y118.468 F54000
G1 E3.5 F1500
G1 F2100
G1 X121.314 Y101.862 E.52067
G1 X120.895 Y101.862 E.01314
G1 X120.895 Y118.299 E.51537
G1 X120.476 Y118.299 E.01314
G1 X120.476 Y101.862 E.51537
G1 X120.057 Y101.862 E.01314
G1 X120.057 Y118.299 E.51537
G1 X119.638 Y118.299 E.01314
G1 X119.638 Y101.862 E.51537
G1 X119.219 Y101.862 E.01314
G1 X119.219 Y118.299 E.51537
G1 X118.8 Y118.299 E.01314
G1 X118.8 Y101.862 E.51537
G1 X118.381 Y101.862 E.01314
G1 X118.381 Y121.106 E.60338
G1 X117.962 Y121.106 E.01314
G1 X117.962 Y101.862 E.60338
G1 X117.543 Y101.862 E.01314
G1 X117.543 Y121.106 E.60338
G1 X117.124 Y121.106 E.01314
G1 X117.124 Y101.862 E.60338
G1 X116.705 Y101.862 E.01314
G1 X116.705 Y121.106 E.60338
G1 X116.286 Y121.106 E.01314
G1 X116.286 Y101.862 E.60338
G1 X115.867 Y101.862 E.01314
G1 X115.867 Y123.913 E.69139
G1 X115.448 Y123.913 E.01314
G1 X115.448 Y101.862 E.69139
G1 X115.029 Y101.862 E.01314
G1 X115.029 Y123.913 E.69139
G1 X114.61 Y123.913 E.01314
G1 X114.61 Y101.862 E.69139
G1 X114.191 Y101.862 E.01314
G1 X114.191 Y123.913 E.69139
G1 X113.772 Y123.913 E.01314
G1 X113.772 Y101.862 E.69139
G1 X113.353 Y101.862 E.01314
G1 X113.353 Y123.913 E.69139
G1 X113.108 Y123.913 E.00768
G1 X113.108 Y126.72 E.08801
G1 X112.934 Y126.72 E.00546
G1 X112.934 Y101.862 E.77941
G1 X112.515 Y101.862 E.01314
G1 X112.515 Y126.72 E.77941
G1 X112.096 Y126.72 E.01314
G1 X112.096 Y101.862 E.77941
G1 X111.677 Y101.862 E.01314
G1 X111.677 Y126.72 E.77941
G1 X111.258 Y126.72 E.01314
G1 X111.258 Y101.862 E.77941
G1 X110.839 Y101.862 E.01314
G1 X110.839 Y126.72 E.77941
G1 X110.42 Y126.72 E.01314
G1 X110.42 Y101.862 E.77941
G1 X110.001 Y101.862 E.01314
G1 X110.001 Y129.292 E.86005
G1 X109.582 Y128.873 E.01858
G1 X109.582 Y101.862 E.84691
G1 X109.163 Y101.862 E.01314
G1 X109.163 Y128.454 E.83377
G1 X108.744 Y128.035 E.01858
G1 X108.744 Y101.862 E.82064
G1 X108.326 Y101.862 E.01311
G1 X108.326 Y127.616 E.8075
G1 X108.061 Y127.351 E.01175
G1 X108.061 Y124.026 E.10425
G1 X107.907 Y123.872 E.00683
G1 X107.907 Y101.862 E.69011
G1 X107.488 Y101.862 E.01314
G1 X107.488 Y123.572 E.6807
G1 X107.069 Y123.572 E.01314
G1 X107.069 Y101.862 E.6807
G1 X106.65 Y101.862 E.01314
G1 X106.65 Y123.572 E.6807
G1 X106.231 Y123.572 E.01314
G1 X106.231 Y101.862 E.6807
G1 X105.812 Y101.862 E.01314
G1 X105.812 Y123.572 E.6807
G1 X105.393 Y123.572 E.01314
G1 X105.393 Y101.862 E.6807
G1 X105.093 Y101.862 E.00941
G1 X105.093 Y104.669 E.08801
G1 X104.974 Y104.669 E.00373
G1 X104.974 Y123.572 E.59269
G1 X104.555 Y123.572 E.01314
G1 X104.555 Y104.669 E.59269
G1 X104.136 Y104.669 E.01314
G1 X104.136 Y123.572 E.59269
G1 X103.717 Y123.572 E.01314
G1 X103.717 Y104.669 E.59269
G1 X103.298 Y104.669 E.01314
G1 X103.298 Y123.572 E.59269
G1 X102.879 Y123.572 E.01314
G1 X102.879 Y104.669 E.59269
G1 X102.46 Y104.669 E.01314
G1 X102.46 Y123.572 E.59269
G1 X102.286 Y123.572 E.00546
G1 X102.286 Y121.106 E.07732
G1 X102.041 Y121.106 E.00768
G1 X102.041 Y107.476 E.42736
G1 X101.622 Y107.476 E.01314
G1 X101.622 Y121.106 E.42736
G1 X101.203 Y121.106 E.01314
G1 X101.203 Y107.476 E.42736
G1 X100.784 Y107.476 E.01314
G1 X100.784 Y121.106 E.42736
G1 X100.365 Y121.106 E.01314
G1 X100.365 Y107.476 E.42736
G1 X99.946 Y107.476 E.01314
G1 X99.946 Y121.106 E.42736
G1 X99.527 Y121.106 E.01314
G1 X99.527 Y107.476 E.42736
G1 X99.478 Y110.283 E.08802
G1 X99.108 Y110.283 E.0116
G1 X99.108 Y121.106 E.33935
G1 X98.689 Y121.106 E.01314
G1 X98.689 Y110.283 E.33935
G1 X98.27 Y110.283 E.01314
G1 X98.27 Y121.106 E.33935
G1 X97.851 Y121.106 E.01314
G1 X97.851 Y110.283 E.33935
G1 X97.432 Y110.283 E.01314
G1 X97.432 Y121.106 E.33935
G1 X97.013 Y121.106 E.01314
G1 X97.013 Y110.283 E.33935
G1 X96.671 Y110.283 E.01072
G1 X96.671 Y113.09 E.08801
G1 X96.594 Y113.09 E.00241
G1 X96.594 Y121.106 E.25134
G1 X96.175 Y121.106 E.01314
G1 X96.175 Y113.09 E.25134
G1 X95.756 Y113.09 E.01314
G1 X95.756 Y121.106 E.25134
G1 X95.337 Y121.106 E.01314
G1 X95.337 Y113.09 E.25134
G1 X94.918 Y113.09 E.01314
G1 X94.918 Y121.106 E.25134
G1 X94.499 Y121.106 E.01314
G1 X94.499 Y113.09 E.25134
G1 X94.08 Y113.09 E.01314
G1 X94.08 Y121.106 E.25134
G1 X93.661 Y121.106 E.01314
G1 X93.661 Y113.09 E.25134
G1 X93.242 Y113.09 E.01314
G1 X93.242 Y121.106 E.25134
G1 X92.823 Y121.106 E.01314
G1 X92.823 Y113.09 E.25134
G1 X92.404 Y113.09 E.01314
G1 X92.404 Y121.106 E.25134
G1 X91.985 Y121.106 E.01314
G1 X91.985 Y113.09 E.25134
G1 X91.566 Y113.09 E.01314
G1 X91.566 Y121.106 E.25134
G1 X91.147 Y121.106 E.01314
G1 X91.147 Y113.09 E.25134
G1 X90.728 Y113.09 E.01314
G1 X90.728 Y121.106 E.25134
G1 X90.309 Y121.106 E.01314
G1 X90.309 Y110.283 E.33935
G1 X89.891 Y110.283 E.01311
G1 X89.891 Y121.106 E.33935
G1 X89.472 Y121.106 E.01314
G1 X89.472 Y110.283 E.33935
G1 X89.053 Y110.283 E.01314
G1 X89.053 Y121.106 E.33935
G1 X88.634 Y121.106 E.01314
G1 X88.634 Y110.283 E.33935
G1 X88.215 Y110.283 E.01314
G1 X88.215 Y121.106 E.33935
G1 X87.796 Y121.106 E.01314
G1 X87.796 Y107.476 E.42736
G1 X87.377 Y107.476 E.01314
G1 X87.377 Y121.106 E.42736
G1 X86.958 Y121.106 E.01314
G1 X86.958 Y107.476 E.42736
G1 X86.539 Y107.476 E.01314
G1 X86.539 Y121.106 E.42736
G1 X86.12 Y121.106 E.01314
G1 X86.12 Y107.476 E.42736
G1 X85.701 Y107.476 E.01314
G1 X85.701 Y121.106 E.42736
G1 X85.282 Y121.106 E.01314
G1 X85.282 Y107.476 E.42736
G1 X85.037 Y107.476 E.00768
G1 X85.037 Y104.669 E.08801
G1 X84.863 Y104.669 E.00546
G1 X84.863 Y123.572 E.59269
G1 X84.444 Y123.572 E.01314
G1 X84.444 Y104.669 E.59269
G1 X84.025 Y104.669 E.01314
G1 X84.025 Y123.572 E.59269
G1 X83.606 Y123.572 E.01314
G1 X83.606 Y104.669 E.59269
G1 X83.187 Y104.669 E.01314
G1 X83.187 Y123.572 E.59269
G1 X82.768 Y123.572 E.01314
G1 X82.768 Y104.669 E.59269
G1 X82.349 Y104.669 E.01314
G1 X82.349 Y123.572 E.59269
G1 X81.93 Y123.572 E.01314
G1 X81.93 Y101.862 E.6807
G1 X81.511 Y101.862 E.01314
G1 X81.511 Y123.572 E.6807
G1 X81.092 Y123.572 E.01314
G1 X81.092 Y101.862 E.6807
G1 X80.673 Y101.862 E.01314
G1 X80.673 Y123.572 E.6807
G1 X80.254 Y123.572 E.01314
G1 X80.254 Y101.862 E.6807
G1 X79.835 Y101.862 E.01314
G1 X79.835 Y123.572 E.6807
G1 X79.716 Y123.572 E.00373
G1 X79.416 Y123.872 E.0133
G1 X79.416 Y101.862 E.69011
G1 X78.997 Y101.862 E.01314
G1 X78.997 Y127.029 E.78909
G1 X78.578 Y127.448 E.01858
G1 X78.578 Y101.862 E.80223
G1 X78.159 Y101.862 E.01314
G1 X78.159 Y127.867 E.81537
G1 X77.74 Y128.286 E.01858
G1 X77.74 Y101.862 E.82851
G1 X77.321 Y101.862 E.01314
G1 X77.321 Y128.705 E.84164
G1 X77.022 Y129.004 E.01326
G1 X77.022 Y126.72 E.07161
G1 X76.902 Y126.72 E.00376
G1 X76.902 Y101.862 E.77941
G1 X76.483 Y101.862 E.01314
G1 X76.483 Y126.72 E.77941
G1 X76.064 Y126.72 E.01314
G1 X76.064 Y101.862 E.77941
G1 X75.645 Y101.862 E.01314
G1 X75.645 Y126.72 E.77941
G1 X75.226 Y126.72 E.01314
G1 X75.226 Y101.862 E.77941
G1 X74.807 Y101.862 E.01314
G1 X74.807 Y126.72 E.77941
G1 X74.388 Y126.72 E.01314
G1 X74.388 Y101.862 E.77941
G1 X73.969 Y101.862 E.01314
G1 X73.969 Y123.913 E.69139
G1 X73.55 Y123.913 E.01314
G1 X73.55 Y101.862 E.69139
G1 X73.131 Y101.862 E.01314
G1 X73.131 Y123.913 E.69139
G1 X72.712 Y123.913 E.01314
G1 X72.712 Y101.862 E.69139
G1 X72.293 Y101.862 E.01314
G1 X72.293 Y123.913 E.69139
G1 X71.875 Y123.913 E.01311
G1 X71.875 Y101.862 E.69139
G1 X71.456 Y101.862 E.01314
G1 X71.408 Y123.913 E.6914
G1 X71.408 Y121.106 E.08801
G1 X71.037 Y121.106 E.01163
G1 X71.037 Y101.862 E.60338
G1 X70.618 Y101.862 E.01314
G1 X70.618 Y121.106 E.60338
G1 X70.199 Y121.106 E.01314
G1 X70.199 Y101.862 E.60338
G1 X69.78 Y101.862 E.01314
G1 X69.78 Y121.106 E.60338
G1 X69.361 Y121.106 E.01314
G1 X69.361 Y101.862 E.60338
G1 X68.942 Y101.862 E.01314
G1 X68.942 Y121.106 E.60338
G1 X68.601 Y121.106 E.01069
G1 X68.601 Y118.299 E.08801
G1 X68.523 Y118.299 E.00245
G1 X68.523 Y101.862 E.51537
G1 X68.104 Y101.862 E.01314
G1 X68.104 Y118.299 E.51537
G1 X67.685 Y118.299 E.01314
G1 X67.685 Y101.862 E.51537
G1 X67.266 Y101.862 E.01314
G1 X67.266 Y118.299 E.51537
G1 X66.847 Y118.299 E.01314
G1 X66.847 Y101.862 E.51537
G1 X66.428 Y101.862 E.01314
G1 X66.428 Y118.299 E.51537
G1 X66.009 Y118.299 E.01314
G1 X66.009 Y101.692 E.5207
G1 E-3.5 F1500
G1 X87.278 Y146.876 F54000
G1 E3.5 F1500
;TYPE:Perimeter
;WIDTH:0.419999
G1 F2100
G1 X87.267 Y146.879 E.00036
G1 X86.625 Y146.957 E.02028
G1 X85.98 Y146.913 E.02027
G1 X85.354 Y146.748 E.0203
G1 X84.771 Y146.47 E.02025
G1 X84.115 Y145.957 E.02611
G1 X83.684 Y145.437 E.02118
G1 X83.375 Y144.869 E.02027
G1 X83.179 Y144.252 E.0203
G1 X83.101 Y143.61 E.02028
G1 X83.145 Y142.965 E.02027
G1 X83.31 Y142.34 E.02027
G1 X83.588 Y141.756 E.02028
G1 X83.972 Y141.235 E.02029
G1 X84.445 Y140.795 E.02026
G1 X84.993 Y140.451 E.02029
G1 X85.775 Y140.173 E.02602
G1 X86.445 Y140.087 E.02118
G1 X87.092 Y140.131 E.02033
G1 X87.718 Y140.295 E.02029
G1 X88.302 Y140.574 E.02029
G1 X88.825 Y140.958 E.02034
G1 X89.196 Y141.372 E.01743
G1 X89.484 Y141.756 E.01505
G1 X89.733 Y142.252 E.0174
G1 X89.894 Y142.79 E.01761
G1 X89.971 Y143.433 E.0203
G1 X89.927 Y144.078 E.02027
G1 X89.763 Y144.704 E.02029
G1 X89.484 Y145.287 E.02026
G1 X89.101 Y145.808 E.02027
G1 X88.475 Y146.356 E.02609
G1 X87.883 Y146.683 E.02121
G1 X87.335 Y146.858 E.01804
G1 X86.922 Y146.544 F54000
G1 F2100
G1 X86.589 Y146.581 E.01051
G1 X86.015 Y146.537 E.01805
G1 X85.459 Y146.386 E.01806
G1 X84.942 Y146.134 E.01803
G1 X84.356 Y145.666 E.02351
G1 X83.981 Y145.206 E.01861
G1 X83.711 Y144.697 E.01807
G1 X83.541 Y144.147 E.01805
G1 X83.477 Y143.575 E.01805
G1 X83.521 Y143.001 E.01805
G1 X83.672 Y142.445 E.01806
G1 X83.924 Y141.927 E.01806
G1 X84.269 Y141.466 E.01805
G1 X84.695 Y141.078 E.01807
G1 X85.185 Y140.776 E.01805
G1 X85.892 Y140.532 E.02345
G1 X86.481 Y140.462 E.0186
G1 X87.057 Y140.506 E.01811
G1 X87.613 Y140.657 E.01806
G1 X88.131 Y140.91 E.01808
G1 X88.593 Y141.256 E.0181
G1 X89.08 Y141.824 E.02346
G1 X89.361 Y142.346 E.01859
G1 X89.532 Y142.896 E.01806
G1 X89.596 Y143.468 E.01805
G1 X89.552 Y144.043 E.01808
G1 X89.401 Y144.598 E.01803
G1 X89.148 Y145.116 E.01808
G1 X88.803 Y145.577 E.01805
G1 X88.234 Y146.066 E.02352
G1 X87.712 Y146.347 E.01859
G1 X87.162 Y146.517 E.01805
G1 X86.982 Y146.537 E.00568
G1 X86.543 Y146.205 F54000
;TYPE:External perimeter
G1 F2100
G1 X86.051 Y146.162 E.01549
G1 X85.565 Y146.024 E.01584
G1 X85.113 Y145.798 E.01584
G1 X84.596 Y145.376 E.02092
G1 X84.279 Y144.975 E.01603
G1 X84.047 Y144.526 E.01585
G1 X83.903 Y144.042 E.01583
G1 X83.852 Y143.539 E.01585
G1 X83.896 Y143.036 E.01583
G1 X84.034 Y142.55 E.01584
G1 X84.26 Y142.098 E.01584
G1 X84.567 Y141.697 E.01583
G1 X84.944 Y141.36 E.01585
G1 X85.377 Y141.101 E.01582
G1 X86.009 Y140.89 E.02089
G1 X86.516 Y140.837 E.01598
G1 X87.022 Y140.882 E.01593
G1 X87.508 Y141.019 E.01583
G1 X87.96 Y141.246 E.01586
G1 X88.362 Y141.554 E.01588
G1 X88.79 Y142.064 E.02088
G1 X89.025 Y142.517 E.016
G1 X89.17 Y143.001 E.01584
G1 X89.221 Y143.504 E.01585
G1 X89.176 Y144.007 E.01583
G1 X89.039 Y144.493 E.01583
G1 X88.812 Y144.945 E.01586
G1 X88.505 Y145.346 E.01583
G1 X87.994 Y145.775 E.02092
G1 X87.541 Y146.011 E.01602
G1 X87.057 Y146.155 E.01583
G1 X86.602 Y146.201 E.01434
G1 X86.203 Y146.174 F54000
G1 E-3.5 F1500
G1 X101.528 Y146.876 F54000
G1 E3.5 F1500
;TYPE:Perimeter
G1 F2100
G1 X101.517 Y146.879 E.00036
G1 X100.875 Y146.957 E.02028
G1 X100.23 Y146.913 E.02027
G1 X99.604 Y146.748 E.0203
G1 X99.021 Y146.47 E.02025
G1 X98.365 Y145.957 E.02611
G1 X97.934 Y145.437 E.02118
G1 X97.625 Y144.869 E.02027
G1 X97.429 Y144.253 E.02027
G1 X97.357 Y143.671 E.01839
G1 X97.395 Y142.965 E.02217
G1 X97.56 Y142.34 E.02027
G1 X97.838 Y141.756 E.02028
G1 X98.223 Y141.233 E.02036
G1 X98.703 Y140.807 E.02012
G1 X99.021 Y140.574 E.01236
G1 X99.519 Y140.324 E.01747
G1 X100.055 Y140.164 E.01754
G1 X100.695 Y140.087 E.02021
G1 X101.342 Y140.131 E.02033
G1 X101.968 Y140.295 E.02029
G1 X102.552 Y140.574 E.02029
G1 X103.073 Y140.957 E.02027
G1 X103.621 Y141.583 E.02609
G1 X103.948 Y142.175 E.02121
G1 X104.144 Y142.791 E.02027
G1 X104.221 Y143.433 E.02027
G1 X104.177 Y144.078 E.02027
G1 X104.013 Y144.704 E.02029
G1 X103.734 Y145.287 E.02026
G1 X103.621 Y145.46 E.00648
G1 X103.221 Y145.943 E.01966
G1 X102.702 Y146.374 E.02115
G1 X102.133 Y146.683 E.0203
G1 X101.585 Y146.858 E.01804
G1 X101.172 Y146.544 F54000
G1 F2100
