; File Parsed By Flow Comp Script
; Script Ver. V0.7.1
; Flow Model Ver. V0.2.1
; Logger Ver. V0.0.1
; Flow Comp Model Points:
; (0, 0)
; (0.2, 0.4444)
; (0.4, 0.6145)
; (0.6, 0.7059)
; (0.8, 0.7619)
; (1.5, 0.8571)
; (2, 0.8889)
; (3, 0.9231)
; (5, 0.952)
; (10, 1)

; generated by PrusaSlicer 2.9.2 on 2025-04-14 at 13:55:46 UTC

; 

; external perimeters extrusion width = 0.45mm
; perimeters extrusion width = 0.45mm
; infill extrusion width = 0.45mm
; solid infill extrusion width = 0.45mm
; top infill extrusion width = 0.40mm
; support material extrusion width = 0.35mm
; first layer extrusion width = 0.42mm

;TYPE:Custom
G90 ; use absolute coordinates
M83 ; extruder relative mode
CALCULATE_PA BOWDEN_LENGTH=34.3 MATERIAL=PLA LAYER_HEIGHT=0.2 NOZZLE_SIZE=0.4 PRINT_SPEED=120 FILAMENT_DIAMETER=1.75 LINE_WIDTH=0.45 ; auto pressure advance
M104 S210 ; set temporary nozzle temp to prevent oozing during homing
M140 S58 ; set final bed temp
G4 S30 ; allow partial nozzle warmup
G28 ; home all axis
G1 Z50 F240
G1 X2.0 Y10 F3000
M104 S208 ; set final nozzle temp
M190 S58 ; wait for bed temp to stabilize
M109 S208 ; wait for nozzle temp to stabilize
G1 Z0.28 F240
G92 E0
G1 X2.0 Y140 E10 F1500 ; prime the nozzle
G1 X2.3 Y140 F5000
G92 E0
G1 X2.3 Y10 E10 F1200 ; prime the nozzle
G92 E0
G21 ; set units to millimeters
G90 ; use absolute coordinates
M83 ; use relative distances for extrusion
; Filament gcode
M107
;LAYER_CHANGE
;Z:0.2
;HEIGHT:0.2
G1 E-3.5 F1500
G1 Z.2 F54000
G1 X32.056 Y32.131
G1 Z.2
G1 E3.5 F1500
M204 S3500
;TYPE:Skirt/Brim
;WIDTH:0.42
G1 F2100
G1 X33.792 Y30.753 E.06949
G1 X36.709 Y30.023 E.09428
G1 X93.123 Y30.023 E1.76882
G1 X95.303 Y30.42 E.06948
G1 X97.204 Y31.559 E.06948
G1 X98.581 Y33.295 E.06948
G1 X99.312 Y36.212 E.09429
G1 X99.312 Y53.327 E.53663
G1 X99.207 Y54.461 E.03571
G1 X94.881 Y77.473 E.73416
G1 X94.296 Y79.1 E.05421
G1 X93.664 Y80.286 E.04214
G1 X92.709 Y81.6 E.05093
G1 X91.486 Y82.823 E.05423
G1 X89.966 Y83.903 E.05846
G1 X81.651 Y88.736 E.30155
G1 X78.541 Y89.574 E.10099
G1 X51.291 Y89.574 E.8544
G1 X48.124 Y88.703 E.10299
G1 X39.127 Y83.332 E.32854
G1 X37.761 Y82.273 E.05419
G1 X36.828 Y81.305 E.04215
G1 X36.025 Y80.23 E.04207
G1 X35.366 Y79.068 E.04188
G1 X34.986 Y78.191 E.02997
G1 X34.588 Y76.909 E.04209
G1 X30.613 Y54.397 E.71677
G1 X30.52 Y53.327 E.03368
G1 X30.52 Y36.212 E.53663
G1 X30.917 Y34.032 E.06948
G1 X32.026 Y32.182 E.06763
G1 E-3.5 F1500
G1 X53.824 Y39.019 F54000
G1 E3.5 F1500
;TYPE:Support material
G1 F2100
G1 X56.631 Y39.019 E.08801
G1 X56.631 Y41.826 E.08801
G1 X59.438 Y41.826 E.08801
G1 X59.438 Y44.633 E.08801
G1 X62.245 Y44.633 E.08801
G1 X62.245 Y47.44 E.08801
G1 X67.587 Y47.44 E.16749
G1 X67.587 Y44.633 E.08801
G1 X70.394 Y44.633 E.08801
G1 X70.394 Y41.826 E.08801
G1 X73.201 Y41.826 E.08801
G1 X73.201 Y39.019 E.08801
G1 X76.008 Y39.019 E.08801
G1 X76.008 Y36.212 E.08801
G1 X93.123 Y36.212 E.53663
G1 X93.123 Y53.327 E.53663
G1 X90.316 Y53.327 E.08801
G1 X90.316 Y56.134 E.08801
G1 X87.509 Y56.134 E.08801
G1 X87.509 Y58.941 E.08801
G1 X84.702 Y58.941 E.08801
G1 X84.702 Y61.748 E.08801
G1 X78.976 Y61.748 E.17953
G1 X78.976 Y57.855 E.12206
G1 X78.721 Y57.601 E.01128
G1 X73.201 Y57.601 E.17308
G1 X73.201 Y56.134 E.046
G1 X56.631 Y56.134 E.51954
G1 X56.631 Y57.601 E.046
G1 X51.111 Y57.601 E.17308
G1 X50.856 Y57.855 E.01128
G1 X50.856 Y61.594 E.11723
G1 X50.702 Y61.748 E.00683
G1 X45.13 Y61.748 E.17471
G1 X45.13 Y58.941 E.08801
G1 X42.323 Y58.941 E.08801
G1 X42.323 Y56.134 E.08801
G1 X39.516 Y56.134 E.08801
G1 X39.516 Y53.327 E.08801
G1 X36.709 Y53.327 E.08801
G1 X36.709 Y36.212 E.53663
G1 X53.824 Y36.212 E.53663
G1 X53.824 Y38.962 E.08622
G1 E-3.5 F1500
G1 X92.568 Y53.157 F54000
G1 E3.5 F1500
G1 F2100
G1 X92.568 Y36.551 E.52067
G1 X92.149 Y36.551 E.01314
G1 X92.149 Y52.988 E.51537
G1 X91.73 Y52.988 E.01314
G1 X91.73 Y36.551 E.51537
G1 X91.311 Y36.551 E.01314
G1 X91.311 Y52.988 E.51537
G1 X90.892 Y52.988 E.01314
G1 X90.892 Y36.551 E.51537
G1 X90.473 Y36.551 E.01314
G1 X90.473 Y52.988 E.51537
G1 X90.055 Y52.988 E.01311
G1 X90.055 Y36.551 E.51537
G1 X89.636 Y36.551 E.01314
G1 X89.636 Y55.795 E.60338
G1 X89.217 Y55.795 E.01314
G1 X89.217 Y36.551 E.60338
G1 X88.798 Y36.551 E.01314
G1 X88.798 Y55.795 E.60338
G1 X88.379 Y55.795 E.01314
G1 X88.379 Y36.551 E.60338
G1 X87.96 Y36.551 E.01314
G1 X87.96 Y55.795 E.60338
G1 X87.541 Y55.795 E.01314
G1 X87.541 Y36.551 E.60338
G1 X87.122 Y36.551 E.01314
G1 X87.122 Y58.602 E.69139
G1 X86.703 Y58.602 E.01314
G1 X86.703 Y36.551 E.69139
G1 X86.284 Y36.551 E.01314
G1 X86.284 Y58.602 E.69139
G1 X85.865 Y58.602 E.01314
G1 X85.865 Y36.551 E.69139
G1 X85.446 Y36.551 E.01314
G1 X85.446 Y58.602 E.69139
G1 X85.027 Y58.602 E.01314
G1 X85.027 Y36.551 E.69139
G1 X84.608 Y36.551 E.01314
G1 X84.608 Y58.602 E.69139
G1 X84.362 Y58.602 E.00771
G1 X84.362 Y61.409 E.08801
G1 X84.189 Y61.409 E.00542
G1 X84.189 Y36.551 E.77941
G1 X83.77 Y36.551 E.01314
G1 X83.77 Y61.409 E.77941
G1 X83.351 Y61.409 E.01314
G1 X83.351 Y36.551 E.77941
G1 X82.932 Y36.551 E.01314
G1 X82.932 Y61.409 E.77941
G1 X82.513 Y61.409 E.01314
G1 X82.513 Y36.551 E.77941
G1 X82.094 Y36.551 E.01314
G1 X82.094 Y61.409 E.77941
G1 X81.675 Y61.409 E.01314
G1 X81.675 Y36.551 E.77941
G1 X81.256 Y36.551 E.01314
G1 X81.256 Y61.409 E.77941
G1 X80.837 Y61.409 E.01314
G1 X80.837 Y36.551 E.77941
G1 X80.418 Y36.551 E.01314
G1 X80.418 Y61.409 E.77941
G1 X79.999 Y61.409 E.01314
G1 X79.999 Y36.551 E.77941
G1 X79.58 Y36.551 E.01314
G1 X79.58 Y61.409 E.77941
G1 X79.315 Y61.409 E.00831
G1 X79.315 Y57.715 E.11582
G1 X79.161 Y57.561 E.00683
G1 X79.161 Y36.551 E.65875
G1 X78.742 Y36.551 E.01314
G1 X78.742 Y57.261 E.64935
G1 X78.323 Y57.261 E.01314
G1 X78.323 Y36.551 E.64935
G1 X77.904 Y36.551 E.01314
G1 X77.904 Y57.261 E.64935
G1 X77.485 Y57.261 E.01314
G1 X77.485 Y36.551 E.64935
G1 X77.066 Y36.551 E.01314
G1 X77.066 Y57.261 E.64935
G1 X76.647 Y57.261 E.01314
G1 X76.647 Y36.551 E.64935
G1 X76.347 Y36.551 E.00941
G1 X76.347 Y39.358 E.08801
G1 X76.228 Y39.358 E.00373
G1 X76.228 Y57.261 E.56134
G1 X75.809 Y57.261 E.01314
G1 X75.809 Y39.358 E.56134
G1 X75.39 Y39.358 E.01314
G1 X75.39 Y57.261 E.56134
G1 X74.971 Y57.261 E.01314
G1 X74.971 Y39.358 E.56134
G1 X74.552 Y39.358 E.01314
G1 X74.552 Y57.261 E.56134
G1 X74.133 Y57.261 E.01314
G1 X74.133 Y39.358 E.56134
G1 X73.714 Y39.358 E.01314
G1 X73.714 Y57.261 E.56134
G1 X73.54 Y57.261 E.00546
G1 X73.54 Y55.795 E.04597
G1 X73.295 Y55.795 E.00768
G1 X73.295 Y42.165 E.42736
G1 X72.876 Y42.165 E.01314
G1 X72.876 Y55.795 E.42736
G1 X72.457 Y55.795 E.01314
G1 X72.457 Y42.165 E.42736
G1 X72.039 Y42.165 E.01311
G1 X72.039 Y55.795 E.42736
G1 X71.62 Y55.795 E.01314
G1 X71.62 Y42.165 E.42736
G1 X71.201 Y42.165 E.01314
G1 X71.201 Y55.795 E.42736
G1 X70.782 Y55.795 E.01314
G1 X70.782 Y42.165 E.42736
G1 X70.733 Y44.972 E.08802
G1 X70.363 Y44.972 E.0116
G1 X70.363 Y55.795 E.33935
G1 X69.944 Y55.795 E.01314
G1 X69.944 Y44.972 E.33935
G1 X69.525 Y44.972 E.01314
G1 X69.525 Y55.795 E.33935
G1 X69.106 Y55.795 E.01314
G1 X69.106 Y44.972 E.33935
G1 X68.687 Y44.972 E.01314
G1 X68.687 Y55.795 E.33935
G1 X68.268 Y55.795 E.01314
G1 X68.268 Y44.972 E.33935
G1 X67.926 Y44.972 E.01072
G1 X67.926 Y47.779 E.08801
G1 X67.849 Y47.779 E.00241
G1 X67.849 Y55.795 E.25134
G1 X67.43 Y55.795 E.01314
G1 X67.43 Y47.779 E.25134
G1 X67.011 Y47.779 E.01314
G1 X67.011 Y55.795 E.25134
G1 X66.592 Y55.795 E.01314
G1 X66.592 Y47.779 E.25134
G1 X66.173 Y47.779 E.01314
G1 X66.173 Y55.795 E.25134
G1 X65.754 Y55.795 E.01314
G1 X65.754 Y47.779 E.25134
G1 X65.335 Y47.779 E.01314
G1 X65.335 Y55.795 E.25134
G1 X64.916 Y55.795 E.01314
G1 X64.916 Y47.779 E.25134
G1 X64.497 Y47.779 E.01314
G1 X64.497 Y55.795 E.25134
G1 X64.078 Y55.795 E.01314
G1 X64.078 Y47.779 E.25134
G1 X63.659 Y47.779 E.01314
G1 X63.659 Y55.795 E.25134
G1 X63.24 Y55.795 E.01314
G1 X63.24 Y47.779 E.25134
G1 X62.821 Y47.779 E.01314
G1 X62.821 Y55.795 E.25134
G1 X62.402 Y55.795 E.01314
G1 X62.402 Y47.779 E.25134
G1 X61.983 Y47.779 E.01314
G1 X61.983 Y55.795 E.25134
G1 X61.564 Y55.795 E.01314
G1 X61.564 Y44.972 E.33935
G1 X61.145 Y44.972 E.01314
G1 X61.145 Y55.795 E.33935
G1 X60.726 Y55.795 E.01314
G1 X60.726 Y44.972 E.33935
G1 X60.307 Y44.972 E.01314
G1 X60.307 Y55.795 E.33935
G1 X59.888 Y55.795 E.01314
G1 X59.888 Y44.972 E.33935
G1 X59.469 Y44.972 E.01314
G1 X59.469 Y55.795 E.33935
G1 X59.05 Y55.795 E.01314
G1 X59.05 Y42.165 E.42736
G1 X58.631 Y42.165 E.01314
G1 X58.631 Y55.795 E.42736
G1 X58.212 Y55.795 E.01314
G1 X58.212 Y42.165 E.42736
G1 X57.793 Y42.165 E.01314
G1 X57.793 Y55.795 E.42736
G1 X57.374 Y55.795 E.01314
G1 X57.374 Y42.165 E.42736
G1 X56.955 Y42.165 E.01314
G1 X56.955 Y55.795 E.42736
G1 X56.536 Y55.795 E.01314
G1 X56.536 Y42.165 E.42736
G1 X56.292 Y42.165 E.00765
G1 X56.292 Y39.358 E.08801
G1 X56.117 Y39.358 E.00549
G1 X56.117 Y57.261 E.56134
G1 X55.698 Y57.261 E.01314
G1 X55.698 Y39.358 E.56134
G1 X55.279 Y39.358 E.01314
G1 X55.279 Y57.261 E.56134
G1 X54.86 Y57.261 E.01314
G1 X54.86 Y39.358 E.56134
G1 X54.441 Y39.358 E.01314
G1 X54.441 Y57.261 E.56134
G1 X54.022 Y57.261 E.01314
G1 X54.022 Y39.358 E.56134
G1 X53.604 Y39.358 E.01311
G1 X53.604 Y57.261 E.56134
G1 X53.185 Y57.261 E.01314
G1 X53.185 Y36.551 E.64935
G1 X52.766 Y36.551 E.01314
G1 X52.766 Y57.261 E.64935
G1 X52.347 Y57.261 E.01314
G1 X52.347 Y36.551 E.64935
G1 X51.928 Y36.551 E.01314
G1 X51.928 Y57.261 E.64935
G1 X51.509 Y57.261 E.01314
G1 X51.509 Y36.551 E.64935
G1 X51.09 Y36.551 E.01314
G1 X51.09 Y57.261 E.64935
G1 X50.97 Y57.261 E.00376
G1 X50.671 Y57.561 E.01328
G1 X50.671 Y36.551 E.65875
G1 X50.252 Y36.551 E.01314
G1 X50.252 Y61.409 E.77941
G1 X49.833 Y61.409 E.01314
G1 X49.833 Y36.551 E.77941
G1 X49.414 Y36.551 E.01314
G1 X49.414 Y61.409 E.77941
G1 X48.995 Y61.409 E.01314
G1 X48.995 Y36.551 E.77941
G1 X48.576 Y36.551 E.01314
G1 X48.576 Y61.409 E.77941
G1 X48.157 Y61.409 E.01314
G1 X48.157 Y36.551 E.77941
G1 X47.738 Y36.551 E.01314
G1 X47.738 Y61.409 E.77941
G1 X47.319 Y61.409 E.01314
G1 X47.319 Y36.551 E.77941
G1 X46.9 Y36.551 E.01314
G1 X46.9 Y61.409 E.77941
G1 X46.481 Y61.409 E.01314
G1 X46.481 Y36.551 E.77941
G1 X46.062 Y36.551 E.01314
G1 X46.062 Y61.409 E.77941
G1 X45.643 Y61.409 E.01314
G1 X45.643 Y36.551 E.77941
G1 X45.224 Y36.551 E.01314
G1 X45.224 Y58.602 E.69139
G1 X44.805 Y58.602 E.01314
G1 X44.805 Y36.551 E.69139
G1 X44.386 Y36.551 E.01314
G1 X44.386 Y58.602 E.69139
G1 X43.967 Y58.602 E.01314
G1 X43.967 Y36.551 E.69139
G1 X43.548 Y36.551 E.01314
G1 X43.548 Y58.602 E.69139
G1 X43.129 Y58.602 E.01314
G1 X43.129 Y36.551 E.69139
G1 X42.71 Y36.551 E.01314
G1 X42.662 Y58.602 E.6914
G1 X42.662 Y55.795 E.08801
G1 X42.291 Y55.795 E.01163
G1 X42.291 Y36.551 E.60338
G1 X41.872 Y36.551 E.01314
G1 X41.872 Y55.795 E.60338
G1 X41.453 Y55.795 E.01314
G1 X41.453 Y36.551 E.60338
G1 X41.034 Y36.551 E.01314
G1 X41.034 Y55.795 E.60338
G1 X40.615 Y55.795 E.01314
G1 X40.615 Y36.551 E.60338
G1 X40.196 Y36.551 E.01314
G1 X40.196 Y55.795 E.60338
G1 X39.855 Y55.795 E.01069
G1 X39.855 Y52.988 E.08801
G1 X39.777 Y52.988 E.00245
G1 X39.777 Y36.551 E.51537
G1 X39.358 Y36.551 E.01314
G1 X39.358 Y52.988 E.51537
G1 X38.939 Y52.988 E.01314
G1 X38.939 Y36.551 E.51537
G1 X38.52 Y36.551 E.01314
G1 X38.52 Y52.988 E.51537
G1 X38.101 Y52.988 E.01314
G1 X38.101 Y36.551 E.51537
G1 X37.682 Y36.551 E.01314
G1 X37.682 Y52.988 E.51537
G1 X37.263 Y52.988 E.01314
G1 X37.263 Y36.381 E.5207
G1 E-3.5 F1500
G1 X72.729 Y81.573 F54000
G1 E3.5 F1500
;TYPE:Perimeter
;WIDTH:0.419999
G1 F2100
G1 X72.13 Y81.646 E.01892
G1 X71.484 Y81.602 E.0203
G1 X70.859 Y81.437 E.02027
G1 X70.275 Y81.159 E.02028
G1 X69.752 Y80.773 E.02038
G1 X69.206 Y80.149 E.026
G1 X68.88 Y79.558 E.02116
G1 X68.683 Y78.942 E.02028
G1 X68.612 Y78.36 E.01838
G1 X68.65 Y77.654 E.02217
G1 X68.814 Y77.029 E.02026
G1 X69.093 Y76.445 E.02029
G1 X69.478 Y75.922 E.02036
G1 X69.955 Y75.498 E.02001
G1 X70.275 Y75.263 E.01245
G1 X70.774 Y75.013 E.0175
G1 X71.31 Y74.853 E.01754
G1 X71.949 Y74.776 E.02018
G1 X72.597 Y74.82 E.02036
G1 X73.223 Y74.984 E.02029
G1 X73.877 Y75.302 E.0228
G1 X74.327 Y75.646 E.01776
G1 X74.875 Y76.272 E.02609
G1 X75.202 Y76.864 E.02121
G1 X75.399 Y77.48 E.02028
G1 X75.476 Y78.122 E.02027
G1 X75.432 Y78.767 E.02027
G1 X75.267 Y79.393 E.0203
G1 X74.989 Y79.976 E.02025
G1 X74.476 Y80.632 E.02611
G1 X73.956 Y81.063 E.02118
G1 X73.388 Y81.372 E.02027
G1 X72.788 Y81.563 E.01974
G1 X72.382 Y81.238 F54000
G1 F2100
G1 X72.094 Y81.27 E.00909
G1 X71.52 Y81.226 E.01805
G1 X70.964 Y81.075 E.01806
G1 X70.446 Y80.823 E.01806
G1 X69.983 Y80.476 E.01814
G1 X69.497 Y79.908 E.02344
G1 X69.216 Y79.386 E.01859
G1 X69.045 Y78.836 E.01806
G1 X68.987 Y78.325 E.01612
G1 X69.025 Y77.69 E.01995
G1 X69.176 Y77.134 E.01806
G1 X69.429 Y76.617 E.01805
G1 X69.776 Y76.153 E.01817
G1 X70.195 Y75.789 E.0174
G1 X70.447 Y75.599 E.0099
G1 X70.913 Y75.364 E.01636
G1 X71.415 Y75.215 E.01642
G1 X71.985 Y75.151 E.01798
G1 X72.561 Y75.195 E.01811
G1 X73.118 Y75.346 E.01809
G1 X73.678 Y75.623 E.01959
G1 X74.096 Y75.944 E.01652
G1 X74.585 Y76.513 E.02352
G1 X74.866 Y77.035 E.01859
G1 X75.036 Y77.585 E.01805
G1 X75.101 Y78.157 E.01805
G1 X75.056 Y78.732 E.01808
G1 X74.905 Y79.288 E.01806
G1 X74.653 Y79.805 E.01803
G1 X74.186 Y80.391 E.02349
G1 X73.725 Y80.766 E.01863
G1 X73.217 Y81.036 E.01804
G1 X72.667 Y81.206 E.01805
G1 X72.442 Y81.231 E.0071
G1 X72.034 Y80.893 F54000
;TYPE:External perimeter
G1 F2100
G1 X71.555 Y80.851 E.01508
G1 X71.069 Y80.713 E.01584
G1 X70.618 Y80.487 E.01582
G1 X70.215 Y80.178 E.01592
G1 X69.788 Y79.668 E.02086
G1 X69.552 Y79.215 E.01602
G1 X69.407 Y78.731 E.01584
G1 X69.357 Y78.229 E.01582
G1 X69.401 Y77.725 E.01586
G1 X69.538 Y77.239 E.01583
G1 X69.765 Y76.788 E.01583
G1 X70.074 Y76.384 E.01595
G1 X70.583 Y75.957 E.02083
G1 X71.036 Y75.721 E.01602
G1 X71.52 Y75.577 E.01583
G1 X72.02 Y75.527 E.01576
G1 X72.526 Y75.571 E.01593
G1 X73.013 Y75.708 E.01586
G1 X73.478 Y75.943 E.01634
G1 X73.88 Y76.254 E.01594
G1 X74.294 Y76.753 E.02033
G1 X74.53 Y77.206 E.01602
G1 X74.674 Y77.69 E.01583
G1 X74.725 Y78.193 E.01585
G1 X74.681 Y78.696 E.01583
G1 X74.543 Y79.182 E.01584
G1 X74.317 Y79.634 E.01584
G1 X73.895 Y80.151 E.02092
G1 X73.494 Y80.468 E.01603
G1 X73.046 Y80.7 E.01582
G1 X72.561 Y80.844 E.01586
G1 X72.094 Y80.891 E.01472
G1 X71.695 Y80.862 F54000
G1 E-3.5 F1500
G1 X85.481 Y76.895 F54000
G1 E3.5 F1500
;TYPE:Perimeter
G1 F2100
G1 X85.367 Y76.948 E.00394
G1 X84.765 Y77.079 E.01932
G1 X84.204 Y77.058 E.0176
G1 X83.804 Y76.956 E.01294
G1 X83.316 Y76.738 E.01676
G1 X82.997 Y76.493 E.01261
G1 X82.633 Y76.118 E.01639
G1 X82.452 Y75.817 E.01101
G1 X82.289 Y75.441 E.01285
G1 X82.181 Y74.958 E.01552
G1 X82.169 Y74.549 E.01283
G1 X82.22 Y74.14 E.01292
G1 X82.425 Y73.579 E.01873
G1 X82.771 Y73.073 E.01922
G1 X83.052 Y72.815 E.01196
G1 X83.391 Y72.586 E.01283
G1 X83.844 Y72.389 E.01549
G1 X84.244 Y72.3 E.01285
G1 X84.656 Y72.274 E.01294
G1 X84.928 Y72.3 E.00857
G1 X85.328 Y72.402 E.01294
G1 X85.834 Y72.63 E.0174
G1 X86.113 Y72.843 E.01101
G1 X86.511 Y73.256 E.01798
G1 X86.692 Y73.569 E.01134
G1 X86.909 Y74.113 E.01836
G1 X86.962 Y74.778 E.02092
G1 X86.919 Y75.19 E.01299
G1 X86.747 Y75.682 E.01634
G1 X86.548 Y76.044 E.01295
G1 X86.179 Y76.467 E.0176
G1 X85.741 Y76.772 E.01673
G1 X85.535 Y76.869 E.00714
G1 X85.207 Y76.6 F54000
G1 F2100
G1 X85.205 Y76.601 E.00007
G1 X84.629 Y76.712 E.01839
G1 X84.122 Y76.664 E.01597
G1 X83.578 Y76.447 E.01836
G1 X83.264 Y76.227 E.01202
G1 X82.927 Y75.882 E.01512
G1 X82.635 Y75.291 E.02067
G1 X82.558 Y74.947 E.01105
G1 X82.545 Y74.537 E.01286
G1 X82.659 Y73.983 E.01773
G1 X82.784 Y73.716 E.00924
G1 X83.108 Y73.26 E.01754
G1 X83.602 Y72.897 E.01922
G1 X83.927 Y72.757 E.0111
G1 X84.326 Y72.668 E.01282
G1 X84.893 Y72.675 E.01778
G1 X85.178 Y72.748 E.00922
G1 X85.647 Y72.957 E.0161
G1 X86.135 Y73.399 E.02064
G1 X86.346 Y73.719 E.01202
G1 X86.544 Y74.206 E.01648
G1 X86.585 Y74.79 E.01836
G1 X86.531 Y75.169 E.012
G1 X86.331 Y75.689 E.01747
G1 X86.004 Y76.117 E.01689
G1 X85.529 Y76.46 E.01837
G1 X85.262 Y76.576 E.00913
G1 X84.9 Y76.275 F54000
G1 F2100
G1 X84.723 Y76.322 E.00574
G1 X84.253 Y76.305 E.01475
G1 X83.728 Y76.101 E.01766
