; generated by PrusaSlicer 2.9.0 on 2025-01-20 at 09:55:54 UTC

; 

; external perimeters extrusion width = 0.42mm
; perimeters extrusion width = 0.44mm
; infill extrusion width = 0.44mm
; solid infill extrusion width = 0.44mm
; top infill extrusion width = 0.40mm
; support material extrusion width = 0.36mm
; first layer extrusion width = 0.42mm

; external perimeters extrusion width = 0.42mm
; perimeters extrusion width = 0.44mm
; infill extrusion width = 0.44mm
; solid infill extrusion width = 0.44mm
; top infill extrusion width = 0.40mm
; support material extrusion width = 0.36mm
; first layer extrusion width = 0.42mm

; external perimeters extrusion width = 0.42mm
; perimeters extrusion width = 0.44mm
; infill extrusion width = 0.44mm
; solid infill extrusion width = 0.44mm
; top infill extrusion width = 0.40mm
; support material extrusion width = 0.36mm
; first layer extrusion width = 0.42mm


; printing object spacer.stl id:1 copy 0
; stop printing object spacer.stl id:1 copy 0
; printing object brass_washer.stl id:2 copy 0
; stop printing object brass_washer.stl id:2 copy 0
; printing object x_axis_carriage_original.stl id:0 copy 0
; stop printing object x_axis_carriage_original.stl id:0 copy 0

;TYPE:Custom
G90 ; use absolute coordinates
M83 ; extruder relative mode
M104 S150 ; set temporary nozzle temp to prevent oozing during homing
M140 S60 ; set final bed temp
G4 S30 ; allow partial nozzle warmup
G28 ; home all axis
G1 Z50 F240
G1 X2.0 Y10 F3000
M104 S210 ; set final nozzle temp
M190 S60 ; wait for bed temp to stabilize
M109 S210 ; wait for nozzle temp to stabilize
G1 Z0.28 F240
G92 E0
G1 X2.0 Y140 E10 F1500 ; prime the nozzle
G1 X2.3 Y140 F5000
G92 E0
G1 X2.3 Y10 E10 F1200 ; prime the nozzle
G92 E0
G21 ; set units to millimeters
G90 ; use absolute coordinates
M83 ; use relative distances for extrusion
; Filament gcode
M107
;LAYER_CHANGE
;Z:0.2
;HEIGHT:0.2
G1 E-2.5 F1800
G1 Z.2 F54000
G1 X56.9 Y49.121
G1 Z.2
G1 E2.5 F1200
M204 S4000
;TYPE:Skirt/Brim
;WIDTH:0.42
G1 F1800
G1 X60.585 Y44.852 E.17682
G1 X61.75 Y43.825 E.04869
G1 X63.157 Y43.051 E.05035
G1 X64.453 Y42.655 E.04249
G1 X65.904 Y42.507 E.04573
G1 X96.924 Y42.551 E.97261
G1 X98.36 Y42.698 E.04526
G1 X99.649 Y43.092 E.04226
G1 X101.048 Y43.861 E.05005
G1 X102.072 Y44.739 E.04229
G1 X118.239 Y63.762 E.78276
G1 X118.997 Y65.825 E.06891
G1 X118.997 Y113.868 E1.50635
G1 X118.66 Y115.294 E.04594
G1 X116.026 Y120.563 E.1847
G1 X114.6 Y121.989 E.06323
G1 X111.966 Y123.306 E.09234
G1 X110.54 Y123.642 E.04594
G1 X51.96 Y123.642 E1.83673
G1 X50.534 Y123.306 E.04594
G1 X47.9 Y121.989 E.09234
G1 X46.474 Y120.563 E.06323
G1 X43.84 Y115.294 E.1847
G1 X43.503 Y113.868 E.04594
G1 X43.503 Y65.825 E1.50635
G1 X44.278 Y63.742 E.06968
G1 X56.861 Y49.166 E.60376
G1 E-.5
;WIPE_START
G1 F43200
G1 X56.9 Y49.121 E-.00236
G1 X60.585 Y44.852 E-.22323
G1 X61.75 Y43.825 E-.06147
G1 X63.157 Y43.051 E-.06356
G1 X64.453 Y42.655 E-.05364
G1 X65.904 Y42.507 E-.05773
G1 X96.924 Y42.551 E-1.22788
G1 X98.36 Y42.698 E-.05714
G1 X99.649 Y43.092 E-.05335
G1 X101.048 Y43.861 E-.06319
G1 X102.072 Y44.739 E-.05339
G1 X103.431 Y46.338 E-.08306
;WIPE_END
; printing object x_axis_carriage_original.stl id:0 copy 0
G1 X88.15 Y52.654 F54000
G1 E2.5 F1200
;TYPE:Support material
G1 F1800
G1 X90.784 Y52.654 E.08259
G1 X90.784 Y53.971 E.04129
G1 X93.418 Y53.971 E.08259
G1 X93.418 Y56.605 E.08259
G1 X94.735 Y56.605 E.04129
G1 X94.735 Y57.923 E.04132
G1 X96.052 Y57.923 E.04129
G1 X96.052 Y65.825 E.24776
G1 X99.288 Y65.825 E.10146
G1 X99.288 Y66.543 E.02251
G1 X98.059 Y66.543 E.03853
G1 X97.788 Y66.814 E.01202
G1 X97.788 Y69.697 E.09039
G1 X98.059 Y69.967 E.01199
G1 X103.291 Y69.967 E.16405
G1 X103.562 Y69.697 E.01199
G1 X103.562 Y66.814 E.09039
G1 X103.291 Y66.543 E.01202
G1 X102.062 Y66.543 E.03853
G1 X102.062 Y65.825 E.02251
G1 X105.888 Y65.825 E.11996
G1 X105.888 Y66.543 E.02251
G1 X104.659 Y66.543 E.03853
G1 X104.388 Y66.814 E.01202
G1 X104.388 Y69.697 E.09039
G1 X104.659 Y69.967 E.01199
G1 X111.941 Y69.967 E.22832
G1 X112.212 Y69.697 E.01199
G1 X112.212 Y66.814 E.09039
G1 X111.941 Y66.543 E.01202
G1 X110.712 Y66.543 E.03853
G1 X110.712 Y65.825 E.02251
G1 X115.808 Y65.825 E.15978
G1 X115.808 Y113.868 E1.50635
G1 X114.491 Y113.868 E.04129
G1 X114.491 Y116.503 E.08262
G1 X113.174 Y116.503 E.04129
G1 X113.174 Y119.137 E.08259
G1 X110.54 Y119.137 E.08259
G1 X110.54 Y120.454 E.04129
G1 X51.96 Y120.454 E1.83673
G1 X51.96 Y119.137 E.04129
G1 X49.326 Y119.137 E.08259
G1 X49.326 Y116.503 E.08259
G1 X48.009 Y116.503 E.04129
G1 X48.009 Y113.868 E.08262
G1 X46.692 Y113.868 E.04129
G1 X46.692 Y65.825 E1.50635
G1 X51.788 Y65.825 E.15978
G1 X51.788 Y66.543 E.02251
G1 X50.559 Y66.543 E.03853
G1 X50.288 Y66.814 E.01202
G1 X50.288 Y69.697 E.09039
G1 X50.559 Y69.967 E.01199
G1 X55.791 Y69.967 E.16405
G1 X56.062 Y69.697 E.01199
G1 X56.062 Y66.814 E.09039
G1 X55.791 Y66.543 E.01202
G1 X54.562 Y66.543 E.03853
G1 X54.562 Y65.825 E.02251
G1 X58.388 Y65.825 E.11996
G1 X58.388 Y66.543 E.02251
G1 X57.159 Y66.543 E.03853
G1 X56.888 Y66.814 E.01202
G1 X56.888 Y69.697 E.09039
G1 X57.159 Y69.967 E.01199
G1 X62.441 Y69.967 E.16561
G1 X62.712 Y69.697 E.01199
G1 X62.712 Y66.814 E.09039
G1 X62.441 Y66.543 E.01202
G1 X61.212 Y66.543 E.03853
G1 X61.212 Y65.825 E.02251
G1 X65.131 Y65.825 E.12288
G1 X65.131 Y60.557 E.16517
G1 X66.448 Y60.557 E.04129
G1 X66.448 Y56.605 E.12391
G1 X67.765 Y56.605 E.04129
G1 X67.765 Y55.288 E.04129
G1 X69.082 Y55.288 E.04129
G1 X69.082 Y53.971 E.04129
G1 X70.399 Y53.971 E.04129
G1 X70.399 Y52.654 E.04129
G1 X73.033 Y52.654 E.08259
G1 X73.033 Y51.337 E.04129
G1 X88.15 Y51.337 E.47398
G1 X88.15 Y52.598 E.03954
G1 X88.15 Y52.598 F54000
G1 X71.028 Y79.624
G1 F1800
G1 X84.887 Y79.624 E.43454
G1 X84.887 Y86.898 E.22807
G1 X71.028 Y86.898 E.43454
G1 X71.028 Y85.581 E.04129
G1 X69.711 Y85.581 E.04129
G1 X69.711 Y80.941 E.14548
G1 X71.028 Y80.941 E.04129
G1 X71.028 Y79.681 E.03951
G1 E-.5
;WIPE_START
G1 F43200
G1 X71.028 Y80.941 E-.04988
G1 X69.711 Y80.941 E-.05213
G1 X69.711 Y85.581 E-.18367
G1 X71.028 Y85.581 E-.05213
G1 X71.028 Y86.898 E-.05213
G1 X84.887 Y86.898 E-.54859
G1 X84.887 Y79.624 E-.28793
G1 X71.028 Y79.624 E-.54859
;WIPE_END
G1 E-.22495 F1800
G1 X115.187 Y113.699 F54000
G1 E2.5 F1200
G1 F1800
G1 X115.187 Y66.164 E1.49043
G1 X114.768 Y66.164 E.01314
G1 X114.768 Y113.529 E1.4851
G1 X114.349 Y113.529 E.01314
G1 X114.349 Y66.164 E1.4851
G1 X113.93 Y66.164 E.01314
G1 X113.93 Y116.163 E1.56768
G1 X113.511 Y116.163 E.01314
G1 X113.511 Y66.164 E1.56768
G1 X113.092 Y66.164 E.01314
G1 X113.092 Y116.163 E1.56768
G1 X112.835 Y116.163 E.00806
G1 X112.835 Y118.797 E.08259
G1 X112.673 Y118.797 E.00508
G1 X112.673 Y66.164 E1.65027
G1 X112.254 Y66.164 E.01314
G1 X112.254 Y66.376 E.00665
G1 X112.082 Y66.204 E.00763
G1 X111.416 Y66.164 E.02092
G1 X111.416 Y66.374 E.00658
G1 E-.5
;WIPE_START
G1 F43200
G1 X111.416 Y66.164 E-.00831
G1 X112.082 Y66.204 E-.02641
G1 X112.254 Y66.376 E-.00963
G1 X112.254 Y66.164 E-.00839
G1 X112.673 Y66.164 E-.01659
G1 X112.673 Y114.939 E-1.93067
;WIPE_END
G1 X112.254 Y118.967 F54000
G1 E2.5 F1200
G1 F1800
G1 X112.254 Y70.134 E1.53112
G1 X112.082 Y70.307 E.00765
G1 X111.835 Y70.307 E.00774
G1 X111.835 Y118.797 E1.52037
G1 X111.416 Y118.797 E.01314
G1 X111.416 Y70.307 E1.52037
G1 X110.997 Y70.307 E.01314
G1 X110.997 Y118.797 E1.52037
G1 X110.578 Y118.797 E.01314
G1 X110.578 Y70.307 E1.52037
G1 X110.159 Y70.307 E.01314
G1 X110.159 Y120.114 E1.56166
G1 X109.74 Y120.114 E.01314
G1 X109.74 Y70.307 E1.56166
G1 X109.321 Y70.307 E.01314
G1 X109.321 Y120.114 E1.56166
G1 X108.902 Y120.114 E.01314
G1 X108.902 Y70.307 E1.56166
G1 X108.484 Y70.307 E.01311
G1 X108.484 Y120.114 E1.56166
G1 X108.065 Y120.114 E.01314
G1 X108.065 Y70.307 E1.56166
G1 X107.646 Y70.307 E.01314
G1 X107.646 Y120.114 E1.56166
G1 X107.227 Y120.114 E.01314
G1 X107.227 Y70.307 E1.56166
G1 X106.808 Y70.307 E.01314
G1 X106.808 Y120.114 E1.56166
G1 X106.389 Y120.114 E.01314
G1 X106.389 Y70.307 E1.56166
G1 X105.97 Y70.307 E.01314
G1 X105.97 Y120.114 E1.56166
G1 X105.551 Y120.114 E.01314
G1 X105.551 Y70.307 E1.56166
G1 X105.132 Y70.307 E.01314
G1 X105.132 Y120.114 E1.56166
G1 X104.713 Y120.114 E.01314
G1 X104.713 Y70.307 E1.56166
G1 X104.518 Y70.307 E.00611
G1 X104.294 Y70.083 E.00993
G1 X104.294 Y120.114 E1.56869
G1 X103.875 Y120.114 E.01314
G1 X103.875 Y66.164 E1.69156
G1 X104.294 Y66.164 E.01314
G1 X104.294 Y66.428 E.00828
G1 X104.518 Y66.204 E.00993
G1 X105.132 Y66.164 E.01929
G1 X105.132 Y66.374 E.00658
G1 E-.5
;WIPE_START
G1 F43200
G1 X105.132 Y66.164 E-.00831
G1 X104.518 Y66.204 E-.02436
G1 X104.294 Y66.428 E-.01254
G1 X104.294 Y66.164 E-.01045
G1 X103.875 Y66.164 E-.01659
G1 X103.875 Y114.866 E-1.92775
;WIPE_END
G1 X103.456 Y120.284 F54000
G1 E2.5 F1200
G1 F1800
G1 X103.456 Y70.283 E1.56775
G1 X103.037 Y70.307 E.01316
G1 X103.037 Y120.114 E1.56166
G1 X102.618 Y120.114 E.01314
G1 X102.618 Y70.307 E1.56166
G1 X102.199 Y70.307 E.01314
G1 X102.199 Y120.114 E1.56166
G1 X101.78 Y120.114 E.01314
G1 X101.78 Y70.307 E1.56166
G1 X101.361 Y70.307 E.01314
G1 X101.361 Y120.114 E1.56166
G1 X100.942 Y120.114 E.01314
G1 X100.942 Y70.307 E1.56166
G1 X100.523 Y70.307 E.01314
G1 X100.523 Y120.114 E1.56166
G1 X100.104 Y120.114 E.01314
G1 X100.104 Y70.307 E1.56166
G1 X99.685 Y70.307 E.01314
G1 X99.685 Y120.114 E1.56166
G1 X99.266 Y120.114 E.01314
G1 X99.266 Y70.307 E1.56166
G1 X98.847 Y70.307 E.01314
G1 X98.847 Y120.114 E1.56166
G1 X98.428 Y120.114 E.01314
G1 X98.428 Y70.307 E1.56166
G1 X98.009 Y70.307 E.01314
G1 X98.009 Y120.114 E1.56166
G1 X97.59 Y120.114 E.01314
G1 X97.59 Y66.164 E1.69156
G1 X98.847 Y66.164 E.03941
G1 X98.847 Y66.374 E.00658
G1 E-.5
;WIPE_START
G1 F43200
G1 X98.847 Y66.164 E-.00831
G1 X97.59 Y66.164 E-.04976
G1 X97.59 Y115.224 E-1.94193
;WIPE_END
G1 X103.456 Y66.468 F54000
G1 E2.5 F1200
G1 F1800
G1 X103.456 Y66.164 E.00953
G1 X102.618 Y66.204 E.0263
G1 X102.618 Y65.995 E.00655
G1 E-.5
;WIPE_START
G1 F43200
G1 X102.618 Y66.204 E-.00827
G1 X103.456 Y66.164 E-.03321
G1 X103.456 Y66.468 E-.01203
;WIPE_END
G1 E-1.94649 F1800
G1 X97.171 Y120.284 F54000
G1 E2.5 F1200
G1 F1800
G1 X97.171 Y66.164 E1.69689
G1 X96.752 Y66.164 E.01314
G1 X96.752 Y120.114 E1.69156
G1 X96.333 Y120.114 E.01314
G1 X96.333 Y66.164 E1.69156
G1 X95.914 Y66.164 E.01314
G1 X95.914 Y120.114 E1.69156
G1 X95.495 Y120.114 E.01314
G1 X95.495 Y58.262 E1.93933
G1 X95.076 Y58.262 E.01314
G1 X95.076 Y120.114 E1.93933
G1 X94.657 Y120.114 E.01314
G1 X94.657 Y58.262 E1.93933
G1 X94.396 Y58.262 E.00818
G1 X94.396 Y56.945 E.04129
G1 X94.238 Y56.945 E.00495
G1 X94.238 Y120.114 E1.98062
G1 X93.819 Y120.114 E.01314
G1 X93.819 Y56.945 E1.98062
G1 X93.4 Y56.945 E.01314
G1 X93.4 Y120.114 E1.98062
G1 X92.981 Y120.114 E.01314
G1 X92.981 Y54.311 E2.06321
G1 X92.562 Y54.311 E.01314
G1 X92.562 Y120.114 E2.06321
G1 X92.143 Y120.114 E.01314
G1 X92.143 Y54.311 E2.06321
G1 X91.724 Y54.311 E.01314
G1 X91.724 Y120.114 E2.06321
G1 X91.305 Y120.114 E.01314
G1 X91.305 Y54.311 E2.06321
G1 X90.886 Y54.311 E.01314
G1 X90.886 Y120.114 E2.06321
G1 X90.467 Y120.114 E.01314
G1 X90.444 Y52.994 E2.1045
G1 X90.049 Y52.994 E.01238
G1 X90.049 Y120.114 E2.1045
G1 X89.63 Y120.114 E.01314
G1 X89.63 Y52.994 E2.1045
G1 X89.211 Y52.994 E.01314
G1 X89.211 Y120.114 E2.1045
G1 X88.792 Y120.114 E.01314
G1 X88.792 Y52.994 E2.1045
G1 X88.373 Y52.994 E.01314
G1 X88.373 Y120.114 E2.1045
G1 X87.954 Y120.114 E.01314
G1 X87.954 Y52.994 E2.1045
G1 X87.81 Y52.994 E.00452
G1 X87.81 Y51.677 E.04129
G1 X87.535 Y51.677 E.00862
G1 X87.535 Y120.114 E2.14579
G1 X87.116 Y120.114 E.01314
G1 X87.116 Y51.677 E2.14579
G1 X86.697 Y51.677 E.01314
G1 X86.697 Y120.114 E2.14579
G1 X86.278 Y120.114 E.01314
G1 X86.278 Y51.677 E2.14579
G1 X85.859 Y51.677 E.01314
G1 X85.859 Y120.114 E2.14579
G1 X85.44 Y120.114 E.01314
G1 X85.44 Y51.677 E2.14579
G1 X85.021 Y51.677 E.01314
G1 X85.021 Y79.285 E.86563
G1 X84.602 Y79.285 E.01314
G1 X84.602 Y51.677 E.86563
G1 X84.183 Y51.677 E.01314
G1 X84.183 Y79.285 E.86563
G1 X83.764 Y79.285 E.01314
G1 X83.764 Y51.677 E.86563
G1 X83.345 Y51.677 E.01314
G1 X83.345 Y79.285 E.86563
G1 X82.926 Y79.285 E.01314
G1 X82.926 Y51.677 E.86563
G1 X82.507 Y51.677 E.01314
G1 X82.507 Y79.285 E.86563
G1 X82.088 Y79.285 E.01314
G1 X82.088 Y51.677 E.86563
G1 X81.669 Y51.677 E.01314
G1 X81.669 Y79.285 E.86563
G1 X81.25 Y79.285 E.01314
G1 X81.25 Y51.677 E.86563
G1 X80.831 Y51.677 E.01314
G1 X80.831 Y79.285 E.86563
G1 X80.412 Y79.285 E.01314
G1 X80.412 Y51.677 E.86563
G1 X79.993 Y51.677 E.01314
G1 X79.993 Y79.285 E.86563
G1 X79.574 Y79.285 E.01314
G1 X79.574 Y51.677 E.86563
G1 X79.155 Y51.677 E.01314
G1 X79.155 Y79.285 E.86563
G1 X78.736 Y79.285 E.01314
G1 X78.736 Y51.677 E.86563
G1 X78.317 Y51.677 E.01314
G1 X78.317 Y79.285 E.86563
G1 X77.898 Y79.285 E.01314
G1 X77.898 Y51.677 E.86563
G1 X77.479 Y51.677 E.01314
G1 X77.479 Y79.285 E.86563
G1 X77.06 Y79.285 E.01314
G1 X77.06 Y51.677 E.86563
G1 X76.641 Y51.677 E.01314
G1 X76.641 Y79.285 E.86563
G1 X76.222 Y79.285 E.01314
G1 X76.222 Y51.677 E.86563
G1 X75.803 Y51.677 E.01314
G1 X75.803 Y79.285 E.86563
G1 X75.384 Y79.285 E.01314
G1 X75.384 Y51.677 E.86563
G1 X74.965 Y51.677 E.01314
G1 X74.965 Y79.285 E.86563
G1 X74.546 Y79.285 E.01314
G1 X74.546 Y51.677 E.86563
G1 X74.127 Y51.677 E.01314
G1 X74.127 Y79.285 E.86563
G1 X73.708 Y79.285 E.01314
G1 X73.708 Y51.677 E.86563
G1 X73.373 Y51.677 E.0105
G1 X73.373 Y52.994 E.04129
G1 X73.289 Y52.994 E.00263
G1 X73.289 Y79.285 E.82434
G1 X72.87 Y79.285 E.01314
G1 X72.87 Y52.994 E.82434
G1 X72.451 Y52.994 E.01314
G1 X72.451 Y79.285 E.82434
G1 X72.033 Y79.285 E.01311
G1 X72.033 Y52.994 E.82434
G1 X71.614 Y52.994 E.01314
G1 X71.614 Y79.285 E.82434
G1 X71.195 Y79.285 E.01314
G1 X71.195 Y52.994 E.82434
G1 X70.776 Y52.994 E.01314
G1 X70.776 Y79.285 E.82434
G1 X70.688 Y79.285 E.00276
G1 X70.688 Y80.602 E.04129
G1 X70.357 Y80.602 E.01038
G1 X70.357 Y54.311 E.82434
G1 X69.938 Y54.311 E.01314
G1 X69.938 Y80.772 E.82967
G1 E-.5
;WIPE_START
G1 F43200
G1 X69.938 Y54.311 E-1.04741
G1 X70.357 Y54.311 E-.01659
G1 X70.357 Y77.957 E-.936
;WIPE_END
G1 X85.021 Y120.284 F54000
G1 E2.5 F1200
G1 F1800
G1 X85.021 Y87.238 E1.03613
G1 X84.602 Y87.238 E.01314
G1 X84.602 Y120.114 E1.0308
G1 X84.183 Y120.114 E.01314
G1 X84.183 Y87.238 E1.0308
G1 X83.764 Y87.238 E.01314
G1 X83.764 Y120.114 E1.0308
G1 X83.345 Y120.114 E.01314
G1 X83.345 Y87.238 E1.0308
G1 X82.926 Y87.238 E.01314
G1 X82.926 Y120.114 E1.0308
G1 X82.507 Y120.114 E.01314
G1 X82.507 Y87.238 E1.0308
G1 X82.088 Y87.238 E.01314
G1 X82.088 Y120.114 E1.0308
G1 X81.669 Y120.114 E.01314
G1 X81.669 Y87.238 E1.0308
G1 X81.25 Y87.238 E.01314
G1 X81.25 Y120.114 E1.0308
G1 X80.831 Y120.114 E.01314
G1 X80.831 Y87.238 E1.0308
G1 X80.412 Y87.238 E.01314
G1 X80.412 Y120.114 E1.0308
G1 X79.993 Y120.114 E.01314
G1 X79.993 Y87.238 E1.0308
G1 X79.574 Y87.238 E.01314
G1 X79.574 Y120.114 E1.0308
G1 X79.155 Y120.114 E.01314
G1 X79.155 Y87.238 E1.0308
G1 X78.736 Y87.238 E.01314
G1 X78.736 Y120.114 E1.0308
G1 X78.317 Y120.114 E.01314
G1 X78.317 Y87.238 E1.0308
G1 X77.898 Y87.238 E.01314
G1 X77.898 Y120.114 E1.0308
G1 X77.479 Y120.114 E.01314
G1 X77.479 Y87.238 E1.0308
G1 X77.06 Y87.238 E.01314
G1 X77.06 Y120.114 E1.0308
G1 X76.641 Y120.114 E.01314
G1 X76.641 Y87.238 E1.0308
G1 X76.222 Y87.238 E.01314
G1 X76.222 Y120.114 E1.0308
G1 X75.803 Y120.114 E.01314
G1 X75.803 Y87.238 E1.0308
G1 X75.384 Y87.238 E.01314
G1 X75.384 Y120.114 E1.0308
G1 X74.965 Y120.114 E.01314
G1 X74.965 Y87.238 E1.0308
G1 X74.546 Y87.238 E.01314
G1 X74.546 Y120.114 E1.0308
G1 X74.127 Y120.114 E.01314
G1 X74.127 Y87.238 E1.0308
G1 X73.708 Y87.238 E.01314
G1 X73.708 Y120.114 E1.0308
G1 X73.289 Y120.114 E.01314
G1 X73.289 Y87.238 E1.0308
G1 X72.87 Y87.238 E.01314
G1 X72.87 Y120.114 E1.0308
G1 X72.451 Y120.114 E.01314
G1 X72.451 Y87.238 E1.0308
G1 X72.033 Y87.238 E.01311
G1 X72.033 Y120.114 E1.0308
G1 X71.614 Y120.114 E.01314
G1 X71.614 Y87.238 E1.0308
G1 X71.195 Y87.238 E.01314
G1 X71.195 Y120.114 E1.0308
G1 X70.776 Y120.114 E.01314
G1 X70.776 Y87.238 E1.0308
G1 X70.688 Y87.238 E.00276
G1 X70.688 Y85.921 E.04129
G1 X70.357 Y85.921 E.01038
