; File Parsed By Flow Comp Script
; Script Ver. V0.7.1
; Flow Model Ver. V0.2.1
; Logger Ver. V0.0.1
; Flow Comp Model Points:
; (0, 0)
; (0.2, 0.4444)
; (0.4, 0.6145)
; (0.6, 0.7059)
; (0.8, 0.7619)
; (1.5, 0.8571)
; (2, 0.8889)
; (3, 0.9231)
; (5, 0.952)
; (10, 1)

; generated by PrusaSlicer 2.9.1 on 2025-03-15 at 14:23:04 UTC

; 

; external perimeters extrusion width = 0.45mm
; perimeters extrusion width = 0.45mm
; infill extrusion width = 0.45mm
; solid infill extrusion width = 0.45mm
; top infill extrusion width = 0.40mm
; first layer extrusion width = 0.42mm

; external perimeters extrusion width = 0.45mm
; perimeters extrusion width = 0.45mm
; infill extrusion width = 0.45mm
; solid infill extrusion width = 0.45mm
; top infill extrusion width = 0.40mm
; first layer extrusion width = 0.42mm

;TYPE:Custom
G90 ; use absolute coordinates
M83 ; extruder relative mode
M104 S210 ; set temporary nozzle temp to prevent oozing during homing
M140 S58 ; set final bed temp
G4 S30 ; allow partial nozzle warmup
G28 ; home all axis
G1 Z50 F240
G1 X2.0 Y10 F3000
M104 S208 ; set final nozzle temp
M190 S58 ; wait for bed temp to stabilize
M109 S208 ; wait for nozzle temp to stabilize
G1 Z0.28 F240
G92 E0
G1 X2.0 Y140 E10 F1500 ; prime the nozzle
G1 X2.3 Y140 F5000
G92 E0
G1 X2.3 Y10 E10 F1200 ; prime the nozzle
G92 E0
G21 ; set units to millimeters
G90 ; use absolute coordinates
M83 ; use relative distances for extrusion
; Filament gcode
M107
;LAYER_CHANGE
;Z:0.2
;HEIGHT:0.2
G1 E-3.5 F1500
G1 Z.2 F54000
G1 X15.936 Y48.438
G1 Z.2
G1 E3.5 F1500
M204 S3500
;TYPE:Skirt/Brim
;WIDTH:0.42
G1 F1800
G1 X19.211 Y47.563 E.10629
G1 X36.291 Y47.563 E.53553
G1 X67.624 Y47.704 E.98243
G1 X69.87 Y48.111 E.07157
G1 X71.842 Y49.263 E.07161
G1 X73.299 Y51.02 E.07157
G1 X74.16 Y54.27 E.10542
G1 X74.16 Y81.77 E.86224
G1 X73.763 Y84.018 E.07158
G1 X72.62 Y85.994 E.07157
G1 X70.869 Y87.46 E.0716
G1 X67.594 Y88.335 E.10629
G1 X43.594 Y88.335 E.7525
G1 X41.538 Y88.005 E.06529
G1 X17.155 Y79.964 E.80501
G1 X15.144 Y78.883 E.07159
G1 X13.625 Y77.179 E.07157
G1 X12.782 Y75.057 E.07159
G1 X12.646 Y73.729 E.04186
G1 X12.646 Y54.129 E.61454
G1 X13.043 Y51.881 E.07158
G1 X14.186 Y49.904 E.0716
G1 X15.89 Y48.477 E.06969
G1 X16.141 Y48.793 F54000
G1 F1800
G1 X16.295 Y48.671 E.00616
G1 X19.211 Y47.94 E.09426
G1 X36.289 Y47.94 E.53547
G1 X67.622 Y48.081 E.98243
G1 X69.8 Y48.488 E.06947
G1 X71.696 Y49.636 E.0695
G1 X73.066 Y51.378 E.06949
G1 X73.783 Y54.27 E.09342
G1 X73.783 Y81.77 E.86224
G1 X73.386 Y83.95 E.06948
G1 X72.247 Y85.85 E.06946
G1 X70.511 Y87.228 E.06949
G1 X67.594 Y87.958 E.09428
G1 X43.594 Y87.958 E.7525
G1 X41.656 Y87.647 E.06154
G1 X17.273 Y79.606 E.80501
G1 X15.327 Y78.546 E.06948
G1 X13.879 Y76.869 E.06947
G1 X13.023 Y73.729 E.10205
G1 X13.023 Y54.129 E.61454
G1 X13.42 Y51.949 E.06948
G1 X14.559 Y50.048 E.06948
G1 X16.094 Y48.83 E.06144
G1 E-3.5 F1500
G1 X60.382 Y68.338 F54000
G1 E3.5 F1500
;TYPE:Perimeter
;WIDTH:0.419999
G1 F1800
G1 X60.476 Y68.132 E.0071
G1 X60.779 Y67.703 E.01647
G1 X61.156 Y67.339 E.01643
G1 X61.596 Y67.052 E.01647
G1 X62.082 Y66.852 E.01648
G1 X62.723 Y66.739 E.02041
G1 X63.292 Y66.76 E.01785
G1 X63.804 Y66.884 E.01652
G1 X64.282 Y67.101 E.01646
G1 X64.71 Y67.404 E.01644
G1 X65.075 Y67.782 E.01648
G1 X65.419 Y68.342 E.02061
;WIDTH:0.445535
G1 X65.619 Y68.872 E.01896
;WIDTH:0.488676
G1 X65.664 Y68.993 E.00478
;WIDTH:0.531817
G1 X65.709 Y69.114 E.00525
G1 X65.729 Y69.649 E.02176
;WIDTH:0.540465
G1 X65.699 Y70.034 E.01598
G1 X65.606 Y70.255 E.00992
;WIDTH:0.50031
G1 X65.512 Y70.476 E.00913
;WIDTH:0.460155
G1 X65.419 Y70.697 E.00832
;WIDTH:0.419999
G1 X65.075 Y71.257 E.02061
G1 X64.71 Y71.635 E.01648
G1 X64.282 Y71.938 E.01644
G1 X63.804 Y72.155 E.01646
G1 X63.294 Y72.279 E.01646
G1 X62.77 Y72.305 E.01645
G1 X62.251 Y72.233 E.01643
G1 X61.716 Y72.044 E.01779
G1 X61.269 Y71.789 E.01614
G1 X60.858 Y71.428 E.01715
G1 X60.52 Y70.987 E.01742
G1 X60.259 Y70.429 E.01931
G1 X60.135 Y69.92 E.01643
G1 X60.108 Y69.405 E.01617
G1 X60.181 Y68.876 E.01674
G1 X60.259 Y68.61 E.00869
G1 X60.358 Y68.392 E.00751
G1 X60.726 Y68.499 F54000
G1 F1800
G1 X60.869 Y68.206 E.01022
G1 X61.198 Y67.805 E.01626
G1 X61.549 Y67.518 E.01422
G1 X61.949 Y67.301 E.01427
G1 X62.409 Y67.159 E.01509
G1 X62.978 Y67.109 E.01791
G1 X63.433 Y67.169 E.01439
G1 X63.864 Y67.311 E.01423
G1 X64.26 Y67.532 E.01422
G1 X64.609 Y67.823 E.01425
G1 X64.911 Y68.201 E.01517
G1 X65.168 Y68.715 E.01802
G1 X65.278 Y69.155 E.01422
G1 X65.304 Y69.608 E.01423
G1 X65.245 Y70.058 E.01423
G1 X65.088 Y70.516 E.01518
G1 X64.792 Y71.008 E.018
G1 X64.479 Y71.337 E.01424
G1 X64.111 Y71.602 E.01422
G1 X63.699 Y71.793 E.01424
G1 X63.259 Y71.904 E.01423
G1 X62.805 Y71.93 E.01426
G1 X62.356 Y71.87 E.0142
G1 X61.898 Y71.714 E.01517
G1 X61.406 Y71.417 E.01802
G1 X61.077 Y71.105 E.01422
G1 X60.812 Y70.736 E.01424
G1 X60.621 Y70.324 E.01424
G1 X60.51 Y69.884 E.01423
G1 X60.484 Y69.431 E.01423
G1 X60.544 Y68.98 E.01427
G1 X60.621 Y68.715 E.00865
G1 X60.7 Y68.553 E.00565
G1 X61.065 Y68.659 F54000
G1 F1800
G1 X61.205 Y68.384 E.00968
G1 X61.447 Y68.088 E.01199
G1 X61.741 Y67.842 E.01202
G1 X62.076 Y67.656 E.01201
G1 X62.457 Y67.533 E.01255
G1 X62.943 Y67.485 E.01531
G1 X63.328 Y67.531 E.01216
G1 X63.693 Y67.647 E.01201
G1 X64.029 Y67.83 E.012
G1 X64.326 Y68.073 E.01203
G1 X64.581 Y68.382 E.01256
G1 X64.806 Y68.82 E.01544
G1 X64.903 Y69.191 E.01202
G1 X64.929 Y69.573 E.01201
G1 X64.883 Y69.953 E.012
G1 X64.758 Y70.334 E.01257
G1 X64.509 Y70.758 E.01542
G1 X64.248 Y71.039 E.01202
G1 X63.94 Y71.266 E.012
G1 X63.594 Y71.431 E.01202
G1 X63.223 Y71.528 E.01202
G1 X62.841 Y71.554 E.01201
G1 X62.461 Y71.508 E.012
G1 X62.08 Y71.383 E.01257
G1 X61.655 Y71.135 E.01543
G1 X61.375 Y70.874 E.012
G1 X61.148 Y70.565 E.01202
G1 X60.983 Y70.219 E.01202
G1 X60.886 Y69.848 E.01202
G1 X60.86 Y69.466 E.01201
G1 X60.906 Y69.085 E.01203
G1 X60.983 Y68.82 E.00865
G1 X61.038 Y68.712 E.0038
G1 X61.4 Y68.817 F54000
;TYPE:External perimeter
G1 F1800
G1 X61.503 Y68.616 E.00708
G1 X61.697 Y68.371 E.0098
G1 X61.933 Y68.167 E.00978
G1 X62.204 Y68.011 E.0098
G1 X62.505 Y67.907 E.00999
G1 X62.908 Y67.86 E.01272
G1 X63.223 Y67.893 E.00993
G1 X63.522 Y67.983 E.00979
G1 X63.798 Y68.128 E.00978
G1 X64.043 Y68.322 E.0098
G1 X64.25 Y68.564 E.00998
G1 X64.443 Y68.925 E.01283
G1 X64.527 Y69.226 E.0098
G1 X64.554 Y69.537 E.00979
G1 X64.521 Y69.848 E.00981
G1 X64.428 Y70.152 E.00997
G1 X64.226 Y70.509 E.01286
G1 X64.017 Y70.741 E.00979
G1 X63.768 Y70.93 E.0098
G1 X63.489 Y71.069 E.00977
G1 X63.188 Y71.153 E.0098
G1 X62.663 Y71.159 E.01646
G1 X62.261 Y71.053 E.01304
G1 X61.905 Y70.852 E.01282
G1 X61.673 Y70.643 E.00979
G1 X61.484 Y70.394 E.0098
G1 X61.345 Y70.114 E.0098
G1 X61.261 Y69.813 E.0098
G1 X61.235 Y69.502 E.00979
G1 X61.268 Y69.19 E.00984
G1 X61.345 Y68.925 E.00865
G1 X61.373 Y68.87 E.00194
G1 X61.581 Y68.528 F54000
G1 E-3.5 F1500
G1 X51.165 Y69.345 F54000
G1 E3.5 F1500
;TYPE:Perimeter
G1 F1800
G1 X51.181 Y69.635 E.00911
G1 X51.107 Y70.163 E.01672
G1 X50.938 Y70.661 E.01649
G1 X50.678 Y71.119 E.01651
G1 X50.305 Y71.547 E.0178
G1 X49.909 Y71.864 E.0159
G1 X49.304 Y72.155 E.02105
G1 X48.794 Y72.279 E.01646
G1 X48.27 Y72.305 E.01645
G1 X47.751 Y72.233 E.01643
G1 X47.216 Y72.044 E.01779
G1 X46.657 Y71.7 E.02058
G1 X46.279 Y71.336 E.01645
G1 X45.976 Y70.907 E.01647
G1 X45.759 Y70.43 E.01643
;WIDTH:0.462708
G1 X45.71 Y70.332 E.00382
;WIDTH:0.505417
G1 X45.662 Y70.234 E.0042
;WIDTH:0.548126
G1 X45.613 Y70.136 E.0046
;WIDTH:0.590835
G1 X45.565 Y70.038 E.00497
G1 X45.535 Y69.651 E.01768
;WIDTH:0.581911
G1 X45.554 Y69.112 E.02417
G1 X45.605 Y68.986 E.00609
;WIDTH:0.541433
G1 X45.656 Y68.861 E.0056
;WIDTH:0.500955
G1 X45.708 Y68.735 E.00519
;WIDTH:0.460477
G1 X45.759 Y68.61 E.00469
;WIDTH:0.419999
G1 X45.976 Y68.132 E.01646
G1 X46.279 Y67.703 E.01647
G1 X46.656 Y67.339 E.01643
G1 X47.096 Y67.052 E.01647
G1 X47.582 Y66.852 E.01648
G1 X48.223 Y66.739 E.02041
G1 X48.792 Y66.76 E.01785
G1 X49.304 Y66.884 E.01652
G1 X49.782 Y67.101 E.01646
G1 X50.211 Y67.404 E.01647
G1 X50.575 Y67.782 E.01645
G1 X50.886 Y68.282 E.01846
G1 X51.03 Y68.611 E.01126
G1 X51.154 Y69.12 E.01643
G1 X51.162 Y69.285 E.00518
G1 X50.791 Y69.369 F54000
G1 F1800
G1 X50.804 Y69.609 E.00754
G1 X50.745 Y70.058 E.0142
G1 X50.602 Y70.489 E.01424
G1 X50.381 Y70.887 E.01427
G1 X50.064 Y71.257 E.01528
G1 X49.611 Y71.602 E.01785
G1 X49.199 Y71.793 E.01424
G1 X48.759 Y71.904 E.01423
G1 X48.305 Y71.93 E.01426
G1 X47.856 Y71.87 E.0142
G1 X47.398 Y71.714 E.01517
G1 X46.906 Y71.417 E.01802
G1 X46.577 Y71.105 E.01422
G1 X46.312 Y70.736 E.01424
G1 X46.121 Y70.324 E.01424
G1 X46.01 Y69.884 E.01423
G1 X45.984 Y69.608 E.00869
G1 X46.01 Y69.155 E.01423
G1 X46.186 Y68.55 E.01976
G1 X46.407 Y68.153 E.01425
G1 X46.698 Y67.805 E.01422
G1 X47.049 Y67.518 E.01422
G1 X47.449 Y67.301 E.01427
G1 X47.909 Y67.159 E.01509
G1 X48.478 Y67.109 E.01791
G1 X48.951 Y67.174 E.01497
G1 X49.364 Y67.311 E.01364
G1 X49.761 Y67.532 E.01425
G1 X50.109 Y67.823 E.01422
G1 X50.411 Y68.201 E.01517
G1 X50.668 Y68.715 E.01802
G1 X50.778 Y69.155 E.01422
G1 X50.787 Y69.309 E.00484
G1 X50.417 Y69.392 F54000
G1 F1800
G1 X50.429 Y69.573 E.00569
G1 X50.383 Y69.953 E.012
G1 X50.266 Y70.318 E.01202
G1 X50.083 Y70.655 E.01202
G1 X49.824 Y70.966 E.01269
G1 X49.44 Y71.266 E.01528
G1 X49.094 Y71.431 E.01202
G1 X48.557 Y71.544 E.01721
G1 X48.065 Y71.528 E.01543
G1 X47.58 Y71.383 E.01587
G1 X47.155 Y71.135 E.01543
G1 X46.875 Y70.874 E.012
G1 X46.648 Y70.565 E.01202
G1 X46.483 Y70.219 E.01202
G1 X46.386 Y69.849 E.01199
G1 X46.36 Y69.573 E.00869
G1 X46.406 Y69.086 E.01534
G1 X46.522 Y68.721 E.01201
G1 X46.705 Y68.385 E.012
G1 X46.947 Y68.088 E.01201
G1 X47.241 Y67.842 E.01202
G1 X47.576 Y67.656 E.01201
G1 X47.957 Y67.533 E.01255
G1 X48.443 Y67.485 E.01531
G1 X48.846 Y67.536 E.01274
G1 X49.193 Y67.647 E.01142
G1 X49.529 Y67.83 E.012
G1 X49.826 Y68.073 E.01203
G1 X50.081 Y68.382 E.01256
G1 X50.306 Y68.821 E.01547
G1 X50.403 Y69.191 E.01199
G1 X50.413 Y69.333 E.00446
G1 X50.043 Y69.416 F54000
;TYPE:External perimeter
G1 F1800
G1 X50.053 Y69.538 E.00384
G1 X50.021 Y69.848 E.00977
G1 X49.93 Y70.147 E.0098
G1 X49.786 Y70.424 E.00979
G1 X49.584 Y70.675 E.0101
G1 X49.269 Y70.93 E.01271
G1 X48.989 Y71.069 E.0098
G1 X48.521 Y71.169 E.01501
G1 X48.066 Y71.146 E.01428
G1 X47.761 Y71.053 E.01
G1 X47.405 Y70.852 E.01282
G1 X47.173 Y70.642 E.00981
G1 X46.984 Y70.394 E.00978
G1 X46.845 Y70.114 E.0098
G1 X46.761 Y69.813 E.0098
G1 X46.735 Y69.537 E.00869
G1 X46.768 Y69.191 E.0109
G1 X46.858 Y68.892 E.00979
G1 X47.003 Y68.616 E.00978
G1 X47.197 Y68.371 E.0098
G1 X47.433 Y68.167 E.00978
G1 X47.704 Y68.011 E.0098
G1 X48.005 Y67.907 E.00999
G1 X48.408 Y67.86 E.01272
G1 X48.741 Y67.898 E.01051
G1 X49.022 Y67.983 E.0092
G1 X49.298 Y68.128 E.00978
G1 X49.543 Y68.322 E.0098
G1 X49.75 Y68.564 E.00998
G1 X49.944 Y68.926 E.01288
G1 X50.027 Y69.226 E.00976
G1 X50.038 Y69.356 E.00409
G1 X50.026 Y69.756 F54000
G1 E-3.5 F1500
G1 X44.935 Y80.428 F54000
G1 E3.5 F1500
;TYPE:Perimeter
G1 F1800
G1 X44.935 Y70.547 E.30981
;WIDTH:0.462708
G1 X44.957 Y70.431 E.00412
;WIDTH:0.505417
G1 X44.978 Y70.316 E.0045
;WIDTH:0.548126
G1 X45 Y70.201 E.00492
;WIDTH:0.590835
G1 X45.021 Y70.085 E.00537
G1 X45.01 Y69.676 E.01864
;WIDTH:0.581911
G1 X45.016 Y69.087 E.0264
G1 X44.996 Y68.938 E.00674
;WIDTH:0.541433
G1 X44.976 Y68.79 E.00619
;WIDTH:0.500955
G1 X44.956 Y68.641 E.00573
;WIDTH:0.460477
G1 X44.935 Y68.493 E.00519
;WIDTH:0.419999
G1 X44.935 Y55.611 E.40391
G1 X66.253 Y55.611 E.66841
G1 X66.253 Y61.338 E.17957
G1 X66.253 Y68.128 E.2129
;WIDTH:0.445535
G1 X66.24 Y68.784 E.02197
;WIDTH:0.482141
G1 X66.222 Y69.076 E.01068
;WIDTH:0.518746
G1 X66.204 Y69.368 E.01157
;WIDTH:0.531817
G1 X66.197 Y69.948 E.02358
G1 X66.216 Y70.143 E.00796
;WIDTH:0.494545
G1 X66.234 Y70.338 E.00735
;WIDTH:0.457272
G1 X66.253 Y70.533 E.00675
;WIDTH:0.419999
G1 X66.253 Y80.428 E.31025
G1 X44.995 Y80.428 E.66653
G1 X44.558 Y80.805 F54000
G1 F1800
G1 X44.558 Y55.234 E.80176
G1 X66.63 Y55.234 E.69205
G1 X66.63 Y61.338 E.19139
G1 X66.63 Y80.805 E.61037
G1 X44.618 Y80.805 E.69017
G1 X44.181 Y81.183 F54000
G1 F1800
G1 X44.181 Y54.857 E.82543
G1 X67.007 Y54.857 E.71569
G1 X67.007 Y61.338 E.20321
G1 X67.007 Y81.183 E.62222
G1 X44.241 Y81.183 E.71381
G1 X43.804 Y81.56 F54000
;TYPE:External perimeter
G1 F1800
G1 X43.804 Y54.48 E.84907
G1 X67.384 Y54.48 E.73933
G1 X67.384 Y61.338 E.21503
G1 X67.384 Y81.56 E.63405
G1 X43.864 Y81.56 E.73745
G1 X43.805 Y81.164 F54000
G1 E-3.5 F1500
G1 X45.818 Y80.315 F54000
G1 E3.5 F1500
;TYPE:Solid infill
;WIDTH:0.423576
G1 F1800
G1 X45.218 Y79.715 E0.02074; Old Flow Value: 0.02686   Length: 0.84853
G1 X45.218 Y79.177 E0.01159; Old Flow Value: 0.01703   Length: 0.53799
G1 X46.187 Y80.146 E0.03668; Old Flow Value: 0.04337   Length: 1.37038
G1 X46.725 Y80.146 E0.01159; Old Flow Value: 0.01703   Length: 0.53800
G1 X45.218 Y78.639 E0.06038; Old Flow Value: 0.06746   Length: 2.13122
G1 X45.218 Y78.1 E0.01162; Old Flow Value: 0.01706   Length: 0.53900
G1 X47.264 Y80.146 E0.08430; Old Flow Value: 0.09158   Length: 2.89349
G1 X47.802 Y80.146 E0.01159; Old Flow Value: 0.01703   Length: 0.53800
G1 X45.218 Y77.562 E0.10824; Old Flow Value: 0.11567   Length: 3.65433
G1 X45.218 Y77.024 E0.01159; Old Flow Value: 0.01703   Length: 0.53799
G1 X48.34 Y80.146 E0.13219; Old Flow Value: 0.13975   Length: 4.41518
G1 X48.879 Y80.146 E0.01162; Old Flow Value: 0.01706   Length: 0.53900
G1 X45.218 Y76.485 E0.15629; Old Flow Value: 0.16387   Length: 5.17744
G1 X45.218 Y75.947 E0.01159; Old Flow Value: 0.01703   Length: 0.53800
G1 X49.417 Y80.146 E0.18068; Old Flow Value: 0.18796   Length: 5.93829
G1 X49.955 Y80.146 E0.01159; Old Flow Value: 0.01703   Length: 0.53800
G1 X45.218 Y75.409 E0.20540; Old Flow Value: 0.21204   Length: 6.69914
G1 X45.218 Y74.87 E0.01162; Old Flow Value: 0.01706   Length: 0.53899
G1 X50.494 Y80.146 E0.23050; Old Flow Value: 0.23617   Length: 7.46139
G1 X51.032 Y80.146 E0.01159; Old Flow Value: 0.01703   Length: 0.53800
G1 X45.218 Y74.332 E0.25589; Old Flow Value: 0.26025   Length: 8.22224
G1 X45.218 Y73.794 E0.01159; Old Flow Value: 0.01703   Length: 0.53800
G1 X51.57 Y80.146 E0.28161; Old Flow Value: 0.28433   Length: 8.98309
G1 X52.109 Y80.146 E0.01162; Old Flow Value: 0.01706   Length: 0.53900
G1 X45.218 Y73.255 E0.30772; Old Flow Value: 0.30846   Length: 9.74535
G1 X45.218 Y72.717 E0.01159; Old Flow Value: 0.01703   Length: 0.53799
G1 X52.647 Y80.146 E.33254; Old Flow Value: 0.33254   Length: 10.50619
G1 X53.185 Y80.146 E0.01159; Old Flow Value: 0.01703   Length: 0.53800
G1 X45.218 Y72.179 E.35662; Old Flow Value: 0.35662   Length: 11.26704
G1 X45.218 Y71.64 E0.01162; Old Flow Value: 0.01706   Length: 0.53900
G1 X53.724 Y80.146 E.38075; Old Flow Value: 0.38075   Length: 12.02930
G1 X54.262 Y80.146 E0.01159; Old Flow Value: 0.01703   Length: 0.53800
G1 X45.218 Y71.102 E.40483; Old Flow Value: 0.40483   Length: 12.79015
G1 X45.218 Y70.564 E0.01159; Old Flow Value: 0.01703   Length: 0.53799
G1 X54.97 Y80.315 E.4365; Old Flow Value: 0.4365   Length: 13.79070
G1 E-3.5 F1500
G1 X49.638 Y66.908 F54000
G1 E3.5 F1500; Old Flow Value: 3.5   Length: 0.00000
G1 F1800
G1 X45.218 Y62.489 E0.19077; Old Flow Value: 0.19783   Length: 6.25012
G1 X45.218 Y63.027 E0.01159; Old Flow Value: 0.01703   Length: 0.53800
G1 X48.654 Y66.463 E0.14620; Old Flow Value: 0.1538   Length: 4.85924
G1 X48.12 Y66.467 E0.01147; Old Flow Value: 0.0169   Length: 0.53402
G1 X45.218 Y63.565 E0.12239; Old Flow Value: 0.1299   Length: 4.10405
G1 X45.218 Y64.104 E0.01162; Old Flow Value: 0.01706   Length: 0.53900
G1 X47.659 Y66.544 E0.10185; Old Flow Value: 0.10924   Length: 3.45139
G1 X47.248 Y66.672 E0.00858; Old Flow Value: 0.01363   Length: 0.43047
G1 X45.218 Y64.642 E0.08360; Old Flow Value: 0.09087   Length: 2.87085
G1 X45.218 Y65.18 E0.01159; Old Flow Value: 0.01703   Length: 0.53800
G1 X46.886 Y66.848 E0.06752; Old Flow Value: 0.07466   Length: 2.35891
G1 X46.56 Y67.061 E0.00751; Old Flow Value: 0.01233   Length: 0.38942
G1 X45.218 Y65.719 E0.05308; Old Flow Value: 0.06007   Length: 1.89787
