; File Parsed By Flow Comp Script
; Script Ver. V0.7.1
; Flow Model Ver. V0.2.1
; Logger Ver. V0.0.1
; Flow Comp Model Points:
; (0, 0)
; (0.2, 0.4444)
; (0.4, 0.6145)
; (0.6, 0.7059)
; (0.8, 0.7619)
; (1.5, 0.8571)
; (2, 0.8889)
; (3, 0.9231)
; (5, 0.952)
; (10, 1)

; generated by PrusaSlicer 2.9.1 on 2025-03-17 at 12:28:03 UTC

; 

; external perimeters extrusion width = 0.45mm
; perimeters extrusion width = 0.45mm
; infill extrusion width = 0.45mm
; solid infill extrusion width = 0.45mm
; top infill extrusion width = 0.40mm
; support material extrusion width = 0.35mm
; first layer extrusion width = 0.42mm

; external perimeters extrusion width = 0.45mm
; perimeters extrusion width = 0.45mm
; infill extrusion width = 0.45mm
; solid infill extrusion width = 0.45mm
; top infill extrusion width = 0.40mm
; support material extrusion width = 0.35mm
; first layer extrusion width = 0.42mm

;TYPE:Custom
G90 ; use absolute coordinates
M83 ; extruder relative mode
M104 S210 ; set temporary nozzle temp to prevent oozing during homing
M140 S58 ; set final bed temp
G4 S30 ; allow partial nozzle warmup
G28 ; home all axis
G1 Z50 F240
G1 X2.0 Y10 F3000
M104 S208 ; set final nozzle temp
M190 S58 ; wait for bed temp to stabilize
M109 S208 ; wait for nozzle temp to stabilize
G1 Z0.28 F240
G92 E0
G1 X2.0 Y140 E10 F1500 ; prime the nozzle
G1 X2.3 Y140 F5000
G92 E0
G1 X2.3 Y10 E10 F1200 ; prime the nozzle
G92 E0
G21 ; set units to millimeters
G90 ; use absolute coordinates
M83 ; use relative distances for extrusion
; Filament gcode
M107
;LAYER_CHANGE
;Z:0.2
;HEIGHT:0.2
G1 E-3.5 F1500
G1 Z.2 F54000
G1 X65.44 Y104.922
G1 Z.2
G1 E3.5 F1500
M204 S3500
;TYPE:Skirt/Brim
;WIDTH:0.42
G1 F1800
G1 X66.647 Y104.179 E.04444
G1 X67.644 Y103.705 E.03461
G1 X69.437 Y103.124 E.0591
G1 X71.29 Y102.823 E.05886
G1 X75.556 Y102.564 E.134
G1 X103.775 Y101.088 E.886
G1 X105.337 Y101.085 E.04898
G1 X106.791 Y101.264 E.04593
G1 X108.959 Y101.87 E.07058
G1 X110.122 Y102.381 E.03983
G1 X111.122 Y102.941 E.03594
G1 X112.165 Y103.665 E.03981
G1 X113.038 Y104.407 E.03592
G1 X113.922 Y105.319 E.03982
G1 X114.962 Y106.66 E.05321
G1 X119.671 Y113.711 E.26585
G1 X120.59 Y115.801 E.07159
G1 X120.777 Y117.358 E.04917
G1 X120.777 Y144.858 E.86224
G1 X120.38 Y147.106 E.07158
G1 X119.598 Y148.612 E.05321
G1 X114.644 Y155.719 E.27163
G1 X113.791 Y156.845 E.04429
G1 X113.011 Y157.697 E.03622
G1 X112.028 Y158.577 E.04137
G1 X111.09 Y159.262 E.03642
G1 X110.127 Y159.842 E.03525
G1 X109.016 Y160.375 E.03864
G1 X107.947 Y160.77 E.03573
G1 X106.755 Y161.087 E.03867
G1 X105.63 Y161.275 E.03576
G1 X104.399 Y161.364 E.0387
G1 X103.258 Y161.338 E.03578
G1 X102.031 Y161.194 E.03874
G1 X100.913 Y160.955 E.03585
G1 X99.951 Y160.671 E.03145
G1 X65.374 Y147.506 E1.16006
G1 X63.635 Y146.642 E.06088
G1 X62.462 Y145.848 E.04441
G1 X61.595 Y145.114 E.03562
G1 X60.646 Y144.121 E.04307
G1 X55.75 Y137.791 E.25091
G1 X54.688 Y135.77 E.07158
G1 X54.378 Y133.774 E.06333
G1 X54.378 Y116.724 E.53459
G1 X54.775 Y114.476 E.07158
G1 X55.917 Y112.499 E.07159
G1 X56.917 Y111.537 E.04351
G1 X65.393 Y104.959 E.3364
G1 X65.624 Y105.257 F54000
G1 F1800
G1 X65.671 Y105.22 E.00188
G1 X66.809 Y104.519 E.04191
G1 X67.806 Y104.045 E.03461
G1 X69.528 Y103.489 E.05674
G1 X71.313 Y103.2 E.0567
G1 X75.579 Y102.941 E.134
G1 X103.793 Y101.465 E.88584
G1 X105.299 Y101.46 E.04722
G1 X106.737 Y101.637 E.04543
G1 X108.842 Y102.229 E.06856
G1 X109.938 Y102.71 E.03753
G1 X110.938 Y103.27 E.03594
G1 X111.921 Y103.953 E.03753
G1 X112.794 Y104.694 E.0359
G1 X113.627 Y105.554 E.03754
G1 X114.648 Y106.87 E.05222
G1 X119.358 Y113.92 E.26584
G1 X120.239 Y115.954 E.0695
G1 X120.4 Y117.358 E.04431
G1 X120.4 Y144.858 E.86224
G1 X120.003 Y147.038 E.06948
G1 X119.289 Y148.397 E.04813
G1 X114.335 Y155.503 E.2716
G1 X113.491 Y156.616 E.0438
G1 X112.756 Y157.419 E.03413
G1 X111.779 Y158.294 E.04112
G1 X110.895 Y158.939 E.03431
G1 X109.932 Y159.518 E.03523
G1 X108.885 Y160.021 E.03642
G1 X107.816 Y160.416 E.03573
G1 X106.693 Y160.715 E.03644
G1 X105.568 Y160.903 E.03576
G1 X104.408 Y160.987 E.03647
G1 X103.266 Y160.961 E.03582
G1 X102.11 Y160.825 E.0365
G1 X100.992 Y160.586 E.03585
G1 X100.086 Y160.318 E.02962
G1 X65.508 Y147.153 E1.16009
G1 X63.811 Y146.308 E.05944
G1 X62.705 Y145.56 E.04186
G1 X61.839 Y144.826 E.03559
G1 X60.944 Y143.891 E.04058
G1 X56.048 Y137.56 E.25094
G1 X55.028 Y135.593 E.06947
G1 X54.755 Y133.774 E.05767
G1 X54.755 Y116.724 E.53459
G1 X55.151 Y114.544 E.06947
G1 X56.291 Y112.643 E.0695
G1 X57.149 Y111.835 E.03695
G1 X65.576 Y105.293 E.3345
G1 E-3.5 F1500
G1 X109.218 Y145.464 F54000
G1 E3.5 F1500
;TYPE:Support material
G1 F1800
G1 X109.743 Y146.479 E.03583
G1 X110.068 Y147.575 E.03584
G1 X110.182 Y148.711 E.0358
G1 X110.081 Y149.848 E.03579
G1 X109.769 Y150.945 E.03576
G1 X109.258 Y151.964 E.03574
G1 X108.576 Y152.856 E.03521
G1 X107.704 Y153.637 E.0367
G1 X106.741 Y154.216 E.03523
G1 X105.671 Y154.611 E.03576
G1 X104.547 Y154.8 E.03574
G1 X103.405 Y154.774 E.03582
G1 X102.288 Y154.535 E.03582
G1 X101.233 Y154.089 E.03591
G1 X100.279 Y153.453 E.03595
G1 X99.461 Y152.647 E.03601
G1 X98.845 Y151.752 E.03407
G1 X98.36 Y150.657 E.03755
G1 X98.216 Y150.143 E.01674
G1 X98.058 Y149.025 E.0354
G1 X98.062 Y148.395 E.01975
G1 X98.35 Y146.834 E.04977
G1 X98.803 Y145.802 E.03534
G1 X99.15 Y145.293 E.01932
G1 X109.084 Y145.293 E.31147
G1 X109.183 Y145.419 E.00502
G1 X109.753 Y150.381 F54000
G1 F1800
G1 X109.734 Y147.641 E.08591
G1 X109.334 Y146.428 E.04005
G1 X109.334 Y151.056 E.14511
G1 X108.915 Y151.854 E.02826
G1 X108.915 Y145.632 E.19509
G1 X108.496 Y145.632 E.01314
G1 X108.496 Y152.402 E.21227
G1 X108.077 Y152.853 E.0193
G1 X108.077 Y145.632 E.22641
G1 X107.658 Y145.632 E.01314
G1 X107.658 Y153.225 E.23807
G1 X107.239 Y153.52 E.01607
G1 X107.239 Y145.632 E.24732
G1 X106.82 Y145.632 E.01314
G1 X106.82 Y153.772 E.25522
G1 X106.593 Y153.909 E.00831
G1 X106.401 Y153.98 E.00642
G1 X106.401 Y145.632 E.26175
G1 X105.982 Y145.632 E.01314
G1 X105.982 Y154.135 E.26661
G1 X105.563 Y154.285 E.01395
G1 X105.563 Y145.632 E.27131
G1 X105.144 Y145.632 E.01314
G1 X105.144 Y154.355 E.2735
G1 X104.725 Y154.426 E.01332
G1 X104.725 Y145.632 E.27573
G1 X104.306 Y145.632 E.01314
G1 X104.306 Y154.455 E.27664
G1 X103.888 Y154.445 E.01311
G1 X103.888 Y145.632 E.27633
G1 X103.469 Y145.632 E.01314
G1 X103.469 Y154.436 E.27604
G1 X103.05 Y154.351 E.01341
G1 X103.05 Y145.632 E.27338
G1 X102.631 Y145.632 E.01314
G1 X102.631 Y154.261 E.27056
G1 X102.212 Y154.134 E.01373
G1 X102.212 Y145.632 E.26657
G1 X101.793 Y145.632 E.01314
G1 X101.793 Y153.957 E.26102
G1 X101.374 Y153.775 E.01432
G1 X101.374 Y145.632 E.25532
G1 X100.955 Y145.632 E.01314
G1 X100.955 Y153.495 E.24654
G1 X100.536 Y153.216 E.01578
G1 X100.536 Y145.632 E.23779
G1 X100.117 Y145.632 E.01314
G1 X100.117 Y152.816 E.22525
G1 X99.698 Y152.392 E.01869
G1 X99.698 Y145.632 E.21196
G1 X99.33 Y145.632 E.01154
G1 X99.279 Y145.706 E.00282
G1 X99.279 Y151.783 E.19054
G1 X98.86 Y151.001 E.02782
G1 X98.86 Y146.517 E.14059
G1 X98.674 Y146.941 E.01452
G1 X98.449 Y147.911 E.03122
G1 X98.441 Y150.317 E.07544
G1 E-3.5 F1500
G1 X86.694 Y113.523 F54000
G1 E3.5 F1500
G1 F1800
G1 X87.208 Y113.525 E.01612
G1 X88.322 Y113.771 E.03577
G1 X89.355 Y114.24 E.03557
G1 X90.266 Y114.912 E.03549
G1 X91.018 Y115.757 E.03547
G1 X91.684 Y116.923 E.0421
G1 X90.031 Y116.923 E.05183
G1 X89.777 Y117.178 E.01128
G1 X89.777 Y123.313 E.19236
G1 X89.355 Y123.624 E.01644
G1 X88.322 Y124.093 E.03557
G1 X87.212 Y124.338 E.03564
G1 X86.074 Y124.347 E.03568
G1 X84.957 Y124.118 E.03575
G1 X83.911 Y123.66 E.0358
G1 X82.983 Y122.994 E.03581
G1 X82.214 Y122.148 E.03585
G1 X81.639 Y121.159 E.03587
G1 X81.283 Y120.071 E.03589
G1 X81.163 Y118.932 E.03591
G1 X81.283 Y117.793 E.03591
G1 X81.639 Y116.705 E.03589
G1 X82.215 Y115.716 E.03589
G1 X82.984 Y114.87 E.03585
G1 X83.912 Y114.204 E.03581
G1 X84.957 Y113.746 E.03577
G1 X86.077 Y113.517 E.03584
G1 X86.637 Y113.522 E.01756
G1 X90.899 Y116.753 F54000
G1 F1800
G1 X90.899 Y116.233 E.0163
G1 X90.48 Y115.663 E.02218
G1 X90.48 Y116.583 E.02885
G1 X90.061 Y116.583 E.01314
G1 X90.061 Y115.192 E.04361
G1 X89.642 Y114.874 E.01649
G1 X89.642 Y116.832 E.06139
G1 X89.437 Y117.037 E.00909
G1 X89.437 Y123.142 E.19142
G1 X89.223 Y123.299 E.00832
G1 X89.223 Y114.565 E.27385
G1 X88.804 Y114.363 E.01458
G1 X88.804 Y123.501 E.28652
G1 X88.385 Y123.692 E.01444
G1 X88.385 Y114.172 E.29849
G1 X87.966 Y114.04 E.01377
G1 X87.966 Y123.824 E.30677
G1 X87.547 Y123.917 E.01346
G1 X87.547 Y113.947 E.3126
G1 X87.128 Y113.864 E.01339
G1 X87.128 Y123.999 E.31778
G1 X86.709 Y124.003 E.01314
G1 X86.709 Y113.862 E.31796
G1 X86.29 Y113.858 E.01314
G1 X86.29 Y124.006 E.31818
G1 X85.871 Y123.959 E.01322
G1 X85.871 Y113.905 E.31524
G1 X85.453 Y113.991 E.01338
G1 X85.453 Y123.873 E.30984
G1 X85.034 Y123.781 E.01345
G1 X85.034 Y114.083 E.30407
G1 X84.615 Y114.267 E.01435
G1 X84.615 Y123.598 E.29257
G1 X84.196 Y123.414 E.01435
G1 X84.196 Y114.45 E.28106
G1 X83.777 Y114.718 E.01559
G1 X83.777 Y123.146 E.26425
G1 X83.358 Y122.845 E.01618
G1 X83.358 Y115.019 E.24538
G1 X82.939 Y115.424 E.01827
G1 X82.939 Y122.44 E.21998
G1 X82.52 Y121.979 E.01953
G1 X82.52 Y115.885 E.19107
G1 X82.101 Y116.587 E.02563
G1 X82.101 Y121.277 E.14705
G1 X81.682 Y120.198 E.03629
G1 X81.682 Y117.12 E.09651
G1 E-3.5 F1500
G1 X105.234 Y107.672 F54000
G1 E3.5 F1500
G1 F1800
G1 X105.853 Y107.762 E.01961
G1 X106.915 Y108.11 E.03504
G1 X107.915 Y108.669 E.03592
G1 X108.788 Y109.411 E.03592
G1 X109.502 Y110.307 E.03592
G1 X110.03 Y111.324 E.03593
G1 X110.353 Y112.424 E.03595
G1 X110.458 Y113.567 E.03599
G1 X110.339 Y114.709 E.036
G1 X110.003 Y115.808 E.03603
G1 X109.46 Y116.821 E.03604
G1 X109.377 Y116.923 E.00412
G1 X99.684 Y116.923 E.30392
G1 X99.143 Y115.982 E.03403
G1 X98.775 Y114.911 E.03551
G1 X98.63 Y113.869 E.03299
G1 X98.628 Y113.307 E.01762
G1 X98.783 Y112.166 E.0361
G1 X99.157 Y111.076 E.03613
G1 X99.43 Y110.555 E.01844
G1 X99.734 Y110.08 E.01768
G1 X100.493 Y109.215 E.03608
G1 X101.405 Y108.514 E.03607
G1 X101.895 Y108.25 E.01745
G1 X102.434 Y108.003 E.01859
G1 X103.542 Y107.701 E.03601
G1 X104.687 Y107.618 E.03599
G1 X105.177 Y107.667 E.01544
G1 X109.753 Y115.915 F54000
G1 F1800
G1 X109.753 Y111.585 E.13576
G1 X109.334 Y110.72 E.03014
G1 X109.334 Y116.338 E.17615
G1 X109.203 Y116.583 E.00871
G1 X108.915 Y116.583 E.00903
G1 X108.915 Y110.115 E.2028
G1 X108.496 Y109.609 E.0206
G1 X108.496 Y116.583 E.21866
G1 X108.077 Y116.583 E.01314
G1 X108.077 Y109.253 E.22983
G1 X107.658 Y108.915 E.01688
G1 X107.658 Y116.583 E.24042
G1 X107.239 Y116.583 E.01314
G1 X107.239 Y108.68 E.24779
G1 X106.82 Y108.446 E.01505
G1 X106.82 Y116.583 E.25513
G1 X106.401 Y116.583 E.01314
G1 X106.401 Y108.299 E.25974
G1 X105.982 Y108.161 E.01383
G1 X105.982 Y116.583 E.26407
G1 X105.563 Y116.583 E.01314
G1 X105.563 Y108.063 E.26714
G1 X105.144 Y108.005 E.01326
G1 X105.144 Y116.583 E.26896
G1 X104.725 Y116.583 E.01314
G1 X104.678 Y107.958 E.27043
G1 X104.306 Y107.976 E.01168
G1 X104.306 Y116.583 E.26987
G1 X103.888 Y116.583 E.01311
G1 X103.888 Y108.007 E.26889
G1 X103.469 Y108.068 E.01328
G1 X103.469 Y116.583 E.26698
G1 X103.05 Y116.583 E.01314
G1 X103.05 Y108.17 E.26378
G1 X102.631 Y108.298 E.01374
G1 X102.631 Y116.583 E.25977
G1 X102.212 Y116.583 E.01314
G1 X102.212 Y108.478 E.25413
G1 X101.793 Y108.691 E.01474
G1 X101.793 Y116.583 E.24745
G1 X101.374 Y116.583 E.01314
G1 X101.374 Y108.954 E.2392
G1 X100.955 Y109.274 E.01653
G1 X100.955 Y116.583 E.22917
G1 X100.536 Y116.583 E.01314
G1 X100.536 Y109.663 E.21697
G1 X100.117 Y110.147 E.02007
G1 X100.117 Y116.583 E.2018
G1 X99.88 Y116.583 E.00743
G1 X99.698 Y116.266 E.01146
G1 X99.698 Y110.776 E.17214
G1 X99.279 Y111.688 E.03147
G1 X99.279 Y115.855 E.13065
G1 E-3.5 F1500
G1 X107.878 Y130.359 F54000
G1 E3.5 F1500
;TYPE:Perimeter
;WIDTH:0.419999
G1 F1800
G1 X108.213 Y130.14 E.01255
G1 X108.699 Y129.941 E.01647
G1 X109.341 Y129.827 E.02044
G1 X109.909 Y129.848 E.01782
G1 X110.421 Y129.972 E.01652
G1 X110.899 Y130.189 E.01646
G1 X111.328 Y130.492 E.01647
G1 X111.692 Y130.87 E.01645
G1 X112.036 Y131.43 E.02061
;WIDTH:0.445535
G1 X112.237 Y131.96 E.01898
;WIDTH:0.488676
G1 X112.282 Y132.081 E.00478
;WIDTH:0.531817
G1 X112.327 Y132.202 E.00525
G1 X112.346 Y132.737 E.02176
;WIDTH:0.540465
G1 X112.316 Y133.122 E.01598
G1 X112.223 Y133.343 E.00992
;WIDTH:0.50031
G1 X112.13 Y133.564 E.00912
;WIDTH:0.460155
G1 X112.036 Y133.786 E.00836
;WIDTH:0.419999
G1 X111.692 Y134.345 E.02058
G1 X111.328 Y134.723 E.01645
G1 X110.899 Y135.026 E.01647
G1 X110.421 Y135.243 E.01646
G1 X109.912 Y135.367 E.01643
G1 X109.387 Y135.393 E.01648
G1 X108.868 Y135.321 E.01643
G1 X108.334 Y135.132 E.01776
G1 X107.886 Y134.877 E.01616
G1 X107.475 Y134.517 E.01713
G1 X107.137 Y134.075 E.01745
G1 X106.876 Y133.518 E.01929
G1 X106.752 Y133.008 E.01646
G1 X106.725 Y132.493 E.01617
G1 X106.799 Y131.964 E.01675
G1 X106.876 Y131.698 E.00868
G1 X107.093 Y131.22 E.01646
G1 X107.396 Y130.792 E.01644
G1 X107.774 Y130.427 E.01648
G1 X107.828 Y130.392 E.00202
G1 X108.098 Y130.662 F54000
G1 F1800
G1 X108.167 Y130.606 E.00279
G1 X108.566 Y130.389 E.01424
G1 X109.027 Y130.247 E.01512
G1 X109.595 Y130.198 E.01788
G1 X110.05 Y130.257 E.01439
G1 X110.481 Y130.4 E.01424
G1 X110.878 Y130.62 E.01423
G1 X111.226 Y130.912 E.01424
G1 X111.528 Y131.289 E.01515
G1 X111.785 Y131.803 E.01802
G1 X111.896 Y132.243 E.01423
G1 X111.922 Y132.697 E.01426
G1 X111.862 Y133.146 E.0142
G1 X111.706 Y133.604 E.01517
G1 X111.409 Y134.096 E.01802
G1 X111.097 Y134.425 E.01422
G1 X110.728 Y134.69 E.01424
G1 X110.316 Y134.881 E.01424
G1 X109.876 Y134.992 E.01423
G1 X109.423 Y135.018 E.01423
G1 X108.973 Y134.959 E.01423
G1 X108.515 Y134.802 E.01518
G1 X108.023 Y134.506 E.018
G1 X107.694 Y134.193 E.01424
G1 X107.429 Y133.824 E.01424
G1 X107.238 Y133.412 E.01424
G1 X107.128 Y132.972 E.01422
G1 X107.102 Y132.519 E.01423
G1 X107.161 Y132.068 E.01426
G1 X107.238 Y131.803 E.00865
G1 X107.486 Y131.294 E.01775
G1 X107.815 Y130.893 E.01626
G1 X108.052 Y130.7 E.00958
G1 X108.318 Y130.965 F54000
G1 F1800
G1 X108.359 Y130.93 E.00169
G1 X108.694 Y130.744 E.01201
G1 X109.074 Y130.621 E.01252
G1 X109.56 Y130.573 E.01531
G1 X109.945 Y130.619 E.01216
G1 X110.31 Y130.736 E.01202
G1 X110.647 Y130.918 E.01201
G1 X110.943 Y131.161 E.01201
G1 X111.198 Y131.471 E.01259
G1 X111.423 Y131.908 E.01541
G1 X111.52 Y132.279 E.01202
G1 X111.546 Y132.661 E.01201
G1 X111.5 Y133.041 E.012
G1 X111.375 Y133.422 E.01257
G1 X111.127 Y133.847 E.01543
G1 X110.866 Y134.127 E.012
G1 X110.557 Y134.354 E.01202
G1 X110.211 Y134.519 E.01202
G1 X109.841 Y134.616 E.01199
G1 X109.458 Y134.642 E.01204
G1 X109.078 Y134.596 E.012
G1 X108.697 Y134.472 E.01256
G1 X108.273 Y134.223 E.01542
G1 X107.992 Y133.962 E.01202
G1 X107.765 Y133.653 E.01202
G1 X107.6 Y133.307 E.01202
G1 X107.503 Y132.936 E.01202
G1 X107.477 Y132.554 E.01201
G1 X107.523 Y132.173 E.01203
G1 X107.6 Y131.908 E.00865
G1 X107.822 Y131.473 E.01531
G1 X108.065 Y131.176 E.01203
G1 X108.272 Y131.003 E.00846
G1 X108.537 Y131.267 F54000
;TYPE:External perimeter
G1 F1800
G1 X108.551 Y131.255 E.00058
G1 X108.821 Y131.099 E.00978
G1 X109.122 Y130.995 E.00999
G1 X109.525 Y130.949 E.01272
G1 X109.84 Y130.981 E.00993
G1 X110.139 Y131.072 E.0098
G1 X110.416 Y131.216 E.00979
G1 X110.66 Y131.41 E.00977
G1 X110.868 Y131.652 E.01001
G1 X111.061 Y132.013 E.01283
G1 X111.145 Y132.314 E.0098
G1 X111.171 Y132.625 E.00979
G1 X111.138 Y132.936 E.00981
G1 X111.045 Y133.241 E.01
G1 X110.844 Y133.597 E.01282
G1 X110.635 Y133.829 E.00979
G1 X110.386 Y134.018 E.0098
G1 X110.106 Y134.157 E.0098
G1 X109.805 Y134.241 E.0098
G1 X109.28 Y134.247 E.01646
G1 X108.879 Y134.141 E.013
G1 X108.522 Y133.94 E.01285
G1 X108.29 Y133.731 E.00979
G1 X108.101 Y133.482 E.0098
G1 X107.962 Y133.202 E.0098
G1 X107.878 Y132.901 E.0098
G1 X107.852 Y132.59 E.00979
G1 X107.885 Y132.279 E.00981
G1 X107.962 Y132.013 E.00868
G1 X108.12 Y131.704 E.01088
G1 X108.314 Y131.459 E.0098
G1 X108.492 Y131.306 E.00736
G1 X108.838 Y131.105 F54000
G1 E-3.5 F1500
G1 X97.774 Y132.259 F54000
G1 E3.5 F1500
;TYPE:Perimeter
G1 F1800
G1 X97.798 Y132.723 E.01457
