; File Parsed By Flow Comp Script
; Script Ver. V0.7.1
; Flow Model Ver. V0.2.1
; Logger Ver. V0.0.1
; Flow Comp Model Points:
; (0, 0)
; (0.2, 0.4444)
; (0.4, 0.6145)
; (0.6, 0.7059)
; (0.8, 0.7619)
; (1.5, 0.8571)
; (2, 0.8889)
; (3, 0.9231)
; (5, 0.952)
; (10, 1)

; generated by PrusaSlicer 2.9.2 on 2025-04-13 at 13:34:59 UTC

; 

; external perimeters extrusion width = 0.45mm
; perimeters extrusion width = 0.45mm
; infill extrusion width = 0.45mm
; solid infill extrusion width = 0.45mm
; top infill extrusion width = 0.40mm
; support material extrusion width = 0.35mm
; first layer extrusion width = 0.42mm

;TYPE:Custom
G90 ; use absolute coordinates
M83 ; extruder relative mode
CALCULATE_PA BOWDEN_LENGTH=34.3 MATERIAL=PLA LAYER_HEIGHT=0.2 NOZZLE_SIZE=0.4 PRINT_SPEED=120 FILAMENT_DIAMETER=1.75 LINE_WIDTH=0.45 ; auto pressure advance
M104 S210 ; set temporary nozzle temp to prevent oozing during homing
M140 S58 ; set final bed temp
G4 S30 ; allow partial nozzle warmup
G28 ; home all axis
G1 Z50 F240
G1 X2.0 Y10 F3000
M104 S208 ; set final nozzle temp
M190 S58 ; wait for bed temp to stabilize
M109 S208 ; wait for nozzle temp to stabilize
G1 Z0.28 F240
G92 E0
G1 X2.0 Y140 E10 F1500 ; prime the nozzle
G1 X2.3 Y140 F5000
G92 E0
G1 X2.3 Y10 E10 F1200 ; prime the nozzle
G92 E0
G21 ; set units to millimeters
G90 ; use absolute coordinates
M83 ; use relative distances for extrusion
; Filament gcode
M107
;LAYER_CHANGE
;Z:0.2
;HEIGHT:0.2
G1 E-3.5 F1500
G1 Z.2 F54000
G1 X16.058 Y60.656
G1 Z.2
G1 E3.5 F1500
M204 S3500
;TYPE:Skirt/Brim
;WIDTH:0.42
G1 F1800
G1 X18.974 Y59.926 E.09425
G1 X46.974 Y59.926 E.87792
G1 X49.154 Y60.323 E.06948
G1 X51.055 Y61.462 E.06948
G1 X52.432 Y63.198 E.06948
G1 X53.162 Y66.115 E.09428
G1 X53.162 Y94.115 E.87792
G1 X52.766 Y96.295 E.06947
G1 X51.626 Y98.196 E.0695
G1 X49.89 Y99.573 E.06948
G1 X46.974 Y100.303 E.09425
G1 X18.974 Y100.303 E.87792
G1 X16.794 Y99.907 E.06947
G1 X14.893 Y98.767 E.0695
G1 X13.516 Y97.031 E.06948
G1 X12.785 Y94.115 E.09426
G1 X12.785 Y66.115 E.87792
G1 X13.182 Y63.935 E.06948
G1 X14.322 Y62.034 E.0695
G1 X16.011 Y60.694 E.0676
G1 E-3.5 F1500
G1 X35.713 Y82.198 F54000
G1 E3.5 F1500
;TYPE:Perimeter
;WIDTH:0.419999
G1 F1800
G1 X35.428 Y82.318 E.0097
G1 X35.023 Y82.408 E.01301
G1 X34.51 Y82.411 E.01609
G1 X34.103 Y82.346 E.01292
G1 X33.62 Y82.169 E.01613
G1 X33.204 Y81.905 E.01545
G1 X32.792 Y81.48 E.01856
G1 X32.584 Y81.187 E.01127
G1 X32.368 Y80.661 E.01783
G1 X32.28 Y80.291 E.01192
G1 X32.275 Y79.744 E.01715
G1 X32.34 Y79.336 E.01295
G1 X32.421 Y79.126 E.00706
G1 X32.631 Y78.65 E.01631
G1 X33.087 Y78.125 E.0218
G1 X33.488 Y77.834 E.01553
G1 X33.879 Y77.65 E.01355
G1 X34.273 Y77.535 E.01287
G1 X34.722 Y77.488 E.01415
G1 X35.395 Y77.592 E.02135
G1 X35.858 Y77.775 E.01561
G1 X36.222 Y78.006 E.01352
G1 X36.582 Y78.344 E.01548
G1 X36.836 Y78.694 E.01356
G1 X37.024 Y79.062 E.01296
G1 X37.171 Y79.62 E.01809
G1 X37.186 Y80.135 E.01615
G1 X37.093 Y80.631 E.01582
G1 X36.957 Y81.012 E.01268
G1 X36.688 Y81.442 E.0159
G1 X36.403 Y81.769 E.0136
G1 X36.005 Y82.074 E.01572
G1 X35.768 Y82.174 E.00807
G1 X35.411 Y81.918 F54000
G1 F1800
G1 X35.228 Y81.989 E.00615
G1 X34.942 Y82.034 E.00908
G1 X34.423 Y82.03 E.01627
G1 X33.892 Y81.879 E.01731
G1 X33.446 Y81.616 E.01623
G1 X33.067 Y81.222 E.01714
G1 X32.878 Y80.924 E.01106
G1 X32.665 Y80.327 E.01987
G1 X32.653 Y79.744 E.01828
G1 X32.719 Y79.397 E.01107
G1 X32.771 Y79.264 E.00448
G1 X32.952 Y78.848 E.01422
G1 X33.362 Y78.383 E.01944
G1 X33.648 Y78.175 E.01109
G1 X34.277 Y77.916 E.02133
G1 X34.722 Y77.866 E.01404
G1 X35.325 Y77.963 E.01915
G1 X35.655 Y78.093 E.01112
G1 X36.02 Y78.324 E.01354
G1 X36.277 Y78.566 E.01107
G1 X36.531 Y78.916 E.01356
G1 X36.754 Y79.452 E.0182
G1 X36.816 Y79.871 E.01328
G1 X36.804 Y80.136 E.00832
G1 X36.678 Y80.719 E.0187
G1 X36.37 Y81.239 E.01895
G1 X36.163 Y81.478 E.00991
G1 X35.719 Y81.797 E.01714
G1 X35.467 Y81.896 E.00849
G1 X35.092 Y81.628 F54000
G1 F1800
G1 X34.942 Y81.657 E.00479
G1 X34.414 Y81.648 E.01656
G1 X33.948 Y81.489 E.01544
G1 X33.637 Y81.279 E.01177
G1 X33.279 Y80.884 E.01671
G1 X33.069 Y80.384 E.017
G1 X33.03 Y80.175 E.00667
G1 X33.037 Y79.653 E.01637
G1 X33.122 Y79.403 E.00828
G1 X33.273 Y79.046 E.01215
G1 X33.637 Y78.641 E.01707
G1 X33.809 Y78.516 E.00667
G1 X34.343 Y78.287 E.01822
G1 X34.827 Y78.252 E.01522
G1 X35.255 Y78.333 E.01366
G1 X35.453 Y78.412 E.00668
G1 X35.818 Y78.643 E.01354
G1 X35.972 Y78.788 E.00663
G1 X36.307 Y79.295 E.01905
G1 X36.421 Y79.69 E.01289
G1 X36.434 Y80.066 E.0118
G1 X36.326 Y80.585 E.01662
G1 X36.052 Y81.037 E.01657
G1 X35.704 Y81.368 E.01506
G1 X35.151 Y81.616 E.019
G1 X34.732 Y81.275 F54000
;TYPE:External perimeter
G1 F1800
G1 X34.452 Y81.27 E.00878
G1 X34.04 Y81.105 E.01392
G1 X33.912 Y81.02 E.00482
G1 X33.579 Y80.646 E.0157
G1 X33.407 Y80.176 E.01569
G1 X33.42 Y79.675 E.01571
G1 X33.472 Y79.542 E.00448
G1 X33.617 Y79.214 E.01124
G1 X33.969 Y78.857 E.01572
G1 X34.416 Y78.657 E.01535
G1 X34.757 Y78.623 E.01074
G1 X35.251 Y78.73 E.01585
G1 X35.667 Y79.009 E.01571
G1 X35.948 Y79.412 E.0154
G1 X36.045 Y79.726 E.0103
G1 X36.063 Y79.995 E.00845
G1 X35.956 Y80.485 E.01573
G1 X35.683 Y80.896 E.01547
G1 X35.413 Y81.107 E.01074
G1 X34.942 Y81.279 E.01572
G1 X34.792 Y81.277 E.0047
G1 X34.395 Y81.232 F54000
G1 E-3.5 F1500
G1 X28.95 Y82.274 F54000
G1 E3.5 F1500
;TYPE:Perimeter
G1 F1800
G1 X28.919 Y82.29 E.00109
G1 X28.349 Y82.408 E.01825
G1 X27.966 Y82.424 E.01202
G1 X27.43 Y82.327 E.01708
G1 X27.045 Y82.189 E.01282
G1 X26.601 Y81.909 E.01646
G1 X26.292 Y81.636 E.01293
G1 X25.995 Y81.252 E.01522
G1 X25.743 Y80.661 E.02014
G1 X25.65 Y80.175 E.01551
G1 X25.657 Y79.611 E.01769
G1 X25.743 Y79.258 E.01139
G1 X25.902 Y78.857 E.01353
G1 X26.167 Y78.439 E.01552
G1 X26.462 Y78.125 E.01351
G1 X26.863 Y77.834 E.01553
G1 X27.253 Y77.65 E.01352
G1 X27.648 Y77.535 E.0129
G1 X28.097 Y77.488 E.01415
G1 X28.77 Y77.592 E.02135
G1 X29.232 Y77.775 E.01558
G1 X29.597 Y78.006 E.01354
G1 X29.957 Y78.345 E.0155
G1 X30.286 Y78.809 E.01783
G1 X30.488 Y79.336 E.0177
G1 X30.552 Y79.744 E.01295
G1 X30.547 Y80.291 E.01715
G1 X30.399 Y80.857 E.01834
G1 X30.211 Y81.225 E.01296
G1 X29.819 Y81.736 E.02019
G1 X29.317 Y82.091 E.01928
G1 X29.004 Y82.248 E.01098
G1 X28.755 Y81.941 F54000
G1 F1800
G1 X28.278 Y82.037 E.01526
G1 X27.925 Y82.037 E.01107
G1 X27.501 Y81.956 E.01353
G1 X27.171 Y81.825 E.01113
G1 X26.67 Y81.489 E.01891
G1 X26.319 Y81.059 E.0174
G1 X26.094 Y80.523 E.01823
G1 X26.028 Y80.175 E.01111
G1 X26.032 Y79.649 E.01649
G1 X26.094 Y79.397 E.00814
G1 X26.253 Y78.996 E.01353
G1 X26.442 Y78.697 E.01109
G1 X26.737 Y78.383 E.01351
G1 X27.023 Y78.175 E.01109
G1 X27.652 Y77.916 E.02133
G1 X28.097 Y77.866 E.01404
G1 X28.7 Y77.963 E.01915
G1 X29.03 Y78.093 E.01112
G1 X29.395 Y78.324 E.01354
G1 X29.652 Y78.566 E.01107
G1 X29.96 Y78.998 E.01664
G1 X30.163 Y79.593 E.01971
G1 X30.175 Y80.176 E.01828
G1 X30.084 Y80.605 E.01375
G1 X29.906 Y81.004 E.0137
G1 X29.553 Y81.469 E.0183
G1 X29.115 Y81.773 E.01672
G1 X28.814 Y81.927 E.0106
G1 X28.428 Y81.623 F54000
G1 F1800
G1 X28.132 Y81.676 E.00943
G1 X27.571 Y81.586 E.01781
G1 X27.373 Y81.507 E.00668
G1 X26.926 Y81.212 E.01679
G1 X26.643 Y80.866 E.01402
G1 X26.444 Y80.384 E.01635
G1 X26.405 Y80.175 E.00667
G1 X26.411 Y79.66 E.01615
G1 X26.603 Y79.135 E.01753
G1 X26.717 Y78.956 E.00665
G1 X27.012 Y78.641 E.01353
G1 X27.184 Y78.516 E.00667
G1 X27.718 Y78.287 E.01822
G1 X28.202 Y78.252 E.01522
G1 X28.63 Y78.333 E.01366
G1 X28.828 Y78.412 E.00668
G1 X29.193 Y78.643 E.01354
G1 X29.347 Y78.788 E.00663
G1 X29.657 Y79.233 E.017
G1 X29.798 Y79.744 E.01662
G1 X29.791 Y80.266 E.01637
G1 X29.63 Y80.738 E.01564
G1 X29.336 Y81.147 E.01579
G1 X28.913 Y81.454 E.01639
G1 X28.631 Y81.586 E.00976
G1 X28.487 Y81.612 E.00459
G1 X28.096 Y81.292 F54000
;TYPE:External perimeter
G1 F1800
G1 X28.066 Y81.296 E.00095
G1 X27.642 Y81.216 E.01353
G1 X27.209 Y80.955 E.01585
G1 X26.954 Y80.646 E.01256
G1 X26.782 Y80.175 E.01572
G1 X26.795 Y79.675 E.01568
G1 X26.992 Y79.214 E.01572
G1 X27.344 Y78.858 E.0157
G1 X27.791 Y78.657 E.01537
G1 X28.132 Y78.623 E.01074
G1 X28.626 Y78.73 E.01585
G1 X29.042 Y79.01 E.01572
G1 X29.323 Y79.412 E.01538
G1 X29.421 Y79.744 E.01085
G1 X29.412 Y80.234 E.01537
G1 X29.296 Y80.561 E.01088
G1 X28.991 Y80.958 E.0157
G1 X28.561 Y81.216 E.01572
G1 X28.155 Y81.282 E.0129
G1 X27.758 Y81.234 F54000
G1 E-3.5 F1500
G1 X26.809 Y92.191 F54000
G1 E3.5 F1500
;TYPE:Perimeter
;WIDTH:0.431404
G1 F1800
G1 X26.419 Y92.333 E.01341
G1 X25.898 Y92.399 E.01696
;WIDTH:0.431596
G1 X25.373 Y92.38 E.01698
G1 X24.864 Y92.25 E.01698
;WIDTH:0.419999
G1 X24.276 Y91.964 E.0205
G1 X23.829 Y91.613 E.01782
G1 X23.488 Y91.212 E.0165
G1 X23.23 Y90.756 E.01643
G1 X23.061 Y90.259 E.01646
G1 X22.988 Y89.739 E.01646
G1 X23.014 Y89.215 E.01645
G1 X23.138 Y88.705 E.01646
G1 X23.356 Y88.227 E.01647
G1 X23.658 Y87.799 E.01642
G1 X24.036 Y87.434 E.01648
G1 X24.476 Y87.147 E.01647
G1 X24.961 Y86.948 E.01644
G1 X25.494 Y86.848 E.017
G1 X25.894 Y86.829 E.01256
G1 X26.281 Y86.87 E.0122
G1 X26.814 Y87.025 E.0174
G1 X27.314 Y87.288 E.01771
G1 X27.771 Y87.669 E.01866
G1 X28.09 Y88.061 E.01585
G1 X28.335 Y88.507 E.01595
G1 X28.501 Y89.024 E.01703
G1 X28.559 Y89.491 E.01475
G1 X28.533 Y90.015 E.01645
G1 X28.409 Y90.525 E.01646
G1 X28.192 Y91.003 E.01646
G1 X27.89 Y91.431 E.01642
G1 X27.511 Y91.795 E.01648
G1 X26.952 Y92.139 E.02058
;WIDTH:0.431404
G1 X26.865 Y92.171 E.00299
G1 X26.505 Y91.907 F54000
;WIDTH:0.419999
G1 F1800
G1 X26.138 Y91.999 E.01186
G1 X25.685 Y92.025 E.01423
G1 X25.235 Y91.966 E.01423
G1 X24.778 Y91.809 E.01515
G1 X24.288 Y91.515 E.01792
G1 X23.956 Y91.2 E.01435
G1 X23.691 Y90.831 E.01424
G1 X23.5 Y90.419 E.01424
G1 X23.39 Y89.979 E.01422
G1 X23.364 Y89.526 E.01423
G1 X23.423 Y89.076 E.01423
G1 X23.566 Y88.645 E.01424
G1 X23.786 Y88.249 E.0142
G1 X24.078 Y87.9 E.01427
G1 X24.429 Y87.613 E.01422
G1 X24.971 Y87.345 E.01896
G1 X25.289 Y87.254 E.01037
G1 X25.794 Y87.201 E.01592
G1 X26.215 Y87.241 E.01326
G1 X26.744 Y87.407 E.01738
G1 X27.14 Y87.627 E.0142
G1 X27.488 Y87.919 E.01424
G1 X27.791 Y88.296 E.01517
G1 X28.025 Y88.743 E.01582
G1 X28.158 Y89.25 E.01643
G1 X28.184 Y89.703 E.01423
G1 X28.125 Y90.153 E.01423
G1 X27.982 Y90.585 E.01427
G1 X27.761 Y90.981 E.01422
G1 X27.47 Y91.329 E.01422
G1 X27.093 Y91.632 E.01517
G1 X26.579 Y91.888 E.018
G1 X26.563 Y91.892 E.00052
G1 X26.151 Y91.611 F54000
G1 F1800
G1 X26.103 Y91.623 E.00155
G1 X25.721 Y91.649 E.01201
G1 X25.34 Y91.603 E.01203
G1 X24.96 Y91.479 E.01253
G1 X24.537 Y91.231 E.01537
G1 X24.254 Y90.969 E.01209
G1 X24.027 Y90.66 E.01202
G1 X23.862 Y90.314 E.01202
G1 X23.765 Y89.944 E.01199
G1 X23.739 Y89.562 E.01201
G1 X23.785 Y89.181 E.01203
G1 X23.902 Y88.816 E.01202
G1 X24.084 Y88.48 E.01198
G1 X24.327 Y88.183 E.01203
G1 X24.621 Y87.937 E.01202
G1 X25.099 Y87.7 E.01673
G1 X25.589 Y87.596 E.01571
G1 X26.149 Y87.612 E.01757
G1 X26.572 Y87.743 E.01388
G1 X26.909 Y87.925 E.01201
G1 X27.205 Y88.168 E.01201
G1 X27.46 Y88.478 E.01259
G1 X27.685 Y88.916 E.01544
G1 X27.782 Y89.286 E.01199
G1 X27.809 Y89.668 E.01201
G1 X27.763 Y90.048 E.012
G1 X27.646 Y90.413 E.01202
G1 X27.463 Y90.75 E.01202
G1 X27.221 Y91.046 E.01199
G1 X26.911 Y91.301 E.01259
G1 X26.474 Y91.526 E.01541
G1 X26.209 Y91.596 E.00859
G1 X25.78 Y91.272 F54000
;TYPE:External perimeter
G1 F1800
G1 X25.756 Y91.274 E.00076
G1 X25.446 Y91.241 E.00977
G1 X25.141 Y91.148 E.01
G1 X24.787 Y90.948 E.01275
G1 X24.552 Y90.738 E.00988
G1 X24.363 Y90.489 E.0098
G1 X24.225 Y90.209 E.00979
G1 X24.141 Y89.908 E.0098
G1 X24.115 Y89.597 E.00979
G1 X24.147 Y89.286 E.0098
G1 X24.238 Y88.987 E.0098
G1 X24.382 Y88.711 E.00976
G1 X24.576 Y88.466 E.0098
G1 X24.813 Y88.262 E.0098
G1 X25.226 Y88.054 E.0145
G1 X25.747 Y87.956 E.01662
G1 X26.083 Y87.984 E.01057
G1 X26.401 Y88.079 E.01041
G1 X26.847 Y88.354 E.01643
G1 X27.13 Y88.659 E.01305
G1 X27.323 Y89.021 E.01286
G1 X27.407 Y89.321 E.00977
G1 X27.433 Y89.632 E.00979
G1 X27.4 Y89.943 E.00981
G1 X27.31 Y90.242 E.00979
G1 X27.165 Y90.519 E.0098
G1 X26.971 Y90.764 E.0098
G1 X26.729 Y90.971 E.00998
G1 X26.368 Y91.164 E.01283
G1 X26.067 Y91.248 E.0098
G1 X25.84 Y91.267 E.00714
G1 X25.442 Y91.228 F54000
G1 E-3.5 F1500
G1 X19.264 Y75.165 F54000
G1 E3.5 F1500
;WIDTH:0.578934
G1 F1800
G1 X19.263 Y75.161 E.00018
G1 E-3.5 F1500
G1 X26.482 Y72.453 F54000
G1 E3.5 F1500
;TYPE:Perimeter
;WIDTH:0.487746
G1 F1800
G1 X26.471 Y72.459 E.00046
;WIDTH:0.530514
G1 X26.385 Y72.503 E.00392
;WIDTH:0.573282
G1 X26.299 Y72.547 E.00426
G1 X25.803 Y72.587 E.02194
;WIDTH:0.580891
G1 X25.213 Y72.543 E.02647
G1 X25.049 Y72.456 E.0083
;WIDTH:0.540668
G1 X24.885 Y72.37 E.00766
;WIDTH:0.500445
G1 X24.721 Y72.284 E.00704
;WIDTH:0.460222
G1 X24.557 Y72.197 E.00644
;WIDTH:0.419999
G1 X24.408 Y72.102 E.00554
G1 X24.059 Y71.811 E.01425
G1 X23.772 Y71.46 E.01422
G1 X23.555 Y71.061 E.01424
G1 X23.417 Y70.628 E.01425
G1 X23.363 Y70.178 E.01421
G1 X23.394 Y69.725 E.01424
G1 X23.521 Y69.258 E.01517
G1 X23.786 Y68.749 E.01799
G1 X24.078 Y68.4 E.01427
G1 X24.429 Y68.113 E.01422
;WIDTH:0.453872
G1 X24.753 Y67.942 E.01252
;WIDTH:0.487744
G1 X25.077 Y67.771 E.01355
;WIDTH:0.530514
G1 X25.163 Y67.727 E.00392
;WIDTH:0.573284
G1 X25.248 Y67.683 E.00422
G1 X25.713 Y67.642 E.02059
;WIDTH:0.568155
G1 X26.211 Y67.67 E.02178
G1 X26.389 Y67.749 E.00851
;WIDTH:0.51877
G1 X26.566 Y67.828 E.00767
;WIDTH:0.469385
G1 X26.743 Y67.906 E.00686
;WIDTH:0.419999
G1 X27.14 Y68.127 E.01425
G1 X27.488 Y68.419 E.01424
G1 X27.776 Y68.77 E.01424
G1 X27.992 Y69.169 E.01423
G1 X28.13 Y69.601 E.01422
G1 X28.183 Y70.082 E.01517
G1 X28.125 Y70.653 E.018
G1 X27.982 Y71.084 E.01424
G1 X27.761 Y71.481 E.01425
G1 X27.47 Y71.829 E.01422
G1 X27.119 Y72.117 E.01424
;WIDTH:0.453873
G1 X26.795 Y72.288 E.01252
;WIDTH:0.487746
G1 X26.535 Y72.425 E.01087
G1 X26.156 Y72.108 F54000
;WIDTH:0.419999
G1 F1800
G1 X25.83 Y72.148 E.0103
G1 X25.341 Y72.103 E.0154
G1 X24.975 Y71.987 E.01204
G1 X24.639 Y71.804 E.012
G1 X24.342 Y71.562 E.01201
G1 X24.097 Y71.268 E.012
G1 X23.91 Y70.933 E.01203
G1 X23.79 Y70.569 E.01202
G1 X23.74 Y70.189 E.01202
G1 X23.762 Y69.807 E.012
G1 X23.863 Y69.419 E.01257
G1 X24.084 Y68.98 E.01541
G1 X24.327 Y68.683 E.01203
G1 X24.621 Y68.437 E.01202
G1 X24.956 Y68.251 E.01201
G1 X25.319 Y68.131 E.01199
G1 X25.699 Y68.081 E.01202
G1 X26.099 Y68.107 E.01257
G1 X26.572 Y68.242 E.01542
G1 X26.909 Y68.425 E.01202
G1 X27.205 Y68.668 E.01201
G1 X27.451 Y68.962 E.01202
G1 X27.638 Y69.297 E.01203
G1 X27.758 Y69.66 E.01199
G1 X27.807 Y70.058 E.01257
G1 X27.763 Y70.548 E.01543
G1 X27.646 Y70.913 E.01202
G1 X27.463 Y71.25 E.01202
G1 X27.221 Y71.546 E.01199
G1 X26.927 Y71.792 E.01202
G1 X26.592 Y71.978 E.01201
G1 X26.228 Y72.099 E.01203
G1 X26.215 Y72.1 E.00041
G1 X25.78 Y71.766 F54000
;TYPE:External perimeter
G1 F1800
G1 X25.446 Y71.741 E.0105
G1 X25.147 Y71.651 E.00979
G1 X24.87 Y71.506 E.0098
G1 X24.625 Y71.312 E.0098
G1 X24.421 Y71.076 E.00978
G1 X24.265 Y70.805 E.0098
G1 X24.162 Y70.51 E.0098
G1 X24.117 Y70.201 E.00979
G1 X24.13 Y69.889 E.00979
G1 X24.204 Y69.579 E.00999
G1 X24.382 Y69.211 E.01282
G1 X24.576 Y68.966 E.0098
G1 X24.813 Y68.762 E.0098
G1 X25.083 Y68.606 E.00978
G1 X25.378 Y68.503 E.0098
G1 X25.687 Y68.458 E.00979
G1 X26.006 Y68.472 E.01001
G1 X26.401 Y68.578 E.01282
G1 X26.678 Y68.723 E.0098
G1 X26.923 Y68.917 E.0098
G1 X27.127 Y69.154 E.0098
G1 X27.283 Y69.424 E.00978
G1 X27.385 Y69.719 E.00979
G1 X27.431 Y70.035 E.01001
G1 X27.401 Y70.443 E.01283
G1 X27.31 Y70.742 E.0098
G1 X27.165 Y71.019 E.0098
G1 X26.971 Y71.264 E.0098
G1 X26.735 Y71.468 E.00978
G1 X26.464 Y71.624 E.0098
G1 X26.169 Y71.726 E.00979
G1 X25.854 Y71.772 E.00998
G1 X25.84 Y71.771 E.00044
G1 X25.442 Y71.729 F54000
G1 E-3.5 F1500
G1 X40.984 Y72.452 F54000
G1 E3.5 F1500
;TYPE:Perimeter
;WIDTH:0.487755
G1 F1800
G1 X40.971 Y72.459 E.00055
;WIDTH:0.530517
G1 X40.885 Y72.503 E.00392
;WIDTH:0.573279
G1 X40.799 Y72.547 E.00426
G1 X40.058 Y72.581 E.03271
;WIDTH:0.5634
G1 X39.868 Y72.565 E.00825
G1 X39.642 Y72.466 E.01068
;WIDTH:0.5156
G1 X39.416 Y72.368 E.00968
;WIDTH:0.4678
G1 X39.19 Y72.269 E.00872
;WIDTH:0.419999
G1 X38.806 Y72.028 E.01421
G1 X38.396 Y71.625 E.01803
