; File Parsed By Flow Comp Script
; Script Ver. V0.7.1
; Flow Model Ver. V0.2.1
; Logger Ver. V0.0.1
; Flow Comp Model Points:
; (0, 0)
; (0.2, 0.4444)
; (0.4, 0.6145)
; (0.6, 0.7059)
; (0.8, 0.7619)
; (1.5, 0.8571)
; (2, 0.8889)
; (3, 0.9231)
; (5, 0.952)
; (10, 1)

; generated by PrusaSlicer 2.9.1 on 2025-03-16 at 23:01:40 UTC

; 

; external perimeters extrusion width = 0.45mm
; perimeters extrusion width = 0.45mm
; infill extrusion width = 0.45mm
; solid infill extrusion width = 0.45mm
; top infill extrusion width = 0.40mm
; first layer extrusion width = 0.42mm

; external perimeters extrusion width = 0.45mm
; perimeters extrusion width = 0.45mm
; infill extrusion width = 0.45mm
; solid infill extrusion width = 0.45mm
; top infill extrusion width = 0.40mm
; first layer extrusion width = 0.42mm

;TYPE:Custom
G90 ; use absolute coordinates
M83 ; extruder relative mode
M104 S210 ; set temporary nozzle temp to prevent oozing during homing
M140 S58 ; set final bed temp
G4 S30 ; allow partial nozzle warmup
G28 ; home all axis
G1 Z50 F240
G1 X2.0 Y10 F3000
M104 S208 ; set final nozzle temp
M190 S58 ; wait for bed temp to stabilize
M109 S208 ; wait for nozzle temp to stabilize
G1 Z0.28 F240
G92 E0
G1 X2.0 Y140 E10 F1500 ; prime the nozzle
G1 X2.3 Y140 F5000
G92 E0
G1 X2.3 Y10 E10 F1200 ; prime the nozzle
G92 E0
G21 ; set units to millimeters
G90 ; use absolute coordinates
M83 ; use relative distances for extrusion
; Filament gcode
M107
;LAYER_CHANGE
;Z:0.2
;HEIGHT:0.2
G1 E-3.5 F1500
G1 Z.2 F54000
G1 X11.601 Y110.019
G1 Z.2
G1 E3.5 F1500
M204 S3500
;TYPE:Skirt/Brim
;WIDTH:0.42
G1 F1800
G1 X40.125 Y108.73 E.89526
G1 X57.472 Y108.723 E.5439
G1 X59.72 Y109.12 E.07158
G1 X61.696 Y110.263 E.07157
G1 X63.162 Y112.014 E.0716
G1 X64.037 Y115.289 E.10629
G1 X64.037 Y134.739 E.60984
G1 X63.64 Y136.987 E.07158
G1 X62.497 Y138.964 E.0716
G1 X60.076 Y140.766 E.09463
G1 X38.502 Y150.091 E.73692
G1 X35.897 Y150.629 E.0834
G1 X11.897 Y150.629 E.7525
G1 X9.649 Y150.232 E.07158
G1 X7.672 Y149.09 E.07159
G1 X6.207 Y147.339 E.07158
G1 X5.331 Y144.064 E.1063
G1 X5.331 Y116.578 E.8618
G1 X5.728 Y114.33 E.07158
G1 X6.871 Y112.353 E.0716
G1 X8.622 Y110.888 E.07158
G1 X11.543 Y110.036 E.0954
G1 X11.618 Y110.396 F54000
G1 F1800
G1 X40.142 Y109.107 E.89526
G1 X57.472 Y109.101 E.54337
G1 X59.652 Y109.497 E.06947
G1 X61.552 Y110.637 E.06947
G1 X62.93 Y112.373 E.06949
G1 X63.66 Y115.289 E.09425
G1 X63.66 Y134.739 E.60984
G1 X63.263 Y136.919 E.06948
G1 X62.124 Y138.82 E.06948
G1 X59.927 Y140.42 E.08522
G1 X38.352 Y149.744 E.73694
G1 X35.897 Y150.252 E.07861
G1 X11.897 Y150.252 E.7525
G1 X9.717 Y149.855 E.06948
G1 X7.816 Y148.716 E.06948
G1 X6.439 Y146.98 E.06948
G1 X5.709 Y144.064 E.09425
G1 X5.709 Y116.578 E.8618
G1 X6.105 Y114.398 E.06947
G1 X7.245 Y112.497 E.0695
G1 X8.981 Y111.12 E.06948
G1 X11.56 Y110.412 E.08385
G1 E-3.5 F1500
G1 X29.297 Y129.79 F54000
G1 E3.5 F1500
;TYPE:Perimeter
;WIDTH:0.419999
G1 F1800
G1 X29.459 Y129.633 E.00707
G1 X29.899 Y129.346 E.01647
G1 X30.385 Y129.146 E.01648
G1 X31.026 Y129.033 E.02041
G1 X31.595 Y129.054 E.01785
G1 X32.107 Y129.178 E.01652
G1 X32.585 Y129.395 E.01646
G1 X33.013 Y129.698 E.01644
G1 X33.378 Y130.076 E.01648
G1 X33.722 Y130.636 E.02061
;WIDTH:0.445535
G1 X33.922 Y131.166 E.01896
;WIDTH:0.488676
G1 X33.967 Y131.287 E.00478
;WIDTH:0.531817
G1 X34.012 Y131.408 E.00525
G1 X34.032 Y131.943 E.02176
;WIDTH:0.540465
G1 X34.002 Y132.328 E.01598
G1 X33.908 Y132.549 E.00994
;WIDTH:0.50031
G1 X33.815 Y132.77 E.00912
;WIDTH:0.460155
G1 X33.722 Y132.992 E.00835
;WIDTH:0.419999
G1 X33.378 Y133.551 E.02058
G1 X33.013 Y133.929 E.01648
G1 X32.585 Y134.232 E.01644
G1 X32.107 Y134.449 E.01646
G1 X31.597 Y134.573 E.01646
G1 X31.073 Y134.599 E.01645
G1 X30.553 Y134.527 E.01646
G1 X30.019 Y134.338 E.01776
G1 X29.571 Y134.083 E.01616
G1 X29.16 Y133.723 E.01713
G1 X28.823 Y133.281 E.01743
G1 X28.561 Y132.724 E.0193
G1 X28.438 Y132.214 E.01645
G1 X28.411 Y131.699 E.01617
G1 X28.484 Y131.17 E.01674
G1 X28.561 Y130.904 E.00868
G1 X28.779 Y130.426 E.01647
G1 X29.081 Y129.998 E.01642
G1 X29.253 Y129.832 E.00749
G1 X29.55 Y130.059 F54000
G1 F1800
G1 X29.852 Y129.812 E.01223
G1 X30.251 Y129.595 E.01424
G1 X30.712 Y129.453 E.01512
G1 X31.28 Y129.404 E.01788
G1 X31.736 Y129.463 E.01442
G1 X32.167 Y129.606 E.01424
G1 X32.563 Y129.826 E.0142
G1 X32.911 Y130.118 E.01424
G1 X33.214 Y130.495 E.01517
G1 X33.471 Y131.009 E.01802
G1 X33.581 Y131.449 E.01422
G1 X33.607 Y131.903 E.01426
G1 X33.548 Y132.352 E.0142
G1 X33.391 Y132.81 E.01518
G1 X33.095 Y133.302 E.018
G1 X32.782 Y133.631 E.01424
G1 X32.414 Y133.896 E.01422
G1 X32.002 Y134.087 E.01424
G1 X31.562 Y134.198 E.01423
G1 X31.108 Y134.224 E.01426
G1 X30.658 Y134.165 E.01423
G1 X30.201 Y134.008 E.01515
G1 X29.709 Y133.712 E.018
G1 X29.379 Y133.399 E.01426
G1 X29.115 Y133.03 E.01423
G1 X28.924 Y132.618 E.01424
G1 X28.813 Y132.178 E.01423
G1 X28.787 Y131.725 E.01423
G1 X28.847 Y131.274 E.01427
G1 X28.924 Y131.009 E.00865
G1 X29.172 Y130.5 E.01775
G1 X29.501 Y130.099 E.01626
G1 X29.503 Y130.097 E.00009
G1 X29.808 Y130.334 F54000
G1 F1800
G1 X30.044 Y130.136 E.00966
G1 X30.379 Y129.95 E.01201
G1 X30.76 Y129.827 E.01255
G1 X31.245 Y129.779 E.01528
G1 X31.63 Y129.825 E.01216
G1 X31.996 Y129.942 E.01205
G1 X32.332 Y130.124 E.01198
G1 X32.629 Y130.367 E.01203
G1 X32.883 Y130.677 E.01257
G1 X33.108 Y131.114 E.01541
G1 X33.206 Y131.485 E.01203
G1 X33.232 Y131.867 E.01201
G1 X33.186 Y132.247 E.012
G1 X33.061 Y132.628 E.01257
G1 X32.812 Y133.053 E.01544
G1 X32.551 Y133.333 E.012
G1 X32.242 Y133.56 E.01202
G1 X31.897 Y133.725 E.01199
G1 X31.526 Y133.822 E.01202
G1 X31.144 Y133.848 E.01201
G1 X30.764 Y133.802 E.012
G1 X30.383 Y133.678 E.01256
G1 X29.958 Y133.429 E.01544
G1 X29.677 Y133.168 E.01202
G1 X29.451 Y132.859 E.012
G1 X29.286 Y132.513 E.01202
G1 X29.188 Y132.142 E.01203
G1 X29.162 Y131.76 E.01201
G1 X29.209 Y131.379 E.01204
G1 X29.286 Y131.114 E.00865
G1 X29.508 Y130.679 E.01531
G1 X29.75 Y130.382 E.01201
G1 X29.762 Y130.373 E.00047
G1 X30.065 Y130.608 F54000
;TYPE:External perimeter
G1 F1800
G1 X30.236 Y130.461 E.00707
G1 X30.507 Y130.305 E.0098
G1 X30.808 Y130.201 E.00999
G1 X31.211 Y130.155 E.01272
G1 X31.525 Y130.187 E.0099
G1 X31.824 Y130.278 E.0098
G1 X32.101 Y130.422 E.00979
G1 X32.346 Y130.616 E.0098
G1 X32.553 Y130.858 E.00998
G1 X32.746 Y131.219 E.01283
G1 X32.83 Y131.52 E.0098
G1 X32.856 Y131.831 E.00979
G1 X32.824 Y132.142 E.0098
G1 X32.73 Y132.447 E.01001
G1 X32.529 Y132.803 E.01282
G1 X32.32 Y133.035 E.00979
G1 X32.071 Y133.224 E.0098
G1 X31.791 Y133.363 E.0098
G1 X31.491 Y133.447 E.00977
G1 X30.966 Y133.453 E.01646
G1 X30.564 Y133.347 E.01304
G1 X30.208 Y133.146 E.01282
G1 X29.975 Y132.937 E.00981
G1 X29.787 Y132.688 E.00978
G1 X29.648 Y132.408 E.0098
G1 X29.564 Y132.107 E.0098
G1 X29.538 Y131.796 E.00979
G1 X29.571 Y131.485 E.00981
G1 X29.648 Y131.219 E.00868
G1 X29.806 Y130.91 E.01088
G1 X30 Y130.665 E.0098
G1 X30.02 Y130.648 E.00082
G1 X30.34 Y130.409 F54000
G1 E-3.5 F1500
G1 X19.468 Y131.639 F54000
G1 E3.5 F1500
;TYPE:Perimeter
G1 F1800
G1 X19.483 Y131.929 E.0091
G1 X19.41 Y132.457 E.01671
G1 X19.241 Y132.955 E.01649
G1 X18.981 Y133.413 E.01651
G1 X18.607 Y133.842 E.01784
G1 X18.212 Y134.158 E.01586
G1 X17.607 Y134.449 E.02105
G1 X17.097 Y134.573 E.01646
G1 X16.573 Y134.599 E.01645
G1 X16.053 Y134.527 E.01646
G1 X15.519 Y134.338 E.01776
G1 X14.96 Y133.994 E.02058
G1 X14.581 Y133.63 E.01648
G1 X14.279 Y133.202 E.01642
G1 X14.061 Y132.724 E.01647
;WIDTH:0.462708
G1 X14.013 Y132.626 E.00381
;WIDTH:0.505417
G1 X13.964 Y132.528 E.00421
;WIDTH:0.548126
G1 X13.916 Y132.43 E.00458
;WIDTH:0.590835
G1 X13.868 Y132.332 E.00497
G1 X13.837 Y131.945 E.01769
;WIDTH:0.581911
G1 X13.857 Y131.406 E.02417
G1 X13.908 Y131.281 E.00605
;WIDTH:0.541433
G1 X13.959 Y131.155 E.00563
;WIDTH:0.500955
G1 X14.01 Y131.029 E.00518
;WIDTH:0.460477
G1 X14.061 Y130.904 E.00469
;WIDTH:0.419999
G1 X14.279 Y130.426 E.01647
G1 X14.581 Y129.998 E.01642
G1 X14.959 Y129.633 E.01648
G1 X15.399 Y129.346 E.01647
G1 X15.885 Y129.147 E.01647
G1 X16.526 Y129.033 E.02041
G1 X17.095 Y129.054 E.01785
G1 X17.607 Y129.178 E.01652
G1 X18.085 Y129.395 E.01646
G1 X18.513 Y129.698 E.01644
G1 X18.878 Y130.076 E.01648
G1 X19.189 Y130.576 E.01846
G1 X19.333 Y130.905 E.01126
G1 X19.456 Y131.414 E.01642
G1 X19.465 Y131.58 E.00521
G1 X19.093 Y131.663 F54000
G1 F1800
G1 X19.107 Y131.903 E.00754
G1 X19.048 Y132.352 E.0142
G1 X18.905 Y132.784 E.01427
G1 X18.684 Y133.181 E.01425
G1 X18.367 Y133.551 E.01528
G1 X17.914 Y133.896 E.01785
G1 X17.502 Y134.087 E.01424
G1 X17.062 Y134.198 E.01423
G1 X16.608 Y134.224 E.01426
G1 X16.158 Y134.165 E.01423
G1 X15.701 Y134.008 E.01515
G1 X15.209 Y133.712 E.018
G1 X14.879 Y133.399 E.01426
G1 X14.615 Y133.03 E.01423
G1 X14.424 Y132.618 E.01424
G1 X14.313 Y132.178 E.01423
G1 X14.287 Y131.902 E.00869
G1 X14.313 Y131.449 E.01423
G1 X14.489 Y130.844 E.01976
G1 X14.71 Y130.448 E.01422
G1 X15.001 Y130.099 E.01425
G1 X15.352 Y129.812 E.01422
G1 X15.751 Y129.595 E.01424
G1 X16.212 Y129.453 E.01512
G1 X16.78 Y129.404 E.01788
G1 X17.254 Y129.468 E.015
G1 X17.667 Y129.606 E.01365
G1 X18.063 Y129.826 E.0142
G1 X18.412 Y130.118 E.01427
G1 X18.714 Y130.495 E.01515
G1 X18.97 Y131.009 E.018
G1 X19.081 Y131.449 E.01423
G1 X19.09 Y131.603 E.00484
G1 X18.719 Y131.687 F54000
G1 F1800
G1 X18.732 Y131.867 E.00566
G1 X18.686 Y132.247 E.012
G1 X18.569 Y132.612 E.01202
G1 X18.386 Y132.95 E.01205
G1 X18.127 Y133.26 E.01267
G1 X17.743 Y133.56 E.01528
G1 X17.396 Y133.725 E.01205
G1 X16.859 Y133.838 E.01721
G1 X16.368 Y133.822 E.0154
G1 X15.883 Y133.678 E.01586
G1 X15.458 Y133.429 E.01544
G1 X15.177 Y133.168 E.01202
G1 X14.951 Y132.859 E.012
G1 X14.786 Y132.513 E.01202
G1 X14.688 Y132.143 E.012
G1 X14.662 Y131.867 E.00869
G1 X14.708 Y131.38 E.01534
G1 X14.825 Y131.015 E.01202
G1 X15.008 Y130.679 E.012
G1 X15.25 Y130.382 E.01201
G1 X15.544 Y130.136 E.01202
G1 X15.879 Y129.95 E.01201
G1 X16.26 Y129.827 E.01255
G1 X16.745 Y129.779 E.01528
G1 X17.149 Y129.83 E.01277
G1 X17.496 Y129.942 E.01143
G1 X17.832 Y130.124 E.01198
G1 X18.129 Y130.367 E.01203
G1 X18.383 Y130.677 E.01257
G1 X18.609 Y131.115 E.01545
G1 X18.706 Y131.485 E.01199
G1 X18.715 Y131.627 E.00446
G1 X18.346 Y131.71 F54000
;TYPE:External perimeter
G1 F1800
G1 X18.356 Y131.832 E.00384
G1 X18.324 Y132.142 E.00977
G1 X18.233 Y132.441 E.0098
G1 X18.088 Y132.718 E.0098
G1 X17.887 Y132.969 E.01008
G1 X17.571 Y133.224 E.01273
G1 X17.291 Y133.363 E.0098
G1 X16.824 Y133.463 E.01497
G1 X16.369 Y133.44 E.01428
G1 X16.064 Y133.347 E.01
G1 X15.708 Y133.146 E.01282
G1 X15.475 Y132.937 E.00981
G1 X15.287 Y132.688 E.00978
G1 X15.148 Y132.408 E.0098
G1 X15.064 Y132.107 E.0098
G1 X15.038 Y131.831 E.00869
G1 X15.071 Y131.485 E.0109
G1 X15.161 Y131.186 E.00979
G1 X15.306 Y130.91 E.00978
G1 X15.5 Y130.665 E.0098
G1 X15.736 Y130.461 E.00978
G1 X16.007 Y130.305 E.0098
G1 X16.308 Y130.201 E.00999
G1 X16.711 Y130.155 E.01272
G1 X17.043 Y130.192 E.01047
G1 X17.324 Y130.277 E.0092
G1 X17.601 Y130.422 E.0098
G1 X17.846 Y130.616 E.0098
G1 X18.053 Y130.858 E.00998
G1 X18.247 Y131.22 E.01288
G1 X18.33 Y131.52 E.00976
G1 X18.341 Y131.65 E.00409
G1 X18.329 Y132.05 F54000
G1 E-3.5 F1500
G1 X13.238 Y142.722 F54000
G1 E3.5 F1500
;TYPE:Perimeter
G1 F1800
G1 X13.238 Y132.841 E.30981
;WIDTH:0.462708
G1 X13.26 Y132.725 E.00412
;WIDTH:0.505417
G1 X13.281 Y132.61 E.0045
;WIDTH:0.548126
G1 X13.302 Y132.495 E.00491
;WIDTH:0.590835
G1 X13.324 Y132.38 E.00533
G1 X13.313 Y131.97 E.01869
;WIDTH:0.581911
G1 X13.319 Y131.381 E.0264
G1 X13.299 Y131.232 E.00674
;WIDTH:0.541433
G1 X13.279 Y131.084 E.00619
;WIDTH:0.500955
G1 X13.259 Y130.935 E.00573
;WIDTH:0.460477
G1 X13.238 Y130.787 E.00519
;WIDTH:0.419999
G1 X13.238 Y117.905 E.40391
G1 X34.556 Y117.905 E.66841
G1 X34.556 Y123.632 E.17957
G1 X34.556 Y130.422 E.2129
;WIDTH:0.445535
G1 X34.543 Y131.078 E.02197
;WIDTH:0.482141
G1 X34.525 Y131.37 E.01068
;WIDTH:0.518746
G1 X34.506 Y131.662 E.01158
;WIDTH:0.531817
G1 X34.5 Y132.242 E.02358
G1 X34.519 Y132.437 E.00796
;WIDTH:0.494545
G1 X34.537 Y132.632 E.00735
;WIDTH:0.457272
G1 X34.556 Y132.827 E.00675
;WIDTH:0.419999
G1 X34.556 Y142.722 E.31025
G1 X13.298 Y142.722 E.66653
G1 X12.861 Y143.1 F54000
G1 F1800
G1 X12.861 Y117.528 E.80179
G1 X34.933 Y117.528 E.69205
G1 X34.933 Y123.632 E.19139
G1 X34.933 Y143.1 E.6104
G1 X12.921 Y143.1 E.69017
G1 X12.484 Y143.477 F54000
G1 F1800
G1 X12.484 Y117.151 E.82543
G1 X35.31 Y117.151 E.71569
G1 X35.31 Y123.632 E.20321
G1 X35.31 Y143.477 E.62222
G1 X12.544 Y143.477 E.71381
G1 X12.107 Y143.854 F54000
;TYPE:External perimeter
G1 F1800
G1 X12.107 Y116.774 E.84907
G1 X35.687 Y116.774 E.73933
G1 X35.687 Y123.632 E.21503
G1 X35.687 Y143.854 E.63405
G1 X12.167 Y143.854 E.73745
G1 X12.108 Y143.458 F54000
G1 E-3.5 F1500
G1 X14.121 Y142.609 F54000
G1 E3.5 F1500
;TYPE:Solid infill
;WIDTH:0.423576
G1 F1800
G1 X13.521 Y142.009 E0.02074; Old Flow Value: 0.02686   Length: 0.84852
G1 X13.521 Y141.471 E0.01159; Old Flow Value: 0.01703   Length: 0.53801
G1 X14.49 Y142.44 E0.03668; Old Flow Value: 0.04337   Length: 1.37038
G1 X15.028 Y142.44 E0.01159; Old Flow Value: 0.01703   Length: 0.53800
G1 X13.521 Y140.933 E0.06038; Old Flow Value: 0.06746   Length: 2.13122
G1 X13.521 Y140.394 E0.01162; Old Flow Value: 0.01706   Length: 0.53900
G1 X15.566 Y142.44 E0.08428; Old Flow Value: 0.09156   Length: 2.89278
G1 X16.105 Y142.44 E0.01162; Old Flow Value: 0.01706   Length: 0.53900
G1 X13.521 Y139.856 E0.10824; Old Flow Value: 0.11567   Length: 3.65433
G1 X13.521 Y139.318 E0.01159; Old Flow Value: 0.01703   Length: 0.53801
G1 X16.643 Y142.44 E0.13219; Old Flow Value: 0.13975   Length: 4.41518
G1 X17.181 Y142.44 E0.01159; Old Flow Value: 0.01703   Length: 0.53800
G1 X13.521 Y138.779 E0.15627; Old Flow Value: 0.16385   Length: 5.17673
G1 X13.521 Y138.241 E0.01159; Old Flow Value: 0.01703   Length: 0.53801
G1 X17.72 Y142.44 E0.18068; Old Flow Value: 0.18796   Length: 5.93829
G1 X18.258 Y142.44 E0.01159; Old Flow Value: 0.01703   Length: 0.53800
G1 X13.521 Y137.703 E0.20540; Old Flow Value: 0.21204   Length: 6.69913
G1 X13.521 Y137.164 E0.01162; Old Flow Value: 0.01706   Length: 0.53900
G1 X18.796 Y142.44 E0.23047; Old Flow Value: 0.23614   Length: 7.46068
G1 X19.335 Y142.44 E0.01162; Old Flow Value: 0.01706   Length: 0.53900
G1 X13.521 Y136.626 E0.25589; Old Flow Value: 0.26025   Length: 8.22223
G1 X13.521 Y136.088 E0.01159; Old Flow Value: 0.01703   Length: 0.53801
G1 X19.873 Y142.44 E0.28161; Old Flow Value: 0.28433   Length: 8.98309
G1 X20.411 Y142.44 E0.01159; Old Flow Value: 0.01703   Length: 0.53800
G1 X13.521 Y135.549 E0.30769; Old Flow Value: 0.30843   Length: 9.74464
G1 X13.521 Y135.011 E0.01159; Old Flow Value: 0.01703   Length: 0.53799
G1 X20.95 Y142.44 E.33254; Old Flow Value: 0.33254   Length: 10.50619
G1 X21.488 Y142.44 E0.01159; Old Flow Value: 0.01703   Length: 0.53800
G1 X13.521 Y134.473 E.35662; Old Flow Value: 0.35662   Length: 11.26704
G1 X13.521 Y133.934 E0.01162; Old Flow Value: 0.01706   Length: 0.53900
G1 X22.026 Y142.44 E.38073; Old Flow Value: 0.38073   Length: 12.02859
G1 X22.565 Y142.44 E0.01162; Old Flow Value: 0.01706   Length: 0.53900
G1 X13.521 Y133.396 E.40483; Old Flow Value: 0.40483   Length: 12.79015
G1 X13.521 Y132.858 E0.01159; Old Flow Value: 0.01703   Length: 0.53799
G1 X23.273 Y142.609 E.4365; Old Flow Value: 0.4365   Length: 13.79070
G1 E-3.5 F1500
G1 X17.941 Y129.203 F54000
G1 E3.5 F1500; Old Flow Value: 3.5   Length: 0.00000
G1 F1800
G1 X13.521 Y124.783 E0.19079; Old Flow Value: 0.19785   Length: 6.25083
G1 X13.521 Y125.321 E0.01159; Old Flow Value: 0.01703   Length: 0.53800
G1 X16.957 Y128.757 E0.14620; Old Flow Value: 0.1538   Length: 4.85924
G1 X16.423 Y128.761 E0.01147; Old Flow Value: 0.0169   Length: 0.53402
G1 X13.521 Y125.859 E0.12239; Old Flow Value: 0.1299   Length: 4.10405
G1 X13.521 Y126.398 E0.01162; Old Flow Value: 0.01706   Length: 0.53900
G1 X15.962 Y128.838 E0.10185; Old Flow Value: 0.10924   Length: 3.45138
G1 X15.551 Y128.966 E0.00858; Old Flow Value: 0.01363   Length: 0.43047
