; File Parsed By Flow Comp Script
; Script Ver. V0.7.1
; Flow Model Ver. V0.2.1
; Logger Ver. V0.0.1
; Flow Comp Model Points:
; (0, 0)
; (0.2, 0.4444)
; (0.4, 0.6145)
; (0.6, 0.7059)
; (0.8, 0.7619)
; (1.5, 0.8571)
; (2, 0.8889)
; (3, 0.9231)
; (5, 0.952)
; (10, 1)

; generated by PrusaSlicer 2.9.1 on 2025-03-15 at 19:04:32 UTC

; 

; external perimeters extrusion width = 0.45mm
; perimeters extrusion width = 0.45mm
; infill extrusion width = 0.45mm
; solid infill extrusion width = 0.45mm
; top infill extrusion width = 0.40mm
; first layer extrusion width = 0.42mm

;TYPE:Custom
G90 ; use absolute coordinates
M83 ; extruder relative mode
M104 S210 ; set temporary nozzle temp to prevent oozing during homing
M140 S58 ; set final bed temp
G4 S30 ; allow partial nozzle warmup
G28 ; home all axis
G1 Z50 F240
G1 X2.0 Y10 F3000
M104 S208 ; set final nozzle temp
M190 S58 ; wait for bed temp to stabilize
M109 S208 ; wait for nozzle temp to stabilize
G1 Z0.28 F240
G92 E0
G1 X2.0 Y140 E10 F1500 ; prime the nozzle
G1 X2.3 Y140 F5000
G92 E0
G1 X2.3 Y10 E10 F1200 ; prime the nozzle
G92 E0
G21 ; set units to millimeters
G90 ; use absolute coordinates
M83 ; use relative distances for extrusion
; Filament gcode
M107
;LAYER_CHANGE
;Z:0.2
;HEIGHT:0.2
G1 E-3.5 F1500
G1 Z.2 F54000
G1 X54.305 Y75.115
G1 Z.2
G1 E3.5 F1500
M204 S3500
;TYPE:Skirt/Brim
;WIDTH:0.42
G1 F1800
G1 X57.575 Y74.24 E.10614
G1 X81.58 Y74.222 E.75266
G1 X83.828 Y74.619 E.07158
G1 X85.805 Y75.762 E.0716
G1 X87.27 Y77.512 E.07156
G1 X88.146 Y80.787 E.1063
G1 X88.146 Y108.287 E.86224
G1 X87.749 Y110.536 E.07161
G1 X86.606 Y112.512 E.07157
G1 X84.855 Y113.978 E.0716
G1 X81.58 Y114.853 E.10629
G1 X57.58 Y114.853 E.7525
G1 X55.332 Y114.456 E.07158
G1 X53.355 Y113.313 E.0716
G1 X51.89 Y111.563 E.07156
G1 X51.014 Y108.287 E.10633
G1 X51.014 Y80.806 E.86165
G1 X51.411 Y78.557 E.07161
G1 X52.554 Y76.581 E.07157
G1 X54.259 Y75.154 E.06971
G1 X54.509 Y75.47 F54000
G1 F1800
G1 X54.664 Y75.347 E.0062
G1 X57.575 Y74.617 E.0941
G1 X81.58 Y74.599 E.75266
G1 X83.76 Y74.996 E.06948
G1 X85.661 Y76.135 E.06948
G1 X87.038 Y77.871 E.06948
G1 X87.769 Y80.787 E.09426
G1 X87.769 Y108.287 E.86224
G1 X87.372 Y110.468 E.06951
G1 X86.232 Y112.368 E.06947
G1 X84.496 Y113.746 E.06949
G1 X81.58 Y114.476 E.09425
G1 X57.58 Y114.476 E.7525
G1 X55.4 Y114.079 E.06948
G1 X53.499 Y112.94 E.06948
G1 X52.122 Y111.204 E.06948
G1 X51.392 Y108.287 E.09428
G1 X51.392 Y80.806 E.86165
G1 X51.788 Y78.626 E.06947
G1 X52.928 Y76.725 E.0695
G1 X54.462 Y75.507 E.06142
G1 E-3.5 F1500
G1 X74.854 Y94.135 F54000
G1 E3.5 F1500
;TYPE:Perimeter
;WIDTH:0.419999
G1 F1800
G1 X75.142 Y93.857 E.01255
G1 X75.582 Y93.57 E.01647
G1 X76.068 Y93.37 E.01648
G1 X76.709 Y93.257 E.02041
G1 X77.278 Y93.278 E.01785
G1 X77.79 Y93.402 E.01652
G1 X78.268 Y93.619 E.01646
G1 X78.696 Y93.922 E.01644
G1 X79.061 Y94.3 E.01648
G1 X79.405 Y94.86 E.02061
;WIDTH:0.445535
G1 X79.605 Y95.39 E.01896
;WIDTH:0.488676
G1 X79.65 Y95.511 E.00478
;WIDTH:0.531817
G1 X79.695 Y95.632 E.00525
G1 X79.715 Y96.166 E.02172
;WIDTH:0.540465
G1 X79.685 Y96.552 E.01602
G1 X79.591 Y96.773 E.00994
;WIDTH:0.50031
G1 X79.498 Y96.994 E.00912
;WIDTH:0.460155
G1 X79.405 Y97.215 E.00832
;WIDTH:0.419999
G1 X79.061 Y97.775 E.02061
G1 X78.696 Y98.153 E.01648
G1 X78.268 Y98.456 E.01644
G1 X77.79 Y98.673 E.01646
G1 X77.28 Y98.797 E.01646
G1 X76.756 Y98.823 E.01645
G1 X76.236 Y98.75 E.01646
G1 X75.702 Y98.562 E.01775
G1 X75.254 Y98.306 E.01618
G1 X74.843 Y97.946 E.01713
G1 X74.506 Y97.505 E.0174
G1 X74.244 Y96.947 E.01933
G1 X74.121 Y96.437 E.01645
G1 X74.094 Y95.922 E.01617
G1 X74.167 Y95.394 E.01671
G1 X74.244 Y95.128 E.00868
G1 X74.462 Y94.65 E.01647
G1 X74.764 Y94.221 E.01645
G1 X74.811 Y94.176 E.00204
G1 X75.127 Y94.392 F54000
G1 F1800
G1 X75.184 Y94.323 E.00281
G1 X75.535 Y94.035 E.01424
G1 X75.934 Y93.819 E.01423
G1 X76.395 Y93.677 E.01512
G1 X76.963 Y93.627 E.01788
G1 X77.419 Y93.687 E.01442
G1 X77.85 Y93.829 E.01423
G1 X78.246 Y94.05 E.01422
G1 X78.594 Y94.341 E.01422
G1 X78.897 Y94.719 E.01519
G1 X79.154 Y95.232 E.01799
G1 X79.264 Y95.673 E.01425
G1 X79.29 Y96.126 E.01423
G1 X79.231 Y96.576 E.01423
G1 X79.074 Y97.034 E.01518
G1 X78.778 Y97.526 E.018
G1 X78.465 Y97.855 E.01424
G1 X78.097 Y98.12 E.01422
G1 X77.685 Y98.311 E.01424
G1 X77.245 Y98.421 E.01422
G1 X76.791 Y98.447 E.01426
G1 X76.341 Y98.388 E.01423
G1 X75.884 Y98.232 E.01514
G1 X75.392 Y97.935 E.01802
G1 X75.062 Y97.622 E.01426
G1 X74.798 Y97.254 E.0142
G1 X74.607 Y96.842 E.01424
G1 X74.496 Y96.401 E.01426
G1 X74.47 Y95.949 E.0142
G1 X74.53 Y95.498 E.01427
G1 X74.607 Y95.233 E.00865
G1 X74.855 Y94.724 E.01775
G1 X75.089 Y94.438 E.01159
G1 X75.399 Y94.647 F54000
G1 F1800
G1 X75.433 Y94.606 E.00167
G1 X75.727 Y94.36 E.01202
G1 X76.062 Y94.174 E.01201
G1 X76.443 Y94.051 E.01255
G1 X76.928 Y94.003 E.01528
G1 X77.313 Y94.049 E.01216
G1 X77.679 Y94.165 E.01204
G1 X78.015 Y94.348 E.012
G1 X78.312 Y94.591 E.01203
G1 X78.566 Y94.9 E.01254
G1 X78.791 Y95.338 E.01544
G1 X78.889 Y95.708 E.012
G1 X78.915 Y96.091 E.01204
G1 X78.869 Y96.471 E.012
G1 X78.744 Y96.852 E.01257
G1 X78.495 Y97.276 E.01542
G1 X78.234 Y97.557 E.01202
G1 X77.925 Y97.784 E.01202
G1 X77.58 Y97.949 E.01199
G1 X77.209 Y98.046 E.01202
G1 X76.827 Y98.072 E.01201
G1 X76.447 Y98.026 E.012
G1 X76.066 Y97.901 E.01257
G1 X75.641 Y97.652 E.01544
G1 X75.36 Y97.391 E.01202
G1 X75.134 Y97.083 E.01198
G1 X74.969 Y96.737 E.01202
G1 X74.871 Y96.366 E.01203
G1 X74.845 Y95.984 E.01201
G1 X74.892 Y95.603 E.01204
G1 X74.969 Y95.338 E.00865
G1 X75.191 Y94.902 E.01534
G1 X75.361 Y94.693 E.00845
G1 X75.672 Y94.903 F54000
;TYPE:External perimeter
G1 F1800
G1 X75.683 Y94.889 E.00056
G1 X75.919 Y94.685 E.00978
G1 X76.19 Y94.528 E.00982
G1 X76.491 Y94.425 E.00997
G1 X76.894 Y94.378 E.01272
G1 X77.208 Y94.411 E.0099
G1 X77.507 Y94.501 E.00979
G1 X77.784 Y94.646 E.0098
G1 X78.029 Y94.84 E.0098
G1 X78.236 Y95.082 E.00998
G1 X78.429 Y95.443 E.01283
G1 X78.513 Y95.744 E.0098
G1 X78.539 Y96.055 E.00979
G1 X78.507 Y96.366 E.0098
G1 X78.413 Y96.67 E.00998
G1 X78.212 Y97.027 E.01285
G1 X78.003 Y97.259 E.00979
G1 X77.754 Y97.448 E.0098
G1 X77.474 Y97.587 E.0098
G1 X77.174 Y97.671 E.00977
G1 X76.649 Y97.676 E.01646
G1 X76.247 Y97.571 E.01303
G1 X75.891 Y97.37 E.01282
G1 X75.658 Y97.16 E.00983
G1 X75.47 Y96.911 E.00978
G1 X75.331 Y96.632 E.00977
G1 X75.247 Y96.33 E.00983
G1 X75.221 Y96.02 E.00975
G1 X75.254 Y95.708 E.00984
G1 X75.331 Y95.443 E.00865
G1 X75.489 Y95.133 E.01091
G1 X75.634 Y94.95 E.00732
G1 X75.936 Y94.687 F54000
G1 E-3.5 F1500
G1 X65.151 Y95.863 F54000
G1 E3.5 F1500
;TYPE:Perimeter
G1 F1800
G1 X65.166 Y96.152 E.00907
G1 X65.093 Y96.681 E.01674
G1 X64.924 Y97.178 E.01646
G1 X64.664 Y97.636 E.01651
G1 X64.29 Y98.065 E.01784
G1 X63.895 Y98.382 E.01588
G1 X63.29 Y98.673 E.02105
G1 X62.78 Y98.797 E.01646
G1 X62.256 Y98.823 E.01645
G1 X61.736 Y98.75 E.01646
G1 X61.202 Y98.562 E.01775
G1 X60.643 Y98.218 E.02058
G1 X60.264 Y97.853 E.0165
G1 X59.962 Y97.425 E.01642
G1 X59.744 Y96.947 E.01647
;WIDTH:0.462708
G1 X59.696 Y96.849 E.00381
;WIDTH:0.505417
G1 X59.647 Y96.752 E.00418
;WIDTH:0.548126
G1 X59.599 Y96.654 E.00458
;WIDTH:0.590835
G1 X59.551 Y96.556 E.00497
G1 X59.52 Y96.169 E.01769
;WIDTH:0.581911
G1 X59.54 Y95.63 E.02417
G1 X59.591 Y95.504 E.00609
;WIDTH:0.541433
G1 X59.642 Y95.379 E.0056
;WIDTH:0.500955
G1 X59.693 Y95.253 E.00518
;WIDTH:0.460477
G1 X59.744 Y95.127 E.00472
;WIDTH:0.419999
G1 X59.962 Y94.65 E.01644
G1 X60.264 Y94.221 E.01645
G1 X60.642 Y93.857 E.01645
G1 X61.082 Y93.57 E.01647
G1 X61.568 Y93.37 E.01648
G1 X62.209 Y93.257 E.02041
G1 X62.778 Y93.278 E.01785
G1 X63.29 Y93.402 E.01652
G1 X63.768 Y93.619 E.01646
G1 X64.196 Y93.922 E.01644
G1 X64.561 Y94.3 E.01648
G1 X64.872 Y94.8 E.01846
G1 X65.016 Y95.128 E.01123
G1 X65.139 Y95.637 E.01642
G1 X65.148 Y95.803 E.00521
G1 X64.776 Y95.887 F54000
G1 F1800
G1 X64.79 Y96.126 E.00751
G1 X64.731 Y96.576 E.01423
G1 X64.588 Y97.007 E.01424
G1 X64.367 Y97.405 E.01427
G1 X64.05 Y97.774 E.01525
G1 X63.597 Y98.12 E.01787
G1 X63.185 Y98.311 E.01424
G1 X62.745 Y98.421 E.01422
G1 X62.291 Y98.447 E.01426
G1 X61.841 Y98.388 E.01423
G1 X61.384 Y98.232 E.01514
G1 X60.892 Y97.935 E.01802
G1 X60.562 Y97.622 E.01426
G1 X60.298 Y97.254 E.0142
G1 X60.107 Y96.842 E.01424
G1 X59.996 Y96.402 E.01423
G1 X59.97 Y96.126 E.00869
G1 X59.996 Y95.673 E.01423
G1 X60.172 Y95.068 E.01976
G1 X60.393 Y94.671 E.01425
G1 X60.684 Y94.323 E.01422
G1 X61.035 Y94.035 E.01424
G1 X61.434 Y93.819 E.01423
G1 X61.895 Y93.677 E.01512
G1 X62.463 Y93.627 E.01788
G1 X62.937 Y93.692 E.015
G1 X63.35 Y93.829 E.01364
G1 X63.746 Y94.05 E.01422
G1 X64.095 Y94.341 E.01425
G1 X64.397 Y94.718 E.01515
G1 X64.653 Y95.232 E.018
G1 X64.764 Y95.673 E.01426
G1 X64.773 Y95.827 E.00484
G1 X64.402 Y95.91 F54000
G1 F1800
G1 X64.415 Y96.091 E.00569
G1 X64.369 Y96.471 E.012
G1 X64.252 Y96.836 E.01202
G1 X64.069 Y97.173 E.01202
G1 X63.81 Y97.484 E.01269
G1 X63.426 Y97.784 E.01528
G1 X63.079 Y97.949 E.01205
G1 X62.542 Y98.062 E.01721
G1 X62.051 Y98.046 E.0154
G1 X61.566 Y97.901 E.01587
G1 X61.141 Y97.652 E.01544
G1 X60.86 Y97.391 E.01202
G1 X60.634 Y97.083 E.01198
G1 X60.469 Y96.737 E.01202
G1 X60.371 Y96.366 E.01203
G1 X60.345 Y96.091 E.00866
G1 X60.391 Y95.604 E.01534
G1 X60.508 Y95.239 E.01202
G1 X60.691 Y94.902 E.01202
G1 X60.933 Y94.606 E.01199
G1 X61.227 Y94.36 E.01202
G1 X61.562 Y94.174 E.01201
G1 X61.943 Y94.051 E.01255
G1 X62.428 Y94.003 E.01528
G1 X62.832 Y94.054 E.01277
G1 X63.179 Y94.165 E.01142
G1 X63.515 Y94.348 E.012
G1 X63.812 Y94.591 E.01203
G1 X64.066 Y94.9 E.01254
G1 X64.292 Y95.339 E.01548
G1 X64.389 Y95.708 E.01196
G1 X64.398 Y95.85 E.00446
G1 X64.029 Y95.934 F54000
;TYPE:External perimeter
G1 F1800
G1 X64.039 Y96.056 E.00384
G1 X64.007 Y96.366 E.00977
G1 X63.916 Y96.665 E.0098
G1 X63.771 Y96.942 E.0098
G1 X63.57 Y97.193 E.01008
G1 X63.254 Y97.448 E.01273
G1 X62.974 Y97.587 E.0098
G1 X62.507 Y97.686 E.01497
G1 X62.052 Y97.664 E.01428
G1 X61.747 Y97.571 E.01
G1 X61.391 Y97.37 E.01282
G1 X61.158 Y97.16 E.00983
G1 X60.97 Y96.911 E.00978
G1 X60.831 Y96.632 E.00977
G1 X60.747 Y96.331 E.0098
G1 X60.721 Y96.055 E.00869
G1 X60.754 Y95.709 E.0109
G1 X60.844 Y95.41 E.00979
G1 X60.989 Y95.133 E.0098
G1 X61.183 Y94.889 E.00977
G1 X61.419 Y94.685 E.00978
G1 X61.69 Y94.528 E.00982
G1 X61.991 Y94.425 E.00997
G1 X62.394 Y94.378 E.01272
G1 X62.726 Y94.416 E.01048
G1 X63.007 Y94.501 E.0092
G1 X63.284 Y94.646 E.0098
G1 X63.529 Y94.84 E.0098
G1 X63.736 Y95.082 E.00998
G1 X63.93 Y95.444 E.01288
G1 X64.013 Y95.744 E.00976
G1 X64.024 Y95.874 E.00409
G1 X64.012 Y96.274 F54000
G1 E-3.5 F1500
G1 X58.921 Y106.946 F54000
G1 E3.5 F1500
;TYPE:Perimeter
G1 F1800
G1 X58.921 Y97.064 E.30984
;WIDTH:0.462708
G1 X58.943 Y96.949 E.00409
;WIDTH:0.505417
G1 X58.964 Y96.834 E.0045
;WIDTH:0.548126
G1 X58.985 Y96.719 E.00491
;WIDTH:0.590835
G1 X59.007 Y96.603 E.00538
G1 X58.996 Y96.193 E.01869
;WIDTH:0.581911
G1 X59.002 Y95.604 E.0264
G1 X58.982 Y95.456 E.00669
;WIDTH:0.541433
G1 X58.962 Y95.307 E.00623
;WIDTH:0.500955
G1 X58.942 Y95.159 E.00569
;WIDTH:0.460477
G1 X58.921 Y95.01 E.00522
;WIDTH:0.419999
G1 X58.921 Y82.129 E.40387
G1 X80.239 Y82.129 E.66841
G1 X80.239 Y87.856 E.17957
G1 X80.239 Y94.645 E.21286
;WIDTH:0.445535
G1 X80.226 Y95.302 E.022
;WIDTH:0.482141
G1 X80.208 Y95.594 E.01068
;WIDTH:0.518746
G1 X80.189 Y95.886 E.01158
;WIDTH:0.531817
G1 X80.183 Y96.466 E.02358
G1 X80.202 Y96.661 E.00796
;WIDTH:0.494545
G1 X80.22 Y96.855 E.00732
;WIDTH:0.457272
G1 X80.239 Y97.05 E.00675
;WIDTH:0.419999
G1 X80.239 Y106.946 E.31028
G1 X58.981 Y106.946 E.66653
G1 X58.544 Y107.323 F54000
G1 F1800
G1 X58.544 Y81.752 E.80176
G1 X80.616 Y81.752 E.69205
G1 X80.616 Y87.856 E.19139
G1 X80.616 Y107.323 E.61037
G1 X58.604 Y107.323 E.69017
G1 X58.167 Y107.7 F54000
G1 F1800
G1 X58.167 Y81.374 E.82543
G1 X80.993 Y81.374 E.71569
G1 X80.993 Y87.856 E.20324
G1 X80.993 Y107.7 E.62219
G1 X58.227 Y107.7 E.71381
G1 X57.79 Y108.077 F54000
;TYPE:External perimeter
G1 F1800
G1 X57.79 Y80.997 E.84907
G1 X81.37 Y80.997 E.73933
G1 X81.37 Y87.856 E.21506
G1 X81.37 Y108.077 E.63401
G1 X57.85 Y108.077 E.73745
G1 X57.791 Y107.682 F54000
G1 E-3.5 F1500
G1 X59.804 Y106.833 F54000
G1 E3.5 F1500
;TYPE:Solid infill
;WIDTH:0.423576
G1 F1800
G1 X59.204 Y106.233 E0.02074; Old Flow Value: 0.02686   Length: 0.84853
G1 X59.204 Y105.695 E0.01159; Old Flow Value: 0.01703   Length: 0.53800
G1 X60.173 Y106.663 E0.03666; Old Flow Value: 0.04335   Length: 1.36967
G1 X60.711 Y106.663 E0.01159; Old Flow Value: 0.01703   Length: 0.53800
G1 X59.204 Y105.156 E0.06038; Old Flow Value: 0.06746   Length: 2.13122
G1 X59.204 Y104.618 E0.01159; Old Flow Value: 0.01703   Length: 0.53800
G1 X61.249 Y106.663 E0.08426; Old Flow Value: 0.09154   Length: 2.89207
G1 X61.788 Y106.663 E0.01162; Old Flow Value: 0.01706   Length: 0.53900
G1 X59.204 Y104.08 E0.10821; Old Flow Value: 0.11564   Length: 3.65362
G1 X59.204 Y103.541 E0.01162; Old Flow Value: 0.01706   Length: 0.53900
G1 X62.326 Y106.663 E0.13219; Old Flow Value: 0.13975   Length: 4.41518
G1 X62.864 Y106.663 E0.01159; Old Flow Value: 0.01703   Length: 0.53800
G1 X59.204 Y103.003 E0.15625; Old Flow Value: 0.16383   Length: 5.17602
G1 X59.204 Y102.465 E0.01159; Old Flow Value: 0.01703   Length: 0.53800
G1 X63.403 Y106.663 E0.18065; Old Flow Value: 0.18793   Length: 5.93758
G1 X63.941 Y106.663 E0.01159; Old Flow Value: 0.01703   Length: 0.53800
G1 X59.204 Y101.926 E0.20540; Old Flow Value: 0.21204   Length: 6.69913
G1 X59.204 Y101.388 E0.01159; Old Flow Value: 0.01703   Length: 0.53800
G1 X64.479 Y106.663 E0.23045; Old Flow Value: 0.23612   Length: 7.45998
G1 X65.018 Y106.663 E0.01162; Old Flow Value: 0.01706   Length: 0.53900
G1 X59.204 Y100.85 E0.25587; Old Flow Value: 0.26023   Length: 8.22153
G1 X59.204 Y100.311 E0.01162; Old Flow Value: 0.01706   Length: 0.53900
G1 X65.556 Y106.663 E0.28161; Old Flow Value: 0.28433   Length: 8.98309
G1 X66.094 Y106.663 E0.01159; Old Flow Value: 0.01703   Length: 0.53800
G1 X59.204 Y99.773 E0.30767; Old Flow Value: 0.30841   Length: 9.74393
G1 X59.204 Y99.235 E0.01159; Old Flow Value: 0.01703   Length: 0.53800
G1 X66.633 Y106.663 E.33252; Old Flow Value: 0.33252   Length: 10.50549
G1 X67.171 Y106.663 E0.01159; Old Flow Value: 0.01703   Length: 0.53799
G1 X59.204 Y98.696 E.35662; Old Flow Value: 0.35662   Length: 11.26704
G1 X59.204 Y98.158 E0.01159; Old Flow Value: 0.01703   Length: 0.53800
G1 X67.709 Y106.663 E.3807; Old Flow Value: 0.3807   Length: 12.02789
G1 X68.248 Y106.663 E0.01162; Old Flow Value: 0.01706   Length: 0.53900
G1 X59.204 Y97.62 E.40481; Old Flow Value: 0.40481   Length: 12.78944
G1 X59.204 Y97.081 E0.01162; Old Flow Value: 0.01706   Length: 0.53900
G1 X68.956 Y106.833 E.43652; Old Flow Value: 0.43652   Length: 13.79141
G1 E-3.5 F1500
G1 X63.624 Y93.426 F54000
G1 E3.5 F1500; Old Flow Value: 3.5   Length: 0.00000
G1 F1800
G1 X59.204 Y89.006 E0.19079; Old Flow Value: 0.19785   Length: 6.25083
G1 X59.204 Y89.545 E0.01162; Old Flow Value: 0.01706   Length: 0.53900
G1 X62.64 Y92.981 E0.14620; Old Flow Value: 0.1538   Length: 4.85924
G1 X62.106 Y92.985 E0.01147; Old Flow Value: 0.0169   Length: 0.53402
G1 X59.204 Y90.083 E0.12239; Old Flow Value: 0.1299   Length: 4.10405
G1 X59.204 Y90.621 E0.01159; Old Flow Value: 0.01703   Length: 0.53800
G1 X61.645 Y93.062 E0.10187; Old Flow Value: 0.10926   Length: 3.45209
G1 X61.234 Y93.19 E0.00858; Old Flow Value: 0.01363   Length: 0.43047
G1 X59.204 Y91.16 E0.08360; Old Flow Value: 0.09087   Length: 2.87085
G1 X59.204 Y91.698 E0.01159; Old Flow Value: 0.01703   Length: 0.53799
G1 X60.872 Y93.366 E0.06752; Old Flow Value: 0.07466   Length: 2.35891
G1 X60.546 Y93.578 E0.00750; Old Flow Value: 0.01231   Length: 0.38887
G1 X59.204 Y92.236 E0.05308; Old Flow Value: 0.06007   Length: 1.89788
G1 X59.204 Y92.775 E0.01162; Old Flow Value: 0.01706   Length: 0.53900
G1 X60.253 Y93.823 E0.04016; Old Flow Value: 0.04693   Length: 1.48280
G1 X59.996 Y94.105 E0.00731; Old Flow Value: 0.01208   Length: 0.38154
G1 X59.204 Y93.313 E0.02898; Old Flow Value: 0.03545   Length: 1.12006
