; File Parsed By Flow Comp Script
; Script Ver. V0.7.1
; Flow Model Ver. V0.2.1
; Logger Ver. V0.0.1
; Flow Comp Model Points:
; (0, 0)
; (0.2, 0.4444)
; (0.4, 0.6145)
; (0.6, 0.7059)
; (0.8, 0.7619)
; (1.5, 0.8571)
; (2, 0.8889)
; (3, 0.9231)
; (5, 0.952)
; (10, 1)

; generated by PrusaSlicer 2.9.4 on 2026-01-26 at 21:03:04 UTC

; 

; external perimeters extrusion width = 0.45mm
; perimeters extrusion width = 0.45mm
; infill extrusion width = 0.45mm
; solid infill extrusion width = 0.45mm
; top infill extrusion width = 0.40mm
; support material extrusion width = 0.35mm
; first layer extrusion width = 0.42mm

;TYPE:Custom
G90 ; use absolute coordinates
M83 ; extruder relative mode
CALCULATE_PA BOWDEN_LENGTH=34.0 MATERIAL=PLA LAYER_HEIGHT=0.2 NOZZLE_SIZE=0.4 PRINT_SPEED=120 FILAMENT_DIAMETER=1.75 LINE_WIDTH=0.45 ; auto pressure advance
M104 S208 ; set temporary nozzle temp to prevent oozing during homing
M140 S58 ; set final bed temp
G4 S30 ; allow partial nozzle warmup
G28 ; home all axis
G1 Z50 F240
G1 X2.0 Y10 F3000
M104 S208 ; set final nozzle temp
M190 S58 ; wait for bed temp to stabilize
M109 S208 ; wait for nozzle temp to stabilize
G1 Z0.28 F240
G92 E0
G1 X2.0 Y140 E10 F1500 ; prime the nozzle
G1 X2.3 Y140 F5000
G92 E0
G1 X2.3 Y10 E10 F1200 ; prime the nozzle
G92 E0
G21 ; set units to millimeters
G90 ; use absolute coordinates
M83 ; use relative distances for extrusion
; Filament gcode
M107
;LAYER_CHANGE
;Z:0.2
;HEIGHT:0.2
G1 E-3.5 F1500
G1 Z.2 F54000
G1 X16.633 Y67.674
G1 E3.5 F1500
M204 S3500
;TYPE:Skirt/Brim
;WIDTH:0.42
G1 F1800
G1 X18.729 Y67.309 E.06671
G1 X35.779 Y67.309 E.53459
G1 X37.959 Y67.705 E.06947
G1 X39.861 Y68.845 E.06953
G1 X46.111 Y74.33 E.26073
G1 X47.309 Y75.556 E.05375
G1 X48.119 Y76.622 E.04198
G1 X48.709 Y77.602 E.03587
G1 X49.271 Y78.817 E.04197
G1 X49.636 Y79.901 E.03586
G1 X49.924 Y81.208 E.04196
G1 X50.048 Y82.346 E.03589
G1 X50.048 Y83.684 E.04195
G1 X49.924 Y84.821 E.03586
G1 X49.636 Y86.128 E.04196
G1 X49.271 Y87.213 E.03589
G1 X48.709 Y88.427 E.04194
G1 X48.119 Y89.408 E.03589
G1 X47.309 Y90.473 E.04195
G1 X46.231 Y91.592 E.04872
G1 X39.98 Y97.371 E.26692
G1 X38.11 Y98.56 E.06948
G1 X35.779 Y99.016 E.07447
G1 X18.729 Y99.016 E.53459
G1 X16.549 Y98.619 E.06948
G1 X14.542 Y97.384 E.07389
G1 X7.992 Y91.366 E.27889
G1 X6.704 Y89.91 E.06095
G1 X5.972 Y88.82 E.04117
G1 X5.059 Y86.893 E.06686
G1 X4.689 Y85.659 E.04039
G1 X4.465 Y84.462 E.03818
G1 X4.367 Y82.68 E.05596
G1 X4.465 Y81.423 E.03953
G1 X4.689 Y80.226 E.03818
G1 X5.059 Y78.992 E.04039
G1 X5.972 Y77.065 E.06686
G1 X6.704 Y75.975 E.04117
G1 X7.435 Y75.102 E.0357
G1 X8.166 Y74.366 E.03252
G1 X14.716 Y68.786 E.26979
G1 X16.581 Y67.704 E.0676
G1 E-3.5 F1500
G1 X39.419 Y77.817 F54000
G1 E3.5 F1500
;TYPE:Support material
G1 F1800
G1 X40.02 Y77.916 E.0191
G1 X41.083 Y78.339 E.03587
G1 X42.03 Y78.982 E.03589
G1 X42.817 Y79.812 E.03586
G1 X43.406 Y80.793 E.03588
G1 X43.772 Y81.877 E.03587
G1 X43.896 Y83.015 E.03589
G1 X43.772 Y84.152 E.03586
G1 X43.406 Y85.237 E.0359
G1 X42.817 Y86.217 E.03585
G1 X42.03 Y87.048 E.03589
G1 X41.083 Y87.69 E.03587
G1 X40.02 Y88.113 E.03587
G1 X38.89 Y88.298 E.0359
G1 X37.748 Y88.237 E.03586
G1 X36.645 Y87.93 E.0359
G1 X36.214 Y87.702 E.01529
G1 X36.214 Y78.328 E.29392
G1 X36.645 Y78.099 E.0153
G1 X37.748 Y77.793 E.03589
G1 X38.89 Y77.731 E.03586
G1 X39.363 Y77.808 E.01503
G1 X43.175 Y85.292 F54000
G1 F1800
G1 X43.175 Y81.169 E.12927
G1 X42.756 Y80.37 E.02829
G1 X42.756 Y85.659 E.16583
G1 X42.337 Y86.23 E.02221
G1 X42.337 Y79.8 E.20161
G1 X41.918 Y79.357 E.01912
G1 X41.918 Y86.672 E.22936
G1 X41.499 Y86.997 E.01663
G1 X41.499 Y79.032 E.24974
G1 X41.08 Y78.748 E.01587
G1 X41.08 Y87.281 E.26755
G1 X40.661 Y87.492 E.01471
G1 X40.661 Y78.537 E.28078
G1 X40.242 Y78.37 E.01414
G1 X40.242 Y87.659 E.29125
G1 X39.823 Y87.802 E.01388
G1 X39.823 Y78.228 E.30019
G1 X39.404 Y78.159 E.01331
G1 X39.404 Y87.87 E.30448
G1 X38.985 Y87.939 E.01331
G1 X38.985 Y78.09 E.30881
G1 X38.566 Y78.088 E.01314
G1 X38.566 Y87.941 E.30893
G1 X38.147 Y87.918 E.01316
G1 X38.147 Y78.111 E.30749
G1 X37.728 Y78.15 E.01319
G1 X37.728 Y87.879 E.30505
G1 X37.309 Y87.763 E.01363
G1 X37.309 Y78.267 E.29774
G1 X36.89 Y78.383 E.01363
G1 X36.89 Y87.822 E.29595
G1 E-3.5 F1500
G1 X16.864 Y77.683 F54000
G1 E3.5 F1500
G1 F1800
G1 X17.495 Y77.817 E.02023
G1 X18.294 Y78.156 E.02721
G1 X18.294 Y87.729 E.30015
G1 X17.469 Y88.08 E.02811
G1 X16.35 Y88.294 E.03572
G1 X15.212 Y88.268 E.03569
G1 X14.104 Y88.001 E.03574
G1 X13.078 Y87.508 E.03569
G1 X12.179 Y86.809 E.03571
G1 X11.448 Y85.936 E.0357
G1 X10.944 Y84.981 E.03386
G1 X10.62 Y83.815 E.03794
G1 X10.555 Y82.68 E.03565
G1 X10.62 Y82.07 E.01923
G1 X10.944 Y80.905 E.03791
G1 X11.448 Y79.95 E.03386
G1 X12.179 Y79.077 E.0357
G1 X13.078 Y78.378 E.03571
G1 X14.104 Y77.884 E.0357
G1 X15.212 Y77.618 E.03573
G1 X16.313 Y77.592 E.03453
G1 X16.808 Y77.674 E.01573
G1 X17.617 Y87.832 F54000
G1 F1800
G1 X17.617 Y78.238 E.30081
G1 X17.199 Y78.101 E.01379
G1 X17.199 Y87.786 E.30367
G1 X16.78 Y87.866 E.01337
G1 X16.78 Y78.013 E.30893
G1 X16.361 Y77.944 E.01331
G1 X16.361 Y87.947 E.31364
G1 X15.942 Y87.945 E.01314
G1 X15.942 Y77.94 E.3137
G1 X15.523 Y77.95 E.01314
G1 X15.523 Y87.935 E.31307
G1 X15.104 Y87.893 E.0132
G1 X15.104 Y77.993 E.31041
G1 X14.685 Y78.094 E.01351
G1 X14.685 Y87.792 E.30407
G1 X14.266 Y87.691 E.01351
G1 X14.266 Y78.194 E.29777
G1 X13.847 Y78.384 E.01443
G1 X13.847 Y87.501 E.28586
G1 X13.428 Y87.3 E.01457
G1 X13.428 Y78.586 E.27322
G1 X13.009 Y78.861 E.01571
G1 X13.009 Y87.024 E.25595
G1 X12.59 Y86.698 E.01665
G1 X12.59 Y79.187 E.2355
G1 X12.171 Y79.615 E.01878
G1 X12.171 Y86.271 E.20869
G1 X11.752 Y85.771 E.02045
G1 X11.752 Y80.115 E.17734
G1 X11.333 Y80.895 E.02776
G1 X11.333 Y84.99 E.1284
G1 X10.955 Y83.761 E.04032
G1 X10.914 Y81.548 E.0694
G1 E-3.5 F1500
G1 X27.385 Y92.254 F54000
G1 E3.5 F1500
;TYPE:External perimeter
;WIDTH:0.424772
G1 F1800
G1 X27.186 Y92.263 E.00632
;WIDTH:0.418923
G1 X26.842 Y92.193 E.01098
;WIDTH:0.419999
G1 X26.552 Y92.065 E.00994
G1 X26.292 Y91.884 E.00993
G1 X26.07 Y91.657 E.00996
G1 X25.894 Y91.393 E.00995
G1 X25.77 Y91.095 E.01012
G1 X25.7 Y90.727 E.01175
G1 X25.71 Y90.368 E.01126
G1 X25.783 Y90.06 E.00992
G1 X25.912 Y89.77 E.00995
G1 X26.093 Y89.51 E.00993
G1 X26.319 Y89.288 E.00993
G1 X26.589 Y89.11 E.01014
G1 X26.977 Y88.961 E.01303
G1 X27.291 Y88.915 E.00995
G1 X27.608 Y88.928 E.00995
G1 X27.916 Y89.001 E.00992
G1 X28.206 Y89.13 E.00995
G1 X28.466 Y89.311 E.00993
G1 X28.688 Y89.537 E.00993
G1 X28.863 Y89.801 E.00993
G1 X28.988 Y90.1 E.01016
G1 X29.061 Y90.509 E.01303
G1 X29.048 Y90.826 E.00995
G1 X28.975 Y91.134 E.00992
G1 X28.846 Y91.424 E.00995
G1 X28.665 Y91.684 E.00993
G1 X28.439 Y91.906 E.00993
G1 X28.169 Y92.084 E.01014
;WIDTH:0.424772
G1 X27.781 Y92.235 E.01322
G1 X27.445 Y92.251 E.01068
G1 X27.045 Y92.226 F54000
G1 E-3.5 F1500
G1 X27.373 Y77.775 F54000
G1 E3.5 F1500
;WIDTH:0.419999
G1 F1800
G1 X27.15 Y77.766 E.007
G1 X26.842 Y77.693 E.00992
G1 X26.547 Y77.561 E.01013
G1 X26.213 Y77.313 E.01304
G1 X26.006 Y77.073 E.00994
G1 X25.847 Y76.798 E.00996
G1 X25.743 Y76.499 E.00993
G1 X25.697 Y76.185 E.00995
G1 X25.71 Y75.868 E.00995
G1 X25.783 Y75.56 E.00992
G1 X25.895 Y75.301 E.00885
G1 X26.163 Y74.931 E.01432
G1 X26.403 Y74.724 E.00994
G1 X26.678 Y74.566 E.00994
G1 X26.977 Y74.461 E.00994
G1 X27.291 Y74.415 E.00995
G1 X27.608 Y74.428 E.00995
G1 X27.916 Y74.501 E.00992
G1 X28.211 Y74.633 E.01013
G1 X28.545 Y74.881 E.01304
G1 X28.752 Y75.122 E.00996
G1 X28.91 Y75.396 E.00992
G1 X29.015 Y75.695 E.00994
G1 X29.061 Y76.009 E.00995
G1 X29.048 Y76.326 E.00995
G1 X28.975 Y76.634 E.00992
G1 X28.843 Y76.929 E.01013
G1 X28.595 Y77.263 E.01304
G1 X28.355 Y77.47 E.00994
G1 X28.08 Y77.629 E.00996
G1 X27.781 Y77.733 E.00993
G1 X27.467 Y77.779 E.00995
G1 X27.433 Y77.778 E.00107
G1 X27.035 Y77.732 F54000
G1 E-3.5 F1500
G1 X34.438 Y85.657 F54000
G1 E3.5 F1500
;TYPE:Perimeter
G1 F1800
G1 X34.438 Y91.486 E.18276
G1 X30.045 Y91.486 E.13774
G1 X30.09 Y91.348 E.00455
G1 X30.183 Y90.826 E.01662
G1 X30.169 Y90.256 E.01788
G1 X30.014 Y89.611 E.0208
G1 X29.782 Y89.134 E.01663
G1 X29.465 Y88.71 E.0166
G1 X29.075 Y88.353 E.01658
G1 X28.624 Y88.074 E.01663
G1 X28.13 Y87.886 E.01657
G1 X27.608 Y87.793 E.01662
G1 X27.079 Y87.8 E.01659
G1 X26.521 Y87.92 E.0179
G1 X25.916 Y88.194 E.02082
G1 X25.492 Y88.511 E.0166
G1 X25.134 Y88.901 E.0166
G1 X24.856 Y89.352 E.01661
G1 X24.668 Y89.847 E.0166
G1 X24.575 Y90.368 E.01659
G1 X24.589 Y90.939 E.01791
G1 X24.714 Y91.486 E.01759
G1 X20.07 Y91.486 E.14561
G1 X20.07 Y74.838 E.52199
G1 X24.856 Y74.852 E.15006
G1 X24.668 Y75.347 E.0166
G1 X24.575 Y75.868 E.01659
G1 X24.582 Y76.398 E.01662
G1 X24.688 Y76.916 E.01658
G1 X24.889 Y77.406 E.01661
G1 X25.178 Y77.85 E.01661
G1 X25.579 Y78.256 E.01789
G1 X26.133 Y78.62 E.02078
G1 X26.629 Y78.808 E.01663
G1 X27.15 Y78.901 E.01659
G1 X27.679 Y78.894 E.01659
G1 X28.198 Y78.788 E.01661
G1 X28.688 Y78.587 E.01661
G1 X29.131 Y78.298 E.01658
G1 X29.538 Y77.897 E.01791
G1 X29.901 Y77.343 E.02077
G1 X30.09 Y76.848 E.01661
G1 X30.183 Y76.326 E.01662
G1 X30.176 Y75.797 E.01659
G1 X30.07 Y75.278 E.01661
G1 X29.893 Y74.838 E.01487
G1 X34.438 Y74.838 E.14251
G1 X34.438 Y85.597 E.33734
G1 E-3.5 F1500
G1 X27.661 Y88.185 F54000
G1 E3.5 F1500
G1 F1800
G1 X27.286 Y88.161 E.01178
G1 X26.787 Y88.231 E.0158
G1 X26.311 Y88.409 E.01593
G1 X25.895 Y88.664 E.0153
G1 X25.559 Y88.977 E.0144
G1 X25.288 Y89.346 E.01435
G1 X25.049 Y89.878 E.01829
G1 X24.952 Y90.38 E.01603
G1 X24.959 Y90.868 E.0153
G1 X25.09 Y91.434 E.01822
G1 X25.298 Y91.863 E.01495
G1 X19.693 Y91.863 E.17574
G1 X19.693 Y74.461 E.54563
G1 X25.577 Y74.461 E.18449
G1 X25.305 Y74.822 E.01417
G1 X25.09 Y75.26 E.0153
G1 X24.974 Y75.704 E.01439
G1 X24.943 Y76.161 E.01436
G1 X24.998 Y76.617 E.0144
G1 X25.138 Y77.054 E.01439
G1 X25.357 Y77.457 E.01438
G1 X25.648 Y77.812 E.01439
G1 X26.104 Y78.171 E.0182
G1 X26.542 Y78.386 E.0153
G1 X26.986 Y78.502 E.01439
G1 X27.443 Y78.533 E.01436
G1 X27.899 Y78.478 E.0144
G1 X28.335 Y78.338 E.01436
G1 X28.738 Y78.119 E.01438
G1 X29.094 Y77.829 E.0144
G1 X29.453 Y77.373 E.0182
G1 X29.667 Y76.934 E.01531
G1 X29.784 Y76.49 E.0144
G1 X29.815 Y76.033 E.01436
G1 X29.76 Y75.577 E.0144
G1 X29.62 Y75.141 E.01436
G1 X29.401 Y74.738 E.01438
G1 X29.18 Y74.461 E.01111
G1 X34.815 Y74.461 E.17668
G1 X34.815 Y91.863 E.54563
G1 X29.478 Y91.863 E.16734
G1 X29.667 Y91.434 E.0147
G1 X29.784 Y90.99 E.0144
G1 X29.815 Y90.532 E.01439
G1 X29.728 Y89.958 E.0182
G1 X29.556 Y89.502 E.01528
G1 X29.312 Y89.113 E.0144
G1 X28.999 Y88.777 E.0144
G1 X28.63 Y88.506 E.01435
G1 X28.216 Y88.309 E.01438
G1 X27.772 Y88.192 E.0144
G1 X27.721 Y88.189 E.0016
G1 E-3.5 F1500
G1 X26.139 Y92.24 F54000
G1 E3.5 F1500
G1 F1800
G1 X19.316 Y92.24 E.21393
G1 X19.316 Y74.084 E.56927
G1 X26.407 Y74.084 E.22233
;WIDTH:0.426322
G1 X26.908 Y74.087 E.01597
G1 X26.55 Y74.211 E.01208
;WIDTH:0.420227
G1 X26.211 Y74.4 E.01218
;WIDTH:0.419999
G1 X25.914 Y74.649 E.01215
G1 X25.61 Y75.043 E.0156
G1 X25.437 Y75.41 E.01272
G1 X25.342 Y75.786 E.01216
G1 X25.32 Y76.173 E.01215
G1 X25.371 Y76.558 E.01218
G1 X25.493 Y76.926 E.01216
G1 X25.681 Y77.265 E.01215
G1 X25.93 Y77.562 E.01215
G1 X26.325 Y77.866 E.01563
G1 X26.692 Y78.04 E.01273
G1 X27.068 Y78.134 E.01215
G1 X27.455 Y78.156 E.01215
G1 X27.84 Y78.105 E.01218
G1 X28.208 Y77.983 E.01216
G1 X28.547 Y77.795 E.01215
G1 X28.844 Y77.546 E.01215
G1 X29.148 Y77.151 E.01563
G1 X29.321 Y76.784 E.01272
G1 X29.416 Y76.408 E.01216
G1 X29.438 Y76.021 E.01215
G1 X29.387 Y75.636 E.01218
G1 X29.265 Y75.268 E.01216
G1 X29.077 Y74.93 E.01213
G1 X28.827 Y74.632 E.0122
G1 X28.433 Y74.328 E.0156
G1 X28.066 Y74.155 E.01272
;WIDTH:0.419787
G1 X27.687 Y74.072 E.01216
;WIDTH:0.419999
G1 X35.192 Y74.084 E.23531
G1 X35.192 Y92.24 E.56927
G1 X28.658 Y92.24 E.20487
G1 X28.932 Y91.951 E.01249
G1 X29.158 Y91.636 E.01216
G1 X29.321 Y91.284 E.01216
G1 X29.416 Y90.908 E.01216
G1 X29.438 Y90.521 E.01215
G1 X29.358 Y90.029 E.01563
G1 X29.21 Y89.652 E.0127
G1 X29 Y89.325 E.01219
G1 X28.733 Y89.044 E.01215
G1 X28.418 Y88.818 E.01216
G1 X28.066 Y88.655 E.01216
G1 X27.69 Y88.56 E.01216
G1 X27.303 Y88.538 E.01215
G1 X26.918 Y88.589 E.01218
G1 X26.45 Y88.76 E.01562
G1 X26.107 Y88.976 E.01271
G1 X25.826 Y89.243 E.01215
G1 X25.6 Y89.558 E.01216
G1 X25.437 Y89.91 E.01216
G1 X25.342 Y90.286 E.01216
G1 X25.32 Y90.674 E.01218
G1 X25.4 Y91.165 E.0156
G1 X25.548 Y91.543 E.01273
G1 X25.758 Y91.869 E.01216
G1 X26.096 Y92.198 E.01479
G1 E-3.5 F1500
G1 X26.908 Y74.087 F54000
G1 E3.5 F1500
;WIDTH:0.426322
G1 F1800
G1 X27.584 Y74.066 E.02156
;WIDTH:0.395878
G1 X27.687 Y74.072 E.00303
G1 E-3.5 F1500
G1 X27.254 Y92.622 F54000
G1 E3.5 F1500
;TYPE:External perimeter
;WIDTH:0.424772
G1 F1800
G1 X27.111 Y92.623 E.00454
;WIDTH:0.419999
G1 X18.939 Y92.617 E.25623
G1 X18.939 Y73.707 E.59291
G1 X35.569 Y73.707 E.52142
G1 X35.569 Y92.617 E.59291
G1 X28.376 Y92.617 E.22553
;WIDTH:0.424772
G1 X27.314 Y92.622 E.03372
G1 X26.914 Y92.622 F54000
G1 E-3.5 F1500
G1 X30.627 Y91.373 F54000
G1 E3.5 F1500
;TYPE:Solid infill
;WIDTH:0.422995
G1 F1800
G1 X30.413 Y91.159 E0.00533; Old Flow Value: 0.00956   Length: 0.30265
G1 X30.465 Y90.841 E0.00581; Old Flow Value: 0.01018   Length: 0.32222
G1 X30.47 Y90.679 E0.00194; Old Flow Value: 0.00512   Length: 0.16208
G1 X30.995 Y91.203 E0.01755; Old Flow Value: 0.02344   Length: 0.74176
G1 X31.532 Y91.203 E0.01154; Old Flow Value: 0.01697   Length: 0.53700
G1 X30.427 Y90.097 E0.04259; Old Flow Value: 0.04941   Length: 1.56341
G1 X30.376 Y89.83 E0.00457; Old Flow Value: 0.00859   Length: 0.27183
G1 X30.275 Y89.503 E0.00632; Old Flow Value: 0.01082   Length: 0.34225
G1 X30.203 Y89.336 E0.00239; Old Flow Value: 0.00575   Length: 0.18186
G1 X32.07 Y91.203 E0.07624; Old Flow Value: 0.08344   Length: 2.64034
G1 X32.607 Y91.203 E0.01154; Old Flow Value: 0.01697   Length: 0.53700
G1 X20.353 Y78.949 E.54768; Old Flow Value: 0.54768   Length: 17.32977
G1 X20.353 Y78.411 E0.01157; Old Flow Value: 0.017   Length: 0.53799
G1 X33.145 Y91.203 E.57172; Old Flow Value: 0.57172   Length: 18.09062
G1 X33.682 Y91.203 E0.01154; Old Flow Value: 0.01697   Length: 0.53700
G1 X20.353 Y77.874 E.59573; Old Flow Value: 0.59573   Length: 18.85005
G1 X20.353 Y77.336 E0.01157; Old Flow Value: 0.017   Length: 0.53800
G1 X34.155 Y91.138 E.61687; Old Flow Value: 0.61687   Length: 19.51898
G1 X34.155 Y90.601 E0.01154; Old Flow Value: 0.01697   Length: 0.53700
G1 X20.353 Y76.799 E.61687; Old Flow Value: 0.61687   Length: 19.51897
G1 X20.353 Y76.261 E0.01157; Old Flow Value: 0.017   Length: 0.53800
G1 X34.155 Y90.063 E.61687; Old Flow Value: 0.61687   Length: 19.51898
G1 X34.155 Y89.526 E0.01154; Old Flow Value: 0.01697   Length: 0.53700
G1 X20.353 Y75.724 E.61687; Old Flow Value: 0.61687   Length: 19.51898
G1 X20.353 Y75.186 E0.01157; Old Flow Value: 0.017   Length: 0.53800
G1 X34.155 Y88.988 E.61687; Old Flow Value: 0.61687   Length: 19.51898
G1 X34.155 Y88.451 E0.01154; Old Flow Value: 0.01697   Length: 0.53700
G1 X20.825 Y75.121 E.59577; Old Flow Value: 0.59577   Length: 18.85146
G1 X21.363 Y75.121 E0.01157; Old Flow Value: 0.017   Length: 0.53800
G1 X34.325 Y88.083 E.57932; Old Flow Value: 0.57932   Length: 18.33104
G1 E-3.5 F1500
G1 X29.099 Y88.232 F54000
G1 E3.5 F1500; Old Flow Value: 3.5   Length: 0.00000
G1 F1800
G1 X20.353 Y79.486 E.39089; Old Flow Value: 0.39089   Length: 12.36871
G1 X20.353 Y80.024 E0.01157; Old Flow Value: 0.017   Length: 0.53800
G1 X27.87 Y87.541 E.33596; Old Flow Value: 0.33596   Length: 10.63064
G1 X27.706 Y87.516 E0.00202; Old Flow Value: 0.00524   Length: 0.16590
G1 X27.293 Y87.501 E0.00811; Old Flow Value: 0.01306   Length: 0.41327
G1 X20.353 Y80.561 E0.30964; Old Flow Value: 0.31018   Length: 9.81464
G1 X20.353 Y81.099 E0.01157; Old Flow Value: 0.017   Length: 0.53800
G1 X26.813 Y87.558 E0.28635; Old Flow Value: 0.2887   Length: 9.13511
G1 X26.63 Y87.589 E0.00247; Old Flow Value: 0.00587   Length: 0.18561
G1 X26.393 Y87.676 E0.00409; Old Flow Value: 0.00798   Length: 0.25247
G1 X20.353 Y81.636 E0.26624; Old Flow Value: 0.26995   Length: 8.54185
