; File Parsed By Flow Comp Script
; Script Ver. V0.7.1
; Flow Model Ver. V0.2.1
; Logger Ver. V0.0.1
; Flow Comp Model Points:
; (0, 0)
; (0.2, 0.4444)
; (0.4, 0.6145)
; (0.6, 0.7059)
; (0.8, 0.7619)
; (1.5, 0.8571)
; (2, 0.8889)
; (3, 0.9231)
; (5, 0.952)
; (10, 1)

; generated by PrusaSlicer 2.9.4 on 2026-01-26 at 21:45:27 UTC

; 

; external perimeters extrusion width = 0.45mm
; perimeters extrusion width = 0.45mm
; infill extrusion width = 0.45mm
; solid infill extrusion width = 0.45mm
; top infill extrusion width = 0.40mm
; support material extrusion width = 0.35mm
; first layer extrusion width = 0.42mm

;TYPE:Custom
G90 ; use absolute coordinates
M83 ; extruder relative mode
CALCULATE_PA BOWDEN_LENGTH=34.0 MATERIAL=PLA LAYER_HEIGHT=0.2 NOZZLE_SIZE=0.4 PRINT_SPEED=120 FILAMENT_DIAMETER=1.75 LINE_WIDTH=0.45 ; auto pressure advance
M104 S208 ; set temporary nozzle temp to prevent oozing during homing
M140 S58 ; set final bed temp
G4 S30 ; allow partial nozzle warmup
G28 ; home all axis
G1 Z50 F240
G1 X2.0 Y10 F3000
M104 S208 ; set final nozzle temp
M190 S58 ; wait for bed temp to stabilize
M109 S208 ; wait for nozzle temp to stabilize
G1 Z0.28 F240
G92 E0
G1 X2.0 Y140 E10 F1500 ; prime the nozzle
G1 X2.3 Y140 F5000
G92 E0
G1 X2.3 Y10 E10 F1200 ; prime the nozzle
G92 E0
G21 ; set units to millimeters
G90 ; use absolute coordinates
M83 ; use relative distances for extrusion
; Filament gcode
M107
;LAYER_CHANGE
;Z:0.2
;HEIGHT:0.2
G1 E-3.5 F1500
G1 Z.2 F54000
G1 X89.798 Y70.442
G1 E3.5 F1500
M204 S3500
;TYPE:Skirt/Brim
;WIDTH:0.42
G1 F1800
G1 X90.53 Y69.57 E.0357
G1 X91.26 Y68.833 E.03252
G1 X97.81 Y63.253 E.26979
G1 X99.727 Y62.142 E.06947
G1 X101.823 Y61.776 E.06671
G1 X118.873 Y61.776 E.53459
G1 X121.054 Y62.173 E.06951
G1 X122.955 Y63.313 E.0695
G1 X129.206 Y68.797 E.26073
G1 X130.404 Y70.024 E.05377
G1 X131.214 Y71.089 E.04195
G1 X131.803 Y72.07 E.03588
G1 X132.365 Y73.284 E.04194
G1 X132.731 Y74.368 E.03587
G1 X133.018 Y75.675 E.04196
G1 X133.142 Y76.813 E.03589
G1 X133.142 Y78.151 E.04195
G1 X133.018 Y79.289 E.03589
G1 X132.731 Y80.596 E.04196
G1 X132.365 Y81.68 E.03587
G1 X131.803 Y82.894 E.04194
G1 X131.214 Y83.875 E.03588
G1 X130.404 Y84.94 E.04195
G1 X129.325 Y86.059 E.04874
G1 X123.075 Y91.838 E.2669
G1 X121.204 Y93.027 E.06951
G1 X118.873 Y93.483 E.07447
G1 X101.823 Y93.483 E.53459
G1 X99.643 Y93.086 E.06948
G1 X97.636 Y91.851 E.07389
G1 X91.086 Y85.833 E.27889
G1 X89.798 Y84.378 E.06093
G1 X89.067 Y83.288 E.04115
G1 X88.153 Y81.36 E.0669
G1 X87.783 Y80.127 E.04036
G1 X87.559 Y78.93 E.03818
G1 X87.461 Y77.147 E.05599
G1 X87.559 Y75.891 E.0395
G1 X87.783 Y74.693 E.03821
G1 X88.153 Y73.46 E.04036
G1 X89.067 Y71.533 E.06687
G1 X89.765 Y70.492 E.0393
G1 E-3.5 F1500
G1 X122.513 Y72.285 F54000
G1 E3.5 F1500
;TYPE:Support material
G1 F1800
G1 X123.114 Y72.383 E.01909
G1 X124.177 Y72.807 E.03588
G1 X125.124 Y73.449 E.03587
G1 X125.911 Y74.28 E.03589
G1 X126.501 Y75.26 E.03587
G1 X126.866 Y76.344 E.03586
G1 X126.99 Y77.482 E.03589
G1 X126.866 Y78.62 E.03589
G1 X126.501 Y79.704 E.03586
G1 X125.911 Y80.684 E.03587
G1 X125.124 Y81.515 E.03589
G1 X124.177 Y82.157 E.03587
G1 X123.114 Y82.581 E.03588
G1 X121.985 Y82.766 E.03587
G1 X120.842 Y82.704 E.03589
G1 X119.74 Y82.398 E.03586
G1 X119.308 Y82.169 E.01533
G1 X119.308 Y72.795 E.29392
G1 X119.74 Y72.566 E.01533
G1 X120.842 Y72.26 E.03586
G1 X121.985 Y72.198 E.03589
G1 X122.457 Y72.276 E.015
G1 X126.269 Y79.759 F54000
G1 F1800
G1 X126.269 Y75.636 E.12927
G1 X125.85 Y74.837 E.02829
G1 X125.85 Y80.126 E.16583
G1 X125.431 Y80.697 E.02221
G1 X125.431 Y74.267 E.20161
G1 X125.012 Y73.825 E.0191
G1 X125.012 Y81.139 E.22933
G1 X124.594 Y81.465 E.01662
G1 X124.594 Y73.499 E.24977
G1 X124.175 Y73.215 E.01587
G1 X124.175 Y81.749 E.26758
G1 X123.756 Y81.96 E.01471
G1 X123.756 Y73.004 E.28081
G1 X123.337 Y72.837 E.01414
G1 X123.337 Y82.127 E.29128
G1 X122.918 Y82.269 E.01387
G1 X122.918 Y72.695 E.30019
G1 X122.499 Y72.626 E.01331
G1 X122.499 Y82.338 E.30451
G1 X122.08 Y82.406 E.01331
G1 X122.08 Y72.558 E.30878
G1 X121.661 Y72.556 E.01314
G1 X121.661 Y82.408 E.3089
G1 X121.242 Y82.386 E.01316
G1 X121.242 Y72.578 E.30752
G1 X120.823 Y72.618 E.0132
G1 X120.823 Y82.346 E.30501
G1 X120.404 Y82.23 E.01363
G1 X120.404 Y72.734 E.29774
G1 X119.985 Y72.85 E.01363
G1 X119.985 Y82.29 E.29598
G1 E-3.5 F1500
G1 X99.958 Y72.15 F54000
G1 E3.5 F1500
G1 F1800
G1 X100.589 Y72.284 E.02023
G1 X101.388 Y72.624 E.02723
G1 X101.388 Y82.196 E.30012
G1 X100.563 Y82.547 E.02811
G1 X99.445 Y82.761 E.03569
G1 X98.306 Y82.735 E.03572
G1 X97.199 Y82.469 E.0357
G1 X96.172 Y81.975 E.03573
G1 X95.273 Y81.276 E.03571
G1 X94.542 Y80.403 E.0357
G1 X94.039 Y79.448 E.03384
G1 X93.714 Y78.283 E.03792
G1 X93.65 Y77.147 E.03567
G1 X93.714 Y76.537 E.01923
G1 X94.039 Y75.372 E.03792
G1 X94.542 Y74.417 E.03384
G1 X95.273 Y73.544 E.0357
G1 X96.172 Y72.845 E.03571
G1 X97.199 Y72.351 E.03573
G1 X98.306 Y72.085 E.0357
G1 X99.407 Y72.06 E.03453
G1 X99.903 Y72.141 E.01576
G1 X100.712 Y82.3 F54000
G1 F1800
G1 X100.712 Y72.705 E.30084
G1 X100.293 Y72.568 E.01382
G1 X100.293 Y82.253 E.30367
G1 X99.874 Y82.334 E.01338
G1 X99.874 Y72.48 E.30897
G1 X99.455 Y72.411 E.01331
G1 X99.455 Y82.414 E.31364
G1 X99.036 Y82.412 E.01314
G1 X99.036 Y72.408 E.31367
G1 X98.617 Y72.417 E.01314
G1 X98.617 Y82.403 E.3131
G1 X98.198 Y82.36 E.01321
G1 X98.198 Y72.46 E.31041
G1 X97.779 Y72.561 E.01351
G1 X97.779 Y82.259 E.30407
G1 X97.36 Y82.159 E.01351
G1 X97.36 Y72.662 E.29777
G1 X96.941 Y72.852 E.01443
G1 X96.941 Y81.968 E.28583
G1 X96.522 Y81.767 E.01457
G1 X96.522 Y73.053 E.27322
G1 X96.103 Y73.329 E.01573
G1 X96.103 Y81.492 E.25595
G1 X95.684 Y81.166 E.01665
G1 X95.684 Y73.654 E.23553
G1 X95.265 Y74.082 E.01878
G1 X95.265 Y80.738 E.20869
G1 X94.846 Y80.238 E.02045
G1 X94.846 Y74.582 E.17734
G1 X94.427 Y75.363 E.02779
G1 X94.427 Y79.457 E.12836
G1 X94.049 Y78.228 E.04032
G1 X94.008 Y76.015 E.0694
G1 E-3.5 F1500
G1 X110.479 Y86.721 F54000
G1 E3.5 F1500
;TYPE:External perimeter
;WIDTH:0.424772
G1 F1800
G1 X110.28 Y86.73 E.00632
;WIDTH:0.418923
G1 X109.936 Y86.66 E.01098
;WIDTH:0.419999
G1 X109.646 Y86.532 E.00994
G1 X109.386 Y86.351 E.00993
G1 X109.164 Y86.124 E.00996
G1 X108.989 Y85.86 E.00993
G1 X108.865 Y85.562 E.01012
G1 X108.794 Y85.194 E.01175
G1 X108.805 Y84.836 E.01123
G1 X108.877 Y84.527 E.00995
G1 X109.006 Y84.237 E.00995
G1 X109.187 Y83.977 E.00993
G1 X109.413 Y83.755 E.00993
G1 X109.683 Y83.577 E.01014
G1 X110.071 Y83.429 E.01302
G1 X110.385 Y83.382 E.00995
G1 X110.702 Y83.396 E.00995
G1 X111.011 Y83.468 E.00995
G1 X111.3 Y83.597 E.00992
G1 X111.561 Y83.778 E.00996
G1 X111.782 Y84.005 E.00993
G1 X111.958 Y84.269 E.00995
G1 X112.082 Y84.567 E.01012
G1 X112.155 Y84.976 E.01303
G1 X112.142 Y85.293 E.00995
G1 X112.07 Y85.602 E.00995
G1 X111.941 Y85.891 E.00992
G1 X111.76 Y86.152 E.00996
G1 X111.533 Y86.373 E.00993
G1 X111.263 Y86.551 E.01014
;WIDTH:0.424772
G1 X110.876 Y86.703 E.0132
G1 X110.539 Y86.718 E.01071
G1 X110.14 Y86.694 F54000
G1 E-3.5 F1500
G1 X110.467 Y72.243 F54000
G1 E3.5 F1500
;WIDTH:0.419999
G1 F1800
G1 X110.245 Y72.233 E.00697
G1 X109.936 Y72.161 E.00995
G1 X109.641 Y72.028 E.01015
G1 X109.308 Y71.78 E.01302
G1 X109.1 Y71.54 E.00996
G1 X108.942 Y71.266 E.00992
G1 X108.838 Y70.966 E.00996
G1 X108.791 Y70.652 E.00995
G1 X108.805 Y70.336 E.00992
G1 X108.877 Y70.027 E.00995
G1 X108.989 Y69.768 E.00885
G1 X109.257 Y69.399 E.0143
G1 X109.498 Y69.191 E.00998
G1 X109.772 Y69.033 E.00992
G1 X110.072 Y68.929 E.00996
G1 X110.385 Y68.882 E.00992
G1 X110.702 Y68.896 E.00995
G1 X111.011 Y68.968 E.00995
G1 X111.305 Y69.101 E.01012
G1 X111.639 Y69.349 E.01304
G1 X111.846 Y69.589 E.00994
G1 X112.005 Y69.863 E.00993
G1 X112.109 Y70.163 E.00996
G1 X112.155 Y70.476 E.00992
G1 X112.142 Y70.793 E.00995
G1 X112.07 Y71.102 E.00995
G1 X111.937 Y71.397 E.01015
G1 X111.689 Y71.73 E.01302
G1 X111.449 Y71.937 E.00994
G1 X111.174 Y72.096 E.00996
G1 X110.875 Y72.2 E.00993
G1 X110.561 Y72.246 E.00995
G1 X110.527 Y72.245 E.00107
G1 X110.129 Y72.199 F54000
G1 E-3.5 F1500
G1 X117.532 Y80.124 F54000
G1 E3.5 F1500
;TYPE:Perimeter
G1 F1800
G1 X117.532 Y85.953 E.18276
G1 X113.14 Y85.953 E.13771
G1 X113.185 Y85.815 E.00455
G1 X113.277 Y85.294 E.01659
G1 X113.263 Y84.723 E.01791
G1 X113.108 Y84.078 E.0208
G1 X112.876 Y83.602 E.0166
G1 X112.56 Y83.177 E.01661
G1 X112.169 Y82.82 E.0166
G1 X111.718 Y82.542 E.01661
G1 X111.224 Y82.353 E.01658
G1 X110.702 Y82.261 E.01662
G1 X110.173 Y82.267 E.01659
G1 X109.615 Y82.388 E.0179
G1 X109.011 Y82.661 E.02078
G1 X108.586 Y82.978 E.01662
G1 X108.229 Y83.369 E.0166
G1 X107.951 Y83.819 E.01658
G1 X107.762 Y84.314 E.01661
G1 X107.669 Y84.835 E.01659
G1 X107.683 Y85.406 E.01791
G1 X107.809 Y85.953 E.0176
G1 X103.165 Y85.953 E.14561
G1 X103.165 Y69.306 E.52195
G1 X107.951 Y69.319 E.15006
G1 X107.762 Y69.814 E.01661
G1 X107.669 Y70.335 E.01659
G1 X107.676 Y70.865 E.01662
G1 X107.782 Y71.384 E.01661
G1 X107.983 Y71.873 E.01658
G1 X108.273 Y72.317 E.01663
G1 X108.673 Y72.723 E.01787
G1 X109.228 Y73.087 E.02081
G1 X109.723 Y73.276 E.01661
G1 X110.244 Y73.368 E.01659
G1 X110.774 Y73.362 E.01662
G1 X111.293 Y73.256 E.01661
G1 X111.782 Y73.055 E.01658
G1 X112.226 Y72.765 E.01663
G1 X112.632 Y72.364 E.01789
G1 X112.996 Y71.81 E.02078
G1 X113.185 Y71.315 E.01661
G1 X113.277 Y70.793 E.01662
G1 X113.27 Y70.264 E.01659
G1 X113.165 Y69.745 E.0166
G1 X112.987 Y69.306 E.01485
G1 X117.532 Y69.306 E.14251
G1 X117.532 Y80.064 E.33731
G1 E-3.5 F1500
G1 X110.755 Y82.652 F54000
G1 E3.5 F1500
G1 F1800
G1 X110.38 Y82.628 E.01178
G1 X109.881 Y82.698 E.0158
G1 X109.406 Y82.876 E.0159
G1 X108.989 Y83.132 E.01534
G1 X108.654 Y83.444 E.01435
G1 X108.382 Y83.814 E.0144
G1 X108.143 Y84.345 E.01826
G1 X108.046 Y84.847 E.01603
G1 X108.054 Y85.335 E.0153
G1 X108.185 Y85.901 E.01822
G1 X108.392 Y86.33 E.01493
G1 X102.787 Y86.33 E.17574
G1 X102.787 Y68.929 E.5456
G1 X108.672 Y68.929 E.18452
G1 X108.399 Y69.289 E.01417
G1 X108.185 Y69.728 E.01531
G1 X108.069 Y70.171 E.01436
G1 X108.037 Y70.629 E.0144
G1 X108.093 Y71.084 E.01437
G1 X108.232 Y71.521 E.01438
G1 X108.451 Y71.924 E.01438
G1 X108.742 Y72.279 E.01439
G1 X109.198 Y72.638 E.0182
G1 X109.636 Y72.853 E.0153
G1 X110.08 Y72.969 E.01439
G1 X110.538 Y73 E.01439
G1 X110.993 Y72.945 E.01437
G1 X111.43 Y72.806 E.01438
G1 X111.833 Y72.587 E.01438
G1 X112.188 Y72.296 E.01439
G1 X112.547 Y71.84 E.0182
G1 X112.762 Y71.401 E.01533
G1 X112.878 Y70.958 E.01436
G1 X112.909 Y70.5 E.01439
G1 X112.854 Y70.045 E.01437
G1 X112.714 Y69.608 E.01439
G1 X112.495 Y69.205 E.01438
G1 X112.274 Y68.929 E.01109
G1 X117.909 Y68.929 E.17668
G1 X117.909 Y86.33 E.5456
G1 X112.572 Y86.33 E.16734
G1 X112.762 Y85.901 E.01471
G1 X112.878 Y85.458 E.01436
G1 X112.909 Y85 E.01439
G1 X112.823 Y84.426 E.0182
G1 X112.65 Y83.969 E.01532
G1 X112.406 Y83.581 E.01437
G1 X112.094 Y83.245 E.01438
G1 X111.724 Y82.973 E.0144
G1 X111.31 Y82.776 E.01438
G1 X110.867 Y82.66 E.01436
G1 X110.815 Y82.656 E.00164
G1 E-3.5 F1500
G1 X109.234 Y86.707 F54000
G1 E3.5 F1500
G1 F1800
G1 X102.41 Y86.707 E.21396
G1 X102.41 Y68.552 E.56924
G1 X109.501 Y68.552 E.22233
;WIDTH:0.426322
G1 X110.003 Y68.555 E.016
G1 X109.644 Y68.678 E.0121
;WIDTH:0.420227
G1 X109.306 Y68.867 E.01215
;WIDTH:0.419999
G1 X109.008 Y69.116 E.01218
G1 X108.704 Y69.511 E.01563
G1 X108.531 Y69.877 E.01269
G1 X108.437 Y70.253 E.01215
G1 X108.414 Y70.641 E.01219
G1 X108.465 Y71.025 E.01215
G1 X108.587 Y71.393 E.01216
G1 X108.776 Y71.732 E.01217
G1 X109.025 Y72.03 E.01218
G1 X109.42 Y72.333 E.01561
G1 X109.786 Y72.507 E.01271
G1 X110.162 Y72.601 E.01215
G1 X110.549 Y72.623 E.01215
G1 X110.934 Y72.573 E.01217
G1 X111.302 Y72.451 E.01216
G1 X111.641 Y72.262 E.01217
G1 X111.939 Y72.013 E.01218
G1 X112.242 Y71.618 E.01561
G1 X112.416 Y71.252 E.01271
G1 X112.51 Y70.875 E.01218
G1 X112.532 Y70.488 E.01215
G1 X112.481 Y70.104 E.01215
G1 X112.36 Y69.736 E.01215
G1 X112.171 Y69.397 E.01217
G1 X111.922 Y69.099 E.01218
G1 X111.527 Y68.796 E.01561
G1 X111.16 Y68.622 E.01273
;WIDTH:0.419787
G1 X110.782 Y68.539 E.01213
;WIDTH:0.419999
G1 X118.286 Y68.552 E.23528
G1 X118.286 Y86.707 E.56924
G1 X111.752 Y86.707 E.20487
G1 X112.026 Y86.418 E.01249
G1 X112.253 Y86.103 E.01217
G1 X112.416 Y85.752 E.01213
G1 X112.51 Y85.375 E.01218
G1 X112.532 Y84.988 E.01215
G1 X112.452 Y84.496 E.01563
G1 X112.304 Y84.119 E.0127
G1 X112.094 Y83.793 E.01216
G1 X111.827 Y83.511 E.01218
G1 X111.512 Y83.285 E.01216
G1 X111.16 Y83.122 E.01216
G1 X110.784 Y83.028 E.01215
G1 X110.397 Y83.005 E.01216
G1 X110.012 Y83.056 E.01218
G1 X109.544 Y83.227 E.01562
G1 X109.201 Y83.444 E.01273
G1 X108.92 Y83.711 E.01215
G1 X108.694 Y84.026 E.01216
G1 X108.531 Y84.377 E.01213
G1 X108.437 Y84.753 E.01215
G1 X108.414 Y85.141 E.01219
G1 X108.494 Y85.633 E.01563
G1 X108.643 Y86.01 E.01271
G1 X108.852 Y86.336 E.01214
G1 X109.191 Y86.666 E.01483
G1 E-3.5 F1500
G1 X110.003 Y68.555 F54000
G1 E3.5 F1500
;WIDTH:0.426322
G1 F1800
G1 X110.678 Y68.533 E.02153
;WIDTH:0.395878
G1 X110.782 Y68.539 E.00306
G1 E-3.5 F1500
G1 X110.348 Y87.089 F54000
G1 E3.5 F1500
;TYPE:External perimeter
;WIDTH:0.424772
G1 F1800
G1 X110.206 Y87.09 E.00451
;WIDTH:0.419999
G1 X102.033 Y87.084 E.25626
G1 X102.033 Y68.174 E.59291
G1 X118.663 Y68.174 E.52142
G1 X118.663 Y87.084 E.59291
G1 X111.47 Y87.084 E.22553
;WIDTH:0.424772
G1 X110.408 Y87.089 E.03372
G1 X110.008 Y87.09 F54000
G1 E-3.5 F1500
G1 X113.721 Y85.84 F54000
G1 E3.5 F1500
;TYPE:Solid infill
;WIDTH:0.422995
G1 F1800
G1 X113.507 Y85.626 E0.00533; Old Flow Value: 0.00956   Length: 0.30264
G1 X113.56 Y85.309 E0.00580; Old Flow Value: 0.01016   Length: 0.32140
G1 X113.565 Y85.146 E0.00196; Old Flow Value: 0.00515   Length: 0.16307
G1 X114.089 Y85.67 E0.01753; Old Flow Value: 0.02342   Length: 0.74104
G1 X114.627 Y85.67 E0.01157; Old Flow Value: 0.017   Length: 0.53800
G1 X113.521 Y84.565 E0.04259; Old Flow Value: 0.04941   Length: 1.56341
G1 X113.47 Y84.297 E0.00459; Old Flow Value: 0.00862   Length: 0.27282
G1 X113.37 Y83.971 E0.00628; Old Flow Value: 0.01078   Length: 0.34099
G1 X113.297 Y83.804 E0.00239; Old Flow Value: 0.00576   Length: 0.18226
G1 X115.164 Y85.67 E0.07622; Old Flow Value: 0.08342   Length: 2.63963
G1 X115.702 Y85.67 E0.01157; Old Flow Value: 0.017   Length: 0.53800
G1 X103.447 Y73.416 E.5477; Old Flow Value: 0.5477   Length: 17.33048
G1 X103.447 Y72.879 E0.01154; Old Flow Value: 0.01697   Length: 0.53700
G1 X116.239 Y85.67 E.5717; Old Flow Value: 0.5717   Length: 18.08991
G1 X116.777 Y85.67 E0.01157; Old Flow Value: 0.017   Length: 0.53800
G1 X103.447 Y72.341 E.59575; Old Flow Value: 0.59575   Length: 18.85076
G1 X103.447 Y71.804 E0.01154; Old Flow Value: 0.01697   Length: 0.53700
G1 X117.249 Y85.605 E.61684; Old Flow Value: 0.61684   Length: 19.51827
G1 X117.249 Y85.068 E0.01154; Old Flow Value: 0.01697   Length: 0.53700
G1 X103.447 Y71.266 E.61687; Old Flow Value: 0.61687   Length: 19.51898
G1 X103.447 Y70.729 E0.01154; Old Flow Value: 0.01697   Length: 0.53700
G1 X117.249 Y84.53 E.61684; Old Flow Value: 0.61684   Length: 19.51827
G1 X117.249 Y83.993 E0.01154; Old Flow Value: 0.01697   Length: 0.53700
G1 X103.447 Y70.191 E.61687; Old Flow Value: 0.61687   Length: 19.51897
G1 X103.447 Y69.654 E0.01154; Old Flow Value: 0.01697   Length: 0.53700
G1 X117.249 Y83.455 E.61684; Old Flow Value: 0.61684   Length: 19.51827
G1 X117.249 Y82.918 E0.01154; Old Flow Value: 0.01697   Length: 0.53700
G1 X103.92 Y69.588 E.59575; Old Flow Value: 0.59575   Length: 18.85076
G1 X104.457 Y69.588 E0.01154; Old Flow Value: 0.01697   Length: 0.53700
G1 X117.419 Y82.55 E.57932; Old Flow Value: 0.57932   Length: 18.33104
G1 E-3.5 F1500
G1 X112.193 Y82.699 F54000
G1 E3.5 F1500; Old Flow Value: 3.5   Length: 0.00000
G1 F1800
G1 X103.447 Y73.954 E.39087; Old Flow Value: 0.39087   Length: 12.36800
G1 X103.447 Y74.491 E0.01154; Old Flow Value: 0.01697   Length: 0.53699
G1 X110.965 Y82.008 E.33599; Old Flow Value: 0.33599   Length: 10.63135
G1 X110.8 Y81.983 E0.00205; Old Flow Value: 0.00527   Length: 0.16688
G1 X110.387 Y81.968 E0.00811; Old Flow Value: 0.01306   Length: 0.41327
