; File Parsed By Flow Comp Script
; Script Ver. V0.7.1
; Flow Model Ver. V0.2.1
; Logger Ver. V0.0.1
; Flow Comp Model Points:
; (0, 0)
; (0.2, 0.4444)
; (0.4, 0.6145)
; (0.6, 0.7059)
; (0.8, 0.7619)
; (1.5, 0.8571)
; (2, 0.8889)
; (3, 0.9231)
; (5, 0.952)
; (10, 1)

; generated by PrusaSlicer 2.9.4 on 2026-01-25 at 23:17:12 UTC

; 

; external perimeters extrusion width = 0.45mm
; perimeters extrusion width = 0.45mm
; infill extrusion width = 0.45mm
; solid infill extrusion width = 0.45mm
; top infill extrusion width = 0.40mm
; support material extrusion width = 0.35mm
; first layer extrusion width = 0.42mm

;TYPE:Custom
G90 ; use absolute coordinates
M83 ; extruder relative mode
CALCULATE_PA BOWDEN_LENGTH=34.0 MATERIAL=PLA LAYER_HEIGHT=0.1 NOZZLE_SIZE=0.4 PRINT_SPEED=120 FILAMENT_DIAMETER=1.75 LINE_WIDTH=0.45 ; auto pressure advance
M104 S208 ; set temporary nozzle temp to prevent oozing during homing
M140 S58 ; set final bed temp
G4 S30 ; allow partial nozzle warmup
G28 ; home all axis
G1 Z50 F240
G1 X2.0 Y10 F3000
M104 S208 ; set final nozzle temp
M190 S58 ; wait for bed temp to stabilize
M109 S208 ; wait for nozzle temp to stabilize
G1 Z0.28 F240
G92 E0
G1 X2.0 Y140 E10 F1500 ; prime the nozzle
G1 X2.3 Y140 F5000
G92 E0
G1 X2.3 Y10 E10 F1200 ; prime the nozzle
G92 E0
G21 ; set units to millimeters
G90 ; use absolute coordinates
M83 ; use relative distances for extrusion
; Filament gcode
M107
;LAYER_CHANGE
;Z:0.1
;HEIGHT:0.1
G1 E-3.5 F1500
G1 Z.1 F54000
G1 X9.129 Y31
G1 E3.5 F1500
M204 S3500
;TYPE:Skirt/Brim
;WIDTH:0.42
G1 F1800
G1 X12.056 Y30.266 E.05
G1 X22.286 Y30.266 E.1695
G1 X24.468 Y30.663 E.03675
G1 X26.371 Y31.802 E.03675
G1 X27.751 Y33.539 E.03676
G1 X28.485 Y36.465 E.04998
G1 X28.485 Y44.815 E.13835
G1 X28.088 Y46.997 E.03675
G1 X26.949 Y48.9 E.03675
G1 X25.212 Y50.28 E.03676
G1 X22.286 Y51.014 E.04998
G1 X12.056 Y51.014 E.1695
G1 X9.874 Y50.618 E.03674
G1 X7.971 Y49.478 E.03676
G1 X6.591 Y47.742 E.03675
G1 X5.857 Y44.815 E.05
G1 X5.857 Y36.465 E.13835
G1 X6.253 Y34.283 E.03674
G1 X7.393 Y32.38 E.03676
G1 X9.082 Y31.037 E.03575
G1 E-3.5 F1500
G1 X14.862 Y36.573 F54000
G1 E3.5 F1500
;TYPE:External perimeter
;WIDTH:0.36146
G1 F1800
G1 X19.463 Y36.573 E.06504
G1 X19.063 Y36.573 F54000
G1 E-3.5 F1500
G1 X19.48 Y44.707 F54000
G1 E3.5 F1500
G1 F1800
G1 X14.878 Y44.708 E.06505
G1 X15.278 Y44.708 F54000
G1 E-3.5 F1500
G1 X21.239 Y43.675 F54000
G1 E3.5 F1500
;TYPE:Perimeter
;WIDTH:0.56746
G1 F1800
G1 X21.171 Y43.675 E.00154
G1 X21.137 Y43.734 E.00155
G1 X21.171 Y43.793 E.00155
G1 X21.239 Y43.793 E.00154
G1 X21.273 Y43.734 E.00155
G1 X21.677 Y43.854 F54000
;WIDTH:0.419999
G1 F1800
G1 X21.677 Y44.207 E.00585
G1 X20.387 Y44.207 E.02137
G1 X21.677 Y41.972 E.04276
G1 X21.677 Y43.794 E.03019
G1 X21.631 Y44.605 F54000
;TYPE:External perimeter
G1 F1800
G1 X21.205 Y44.605 E.00706
G1 X19.564 Y44.682 E.02722
G1 X20.451 Y43.299 E.02722
;WIDTH:0.467464
G1 X21.233 Y41.994 E.02821
;WIDTH:0.514929
G1 X22.014 Y40.689 E.0312
G1 X22.052 Y42.257 E.03218
;WIDTH:0.467464
G1 X22.076 Y43.734 E.02739
;WIDTH:0.419999
G1 X22.076 Y44.605 E.01443
G1 X21.691 Y44.605 E.00638
G1 X21.291 Y44.605 F54000
G1 E-3.5 F1500
G1 X21.239 Y37.487 F54000
G1 E3.5 F1500
;TYPE:Perimeter
;WIDTH:0.56746
G1 F1800
G1 X21.171 Y37.487 E.00154
G1 X21.137 Y37.546 E.00155
G1 X21.171 Y37.605 E.00155
G1 X21.239 Y37.605 E.00154
G1 X21.273 Y37.546 E.00155
G1 X21.534 Y39.06 F54000
;WIDTH:0.419999
G1 F1800
G1 X20.387 Y37.074 E.038
G1 X21.677 Y37.074 E.02137
G1 X21.677 Y39.308 E.03702
G1 X21.564 Y39.112 E.00375
G1 X21.012 Y38.924 F54000
;TYPE:External perimeter
;WIDTH:0.459179
G1 F1800
G1 X20.451 Y37.981 E.01997
;WIDTH:0.419999
G1 X19.575 Y36.605 E.02703
G1 X21.205 Y36.675 E.02703
G1 X22.076 Y36.675 E.01443
G1 X22.076 Y37.546 E.01443
;WIDTH:0.459179
G1 X22.055 Y39.114 E.02854
;WIDTH:0.498359
G1 X22.034 Y40.682 E.03109
G1 X21.962 Y40.521 E.0035
G1 X21.207 Y39.251 E.02929
;WIDTH:0.459179
G1 X21.043 Y38.976 E.00583
G1 X20.838 Y38.632 F54000
G1 E-3.5 F1500
G1 X13.171 Y37.487 F54000
G1 E3.5 F1500
;TYPE:Perimeter
;WIDTH:0.56746
G1 F1800
G1 X13.103 Y37.487 E.00154
G1 X13.068 Y37.546 E.00156
G1 X13.103 Y37.605 E.00156
G1 X13.171 Y37.605 E.00154
G1 X13.205 Y37.546 E.00155
G1 X12.664 Y39.308 F54000
;WIDTH:0.419999
G1 F1800
G1 X12.664 Y37.074 E.03702
G1 X13.955 Y37.074 E.02139
G1 X12.694 Y39.256 E.04176
G1 X12.305 Y40.498 F54000
;TYPE:External perimeter
;WIDTH:0.498359
G1 F1800
G1 X12.285 Y39.023 E.02925
;WIDTH:0.459179
G1 X12.266 Y37.546 E.02688
;WIDTH:0.419999
G1 X12.266 Y36.675 E.01443
G1 X13.137 Y36.675 E.01443
G1 X14.778 Y36.598 E.02722
G1 X13.891 Y37.981 E.02722
;WIDTH:0.459179
G1 X13.107 Y39.299 E.02791
;WIDTH:0.498359
G1 X12.323 Y40.616 E.03039
G1 X12.314 Y40.558 E.00116
G1 X12.302 Y40.158 F54000
G1 E-3.5 F1500
G1 X13.171 Y43.675 F54000
G1 E3.5 F1500
;TYPE:Perimeter
;WIDTH:0.567462
G1 F1800
G1 X13.103 Y43.675 E.00154
G1 X13.068 Y43.734 E.00156
G1 X13.103 Y43.793 E.00156
G1 X13.171 Y43.793 E.00154
G1 X13.205 Y43.734 E.00155
G1 X13.077 Y44.207 F54000
;WIDTH:0.419999
G1 F1800
G1 X12.664 Y44.207 E.00684
G1 X12.664 Y41.972 E.03703
G1 X13.955 Y44.207 E.04277
G1 X13.137 Y44.207 E.01355
G1 X12.266 Y44.281 F54000
;TYPE:External perimeter
G1 F1800
G1 X12.266 Y43.734 E.00906
;WIDTH:0.467464
G1 X12.291 Y42.198 E.02849
;WIDTH:0.514929
G1 X12.315 Y40.662 E.03152
G1 X13.132 Y42.031 E.03271
;WIDTH:0.467464
G1 X13.891 Y43.299 E.0274
;WIDTH:0.419999
G1 X14.767 Y44.675 E.02703
G1 X13.137 Y44.605 E.02703
G1 X12.266 Y44.605 E.01443
G1 X12.266 Y44.341 E.00437
G1 X12.266 Y43.941 F54000
;LAYER_CHANGE
;Z:0.2
;HEIGHT:0.1
;BEFORE_LAYER_CHANGE
G92 E0
;0.2
G1 E-3.5 F1500
G1 Z.2 F54000
;AFTER_LAYER_CHANGE
;0.2
M104 S207 ; set temperature
M140 S52 ; set bed temperature
G1 X14.862 Y36.573
G1 E3.5 F1500
;WIDTH:0.36146
G1 F1521
G1 X19.463 Y36.573 E.06504
G1 X19.063 Y36.573 F54000
G1 E-3.5 F1500
G1 X19.48 Y44.707 F54000
G1 E3.5 F1500
G1 F1521
G1 X14.878 Y44.708 E.06505
G1 X15.278 Y44.708 F54000
G1 E-3.5 F1500
G1 X21.258 Y43.734 F54000
G1 E3.5 F1500
;TYPE:Perimeter
;WIDTH:0.44746
G1 F1521
G1 X21.232 Y43.78 E.00094
G1 X21.178 Y43.78 E.00096
G1 X21.152 Y43.734 E.00094
G1 X21.178 Y43.688 E.00094
G1 X21.232 Y43.688 E.00096
G1 X20.715 Y43.729 F54000
;WIDTH:0.449999
G1 F1521
G1 X21.632 Y42.14 E.03269
G1 X21.632 Y44.162 E.03603
G1 X20.465 Y44.162 E.02079
G1 X20.685 Y43.781 E.00784
G1 E-3.5 F1500
G1 X22.012 Y40.699 F54000
G1 E3.5 F1500
;TYPE:External perimeter
;WIDTH:0.522083
G1 F1521
G1 X22.015 Y40.694 E.00012
G1 X22.043 Y42.257 E.03254
;WIDTH:0.486041
G1 X22.061 Y43.734 E.02853
;WIDTH:0.449999
G1 X22.061 Y44.59 E.01525
G1 X21.205 Y44.59 E.01525
G1 X20.39 Y44.633 E.01454
;WIDTH:0.416796
G1 X19.575 Y44.675 E.01341
G1 X20.02 Y43.991 E.01341
;WIDTH:0.449999
G1 X20.464 Y43.306 E.01454
;WIDTH:0.486041
G1 X21.239 Y42 E.02933
;WIDTH:0.522083
G1 X21.982 Y40.75 E.03027
G1 X22.029 Y41.147 F54000
G1 E-3.5 F1500
G1 X21.258 Y37.546 F54000
G1 E3.5 F1500
;TYPE:Perimeter
;WIDTH:0.44746
G1 F1521
G1 X21.232 Y37.592 E.00094
G1 X21.178 Y37.592 E.00096
G1 X21.152 Y37.546 E.00094
G1 X21.178 Y37.5 E.00094
G1 X21.232 Y37.5 E.00096
G1 X20.868 Y37.816 F54000
;WIDTH:0.449999
G1 F1521
G1 X20.465 Y37.119 E.01434
G1 X21.632 Y37.119 E.02079
G1 X21.632 Y39.14 E.03601
G1 X20.898 Y37.868 E.02617
G1 X20.282 Y37.659 F54000
;TYPE:External perimeter
G1 F1521
G1 X19.723 Y36.69 E.01993
G1 X22.061 Y36.69 E.04166
G1 X22.061 Y37.546 E.01525
;WIDTH:0.479443
G1 X22.045 Y39.111 E.0298
;WIDTH:0.508886
G1 X22.03 Y40.676 E.03172
G1 X21.967 Y40.518 E.00345
G1 X21.215 Y39.246 E.02994
;WIDTH:0.479443
G1 X20.464 Y37.974 E.02813
;WIDTH:0.449999
G1 X20.312 Y37.711 E.00541
G1 X20.112 Y37.365 F54000
G1 E-3.5 F1500
G1 X13.19 Y37.546 F54000
G1 E3.5 F1500
;TYPE:Perimeter
;WIDTH:0.447462
G1 F1521
G1 X13.163 Y37.592 E.00094
G1 X13.11 Y37.592 E.00094
G1 X13.083 Y37.546 E.00094
G1 X13.11 Y37.5 E.00094
G1 X13.163 Y37.5 E.00094
G1 X12.709 Y37.812 F54000
;WIDTH:0.449999
G1 F1521
G1 X12.709 Y37.119 E.01235
G1 X13.877 Y37.119 E.02081
G1 X12.709 Y39.14 E.04159
G1 X12.709 Y37.872 E.02259
G1 X12.283 Y36.69 F54000
;TYPE:External perimeter
G1 F1521
G1 X13.137 Y36.69 E.01522
G1 X13.952 Y36.647 E.01454
;WIDTH:0.416796
G1 X14.767 Y36.605 E.01341
G1 X14.322 Y37.289 E.01341
;WIDTH:0.449999
G1 X13.878 Y37.974 E.01454
;WIDTH:0.479443
G1 X13.1 Y39.29 E.02911
;WIDTH:0.508887
G1 X12.322 Y40.607 E.031
G1 X12.296 Y39.023 E.0321
;WIDTH:0.479443
G1 X12.281 Y37.546 E.02812
;WIDTH:0.449999
G1 X12.281 Y36.748 E.01422
G1 X12.677 Y36.691 F54000
G1 E-3.5 F1500
G1 X13.19 Y43.734 F54000
G1 E3.5 F1500
;TYPE:Perimeter
;WIDTH:0.447462
G1 F1521
G1 X13.163 Y43.78 E.00094
G1 X13.11 Y43.78 E.00094
G1 X13.083 Y43.734 E.00094
G1 X13.11 Y43.688 E.00094
G1 X13.163 Y43.688 E.00094
G1 X13.769 Y43.974 F54000
;WIDTH:0.449999
G1 F1521
G1 X13.877 Y44.162 E.00386
G1 X12.709 Y44.162 E.02081
G1 X12.709 Y42.14 E.03603
G1 X13.739 Y43.922 E.03667
G1 X14.365 Y44.59 F54000
;TYPE:External perimeter
G1 F1521
G1 X12.281 Y44.59 E.03713
G1 X12.281 Y43.734 E.01525
;WIDTH:0.486042
G1 X12.3 Y42.2 E.02963
;WIDTH:0.522085
G1 X12.318 Y40.666 E.03193
G1 X13.123 Y42.036 E.03307
;WIDTH:0.486042
G1 X13.878 Y43.306 E.02854
;WIDTH:0.449999
G1 X14.619 Y44.59 E.02641
G1 X14.425 Y44.59 E.00346
G1 X14.025 Y44.59 F54000
M106 S255
;LAYER_CHANGE
;Z:0.3
;HEIGHT:0.1
;BEFORE_LAYER_CHANGE
G92 E0
;0.3
G1 E-3.5 F1500
G1 Z.3 F54000
;AFTER_LAYER_CHANGE
;0.3
G1 X14.862 Y36.573
G1 E3.5 F1500
;WIDTH:0.36146
G1 F1392
G1 X19.463 Y36.573 E.06504
G1 X19.063 Y36.573 F54000
G1 E-3.5 F1500
G1 X19.48 Y44.707 F54000
G1 E3.5 F1500
G1 F1392
G1 X14.878 Y44.708 E.06505
G1 X15.278 Y44.708 F54000
G1 E-3.5 F1500
G1 X21.258 Y43.734 F54000
G1 E3.5 F1500
;TYPE:Perimeter
;WIDTH:0.44746
G1 F1392
G1 X21.232 Y43.78 E.00094
G1 X21.178 Y43.78 E.00096
G1 X21.152 Y43.734 E.00094
G1 X21.178 Y43.688 E.00094
G1 X21.232 Y43.688 E.00096
G1 X20.81 Y43.564 F54000
;WIDTH:0.449999
G1 F1392
G1 X21.632 Y42.14 E.02929
G1 X21.632 Y44.162 E.03603
G1 X20.465 Y44.162 E.02079
G1 X20.78 Y43.616 E.01123
G1 X20.657 Y42.981 F54000
;TYPE:External perimeter
;WIDTH:0.486041
G1 F1392
G1 X21.239 Y42 E.02203
;WIDTH:0.522083
G1 X22.015 Y40.694 E.03162
G1 X22.043 Y42.257 E.03254
;WIDTH:0.486041
G1 X22.061 Y43.734 E.02853
;WIDTH:0.449999
G1 X22.061 Y44.59 E.01525
G1 X21.205 Y44.59 E.01525
G1 X20.39 Y44.633 E.01454
;WIDTH:0.416796
G1 X19.575 Y44.675 E.01341
G1 X20.02 Y43.991 E.01341
;WIDTH:0.449999
G1 X20.464 Y43.306 E.01454
;WIDTH:0.486041
G1 X20.627 Y43.032 E.00616
G1 X20.831 Y42.688 F54000
G1 E-3.5 F1500
G1 X21.258 Y37.546 F54000
G1 E3.5 F1500
;TYPE:Perimeter
;WIDTH:0.44746
G1 F1392
G1 X21.232 Y37.592 E.00094
G1 X21.178 Y37.592 E.00096
G1 X21.152 Y37.546 E.00094
G1 X21.178 Y37.5 E.00094
G1 X21.232 Y37.5 E.00096
G1 X21.632 Y38.707 F54000
;WIDTH:0.449999
G1 F1392
G1 X21.632 Y39.14 E.00771
G1 X20.465 Y37.119 E.04158
G1 X21.632 Y37.119 E.02079
G1 X21.632 Y38.647 E.02722
G1 X22.043 Y39.307 F54000
;TYPE:External perimeter
;WIDTH:0.508886
G1 F1392
G1 X22.03 Y40.676 E.02774
G1 X21.967 Y40.518 E.00345
G1 X21.215 Y39.246 E.02994
;WIDTH:0.479443
G1 X20.464 Y37.974 E.02813
;WIDTH:0.449999
G1 X19.723 Y36.69 E.02641
G1 X22.061 Y36.69 E.04166
G1 X22.061 Y37.546 E.01525
;WIDTH:0.479443
G1 X22.045 Y39.111 E.0298
;WIDTH:0.508886
G1 X22.044 Y39.247 E.00276
G1 X22.04 Y39.647 F54000
G1 E-3.5 F1500
G1 X13.19 Y37.546 F54000
G1 E3.5 F1500
;TYPE:Perimeter
;WIDTH:0.447462
G1 F1392
G1 X13.163 Y37.592 E.00094
G1 X13.11 Y37.592 E.00094
G1 X13.083 Y37.546 E.00094
G1 X13.11 Y37.5 E.00094
G1 X13.163 Y37.5 E.00094
G1 X12.756 Y37.119 F54000
;WIDTH:0.449999
G1 F1392
G1 X13.877 Y37.119 E.01997
G1 X12.709 Y39.14 E.04159
G1 X12.709 Y37.132 E.03578
G1 X13.163 Y36.689 F54000
;TYPE:External perimeter
G1 F1392
G1 X13.952 Y36.647 E.01408
;WIDTH:0.416796
G1 X14.767 Y36.605 E.01341
G1 X14.322 Y37.289 E.01341
;WIDTH:0.449999
G1 X13.878 Y37.974 E.01454
;WIDTH:0.479443
G1 X13.1 Y39.29 E.02911
;WIDTH:0.508887
G1 X12.322 Y40.607 E.031
G1 X12.296 Y39.023 E.0321
;WIDTH:0.479443
G1 X12.281 Y37.546 E.02812
;WIDTH:0.449999
G1 X12.281 Y36.69 E.01525
G1 X13.103 Y36.69 E.01465
G1 X13.502 Y36.671 F54000
G1 E-3.5 F1500
G1 X13.19 Y43.734 F54000
G1 E3.5 F1500
;TYPE:Perimeter
;WIDTH:0.447462
G1 F1392
G1 X13.163 Y43.78 E.00094
G1 X13.11 Y43.78 E.00094
G1 X13.083 Y43.734 E.00094
G1 X13.11 Y43.688 E.00094
G1 X13.163 Y43.688 E.00094
G1 X12.709 Y42.573 F54000
;WIDTH:0.449999
G1 F1392
G1 X12.709 Y42.14 E.00771
G1 X13.877 Y44.162 E.0416
G1 X12.709 Y44.162 E.02081
G1 X12.709 Y42.633 E.02724
G1 X12.303 Y41.958 F54000
;TYPE:External perimeter
;WIDTH:0.522085
G1 F1392
G1 X12.318 Y40.666 E.02689
G1 X13.123 Y42.036 E.03307
;WIDTH:0.486042
G1 X13.878 Y43.306 E.02854
;WIDTH:0.449999
G1 X14.619 Y44.59 E.02641
G1 X12.281 Y44.59 E.04166
G1 X12.281 Y43.734 E.01525
;WIDTH:0.486042
G1 X12.3 Y42.2 E.02963
;WIDTH:0.522085
G1 X12.302 Y42.018 E.00379
G1 X12.307 Y41.618 F54000
;LAYER_CHANGE
;Z:0.4
;HEIGHT:0.1
;BEFORE_LAYER_CHANGE
G92 E0
;0.4
G1 E-3.5 F1500
G1 Z.4 F54000
;AFTER_LAYER_CHANGE
;0.4
G1 X14.862 Y36.573
G1 E3.5 F1500
;WIDTH:0.36146
G1 F1390
G1 X19.463 Y36.573 E.06504
G1 X19.063 Y36.573 F54000
G1 E-3.5 F1500
G1 X19.48 Y44.707 F54000
G1 E3.5 F1500
G1 F1390
G1 X14.878 Y44.708 E.06505
G1 X15.278 Y44.708 F54000
G1 E-3.5 F1500
G1 X21.258 Y43.734 F54000
G1 E3.5 F1500
;TYPE:Perimeter
;WIDTH:0.44746
G1 F1390
G1 X21.232 Y43.78 E.00094
G1 X21.178 Y43.78 E.00096
G1 X21.152 Y43.734 E.00094
G1 X21.178 Y43.688 E.00094
G1 X21.232 Y43.688 E.00096
G1 X20.993 Y43.247 F54000
;WIDTH:0.449999
G1 F1390
G1 X21.632 Y42.14 E.02277
G1 X21.632 Y44.162 E.03603
G1 X20.465 Y44.162 E.02079
G1 X20.963 Y43.299 E.01775
G1 X22.047 Y44.59 F54000
;TYPE:External perimeter
G1 F1390
G1 X21.205 Y44.59 E.015
G1 X20.39 Y44.633 E.01454
;WIDTH:0.416796
G1 X19.575 Y44.675 E.01341
G1 X20.02 Y43.991 E.01341
;WIDTH:0.449999
G1 X20.464 Y43.306 E.01454
;WIDTH:0.486041
G1 X21.239 Y42 E.02933
;WIDTH:0.522083
G1 X22.015 Y40.694 E.03162
G1 X22.043 Y42.257 E.03254
;WIDTH:0.486041
G1 X22.061 Y43.734 E.02853
;WIDTH:0.449999
G1 X22.061 Y44.544 E.01443
G1 X21.663 Y44.588 F54000
G1 E-3.5 F1500
G1 X21.258 Y37.546 F54000
G1 E3.5 F1500
;TYPE:Perimeter
;WIDTH:0.44746
G1 F1390
G1 X21.232 Y37.592 E.00094
G1 X21.178 Y37.592 E.00096
G1 X21.152 Y37.546 E.00094
G1 X21.178 Y37.5 E.00094
G1 X21.232 Y37.5 E.00096
G1 X20.864 Y37.809 F54000
;WIDTH:0.449999
G1 F1390
G1 X20.465 Y37.119 E.0142
G1 X21.632 Y37.119 E.02079
G1 X21.632 Y39.14 E.03601
G1 X20.894 Y37.861 E.02631
G1 X19.723 Y36.69 F54000
;TYPE:External perimeter
G1 F1390
G1 X22.061 Y36.69 E.04166
G1 X22.061 Y37.546 E.01525
;WIDTH:0.479443
G1 X22.045 Y39.111 E.0298
;WIDTH:0.508886
G1 X22.03 Y40.676 E.03172
G1 X21.967 Y40.518 E.00345
G1 X21.215 Y39.246 E.02994
;WIDTH:0.479443
G1 X20.464 Y37.974 E.02813
;WIDTH:0.449999
G1 X19.753 Y36.742 E.02534
G1 X20.149 Y36.686 F54000
G1 E-3.5 F1500
G1 X13.19 Y37.546 F54000
G1 E3.5 F1500
;TYPE:Perimeter
;WIDTH:0.447462
G1 F1390
G1 X13.163 Y37.592 E.00094
G1 X13.11 Y37.592 E.00094
G1 X13.083 Y37.546 E.00094
G1 X13.11 Y37.5 E.00094
G1 X13.163 Y37.5 E.00094
G1 X12.932 Y38.755 F54000
;WIDTH:0.449999
G1 F1390
G1 X12.709 Y39.14 E.00793
G1 X12.709 Y37.119 E.03601
G1 X13.877 Y37.119 E.02081
G1 X12.962 Y38.703 E.03259
G1 X12.961 Y39.527 F54000
;TYPE:External perimeter
;WIDTH:0.508887
G1 F1390
G1 X12.322 Y40.607 E.02543
G1 X12.296 Y39.023 E.0321
;WIDTH:0.479443
G1 X12.281 Y37.546 E.02812
;WIDTH:0.449999
G1 X12.281 Y36.69 E.01525
G1 X13.137 Y36.69 E.01525
G1 X13.952 Y36.647 E.01454
;WIDTH:0.416796
G1 X14.767 Y36.605 E.01341
G1 X14.322 Y37.289 E.01341
;WIDTH:0.449999
G1 X13.878 Y37.974 E.01454
;WIDTH:0.479443
G1 X13.1 Y39.29 E.02911
;WIDTH:0.508887
G1 X12.991 Y39.475 E.00435
G1 X12.788 Y39.819 F54000
G1 E-3.5 F1500
G1 X13.19 Y43.734 F54000
G1 E3.5 F1500
;TYPE:Perimeter
;WIDTH:0.447462
G1 F1390
G1 X13.163 Y43.78 E.00094
G1 X13.11 Y43.78 E.00094
G1 X13.083 Y43.734 E.00094
G1 X13.11 Y43.688 E.00094
G1 X13.163 Y43.688 E.00094
G1 X13.183 Y44.162 F54000
;WIDTH:0.449999
G1 F1390
G1 X12.709 Y44.162 E.00845
G1 X12.709 Y42.14 E.03603
G1 X13.877 Y44.162 E.0416
G1 X13.243 Y44.162 E.0113
G1 X12.535 Y44.59 F54000
;TYPE:External perimeter
G1 F1390
G1 X12.281 Y44.59 E.00453
