; File Parsed By Flow Comp Script
; Script Ver. V0.7.1
; Flow Model Ver. V0.2.1
; Logger Ver. V0.0.1
; Flow Comp Model Points:
; (0, 0)
; (0.2, 0.4444)
; (0.4, 0.6145)
; (0.6, 0.7059)
; (0.8, 0.7619)
; (1.5, 0.8571)
; (2, 0.8889)
; (3, 0.9231)
; (5, 0.952)
; (10, 1)

; generated by PrusaSlicer 2.9.4 on 2026-01-25 at 22:39:35 UTC

; 

; external perimeters extrusion width = 0.45mm
; perimeters extrusion width = 0.45mm
; infill extrusion width = 0.45mm
; solid infill extrusion width = 0.45mm
; top infill extrusion width = 0.40mm
; support material extrusion width = 0.35mm
; first layer extrusion width = 0.42mm

;TYPE:Custom
G90 ; use absolute coordinates
M83 ; extruder relative mode
CALCULATE_PA BOWDEN_LENGTH=34.0 MATERIAL=PLA LAYER_HEIGHT=0.2 NOZZLE_SIZE=0.4 PRINT_SPEED=120 FILAMENT_DIAMETER=1.75 LINE_WIDTH=0.45 ; auto pressure advance
M104 S208 ; set temporary nozzle temp to prevent oozing during homing
M140 S58 ; set final bed temp
G4 S30 ; allow partial nozzle warmup
G28 ; home all axis
G1 Z50 F240
G1 X2.0 Y10 F3000
M104 S208 ; set final nozzle temp
M190 S58 ; wait for bed temp to stabilize
M109 S208 ; wait for nozzle temp to stabilize
G1 Z0.28 F240
G92 E0
G1 X2.0 Y140 E10 F1500 ; prime the nozzle
G1 X2.3 Y140 F5000
G92 E0
G1 X2.3 Y10 E10 F1200 ; prime the nozzle
G92 E0
G21 ; set units to millimeters
G90 ; use absolute coordinates
M83 ; use relative distances for extrusion
; Filament gcode
M107
;LAYER_CHANGE
;Z:0.2
;HEIGHT:0.2
G1 E-3.5 F1500
G1 Z.2 F54000
G1 X11.253 Y14.182
G1 E3.5 F1500
M204 S3500
;TYPE:Skirt/Brim
;WIDTH:0.42
G1 F1800
G1 X12.123 Y13.492 E.03482
G1 X15.039 Y12.762 E.09425
G1 X25.269 Y12.762 E.32075
G1 X27.449 Y13.158 E.06947
G1 X29.35 Y14.298 E.0695
G1 X30.727 Y16.034 E.06948
G1 X31.458 Y18.95 E.09426
G1 X31.458 Y27.3 E.26181
G1 X31.061 Y29.48 E.06948
G1 X29.921 Y31.381 E.0695
G1 X28.185 Y32.759 E.06949
G1 X25.269 Y33.489 E.09425
G1 X15.039 Y33.489 E.32075
G1 X12.859 Y33.092 E.06948
G1 X10.958 Y31.953 E.06948
G1 X9.581 Y30.217 E.06948
G1 X8.851 Y27.3 E.09428
G1 X8.851 Y18.95 E.26181
G1 X9.247 Y16.77 E.06947
G1 X10.387 Y14.869 E.0695
G1 X11.206 Y14.22 E.03276
G1 E-3.5 F1500
G1 X17.816 Y19.033 F54000
G1 E3.5 F1500
;TYPE:External perimeter
;WIDTH:0.38292
G1 F1800
G1 X22.482 Y19.033 E.13191
G1 X22.082 Y19.033 F54000
G1 E-3.5 F1500
G1 X22.492 Y27.217 F54000
G1 E3.5 F1500
G1 F1800
G1 X17.827 Y27.218 E.13188
G1 X18.227 Y27.218 F54000
G1 E-3.5 F1500
G1 X16.134 Y26.179 F54000
G1 E3.5 F1500
;TYPE:Perimeter
;WIDTH:0.611038
G1 F1800
G1 X16.063 Y26.179 E.00335
G1 X16.028 Y26.241 E.00336
G1 X16.063 Y26.302 E.00332
G1 X16.134 Y26.302 E.00335
G1 X16.17 Y26.241 E.00335
G1 X16.864 Y26.713 F54000
;WIDTH:0.419999
G1 F1800
G1 X15.626 Y26.713 E.03882
G1 X15.626 Y24.477 E.07011
G1 X16.914 Y26.708 E.08077
G1 X16.487 Y27.09 F54000
;TYPE:External perimeter
G1 F1800
G1 X15.249 Y27.09 E.03882
G1 X15.249 Y26.241 E.02662
;WIDTH:0.445816
G1 X15.262 Y24.696 E.05176
;WIDTH:0.471632
G1 X15.276 Y23.151 E.05508
G1 X16.074 Y24.524 E.05661
;WIDTH:0.445816
G1 X16.835 Y25.816 E.05023
;WIDTH:0.419999
G1 X17.57 Y27.09 E.04612
G1 X16.547 Y27.09 E.03208
G1 X16.147 Y27.09 F54000
G1 E-3.5 F1500
G1 X16.134 Y19.948 F54000
G1 E3.5 F1500
;TYPE:Perimeter
;WIDTH:0.611038
G1 F1800
G1 X16.063 Y19.948 E.00335
G1 X16.028 Y20.01 E.00336
G1 X16.063 Y20.071 E.00332
G1 X16.134 Y20.071 E.00335
G1 X16.17 Y20.01 E.00335
G1 X15.626 Y21.774 F54000
;WIDTH:0.419999
G1 F1800
G1 X15.626 Y19.537 E.07014
G1 X16.917 Y19.537 E.04048
G1 X15.656 Y21.722 E.0791
G1 X15.277 Y23.088 F54000
;TYPE:External perimeter
;WIDTH:0.463157
G1 F1800
G1 X15.249 Y20.01 E.10756
;WIDTH:0.419999
G1 X15.249 Y19.16 E.02665
G1 X17.57 Y19.16 E.07277
G1 X16.835 Y20.435 E.04614
;WIDTH:0.463157
G1 X15.307 Y23.037 E.10544
G1 X15.268 Y22.639 F54000
G1 E-3.5 F1500
G1 X24.245 Y19.948 F54000
G1 E3.5 F1500
;TYPE:Perimeter
;WIDTH:0.611038
G1 F1800
G1 X24.174 Y19.948 E.00335
G1 X24.138 Y20.01 E.00339
G1 X24.174 Y20.071 E.00335
G1 X24.245 Y20.071 E.00335
G1 X24.28 Y20.01 E.00332
G1 X24.682 Y21.774 F54000
;WIDTH:0.419999
G1 F1800
G1 X23.391 Y19.537 E.08098
G1 X24.682 Y19.537 E.04048
G1 X24.682 Y21.714 E.06826
G1 X25.037 Y23.148 F54000
;TYPE:External perimeter
;WIDTH:0.463156
G1 F1800
G1 X24.991 Y23.02 E.00475
G1 X23.474 Y20.435 E.10473
;WIDTH:0.419999
G1 X22.738 Y19.16 E.04616
G1 X25.059 Y19.16 E.07277
G1 X25.059 Y20.01 E.02665
;WIDTH:0.463156
G1 X25.037 Y23.088 E.10756
G1 X24.829 Y22.746 F54000
G1 E-3.5 F1500
G1 X24.245 Y26.179 F54000
G1 E3.5 F1500
;TYPE:Perimeter
;WIDTH:0.611038
G1 F1800
G1 X24.174 Y26.179 E.00335
G1 X24.138 Y26.241 E.00339
G1 X24.174 Y26.302 E.00335
G1 X24.245 Y26.302 E.00335
G1 X24.28 Y26.241 E.00332
G1 X24.199 Y26.713 F54000
;WIDTH:0.419999
G1 F1800
G1 X23.391 Y26.713 E.02533
G1 X24.682 Y24.477 E.08095
G1 X24.682 Y26.713 E.07011
G1 X24.259 Y26.713 E.01326
G1 X23.822 Y27.09 F54000
;TYPE:External perimeter
G1 F1800
G1 X22.738 Y27.09 E.03399
G1 X23.474 Y25.816 E.04613
;WIDTH:0.445814
G1 X24.251 Y24.496 E.05131
;WIDTH:0.471629
G1 X25.028 Y23.176 E.0546
G1 X25.046 Y24.742 E.05583
;WIDTH:0.445814
G1 X25.059 Y26.241 E.05022
;WIDTH:0.419999
G1 X25.059 Y27.09 E.02662
G1 X23.882 Y27.09 E.0369
G1 X23.482 Y27.09 F54000
;LAYER_CHANGE
;Z:0.4
;HEIGHT:0.2
;BEFORE_LAYER_CHANGE
G92 E0
;0.4
G1 E-3.5 F1500
G1 Z.4 F54000
;AFTER_LAYER_CHANGE
;0.4
M104 S207 ; set temperature
M140 S52 ; set bed temperature
G1 X17.816 Y19.033
G1 E3.5 F1500
;WIDTH:0.38292
G1 F1377
G1 X22.482 Y19.033 E.13191
G1 X22.082 Y19.033 F54000
G1 E-3.5 F1500
G1 X22.492 Y27.217 F54000
G1 E3.5 F1500
G1 F1377
G1 X17.827 Y27.218 E.13188
G1 X18.227 Y27.218 F54000
G1 E-3.5 F1500
G1 X16.155 Y26.241 F54000
G1 E3.5 F1500
;TYPE:Perimeter
;WIDTH:0.491038
G1 F1377
G1 X16.127 Y26.289 E.00207
G1 X16.071 Y26.289 E.00209
G1 X16.043 Y26.241 E.00207
G1 X16.071 Y26.192 E.0021
G1 X16.127 Y26.192 E.00209
G1 X16.829 Y26.651 F54000
;WIDTH:0.449999
G1 F1377
G1 X16.839 Y26.668 E.00067
G1 X15.671 Y26.668 E.03954
G1 X15.671 Y24.645 E.06848
G1 X16.799 Y26.599 E.07637
G1 X16.487 Y27.075 F54000
;TYPE:External perimeter
G1 F1377
G1 X15.264 Y27.075 E.0414
G1 X15.264 Y26.241 E.02823
;WIDTH:0.477673
G1 X15.278 Y23.156 E.11152
G1 X16.822 Y25.823 E.1114
;WIDTH:0.449999
G1 X17.544 Y27.075 E.04892
G1 X16.547 Y27.075 E.03375
G1 X16.147 Y27.075 F54000
G1 E-3.5 F1500
G1 X16.155 Y20.01 F54000
G1 E3.5 F1500
;TYPE:Perimeter
;WIDTH:0.491038
G1 F1377
G1 X16.127 Y20.058 E.00207
G1 X16.071 Y20.058 E.00209
G1 X16.043 Y20.01 E.00207
G1 X16.071 Y19.961 E.0021
G1 X16.127 Y19.961 E.00209
G1 X15.671 Y21.606 F54000
;WIDTH:0.449999
G1 F1377
G1 X15.671 Y19.582 E.06851
G1 X16.839 Y19.582 E.03954
G1 X15.701 Y21.554 E.07707
G1 X15.278 Y23.078 F54000
;TYPE:External perimeter
;WIDTH:0.472046
G1 F1377
G1 X15.264 Y20.01 E.10947
;WIDTH:0.449999
G1 X15.264 Y19.175 E.02826
G1 X17.544 Y19.175 E.07718
G1 X16.822 Y20.427 E.04892
;WIDTH:0.472046
G1 X15.308 Y23.027 E.10736
G1 X15.272 Y22.628 F54000
G1 E-3.5 F1500
G1 X24.265 Y20.01 F54000
G1 E3.5 F1500
;TYPE:Perimeter
;WIDTH:0.491038
G1 F1377
G1 X24.237 Y20.058 E.00207
G1 X24.181 Y20.058 E.00209
G1 X24.153 Y20.01 E.00207
G1 X24.181 Y19.961 E.0021
G1 X24.237 Y19.961 E.00209
G1 X24.637 Y21.606 F54000
;WIDTH:0.449999
G1 F1377
G1 X23.469 Y19.582 E.0791
G1 X24.637 Y19.582 E.03954
G1 X24.637 Y21.546 E.06648
G1 X25.033 Y23.139 F54000
;TYPE:External perimeter
;WIDTH:0.472045
G1 F1377
G1 X24.995 Y23.018 E.00453
G1 X23.487 Y20.427 E.10697
;WIDTH:0.449999
G1 X22.764 Y19.175 E.04894
G1 X25.044 Y19.175 E.07718
G1 X25.044 Y20.01 E.02826
;WIDTH:0.472045
G1 X25.033 Y23.079 E.10951
G1 X24.829 Y22.734 F54000
G1 E-3.5 F1500
G1 X24.265 Y26.241 F54000
G1 E3.5 F1500
;TYPE:Perimeter
;WIDTH:0.491038
G1 F1377
G1 X24.237 Y26.289 E.00207
G1 X24.181 Y26.289 E.00209
G1 X24.153 Y26.241 E.00207
G1 X24.181 Y26.192 E.0021
G1 X24.237 Y26.192 E.00209
G1 X24.229 Y26.668 F54000
;WIDTH:0.449999
G1 F1377
G1 X23.469 Y26.668 E.02573
G1 X24.637 Y24.645 E.07907
G1 X24.637 Y26.668 E.06848
G1 X24.289 Y26.668 E.01178
G1 X23.822 Y27.075 F54000
;TYPE:External perimeter
G1 F1377
G1 X22.764 Y27.075 E.03581
G1 X23.487 Y25.823 E.04894
;WIDTH:0.47767
G1 X25.028 Y23.182 E.11053
G1 X25.044 Y26.241 E.11058
;WIDTH:0.449999
G1 X25.044 Y27.075 E.02823
G1 X23.882 Y27.075 E.03933
G1 X23.482 Y27.075 F54000
M106 S255
;LAYER_CHANGE
;Z:0.6
;HEIGHT:0.2
;BEFORE_LAYER_CHANGE
G92 E0
;0.6
G1 E-3.5 F1500
G1 Z.6 F54000
;AFTER_LAYER_CHANGE
;0.6
G1 X17.816 Y19.033
G1 E3.5 F1500
;WIDTH:0.38292
G1 F1377
G1 X22.482 Y19.033 E.13191
G1 X22.082 Y19.033 F54000
G1 E-3.5 F1500
G1 X22.492 Y27.217 F54000
G1 E3.5 F1500
G1 F1377
G1 X17.827 Y27.218 E.13188
G1 X18.227 Y27.218 F54000
G1 E-3.5 F1500
G1 X16.155 Y26.241 F54000
G1 E3.5 F1500
;TYPE:Perimeter
;WIDTH:0.491038
G1 F1377
G1 X16.127 Y26.289 E.00207
G1 X16.071 Y26.289 E.00209
G1 X16.043 Y26.241 E.00207
G1 X16.071 Y26.192 E.0021
G1 X16.127 Y26.192 E.00209
G1 X16.829 Y26.651 F54000
;WIDTH:0.449999
G1 F1377
G1 X16.839 Y26.668 E.00067
G1 X15.671 Y26.668 E.03954
G1 X15.671 Y24.645 E.06848
G1 X16.799 Y26.599 E.07637
G1 X16.487 Y27.075 F54000
;TYPE:External perimeter
G1 F1377
G1 X15.264 Y27.075 E.0414
G1 X15.264 Y26.241 E.02823
;WIDTH:0.477673
G1 X15.278 Y23.156 E.11152
G1 X16.822 Y25.823 E.1114
;WIDTH:0.449999
G1 X17.544 Y27.075 E.04892
G1 X16.547 Y27.075 E.03375
G1 X16.147 Y27.075 F54000
G1 E-3.5 F1500
G1 X16.155 Y20.01 F54000
G1 E3.5 F1500
;TYPE:Perimeter
;WIDTH:0.491038
G1 F1377
G1 X16.127 Y20.058 E.00207
G1 X16.071 Y20.058 E.00209
G1 X16.043 Y20.01 E.00207
G1 X16.071 Y19.961 E.0021
G1 X16.127 Y19.961 E.00209
G1 X15.671 Y21.606 F54000
;WIDTH:0.449999
G1 F1377
G1 X15.671 Y19.582 E.06851
G1 X16.839 Y19.582 E.03954
G1 X15.701 Y21.554 E.07707
G1 X15.278 Y23.078 F54000
;TYPE:External perimeter
;WIDTH:0.472046
G1 F1377
G1 X15.264 Y20.01 E.10947
;WIDTH:0.449999
G1 X15.264 Y19.175 E.02826
G1 X17.544 Y19.175 E.07718
G1 X16.822 Y20.427 E.04892
;WIDTH:0.472046
G1 X15.308 Y23.027 E.10736
G1 X15.272 Y22.628 F54000
G1 E-3.5 F1500
G1 X24.265 Y20.01 F54000
G1 E3.5 F1500
;TYPE:Perimeter
;WIDTH:0.491038
G1 F1377
G1 X24.237 Y20.058 E.00207
G1 X24.181 Y20.058 E.00209
G1 X24.153 Y20.01 E.00207
G1 X24.181 Y19.961 E.0021
G1 X24.237 Y19.961 E.00209
G1 X24.637 Y21.606 F54000
;WIDTH:0.449999
G1 F1377
G1 X23.469 Y19.582 E.0791
G1 X24.637 Y19.582 E.03954
G1 X24.637 Y21.546 E.06648
G1 X25.033 Y23.139 F54000
;TYPE:External perimeter
;WIDTH:0.472045
G1 F1377
G1 X24.995 Y23.018 E.00453
G1 X23.487 Y20.427 E.10697
;WIDTH:0.449999
G1 X22.764 Y19.175 E.04894
G1 X25.044 Y19.175 E.07718
G1 X25.044 Y20.01 E.02826
;WIDTH:0.472045
G1 X25.033 Y23.079 E.10951
G1 X24.829 Y22.734 F54000
G1 E-3.5 F1500
G1 X24.265 Y26.241 F54000
G1 E3.5 F1500
;TYPE:Perimeter
;WIDTH:0.491038
G1 F1377
G1 X24.237 Y26.289 E.00207
G1 X24.181 Y26.289 E.00209
G1 X24.153 Y26.241 E.00207
G1 X24.181 Y26.192 E.0021
G1 X24.237 Y26.192 E.00209
G1 X24.229 Y26.668 F54000
;WIDTH:0.449999
G1 F1377
G1 X23.469 Y26.668 E.02573
G1 X24.637 Y24.645 E.07907
G1 X24.637 Y26.668 E.06848
G1 X24.289 Y26.668 E.01178
G1 X23.822 Y27.075 F54000
;TYPE:External perimeter
G1 F1377
G1 X22.764 Y27.075 E.03581
G1 X23.487 Y25.823 E.04894
;WIDTH:0.47767
G1 X25.028 Y23.182 E.11053
G1 X25.044 Y26.241 E.11058
;WIDTH:0.449999
G1 X25.044 Y27.075 E.02823
G1 X23.882 Y27.075 E.03933
G1 X23.482 Y27.075 F54000
;LAYER_CHANGE
;Z:0.8
;HEIGHT:0.2
;BEFORE_LAYER_CHANGE
G92 E0
;0.8
G1 E-3.5 F1500
G1 Z.8 F54000
;AFTER_LAYER_CHANGE
;0.8
G1 X17.816 Y19.033
G1 E3.5 F1500
;WIDTH:0.38292
G1 F1377
G1 X22.482 Y19.033 E.13191
G1 X22.082 Y19.033 F54000
G1 E-3.5 F1500
G1 X22.492 Y27.217 F54000
G1 E3.5 F1500
G1 F1377
G1 X17.827 Y27.218 E.13188
G1 X18.227 Y27.218 F54000
G1 E-3.5 F1500
G1 X16.155 Y26.241 F54000
G1 E3.5 F1500
;TYPE:Perimeter
;WIDTH:0.491038
G1 F1377
G1 X16.127 Y26.289 E.00207
G1 X16.071 Y26.289 E.00209
G1 X16.043 Y26.241 E.00207
G1 X16.071 Y26.192 E.0021
G1 X16.127 Y26.192 E.00209
G1 X16.829 Y26.651 F54000
;WIDTH:0.449999
G1 F1377
G1 X16.839 Y26.668 E.00067
G1 X15.671 Y26.668 E.03954
G1 X15.671 Y24.645 E.06848
G1 X16.799 Y26.599 E.07637
G1 X16.487 Y27.075 F54000
;TYPE:External perimeter
G1 F1377
G1 X15.264 Y27.075 E.0414
G1 X15.264 Y26.241 E.02823
;WIDTH:0.477673
G1 X15.278 Y23.156 E.11152
G1 X16.822 Y25.823 E.1114
;WIDTH:0.449999
G1 X17.544 Y27.075 E.04892
G1 X16.547 Y27.075 E.03375
G1 X16.147 Y27.075 F54000
G1 E-3.5 F1500
G1 X16.155 Y20.01 F54000
G1 E3.5 F1500
;TYPE:Perimeter
;WIDTH:0.491038
G1 F1377
G1 X16.127 Y20.058 E.00207
G1 X16.071 Y20.058 E.00209
G1 X16.043 Y20.01 E.00207
G1 X16.071 Y19.961 E.0021
G1 X16.127 Y19.961 E.00209
G1 X15.671 Y21.606 F54000
;WIDTH:0.449999
G1 F1377
G1 X15.671 Y19.582 E.06851
G1 X16.839 Y19.582 E.03954
G1 X15.701 Y21.554 E.07707
G1 X15.278 Y23.078 F54000
;TYPE:External perimeter
;WIDTH:0.472046
G1 F1377
G1 X15.264 Y20.01 E.10947
;WIDTH:0.449999
G1 X15.264 Y19.175 E.02826
G1 X17.544 Y19.175 E.07718
G1 X16.822 Y20.427 E.04892
;WIDTH:0.472046
G1 X15.308 Y23.027 E.10736
G1 X15.272 Y22.628 F54000
G1 E-3.5 F1500
G1 X24.265 Y20.01 F54000
G1 E3.5 F1500
;TYPE:Perimeter
;WIDTH:0.491038
G1 F1377
G1 X24.237 Y20.058 E.00207
G1 X24.181 Y20.058 E.00209
G1 X24.153 Y20.01 E.00207
G1 X24.181 Y19.961 E.0021
G1 X24.237 Y19.961 E.00209
G1 X24.637 Y21.606 F54000
;WIDTH:0.449999
G1 F1377
G1 X23.469 Y19.582 E.0791
G1 X24.637 Y19.582 E.03954
G1 X24.637 Y21.546 E.06648
G1 X25.033 Y23.139 F54000
;TYPE:External perimeter
;WIDTH:0.472045
G1 F1377
G1 X24.995 Y23.018 E.00453
G1 X23.487 Y20.427 E.10697
;WIDTH:0.449999
G1 X22.764 Y19.175 E.04894
G1 X25.044 Y19.175 E.07718
G1 X25.044 Y20.01 E.02826
;WIDTH:0.472045
G1 X25.033 Y23.079 E.10951
G1 X24.829 Y22.734 F54000
G1 E-3.5 F1500
G1 X24.265 Y26.241 F54000
G1 E3.5 F1500
;TYPE:Perimeter
;WIDTH:0.491038
G1 F1377
G1 X24.237 Y26.289 E.00207
G1 X24.181 Y26.289 E.00209
G1 X24.153 Y26.241 E.00207
G1 X24.181 Y26.192 E.0021
G1 X24.237 Y26.192 E.00209
G1 X24.229 Y26.668 F54000
;WIDTH:0.449999
G1 F1377
G1 X23.469 Y26.668 E.02573
G1 X24.637 Y24.645 E.07907
G1 X24.637 Y26.668 E.06848
G1 X24.289 Y26.668 E.01178
G1 X23.822 Y27.075 F54000
;TYPE:External perimeter
G1 F1377
G1 X22.764 Y27.075 E.03581
G1 X23.487 Y25.823 E.04894
;WIDTH:0.47767
G1 X25.028 Y23.182 E.11053
G1 X25.044 Y26.241 E.11058
;WIDTH:0.449999
G1 X25.044 Y27.075 E.02823
G1 X23.882 Y27.075 E.03933
G1 X23.482 Y27.075 F54000
;LAYER_CHANGE
;Z:1
;HEIGHT:0.2
;BEFORE_LAYER_CHANGE
G92 E0
;1
G1 E-3.5 F1500
G1 Z1 F54000
;AFTER_LAYER_CHANGE
;1
G1 X17.816 Y19.033
G1 E3.5 F1500
;WIDTH:0.38292
G1 F1377
G1 X22.482 Y19.033 E.13191
G1 X22.082 Y19.033 F54000
G1 E-3.5 F1500
G1 X22.492 Y27.217 F54000
G1 E3.5 F1500
G1 F1377
G1 X17.827 Y27.218 E.13188
G1 X18.227 Y27.218 F54000
G1 E-3.5 F1500
G1 X16.155 Y26.241 F54000
G1 E3.5 F1500
;TYPE:Perimeter
;WIDTH:0.491038
G1 F1377
G1 X16.127 Y26.289 E.00207
G1 X16.071 Y26.289 E.00209
G1 X16.043 Y26.241 E.00207
G1 X16.071 Y26.192 E.0021
G1 X16.127 Y26.192 E.00209
G1 X16.829 Y26.651 F54000
;WIDTH:0.449999
G1 F1377
G1 X16.839 Y26.668 E.00067
G1 X15.671 Y26.668 E.03954
G1 X15.671 Y24.645 E.06848
G1 X16.799 Y26.599 E.07637
G1 X16.487 Y27.075 F54000
;TYPE:External perimeter
G1 F1377
G1 X15.264 Y27.075 E.0414
G1 X15.264 Y26.241 E.02823
;WIDTH:0.477673
G1 X15.278 Y23.156 E.11152
G1 X16.822 Y25.823 E.1114
;WIDTH:0.449999
G1 X17.544 Y27.075 E.04892
G1 X16.547 Y27.075 E.03375
G1 X16.147 Y27.075 F54000
G1 E-3.5 F1500
G1 X16.155 Y20.01 F54000
G1 E3.5 F1500
;TYPE:Perimeter
;WIDTH:0.491038
G1 F1377
G1 X16.127 Y20.058 E.00207
G1 X16.071 Y20.058 E.00209
G1 X16.043 Y20.01 E.00207
G1 X16.071 Y19.961 E.0021
G1 X16.127 Y19.961 E.00209
G1 X15.671 Y21.606 F54000
;WIDTH:0.449999
G1 F1377
G1 X15.671 Y19.582 E.06851
G1 X16.839 Y19.582 E.03954
G1 X15.701 Y21.554 E.07707
G1 X15.278 Y23.078 F54000
;TYPE:External perimeter
;WIDTH:0.472046
G1 F1377
G1 X15.264 Y20.01 E.10947
;WIDTH:0.449999
G1 X15.264 Y19.175 E.02826
G1 X17.544 Y19.175 E.07718
G1 X16.822 Y20.427 E.04892
;WIDTH:0.472046
G1 X15.308 Y23.027 E.10736
G1 X15.272 Y22.628 F54000
G1 E-3.5 F1500
G1 X24.265 Y20.01 F54000
G1 E3.5 F1500
;TYPE:Perimeter
;WIDTH:0.491038
G1 F1377
G1 X24.237 Y20.058 E.00207
G1 X24.181 Y20.058 E.00209
G1 X24.153 Y20.01 E.00207
G1 X24.181 Y19.961 E.0021
G1 X24.237 Y19.961 E.00209
G1 X24.637 Y21.606 F54000
;WIDTH:0.449999
