; generated by PrusaSlicer 2.9.0 on 2025-02-01 at 20:17:22 UTC

; 

; external perimeters extrusion width = 0.42mm
; perimeters extrusion width = 0.44mm
; infill extrusion width = 0.44mm
; solid infill extrusion width = 0.44mm
; top infill extrusion width = 0.40mm
; support material extrusion width = 0.36mm
; first layer extrusion width = 0.42mm

; external perimeters extrusion width = 0.42mm
; perimeters extrusion width = 0.44mm
; infill extrusion width = 0.44mm
; solid infill extrusion width = 0.44mm
; top infill extrusion width = 0.40mm
; support material extrusion width = 0.36mm
; first layer extrusion width = 0.42mm


; printing object x_axis_carriage_printable_design_with_klackender.stl id:0 copy 0
; stop printing object x_axis_carriage_printable_design_with_klackender.stl id:0 copy 0

;TYPE:Custom
G90 ; use absolute coordinates
M83 ; extruder relative mode
M104 S210 ; set temporary nozzle temp to prevent oozing during homing
M140 S60 ; set final bed temp
G4 S30 ; allow partial nozzle warmup
G28 ; home all axis
G1 Z50 F240
G1 X2.0 Y10 F3000
M104 S210 ; set final nozzle temp
M190 S60 ; wait for bed temp to stabilize
M109 S210 ; wait for nozzle temp to stabilize
G1 Z0.28 F240
G92 E0
G1 X2.0 Y140 E10 F1500 ; prime the nozzle
G1 X2.3 Y140 F5000
G92 E0
G1 X2.3 Y10 E10 F1200 ; prime the nozzle
G92 E0
G21 ; set units to millimeters
G90 ; use absolute coordinates
M83 ; use relative distances for extrusion
; Filament gcode
M107
;LAYER_CHANGE
;Z:0.2
;HEIGHT:0.2
G1 E-2.5 F1800
G1 Z.2 F54000
G1 X17.01 Y48.796
G1 Z.2
G1 E2.5 F1200
M204 S3500
;TYPE:Skirt/Brim
;WIDTH:0.42
G1 F1800
G1 X40.751 Y40.519 E.78832
G1 X42.568 Y40.043 E.05889
G1 X44.507 Y39.787 E.06132
G1 X58.365 Y38.686 E.43588
G1 X77.609 Y38.678 E.60338
G1 X79.102 Y38.874 E.04721
G1 X83.635 Y40.382 E.14979
G1 X84.965 Y41.244 E.04969
G1 X85.809 Y43.405 E.07274
G1 X85.809 Y65.107 E.68045
G1 X85.746 Y65.74 E.01995
G1 X78.606 Y100.947 E1.12636
G1 X78.183 Y102.287 E.04406
G1 X77.597 Y103.563 E.04403
G1 X76.855 Y104.757 E.04408
G1 X75.969 Y105.847 E.04404
G1 X74.402 Y107.254 E.06603
G1 X73.223 Y108.017 E.04403
G1 X72.418 Y108.427 E.02833
G1 X71.107 Y108.932 E.04405
G1 X69.94 Y109.232 E.03778
G1 X69.048 Y109.373 E.02832
G1 X67.745 Y109.451 E.04093
G1 X22.143 Y109.433 E1.42982
G1 X20.06 Y109.123 E.06603
G1 X18.534 Y108.627 E.05031
G1 X16.835 Y107.761 E.05979
G1 X15.16 Y106.485 E.06602
G1 X13.754 Y104.919 E.06599
G1 X13.246 Y104.172 E.02832
G1 X12.58 Y102.935 E.04405
G1 X11.885 Y100.947 E.06603
G1 X11.574 Y98.864 E.06603
G1 X11.557 Y52.962 E1.43923
G1 X11.951 Y51.427 E.04969
G1 X13.696 Y49.951 E.07166
G1 X16.954 Y48.815 E.10818
G1 E-.5
;WIPE_START
G1 F43200
G1 X17.01 Y48.796 E-.00234
G1 X40.751 Y40.519 E-.99522
G1 X42.568 Y40.043 E-.07435
G1 X44.507 Y39.787 E-.07742
G1 X58.365 Y38.686 E-.55027
G1 X65.954 Y38.683 E-.3004
;WIPE_END
; printing object x_axis_carriage_printable_design_with_klackender.stl id:0 copy 0
G1 X82.621 Y65.107 F54000
G1 E2.5 F1200
;TYPE:Support material
G1 F1800
G1 X76.207 Y65.107 E.20111
G1 X76.207 Y52.771 E.38679
G1 X75.937 Y52.5 E.01199
G1 X62.054 Y52.5 E.43529
G1 X61.783 Y52.771 E.01202
G1 X61.783 Y58.5 E.17963
G1 X57.997 Y58.5 E.11871
G1 X57.973 Y54.186 E.13526
G1 X57.778 Y52.63 E.04917
G1 X57.603 Y51.851 E.02503
G1 X57.118 Y50.36 E.04916
G1 X56.457 Y48.955 E.04868
G1 X55.651 Y47.679 E.04732
G1 X55.651 Y44.789 E.09061
G1 X56.983 Y44.396 E.04354
G1 X57.021 Y45.965 E.04921
G1 X57.562 Y46.804 E.0313
G1 X58.222 Y48.16 E.04729
G1 X58.449 Y48.316 E.00864
G1 X77.636 Y48.318 E.60159
G1 X78.67 Y48.131 E.03295
G1 X78.965 Y47.965 E.01061
G1 X79.159 Y47.717 E.00987
G1 X79.207 Y43.405 E.13521
G1 X82.621 Y43.405 E.10704
G1 X82.621 Y65.05 E.67866
G1 X82.621 Y65.05 F54000
G1 X81.939 Y64.937
G1 F1800
G1 X81.939 Y43.744 E.66449
G1 X81.52 Y43.744 E.01314
G1 X81.52 Y64.767 E.65916
G1 X81.101 Y64.767 E.01314
G1 X81.101 Y43.744 E.65916
G1 X80.682 Y43.744 E.01314
G1 X80.682 Y64.767 E.65916
G1 X80.264 Y64.767 E.01311
G1 X80.264 Y43.744 E.65916
G1 X79.845 Y43.744 E.01314
G1 X79.845 Y64.767 E.65916
G1 X79.426 Y64.767 E.01314
G1 X79.426 Y47.938 E.52766
G1 X79.007 Y48.345 E.01832
G1 X79.007 Y64.767 E.5149
G1 X78.588 Y64.767 E.01314
G1 X78.588 Y48.517 E.50951
G1 X78.169 Y48.607 E.01344
G1 X78.169 Y64.767 E.50669
G1 X77.75 Y64.767 E.01314
G1 X77.75 Y48.651 E.50531
G1 X77.331 Y48.663 E.01314
G1 X77.331 Y64.767 E.50493
G1 X76.912 Y64.767 E.01314
G1 X76.912 Y48.663 E.50493
G1 X76.493 Y48.663 E.01314
G1 X76.493 Y52.576 E.12269
G1 X76.074 Y52.161 E.01849
G1 X76.074 Y48.663 E.10968
G1 X75.655 Y48.663 E.01314
G1 X75.655 Y52.161 E.10968
G1 X75.236 Y52.161 E.01314
G1 X75.236 Y48.663 E.10968
G1 X74.817 Y48.663 E.01314
G1 X74.817 Y52.161 E.10968
G1 X74.398 Y52.161 E.01314
G1 X74.398 Y48.663 E.10968
G1 X73.979 Y48.663 E.01314
G1 X73.979 Y52.161 E.10968
G1 X73.56 Y52.161 E.01314
G1 X73.56 Y48.663 E.10968
G1 X73.141 Y48.663 E.01314
G1 X73.141 Y52.161 E.10968
G1 X72.722 Y52.161 E.01314
G1 X72.722 Y48.663 E.10968
G1 X72.303 Y48.663 E.01314
G1 X72.303 Y52.161 E.10968
G1 X71.884 Y52.161 E.01314
G1 X71.884 Y48.663 E.10968
G1 X71.465 Y48.663 E.01314
G1 X71.465 Y52.161 E.10968
G1 X71.046 Y52.161 E.01314
G1 X71.046 Y48.663 E.10968
G1 X70.627 Y48.663 E.01314
G1 X70.627 Y52.161 E.10968
G1 X70.208 Y52.161 E.01314
G1 X70.208 Y48.663 E.10968
G1 X69.789 Y48.663 E.01314
G1 X69.789 Y52.161 E.10968
G1 X69.37 Y52.161 E.01314
G1 X69.37 Y48.663 E.10968
G1 X68.951 Y48.663 E.01314
G1 X68.951 Y52.161 E.10968
G1 X68.532 Y52.161 E.01314
G1 X68.532 Y48.663 E.10968
G1 X68.113 Y48.663 E.01314
G1 X68.113 Y52.161 E.10968
G1 X67.694 Y52.161 E.01314
G1 X67.694 Y48.663 E.10968
G1 X67.275 Y48.663 E.01314
G1 X67.275 Y52.161 E.10968
G1 X66.856 Y52.161 E.01314
G1 X66.856 Y48.663 E.10968
G1 X66.437 Y48.663 E.01314
G1 X66.437 Y52.161 E.10968
G1 X66.018 Y52.161 E.01314
G1 X66.018 Y48.663 E.10968
G1 X65.599 Y48.663 E.01314
G1 X65.599 Y52.161 E.10968
G1 X65.18 Y52.161 E.01314
G1 X65.18 Y48.663 E.10968
G1 X64.761 Y48.663 E.01314
G1 X64.761 Y52.161 E.10968
G1 X64.342 Y52.161 E.01314
G1 X64.342 Y48.663 E.10968
G1 X63.923 Y48.663 E.01314
G1 X63.923 Y52.161 E.10968
G1 X63.504 Y52.161 E.01314
G1 X63.504 Y48.663 E.10968
G1 X63.085 Y48.663 E.01314
G1 X63.085 Y52.161 E.10968
G1 X62.666 Y52.161 E.01314
G1 X62.666 Y48.663 E.10968
G1 X62.247 Y48.663 E.01314
G1 X62.247 Y52.161 E.10968
G1 X61.913 Y52.161 E.01047
G1 X61.829 Y52.246 E.00375
G1 X61.829 Y48.663 E.11234
G1 X61.41 Y48.663 E.01314
G1 X61.41 Y58.161 E.2978
G1 X60.991 Y58.161 E.01314
G1 X60.991 Y48.663 E.2978
G1 X60.572 Y48.663 E.01314
G1 X60.572 Y58.161 E.2978
G1 X60.153 Y58.161 E.01314
G1 X60.153 Y48.663 E.2978
G1 X59.734 Y48.663 E.01314
G1 X59.734 Y58.161 E.2978
G1 X59.315 Y58.161 E.01314
G1 X59.315 Y48.663 E.2978
G1 X58.896 Y48.663 E.01314
G1 X58.896 Y58.161 E.2978
G1 X58.477 Y58.161 E.01314
G1 X58.477 Y48.656 E.29802
G1 X58.34 Y48.653 E.0043
G1 X58.058 Y48.459 E.01073
G1 X58.058 Y52.326 E.12125
G1 X57.639 Y50.803 E.04953
G1 X57.639 Y47.686 E.09773
G1 X57.22 Y46.899 E.02796
G1 X57.22 Y49.741 E.08911
G1 X56.801 Y48.883 E.02994
G1 X56.801 Y46.25 E.08256
G1 X56.644 Y45.886 E.01243
G1 X56.644 Y44.85 E.03248
G1 X56.382 Y44.927 E.00856
G1 X56.382 Y48.494 E.11184
G1 E-.5
;WIPE_START
G1 F43200
G1 X56.382 Y44.927 E-.14119
G1 X56.644 Y44.85 E-.01081
G1 X56.644 Y45.886 E-.04101
G1 X56.801 Y46.25 E-.01569
G1 X56.801 Y48.883 E-.10422
G1 X57.22 Y49.741 E-.0378
G1 X57.22 Y46.899 E-.1125
G1 X57.639 Y47.686 E-.03529
G1 X57.639 Y50.803 E-.12338
G1 X58.058 Y52.326 E-.06253
G1 X58.058 Y48.459 E-.15307
G1 X58.34 Y48.653 E-.01355
G1 X58.477 Y48.656 E-.00542
G1 X58.477 Y58.161 E-.37624
G1 X58.896 Y58.161 E-.01659
G1 X58.896 Y48.663 E-.37596
G1 X59.315 Y48.663 E-.01659
G1 X59.315 Y57.711 E-.35816
;WIPE_END
G1 X48.745 Y79.103 F54000
G1 E2.5 F1200
;TYPE:Perimeter
;WIDTH:0.419999
G1 F1800
G1 X39.243 Y79.103 E.29793
G1 X38.705 Y79.047 E.01696
G1 X38.186 Y78.896 E.01695
G1 X37.848 Y78.744 E.01162
G1 X37.378 Y78.435 E.01764
G1 X36.971 Y78.019 E.01825
G1 X36.703 Y77.617 E.01515
G1 X36.479 Y77.156 E.01607
G1 X36.339 Y76.552 E.01944
G1 X36.307 Y75.985 E.01781
G1 X36.307 Y65.06 E.34255
G1 X36.371 Y64.553 E.01602
G1 X36.537 Y64.024 E.01738
G1 X36.798 Y63.537 E.01732
G1 X37.145 Y63.107 E.01732
G1 X37.568 Y62.75 E.01736
G1 X38.049 Y62.478 E.01733
G1 X38.573 Y62.302 E.01733
G1 X39.118 Y62.227 E.01725
G1 X58.248 Y62.221 E.59981
G1 X58.957 Y62.314 E.02242
G1 X59.643 Y62.581 E.02308
G1 X60.241 Y63.009 E.02306
G1 X60.67 Y63.499 E.02042
G1 X60.996 Y64.123 E.02207
G1 X61.152 Y64.772 E.02093
G1 X61.183 Y65.06 E.00908
G1 X61.187 Y76.164 E.34816
G1 X61.091 Y76.87 E.02234
G1 X60.982 Y77.225 E.01164
G1 X60.758 Y77.691 E.01621
G1 X60.372 Y78.185 E.01966
G1 X60.131 Y78.412 E.01038
G1 X59.715 Y78.709 E.01603
G1 X59.134 Y78.96 E.01984
G1 X58.815 Y79.042 E.01033
G1 X58.26 Y79.103 E.01751
G1 X49.71 Y79.103 E.26808
G1 X48.805 Y79.103 E.02838
G1 X48.805 Y79.103 F54000
G1 X48.745 Y78.726
G1 F1800
G1 X39.243 Y78.726 E.29793
G1 X38.779 Y78.676 E.01463
G1 X38.292 Y78.534 E.01591
G1 X38.05 Y78.425 E.00832
G1 X37.616 Y78.142 E.01625
G1 X37.246 Y77.76 E.01667
G1 X36.912 Y77.213 E.0201
G1 X36.818 Y76.965 E.00832
G1 X36.707 Y76.469 E.01594
G1 X36.684 Y75.119 E.04233
G1 X36.684 Y65.06 E.31539
G1 X36.754 Y64.554 E.01602
G1 X36.948 Y64.025 E.01767
G1 X37.226 Y63.585 E.01632
G1 X37.558 Y63.235 E.01513
G1 X37.948 Y62.953 E.01509
G1 X38.385 Y62.749 E.01512
G1 X38.852 Y62.631 E.0151
G1 X40.017 Y62.598 E.03654
G1 X58.248 Y62.598 E.57162
G1 X58.84 Y62.673 E.01871
G1 X59.441 Y62.899 E.02013
G1 X59.966 Y63.267 E.0201
G1 X60.352 Y63.702 E.01823
G1 X60.641 Y64.249 E.0194
G1 X60.784 Y64.854 E.01949
G1 X60.807 Y65.876 E.03205
G1 X60.809 Y76.164 E.32257
G1 X60.719 Y76.811 E.02048
G1 X60.558 Y77.241 E.0144
G1 X60.341 Y77.632 E.01402
G1 X59.986 Y78.045 E.01708
G1 X59.581 Y78.346 E.01582
G1 X58.996 Y78.609 E.02011
G1 X58.366 Y78.719 E.02005
G1 X49.71 Y78.726 E.2714
G1 X48.805 Y78.726 E.02838
G1 X48.805 Y78.726 F54000
G1 X48.745 Y78.349
G1 F1800
G1 X39.243 Y78.349 E.29793
G1 X38.884 Y78.314 E.01131
G1 X38.397 Y78.172 E.01591
G1 X37.909 Y77.889 E.01769
G1 X37.521 Y77.502 E.01718
G1 X37.242 Y77.032 E.01714
G1 X37.075 Y76.387 E.02089
G1 X37.061 Y65.06 E.35515
G1 X37.143 Y64.567 E.01567
G1 X37.308 Y64.155 E.01392
G1 X37.509 Y63.835 E.01185
G1 X37.789 Y63.533 E.01291
G1 X38.12 Y63.289 E.01289
G1 X38.491 Y63.111 E.0129
G1 X39.036 Y62.992 E.01749
G1 X40.017 Y62.975 E.03076
G1 X58.248 Y62.975 E.57162
G1 X58.724 Y63.031 E.01503
G1 X59.239 Y63.217 E.01717
G1 X59.691 Y63.525 E.01715
G1 X60.034 Y63.905 E.01605
G1 X60.286 Y64.375 E.01672
G1 X60.416 Y64.937 E.01809
G1 X60.429 Y65.876 E.02944
G1 X60.432 Y76.164 E.32257
G1 X60.346 Y76.752 E.01863
G1 X60.144 Y77.235 E.01642
G1 X59.791 Y77.705 E.01843
G1 X59.359 Y78.041 E.01716
G1 X58.857 Y78.259 E.01716
G1 X58.319 Y78.345 E.01708
G1 X49.71 Y78.349 E.26993
G1 X48.805 Y78.349 E.02838
G1 X48.805 Y78.349 F54000
G1 X48.745 Y77.972
;TYPE:External perimeter
G1 F1800
G1 X39.243 Y77.972 E.29793
G1 X38.989 Y77.952 E.00799
G1 X38.502 Y77.81 E.01591
G1 X38.074 Y77.541 E.01585
G1 X37.768 Y77.206 E.01423
G1 X37.554 Y76.8 E.01439
G1 X37.443 Y76.305 E.01591
G1 X37.439 Y65.06 E.35258
G1 X37.497 Y64.695 E.01159
G1 X37.633 Y64.347 E.01171
G1 X37.792 Y64.084 E.00964
G1 X38.02 Y63.831 E.01068
G1 X38.291 Y63.625 E.01067
G1 X38.596 Y63.473 E.01068
G1 X39.072 Y63.367 E.01529
G1 X40.017 Y63.352 E.02963
G1 X58.248 Y63.352 E.57162
G1 X58.607 Y63.39 E.01132
G1 X59.037 Y63.536 E.01424
G1 X59.416 Y63.784 E.0142
G1 X59.722 Y64.118 E.0142
G1 X59.937 Y64.524 E.0144
G1 X60.048 Y65.019 E.01591
G1 X60.052 Y65.876 E.02687
G1 X60.055 Y76.164 E.32257
G1 X59.974 Y76.692 E.01675
G1 X59.76 Y77.151 E.01588
G1 X59.466 Y77.497 E.01424
G1 X59.096 Y77.758 E.0142
G1 X58.672 Y77.92 E.01423
G1 X58.248 Y77.972 E.01339
G1 X49.71 Y77.972 E.2677
G1 X48.805 Y77.972 E.02838
G1 E-.5
;WIPE_START
G1 F43200
G1 X48.745 Y77.972 E-.00237
G1 X39.243 Y77.972 E-.37612
G1 X38.989 Y77.952 E-.01009
G1 X38.502 Y77.81 E-.02008
G1 X38.074 Y77.541 E-.02001
G1 X37.768 Y77.206 E-.01796
G1 X37.554 Y76.8 E-.01817
G1 X37.443 Y76.305 E-.02008
G1 X37.439 Y65.06 E-.44511
G1 X37.497 Y64.695 E-.01463
G1 X37.633 Y64.347 E-.01479
G1 X37.792 Y64.084 E-.01217
G1 X38.02 Y63.831 E-.01348
G1 X38.291 Y63.625 E-.01347
G1 X38.596 Y63.473 E-.01349
G1 X39.072 Y63.367 E-.0193
G1 X40.017 Y63.352 E-.03741
G1 X58.248 Y63.352 E-.72164
G1 X58.607 Y63.39 E-.01429
G1 X59.037 Y63.536 E-.01798
G1 X59.416 Y63.784 E-.01793
G1 X59.722 Y64.118 E-.01793
G1 X59.937 Y64.524 E-.01819
G1 X60.048 Y65.019 E-.02008
G1 X60.052 Y65.876 E-.03392
G1 X60.053 Y67.627 E-.06931
;WIPE_END
G1 X56.851 Y92.417 F54000
G1 E2.5 F1200
;TYPE:Perimeter
G1 F1800
G1 X56.573 Y92.421 E.00872
G1 X55.917 Y92.285 E.02101
G1 X55.391 Y92.053 E.01803
G1 X54.955 Y91.744 E.01676
G1 X54.584 Y91.359 E.01676
G1 X54.27 Y90.873 E.01814
G1 X54.064 Y90.34 E.01792
G1 X53.974 Y89.823 E.01645
G1 X53.981 Y89.288 E.01678
G1 X54.112 Y88.704 E.01877
G1 X54.345 Y88.178 E.01804
G1 X54.653 Y87.741 E.01676
G1 X55.038 Y87.371 E.01674
G1 X55.485 Y87.079 E.01674
G1 X55.98 Y86.876 E.01677
G1 X56.504 Y86.77 E.01676
G1 X57.037 Y86.763 E.01671
G1 X57.693 Y86.899 E.02101
G1 X58.22 Y87.131 E.01805
G1 X58.656 Y87.44 E.01676
G1 X59.026 Y87.825 E.01674
G1 X59.318 Y88.272 E.01674
G1 X59.521 Y88.767 E.01677
G1 X59.627 Y89.29 E.01673
G1 X59.634 Y89.824 E.01674
G1 X59.499 Y90.48 E.021
G1 X59.266 Y91.006 E.01804
G1 X58.957 Y91.443 E.01678
G1 X58.572 Y91.813 E.01674
G1 X58.125 Y92.105 E.01674
G1 X57.631 Y92.308 E.01675
G1 X57.107 Y92.414 E.01676
G1 X56.911 Y92.417 E.00615
G1 X56.911 Y92.417 F54000
G1 X56.838 Y92.05
G1 F1800
G1 X56.38 Y92.015 E.0144
G1 X55.818 Y91.847 E.01839
G1 X55.412 Y91.622 E.01455
G1 X55.056 Y91.325 E.01454
G1 X54.763 Y90.966 E.01453
G1 X54.601 Y90.692 E.00998
G1 X54.411 Y90.174 E.0173
G1 X54.345 Y89.658 E.01631
G1 X54.383 Y89.166 E.01547
G1 X54.529 Y88.65 E.01681
G1 X54.776 Y88.199 E.01612
G1 X55.073 Y87.843 E.01454
G1 X55.431 Y87.55 E.0145
G1 X55.838 Y87.328 E.01454
G1 X56.28 Y87.187 E.01455
G1 X56.739 Y87.131 E.0145
G1 X57.231 Y87.169 E.01547
G1 X57.751 Y87.317 E.01695
G1 X58.198 Y87.562 E.01598
G1 X58.554 Y87.859 E.01454
G1 X58.848 Y88.218 E.01455
G1 X59.069 Y88.625 E.01452
G1 X59.21 Y89.066 E.01452
G1 X59.266 Y89.526 E.01453
G1 X59.228 Y90.018 E.01547
G1 X59.091 Y90.512 E.01607
G1 X58.835 Y90.985 E.01686
G1 X58.538 Y91.341 E.01454
G1 X58.105 Y91.678 E.0172
G1 X57.772 Y91.856 E.01184
G1 X57.331 Y91.997 E.01452
G1 X56.898 Y92.05 E.01368
G1 X56.898 Y92.05 F54000
G1 X56.827 Y91.672
G1 F1800
G1 X56.474 Y91.649 E.01109
G1 X55.989 Y91.511 E.01581
G1 X55.643 Y91.324 E.01233
G1 X55.339 Y91.075 E.01232
G1 X55.088 Y90.774 E.01229
G1 X54.932 Y90.511 E.00959
G1 X54.773 Y90.059 E.01502
G1 X54.721 Y89.67 E.01231
G1 X54.748 Y89.26 E.01288
G1 X54.886 Y88.775 E.01581
G1 X55.074 Y88.43 E.01232
G1 X55.322 Y88.126 E.0123
G1 X55.623 Y87.874 E.01231
G1 X55.966 Y87.683 E.01231
G1 X56.338 Y87.56 E.01228
G1 X56.727 Y87.508 E.01231
G1 X57.137 Y87.535 E.01288
G1 X57.622 Y87.673 E.01581
G1 X57.967 Y87.86 E.0123
G1 X58.271 Y88.109 E.01232
G1 X58.523 Y88.41 E.01231
G1 X58.714 Y88.753 E.01231
G1 X58.838 Y89.125 E.01229
G1 X58.889 Y89.514 E.0123
G1 X58.842 Y90.004 E.01543
G1 X58.724 Y90.409 E.01323
G1 X58.537 Y90.754 E.0123
G1 X58.289 Y91.058 E.0123
G1 X57.913 Y91.354 E.015
G1 X57.645 Y91.501 E.00958
G1 X57.272 Y91.624 E.01231
G1 X56.887 Y91.675 E.01218
G1 X56.887 Y91.675 F54000
G1 X56.815 Y91.295
;TYPE:External perimeter
G1 F1800
G1 X56.567 Y91.284 E.00778
G1 X56.16 Y91.175 E.01321
G1 X55.874 Y91.026 E.01011
G1 X55.622 Y90.826 E.01009
G1 X55.412 Y90.582 E.01009
G1 X55.263 Y90.33 E.00918
G1 X55.145 Y90 E.01099
G1 X55.098 Y89.682 E.01008
G1 X55.113 Y89.354 E.01029
G1 X55.222 Y88.947 E.01321
G1 X55.372 Y88.661 E.01013
G1 X55.571 Y88.409 E.01007
G1 X55.815 Y88.199 E.01009
G1 X56.094 Y88.038 E.0101
G1 X56.397 Y87.932 E.01006
G1 X56.716 Y87.885 E.01011
G1 X57.043 Y87.9 E.01026
G1 X57.451 Y88.009 E.01324
G1 X57.736 Y88.158 E.01008
G1 X57.988 Y88.358 E.01009
G1 X58.199 Y88.602 E.01011
G1 X58.36 Y88.88 E.01007
G1 X58.465 Y89.184 E.01008
G1 X58.512 Y89.502 E.01008
G1 X58.477 Y89.91 E.01284
