; File Parsed By Flow Comp Script
; Script Ver. V0.7.1
; Flow Model Ver. V0.2.1
; Logger Ver. V0.0.1
; Flow Comp Model Points:
; (0, 0)
; (0.2, 0.4444)
; (0.4, 0.6145)
; (0.6, 0.7059)
; (0.8, 0.7619)
; (1.5, 0.8571)
; (2, 0.8889)
; (3, 0.9231)
; (5, 0.952)
; (10, 1)

; generated by PrusaSlicer 2.9.1 on 2025-03-18 at 09:52:22 UTC

; 

; external perimeters extrusion width = 0.45mm
; perimeters extrusion width = 0.45mm
; infill extrusion width = 0.45mm
; solid infill extrusion width = 0.45mm
; top infill extrusion width = 0.40mm
; support material extrusion width = 0.35mm
; first layer extrusion width = 0.42mm

;TYPE:Custom
G90 ; use absolute coordinates
M83 ; extruder relative mode
M104 S210 ; set temporary nozzle temp to prevent oozing during homing
M140 S58 ; set final bed temp
G4 S30 ; allow partial nozzle warmup
G28 ; home all axis
G1 Z50 F240
G1 X2.0 Y10 F3000
M104 S208 ; set final nozzle temp
M190 S58 ; wait for bed temp to stabilize
M109 S208 ; wait for nozzle temp to stabilize
G1 Z0.28 F240
G92 E0
G1 X2.0 Y140 E10 F1500 ; prime the nozzle
G1 X2.3 Y140 F5000
G92 E0
G1 X2.3 Y10 E10 F1200 ; prime the nozzle
G92 E0
G21 ; set units to millimeters
G90 ; use absolute coordinates
M83 ; use relative distances for extrusion
; Filament gcode
M107
;LAYER_CHANGE
;Z:0.2
;HEIGHT:0.2
G1 E-3.5 F1500
G1 Z.2 F54000
G1 X82.162 Y94.71
G1 Z.2
G1 E3.5 F1500
M204 S3500
;TYPE:Skirt/Brim
;WIDTH:0.42
G1 F1800
G1 X83.591 Y93.6 E.05673
G1 X85.054 Y92.796 E.05234
G1 X86.749 Y92.186 E.05648
G1 X88.801 Y91.834 E.06528
G1 X129.783 Y91.434 E1.28502
G1 X131.844 Y91.734 E.0653
G1 X133.812 Y92.414 E.06528
G1 X135.62 Y93.452 E.06537
G1 X137.199 Y94.809 E.06528
G1 X138.497 Y96.439 E.06533
G1 X139.465 Y98.28 E.06522
G1 X140.071 Y100.272 E.06528
G1 X140.294 Y102.332 E.06497
G1 X140.124 Y104.42 E.06568
G1 X139.8 Y105.757 E.04313
G1 X139.465 Y106.69 E.03108
G1 X131.282 Y125.482 E.64265
G1 X130.02 Y127.385 E.0716
G1 X128.182 Y128.74 E.0716
G1 X125.262 Y129.426 E.09405
G1 X92.726 Y129.426 E1.02014
G1 X90.478 Y129.029 E.07158
G1 X88.501 Y127.886 E.0716
G1 X86.622 Y125.28 E.10073
G1 X79.299 Y106.809 E.623
G1 X78.796 Y105.077 E.05655
G1 X78.606 Y103.713 E.04318
G1 X78.587 Y102.314 E.04387
G1 X78.795 Y100.663 E.05218
G1 X79.156 Y99.324 E.04348
G1 X79.682 Y98.04 E.04351
G1 X80.366 Y96.829 E.04361
G1 X81.196 Y95.715 E.04356
G1 X82.121 Y94.753 E.04184
G1 X82.393 Y95.035 F54000
G1 F1800
G1 X82.717 Y94.723 E.0141
G1 X84.032 Y93.767 E.05098
G1 X85.834 Y92.879 E.06299
G1 X87.496 Y92.396 E.05427
G1 X89.106 Y92.193 E.05088
G1 X129.759 Y91.811 E1.2747
G1 X131.751 Y92.099 E.06311
G1 X133.651 Y92.755 E.06302
G1 X135.398 Y93.757 E.06315
G1 X136.924 Y95.067 E.06306
G1 X138.178 Y96.641 E.0631
G1 X139.114 Y98.419 E.063
G1 X139.701 Y100.343 E.06307
G1 X139.85 Y101.287 E.02996
G1 X139.917 Y102.62 E.04185
G1 X139.701 Y104.627 E.06329
G1 X139.441 Y105.641 E.03282
G1 X139.034 Y106.744 E.03686
G1 X130.936 Y125.332 E.63572
G1 X129.701 Y127.172 E.06948
G1 X127.898 Y128.459 E.06946
G1 X125.262 Y129.048 E.08469
G1 X92.726 Y129.048 E1.02014
G1 X90.546 Y128.652 E.06947
G1 X88.645 Y127.512 E.0695
G1 X86.973 Y125.141 E.09097
G1 X79.65 Y106.67 E.623
G1 X79.115 Y104.733 E.06301
G1 X78.964 Y103.407 E.04184
G1 X78.981 Y102.061 E.04221
G1 X79.165 Y100.733 E.04204
G1 X79.646 Y99.074 E.05416
G1 X80.2 Y97.852 E.04207
G1 X80.903 Y96.709 E.04207
G1 X81.743 Y95.663 E.04206
G1 X82.35 Y95.077 E.02645
G1 E-3.5 F1500
G1 X122.614 Y117.073 F54000
G1 E3.5 F1500
;TYPE:External perimeter
;WIDTH:0.597074
G1 F1800
G1 X122.638 Y117.452 E.0175
;WIDTH:0.549419
G1 X122.661 Y117.831 E.01599
G1 X122.638 Y118.239 E.01721
;WIDTH:0.597078
G1 X122.614 Y118.646 E.01879
;WIDTH:0.599076
G1 X122.613 Y118.66 E.00065
G1 X122.622 Y118.26 F54000
G1 E-3.5 F1500
G1 X128.278 Y104.686 F54000
G1 E3.5 F1500
;TYPE:Perimeter
;WIDTH:0.419999
G1 F1800
G1 X128.187 Y104.653 E.00304
G1 X127.833 Y104.443 E.01291
G1 X127.515 Y104.18 E.01294
G1 X127.167 Y103.738 E.01764
G1 X126.936 Y103.208 E.01813
G1 X126.847 Y102.807 E.01288
G1 X126.831 Y102.313 E.0155
G1 X126.895 Y101.907 E.01289
;WIDTH:0.460465
G1 X127.024 Y101.558 E.01292
;WIDTH:0.50093
G1 X127.154 Y101.209 E.01418
;WIDTH:0.534851
G1 X127.175 Y101.14 E.00295
;WIDTH:0.568772
G1 X127.197 Y101.07 E.00321
;WIDTH:0.602693
G1 X127.218 Y101.001 E.00336
G1 X127.507 Y100.678 E.02017
;WIDTH:0.595607
G1 X127.646 Y100.602 E.00728
;WIDTH:0.551705
G1 X127.784 Y100.525 E.00669
;WIDTH:0.507803
G1 X127.923 Y100.448 E.00614
;WIDTH:0.463901
G1 X128.061 Y100.372 E.00551
;WIDTH:0.419999
G1 X128.544 Y100.173 E.01638
G1 X129.072 Y100.075 E.01684
G1 X129.632 Y100.122 E.01762
G1 X130.088 Y100.226 E.01466
G1 X130.578 Y100.497 E.01756
G1 X130.946 Y100.79 E.01475
G1 X131.252 Y101.161 E.01508
G1 X131.488 Y101.665 E.01745
G1 X131.615 Y102.122 E.01487
G1 X131.631 Y102.74 E.01938
G1 X131.545 Y103.133 E.01261
G1 X131.331 Y103.679 E.01839
G1 X130.892 Y104.225 E.02197
G1 X130.574 Y104.488 E.01294
G1 X130.338 Y104.627 E.00859
G1 X129.954 Y104.779 E.01295
G1 X129.553 Y104.869 E.01289
G1 X129.059 Y104.885 E.0155
G1 X128.653 Y104.82 E.01289
G1 X128.335 Y104.706 E.01059
G1 X128.426 Y104.345 F54000
G1 F1800
G1 X128.379 Y104.328 E.00157
G1 X127.828 Y103.964 E.02071
G1 X127.498 Y103.556 E.01645
G1 X127.304 Y103.126 E.01479
G1 X127.215 Y102.725 E.01288
G1 X127.203 Y102.372 E.01107
G1 X127.268 Y101.966 E.01289
G1 X127.387 Y101.634 E.01106
G1 X127.713 Y101.123 E.019
G1 X127.805 Y101.036 E.00397
G1 X128.253 Y100.696 E.01763
G1 X128.757 Y100.502 E.01693
G1 X129.255 Y100.448 E.01571
G1 X129.807 Y100.533 E.01751
G1 X130.131 Y100.671 E.01104
G1 X130.557 Y100.936 E.01573
G1 X130.933 Y101.363 E.01784
G1 X131.166 Y101.871 E.01752
G1 X131.243 Y102.216 E.01108
G1 X131.242 Y102.819 E.01891
G1 X131.081 Y103.308 E.01614
G1 X130.919 Y103.621 E.01105
G1 X130.569 Y104.018 E.01659
G1 X130.146 Y104.303 E.01599
G1 X129.872 Y104.411 E.00923
G1 X129.471 Y104.501 E.01289
G1 X129.118 Y104.512 E.01107
G1 X128.712 Y104.448 E.01289
G1 X128.482 Y104.365 E.00767
G1 X128.574 Y104.004 F54000
G1 F1800
G1 X128.571 Y104.004 E.00009
G1 X128.099 Y103.701 E.01759
G1 X127.828 Y103.374 E.01332
G1 X127.672 Y103.044 E.01144
G1 X127.583 Y102.643 E.01288
G1 X127.576 Y102.431 E.00665
G1 X127.64 Y102.025 E.01289
G1 X127.876 Y101.549 E.01666
G1 X128.046 Y101.325 E.00882
G1 X128.445 Y101.021 E.01573
G1 X128.92 Y100.854 E.01579
G1 X129.285 Y100.83 E.01147
G1 X129.81 Y100.927 E.01674
G1 X130.317 Y101.227 E.01847
G1 X130.615 Y101.565 E.01413
G1 X130.848 Y102.105 E.01844
G1 X130.879 Y102.639 E.01677
G1 X130.835 Y102.877 E.00759
G1 X130.624 Y103.387 E.01731
G1 X130.29 Y103.763 E.01577
G1 X129.954 Y103.978 E.01251
G1 X129.388 Y104.133 E.0184
G1 X129.177 Y104.14 E.00662
G1 X128.771 Y104.075 E.01289
G1 X128.63 Y104.025 E.00469
G1 X128.799 Y103.686 F54000
;TYPE:External perimeter
G1 F1800
G1 X128.763 Y103.679 E.00115
G1 X128.364 Y103.432 E.01471
G1 X128.159 Y103.193 E.00987
G1 X128.04 Y102.962 E.00815
G1 X127.948 Y102.49 E.01508
G1 X128.037 Y102.018 E.01506
G1 X128.287 Y101.615 E.01487
G1 X128.669 Y101.33 E.01494
G1 X129.01 Y101.222 E.01122
G1 X129.226 Y101.203 E.0068
G1 X129.698 Y101.291 E.01505
G1 X130.097 Y101.538 E.01471
G1 X130.334 Y101.847 E.01221
G1 X130.489 Y102.24 E.01325
G1 X130.481 Y102.749 E.01596
G1 X130.316 Y103.168 E.01412
G1 X129.998 Y103.514 E.01473
G1 X129.707 Y103.675 E.01043
G1 X129.236 Y103.767 E.01505
G1 X128.858 Y103.697 E.01205
G1 X128.502 Y103.513 F54000
G1 E-3.5 F1500
G1 X95.941 Y118.47 F54000
G1 E3.5 F1500
;WIDTH:0.55726
G1 F1800
G1 X95.927 Y118.176 E.01259
;WIDTH:0.52909
G1 X95.913 Y117.881 E.01194
;WIDTH:0.527741
G1 X95.926 Y117.576 E.01231
;WIDTH:0.554562
G1 X95.94 Y117.27 E.01303
G1 X95.931 Y117.67 F54000
G1 E-3.5 F1500
G1 X90.592 Y105.071 F54000
G1 E3.5 F1500
;TYPE:Perimeter
;WIDTH:0.419999
G1 F1800
G1 X90.481 Y105.128 E.00391
G1 X89.918 Y105.256 E.0181
G1 X89.507 Y105.269 E.01289
G1 X89.019 Y105.192 E.01549
G1 X88.379 Y104.929 E.02169
G1 X87.971 Y104.616 E.01612
G1 X87.544 Y104.051 E.02221
G1 X87.389 Y103.749 E.01064
G1 X87.253 Y103.189 E.01807
G1 X87.222 Y102.901 E.00908
G1 X87.297 Y102.32 E.01837
G1 X87.43 Y101.896 E.01393
G1 X87.713 Y101.409 E.01766
G1 X88.021 Y101.074 E.01427
G1 X88.46 Y100.769 E.01676
G1 X88.834 Y100.593 E.01296
G1 X89.397 Y100.467 E.01809
G1 X89.934 Y100.47 E.01684
G1 X90.438 Y100.592 E.01626
G1 X90.89 Y100.803 E.01564
G1 X91.209 Y101.048 E.01261
G1 X91.574 Y101.425 E.01645
G1 X91.756 Y101.726 E.01103
G1 X91.919 Y102.103 E.01288
G1 X92.027 Y102.586 E.01552
G1 X92.04 Y102.997 E.01289
G1 X91.962 Y103.485 E.0155
G1 X91.708 Y104.112 E.02121
G1 X91.299 Y104.606 E.02011
G1 X90.981 Y104.869 E.01294
G1 X90.645 Y105.043 E.01186
G1 X90.445 Y104.733 F54000
G1 F1800
G1 X90.365 Y104.77 E.00276
G1 X89.906 Y104.879 E.01479
G1 X89.495 Y104.892 E.01289
G1 X89.146 Y104.837 E.01108
G1 X88.579 Y104.609 E.01916
G1 X88.126 Y104.231 E.0185
G1 X87.791 Y103.731 E.01887
G1 X87.621 Y103.107 E.02028
G1 X87.61 Y102.754 E.01107
G1 X87.701 Y102.232 E.01661
G1 X87.934 Y101.746 E.0169
G1 X88.261 Y101.365 E.01574
G1 X88.722 Y101.049 E.01752
G1 X88.996 Y100.94 E.00925
G1 X89.573 Y100.828 E.01843
G1 X90.072 Y100.878 E.01572
G1 X90.524 Y101.033 E.01498
G1 X90.92 Y101.293 E.01485
G1 X91.28 Y101.661 E.01614
G1 X91.573 Y102.253 E.02071
G1 X91.65 Y102.598 E.01108
G1 X91.663 Y103.009 E.01289
G1 X91.607 Y103.358 E.01108
G1 X91.386 Y103.916 E.01882
G1 X91.016 Y104.357 E.01805
G1 X90.553 Y104.684 E.01777
G1 X90.5 Y104.708 E.00182
G1 X90.296 Y104.389 F54000
G1 F1800
G1 X90.248 Y104.411 E.00166
G1 X89.894 Y104.502 E.01146
G1 X89.484 Y104.515 E.01286
G1 X89.274 Y104.482 E.00667
G1 X88.779 Y104.29 E.01665
G1 X88.394 Y103.96 E.0159
G1 X88.112 Y103.527 E.0162
G1 X87.989 Y103.025 E.01621
G1 X87.992 Y102.756 E.00843
G1 X88.102 Y102.238 E.0166
G1 X88.322 Y101.857 E.01379
G1 X88.544 Y101.624 E.01009
G1 X88.977 Y101.341 E.01622
G1 X89.48 Y101.219 E.01623
G1 X89.933 Y101.232 E.01421
G1 X90.342 Y101.363 E.01347
G1 X90.676 Y101.582 E.01252
G1 X91.022 Y101.948 E.01579
G1 X91.227 Y102.403 E.01565
G1 X91.273 Y102.61 E.00665
G1 X91.286 Y103.021 E.01289
G1 X91.253 Y103.23 E.00663
G1 X91.064 Y103.72 E.01647
G1 X90.733 Y104.108 E.01599
G1 X90.361 Y104.36 E.01409
G1 X90.351 Y104.364 E.00034
G1 X90.217 Y104.004 F54000
;TYPE:External perimeter
G1 F1800
G1 X90.132 Y104.052 E.00306
G1 X89.883 Y104.125 E.00814
G1 X89.402 Y104.127 E.01508
G1 X88.963 Y103.959 E.01474
G1 X88.706 Y103.748 E.01043
G1 X88.446 Y103.339 E.0152
G1 X88.355 Y102.872 E.01492
G1 X88.438 Y102.409 E.01475
G1 X88.613 Y102.097 E.01122
G1 X88.756 Y101.935 E.00678
G1 X89.161 Y101.676 E.01507
G1 X89.631 Y101.584 E.01502
G1 X89.995 Y101.641 E.01155
G1 X90.369 Y101.811 E.01288
G1 X90.717 Y102.175 E.01579
G1 X90.896 Y102.622 E.0151
G1 X90.898 Y103.102 E.01505
G1 X90.723 Y103.55 E.01508
G1 X90.405 Y103.896 E.01473
G1 X90.269 Y103.974 E.00492
G1 X89.892 Y104.107 F54000
G1 E-3.5 F1500
G1 X96.885 Y121.533 F54000
G1 E3.5 F1500
;TYPE:Perimeter
;WIDTH:0.391539
G1 F1800
G1 X95.93 Y121.533 E.02768
G1 X96.336 Y121.127 E.01664
G1 X96.837 Y121.497 E.01805
G1 X96.329 Y120.62 F54000
;WIDTH:0.419999
G1 F1800
G1 X96.68 Y120.934 E.01477
G1 X97.115 Y121.251 E.01688
G1 X97.787 Y121.575 E.02339
;WIDTH:0.463179
G1 X98.025 Y121.66 E.00883
;WIDTH:0.506359
G1 X98.263 Y121.746 E.00975
;WIDTH:0.549538
G1 X98.501 Y121.831 E.01065
G1 X98.406 Y121.847 E.00406
;WIDTH:0.518391
G1 X98.31 Y121.862 E.00384
;WIDTH:0.487243
G1 X98.026 Y121.879 E.01051
;WIDTH:0.453621
G1 X97.741 Y121.896 E.00975
;WIDTH:0.419999
G1 X95.054 Y121.896 E.08425
G1 X96.287 Y120.663 E.05467
G1 E-3.5 F1500
G1 X101.488 Y121.519 F54000
G1 E3.5 F1500
G1 F1800
G1 X101.59 Y121.454 E.00379
G1 X102.221 Y120.935 E.02562
G1 X102.743 Y120.308 E.02558
G1 X103.138 Y119.594 E.02558
G1 X103.398 Y118.777 E.02688
G1 X103.493 Y118.025 E.02377
G1 X103.493 Y117.694 E.01038
G1 X103.331 Y116.661 E.03278
G1 X103.032 Y115.902 E.02558
G1 X102.597 Y115.211 E.0256
G1 X102.04 Y114.614 E.0256
G1 X101.375 Y114.13 E.02579
G1 X100.643 Y113.783 E.0254
G1 X100.097 Y113.625 E.01782
G1 X99.697 Y113.563 E.01269
G1 X98.994 Y113.529 E.02207
G1 X98.245 Y113.624 E.02367
G1 X97.964 Y113.692 E.00906
G1 X97.204 Y113.99 E.0256
G1 X96.674 Y114.309 E.0194
G1 X87.168 Y104.808 E.4214
G1 X86.8 Y104.237 E.0213
G1 X86.614 Y103.767 E.01585
G1 X86.498 Y103.163 E.01928
G1 X86.499 Y102.636 E.01652
G1 X86.554 Y102.202 E.01372
G1 X86.677 Y101.776 E.0139
G1 X86.921 Y101.29 E.01705
G1 X87.285 Y100.772 E.01985
G1 X87.679 Y100.413 E.01671
G1 X88.152 Y100.085 E.01805
G1 X88.627 Y99.88 E.01622
G1 X89.175 Y99.751 E.01765
G1 X89.76 Y99.714 E.01838
G1 X90.258 Y99.778 E.01574
G1 X90.767 Y99.926 E.01662
G1 X91.24 Y100.166 E.01663
G1 X91.741 Y100.516 E.01916
G1 X92.298 Y101.131 E.02602
G1 X101.307 Y110.14 E.39947
G1 X101.551 Y110.332 E.00973
G1 X101.886 Y110.478 E.01146
G1 X102.24 Y110.526 E.0112
G1 X115.938 Y110.526 E.42949
G1 X116.475 Y110.506 E.01685
G1 X116.823 Y110.393 E.01147
G1 X117.179 Y110.14 E.01369
G1 X126.395 Y100.924 E.40865
;WIDTH:0.458484
G1 X126.481 Y100.865 E.0036
;WIDTH:0.496968
G1 X126.566 Y100.806 E.00391
;WIDTH:0.535452
G1 X126.652 Y100.747 E.00427
;WIDTH:0.562714
G1 X126.81 Y100.594 E.00951
;WIDTH:0.589976
G1 X127.078 Y100.31 E.01776
;WIDTH:0.547482
G1 X127.188 Y100.177 E.00724
;WIDTH:0.504988
G1 X127.297 Y100.045 E.00658
;WIDTH:0.462494
G1 X127.407 Y99.913 E.00599
;WIDTH:0.419999
G1 X127.819 Y99.664 E.01509
G1 X128.329 Y99.476 E.01704
G1 X128.95 Y99.348 E.01988
G1 X129.483 Y99.356 E.01671
G1 X130.091 Y99.45 E.01929
G1 X130.6 Y99.651 E.01716
G1 X130.961 Y99.849 E.01291
G1 X131.258 Y100.089 E.01197
G1 X131.711 Y100.535 E.01993
G1 X132.004 Y100.997 E.01715
G1 X132.213 Y101.481 E.01653
G1 X132.353 Y102.042 E.01813
G1 X132.357 Y102.785 E.0233
G1 X132.273 Y103.312 E.01673
G1 X132.092 Y103.796 E.0162
G1 X131.738 Y104.391 E.02171
G1 X131.36 Y104.81 E.01769
G1 X130.966 Y105.146 E.01624
G1 X121.86 Y114.264 E.40404
G1 X121.631 Y114.133 E.00827
G1 X120.893 Y113.783 E.02561
G1 X120.102 Y113.578 E.02562
G1 X119.533 Y113.525 E.01792
G1 X118.864 Y113.577 E.02104
G1 X118.213 Y113.692 E.02073
G1 X117.679 Y113.884 E.01779
G1 X117.23 Y114.122 E.01593
G1 X116.763 Y114.426 E.01747
G1 X116.167 Y114.983 E.02558
G1 X115.685 Y115.642 E.0256
G1 X115.336 Y116.379 E.02557
G1 X115.13 Y117.17 E.02563
G1 X115.077 Y117.984 E.02558
G1 X115.189 Y118.833 E.02685
G1 X115.541 Y119.815 E.03271
G1 X115.978 Y120.509 E.02571
G1 X116.535 Y121.105 E.02558
G1 X117.086 Y121.519 E.02161
G1 X101.548 Y121.519 E.48718
G1 X99.904 Y121.826 F54000
;WIDTH:0.560306
G1 F1800
G1 X99.579 Y121.842 E.014
;WIDTH:0.528119
G1 X99.255 Y121.858 E.01309
;WIDTH:0.522735
G1 X98.878 Y121.844 E.01505
;WIDTH:0.549538
G1 X98.501 Y121.831 E.01589
G1 X99.993 Y121.787 F54000
;WIDTH:0.560306
G1 F1800
G1 X100.006 Y121.782 E.0006
;WIDTH:0.521029
G1 X100.238 Y121.691 E.00991
;WIDTH:0.487353
G1 X100.47 Y121.6 E.00921
;WIDTH:0.453676
G1 X100.703 Y121.509 E.00854
;WIDTH:0.419999
G1 X101.359 Y121.156 E.02336
G1 X101.938 Y120.686 E.02338
G1 X102.418 Y120.116 E.02336
G1 X102.783 Y119.466 E.02337
G1 X103.024 Y118.73 E.02428
G1 X103.119 Y117.742 E.03112
G1 X102.976 Y116.789 E.03022
G1 X102.708 Y116.094 E.02336
G1 X102.314 Y115.46 E.0234
G1 X101.809 Y114.912 E.02337
G1 X101.204 Y114.466 E.02357
G1 X100.538 Y114.145 E.02318
G1 X99.992 Y113.987 E.01782
G1 X99.662 Y113.939 E.01046
G1 X99.041 Y113.903 E.0195
G1 X98.091 Y114.046 E.03012
G1 X97.396 Y114.315 E.02337
G1 X96.94 Y114.584 E.0166
G1 X96.546 Y114.9 E.01584
G1 X96.478 Y114.668 E.00758
G1 X96.35 Y114.509 E.0064
G1 X87.605 Y105.766 E.38772
G1 X86.984 Y105.197 E.02641
G1 X86.626 Y104.704 E.0191
G1 X86.415 Y104.312 E.01396
G1 X86.238 Y103.808 E.01675
G1 X86.121 Y103.128 E.02163
G1 X86.131 Y102.461 E.02092
G1 X86.27 Y101.816 E.02069
G1 X86.481 Y101.28 E.01806
G1 X86.8 Y100.776 E.0187
G1 X87.129 Y100.379 E.01617
G1 X87.618 Y99.974 E.01991
G1 X88.076 Y99.699 E.01675
G1 X88.624 Y99.488 E.01841
G1 X89.258 Y99.356 E.0203
G1 X89.795 Y99.339 E.01685
G1 X90.442 Y99.433 E.0205
G1 X91.027 Y99.619 E.01925
G1 X91.584 Y99.925 E.01993
G1 X92.008 Y100.249 E.01673
G1 X92.565 Y100.865 E.02604
G1 X101.573 Y109.873 E.39943
G1 X101.903 Y110.087 E.01233
G1 X102.24 Y110.149 E.01074
