; File Parsed By Flow Comp Script
; Script Ver. V0.7.1
; Flow Model Ver. V0.2.1
; Logger Ver. V0.0.1
; Flow Comp Model Points:
; (0, 0)
; (0.2, 0.4444)
; (0.4, 0.6145)
; (0.6, 0.7059)
; (0.8, 0.7619)
; (1.5, 0.8571)
; (2, 0.8889)
; (3, 0.9231)
; (5, 0.952)
; (10, 1)

; generated by PrusaSlicer 2.9.2 on 2025-04-21 at 22:13:47 UTC

; 

; external perimeters extrusion width = 0.45mm
; perimeters extrusion width = 0.45mm
; infill extrusion width = 0.45mm
; solid infill extrusion width = 0.45mm
; top infill extrusion width = 0.40mm
; support material extrusion width = 0.35mm
; first layer extrusion width = 0.42mm

;TYPE:Custom
G90 ; use absolute coordinates
M83 ; extruder relative mode
CALCULATE_PA BOWDEN_LENGTH=34.0 MATERIAL=PLA LAYER_HEIGHT=0.2 NOZZLE_SIZE=0.4 PRINT_SPEED=120 FILAMENT_DIAMETER=1.75 LINE_WIDTH=0.45 ; auto pressure advance
M104 S210 ; set temporary nozzle temp to prevent oozing during homing
M140 S58 ; set final bed temp
G4 S30 ; allow partial nozzle warmup
G28 ; home all axis
G1 Z50 F240
G1 X2.0 Y10 F3000
M104 S208 ; set final nozzle temp
M190 S58 ; wait for bed temp to stabilize
M109 S208 ; wait for nozzle temp to stabilize
G1 Z0.28 F240
G92 E0
G1 X2.0 Y140 E10 F1500 ; prime the nozzle
G1 X2.3 Y140 F5000
G92 E0
G1 X2.3 Y10 E10 F1200 ; prime the nozzle
G92 E0
G21 ; set units to millimeters
G90 ; use absolute coordinates
M83 ; use relative distances for extrusion
; Filament gcode
M107
;LAYER_CHANGE
;Z:0.2
;HEIGHT:0.2
G1 E-3.5 F1500
G1 Z.2 F54000
G1 X23.767 Y108.445
G1 Z.2
G1 E3.5 F1500
M204 S3500
;TYPE:Skirt/Brim
;WIDTH:0.42
G1 F1800
G1 X77.382 Y100.093 E1.70134
G1 X78.623 Y99.921 E.03928
G1 X79.734 Y99.869 E.03487
G1 X80.877 Y99.917 E.03587
G1 X81.98 Y100.065 E.03489
G1 X83.098 Y100.318 E.03594
G1 X84.157 Y100.661 E.0349
G1 X85.211 Y101.11 E.03592
G1 X86.191 Y101.637 E.03489
G1 X87.148 Y102.268 E.03594
G1 X88.018 Y102.962 E.03489
G1 X88.846 Y103.754 E.03593
G1 X97.259 Y112.56 E.38186
G1 X97.788 Y113.195 E.02591
G1 X98.459 Y114.119 E.0358
G1 X99.028 Y115.071 E.03477
G1 X99.524 Y116.1 E.03582
G1 X99.913 Y117.138 E.03476
G1 X100.217 Y118.239 E.03581
G1 X100.415 Y119.331 E.0348
G1 X100.543 Y121.022 E.05317
G1 X100.542 Y136.241 E.47718
G1 X100.415 Y137.933 E.0532
G1 X100.217 Y139.024 E.03477
G1 X99.913 Y140.125 E.03581
G1 X99.523 Y141.164 E.0348
G1 X99.028 Y142.192 E.03577
G1 X98.459 Y143.145 E.0348
G1 X97.257 Y144.705 E.06175
G1 X88.922 Y153.433 E.3784
G1 X87.889 Y154.428 E.04497
G1 X87.018 Y155.121 E.0349
G1 X86.06 Y155.752 E.03597
G1 X85.078 Y156.278 E.03493
G1 X84.022 Y156.727 E.03598
G1 X82.961 Y157.068 E.03494
G1 X81.842 Y157.32 E.03596
G1 X80.737 Y157.466 E.03495
G1 X79.592 Y157.513 E.03593
G1 X78.479 Y157.458 E.03494
G1 X23.727 Y148.586 E1.7391
G1 X21.723 Y148.011 E.06537
G1 X20.703 Y147.575 E.03478
G1 X19.697 Y147.034 E.03581
G1 X18.771 Y146.423 E.03478
G1 X17.878 Y145.711 E.03581
G1 X17.076 Y144.944 E.03479
G1 X16.325 Y144.084 E.0358
G1 X15.673 Y143.187 E.03477
G1 X15.087 Y142.207 E.0358
G1 X14.606 Y141.207 E.03479
G1 X14.204 Y140.138 E.03581
G1 X13.909 Y139.069 E.03477
G1 X13.705 Y137.945 E.03582
G1 X13.606 Y136.84 E.03479
G1 X13.605 Y120.198 E.5218
G1 X13.705 Y119.093 E.03479
G1 X13.909 Y117.969 E.03582
G1 X14.204 Y116.899 E.0348
G1 X14.605 Y115.831 E.03577
G1 X15.086 Y114.831 E.03479
G1 X15.672 Y113.851 E.0358
G1 X16.324 Y112.953 E.03479
G1 X17.075 Y112.094 E.03578
G1 X17.877 Y111.327 E.03479
G1 X18.77 Y110.615 E.03581
G1 X19.696 Y110.004 E.03478
G1 X20.702 Y109.463 E.03581
G1 X21.722 Y109.027 E.03478
G1 X23.709 Y108.462 E.06477
G1 E-3.5 F1500
G1 X88.183 Y129.901 F54000
G1 E3.5 F1500
;TYPE:Support material
G1 F1800
G1 X88.84 Y129.93 E.02062
G1 X89.954 Y130.184 E.03583
G1 X91.003 Y130.633 E.03578
G1 X91.956 Y131.262 E.0358
G1 X92.781 Y132.051 E.03579
G1 X93.453 Y132.975 E.03582
G1 X93.948 Y134.003 E.03577
G1 X94.252 Y135.104 E.03581
G1 X94.354 Y136.241 E.03579
G1 X94.252 Y137.378 E.03579
G1 X93.948 Y138.478 E.03578
G1 X93.452 Y139.507 E.03582
G1 X92.781 Y140.431 E.0358
G1 X91.956 Y141.22 E.03579
G1 X91.003 Y141.849 E.0358
G1 X89.954 Y142.297 E.03576
G1 X88.84 Y142.551 E.03583
G1 X87.7 Y142.602 E.03578
G1 X86.569 Y142.449 E.03578
G1 X85.274 Y142.028 E.0427
G1 X85.604 Y142.705 E.02361
G1 X85.913 Y143.807 E.03589
G1 X86.019 Y144.948 E.03593
G1 X85.92 Y146.09 E.03594
G1 X85.617 Y147.196 E.03596
G1 X85.121 Y148.231 E.03599
G1 X84.447 Y149.159 E.03596
G1 X83.616 Y149.952 E.03602
G1 X82.658 Y150.582 E.03595
G1 X81.602 Y151.031 E.03598
G1 X80.483 Y151.283 E.03596
G1 X79.338 Y151.33 E.03593
G1 X78.203 Y151.171 E.03593
G1 X77.116 Y150.811 E.0359
G1 X76.112 Y150.263 E.03586
G1 X75.222 Y149.545 E.03585
G1 X74.477 Y148.68 E.03579
G1 X73.898 Y147.697 E.03577
G1 X73.504 Y146.628 E.03572
G1 X73.307 Y145.507 E.03569
G1 X73.314 Y144.37 E.03565
G1 X73.521 Y143.253 E.03562
G1 X73.924 Y142.192 E.03559
G1 X74.394 Y141.409 E.02863
G1 X84.041 Y141.409 E.30247
G1 X84.296 Y141.154 E.01131
G1 X84.296 Y131.071 E.31615
G1 X85.483 Y130.385 E.04299
G1 X86.569 Y130.032 E.0358
G1 X87.7 Y129.879 E.03578
G1 X88.127 Y129.898 E.0134
G1 X93.931 Y137.902 F54000
G1 F1800
G1 X93.916 Y135.165 E.08582
G1 X93.512 Y133.88 E.04223
G1 X93.512 Y138.601 E.14802
G1 X93.093 Y139.425 E.02898
G1 X93.093 Y133.057 E.19966
G1 X92.674 Y132.48 E.02236
G1 X92.674 Y140.001 E.23582
G1 X92.255 Y140.464 E.01958
G1 X92.255 Y132.017 E.26485
G1 X91.836 Y131.617 E.01816
G1 X91.836 Y140.865 E.28996
G1 X91.417 Y141.169 E.01623
G1 X91.417 Y131.313 E.30903
G1 X90.998 Y131.036 E.01575
G1 X90.998 Y141.445 E.32637
G1 X90.579 Y141.661 E.01478
G1 X90.579 Y130.821 E.33988
G1 X90.16 Y130.642 E.01429
G1 X90.16 Y141.84 E.35111
G1 X89.741 Y141.998 E.01404
G1 X89.741 Y130.484 E.36101
G1 X89.322 Y130.388 E.01348
G1 X89.322 Y142.093 E.367
G1 X88.903 Y142.189 E.01348
G1 X88.903 Y130.293 E.37299
G1 X88.484 Y130.254 E.01319
G1 X88.484 Y142.228 E.37544
G1 X88.065 Y142.246 E.01315
G1 X88.065 Y130.235 E.3766
G1 X87.646 Y130.229 E.01314
G1 X87.646 Y142.253 E.377
G1 X87.227 Y142.196 E.01326
G1 X87.227 Y130.286 E.37343
G1 X86.808 Y130.342 E.01325
G1 X86.808 Y142.139 E.36989
G1 X86.389 Y142.034 E.01354
G1 X86.389 Y130.448 E.36327
G1 X85.97 Y130.584 E.01381
G1 X85.97 Y141.898 E.35474
G1 X85.551 Y141.762 E.01381
G1 X85.551 Y130.734 E.34578
G1 X85.132 Y130.959 E.01491
G1 X85.132 Y141.804 E.34004
G1 X85.551 Y146.794 F54000
G1 F1800
G1 X85.551 Y143.776 E.09463
G1 X85.132 Y142.513 E.04172
G1 X85.132 Y147.422 E.15392
G1 X84.713 Y148.214 E.02809
G1 X84.713 Y131.185 E.53393
G1 X84.635 Y131.235 E.0029
G1 X84.635 Y141.295 E.31542
G1 X84.294 Y141.636 E.01512
G1 X84.294 Y148.791 E.22434
G1 X84.19 Y148.935 E.00557
G1 X83.875 Y149.235 E.01364
G1 X83.875 Y141.748 E.23475
G1 X83.456 Y141.748 E.01314
G1 X83.456 Y149.635 E.24729
G1 X83.038 Y149.927 E.01599
G1 X83.038 Y141.748 E.25645
G1 X82.619 Y141.748 E.01314
G1 X82.619 Y150.202 E.26507
G1 X82.2 Y150.408 E.01464
G1 X82.2 Y141.748 E.27153
G1 X81.781 Y141.748 E.01314
G1 X81.781 Y150.586 E.27711
G1 X81.362 Y150.737 E.01396
G1 X81.362 Y141.748 E.28184
G1 X80.943 Y141.748 E.01314
G1 X80.943 Y150.831 E.28479
G1 X80.524 Y150.926 E.01347
G1 X80.524 Y141.748 E.28777
G1 X80.105 Y141.748 E.01314
G1 X80.105 Y150.958 E.28877
G1 X79.686 Y150.976 E.01315
G1 X79.686 Y141.748 E.28934
G1 X79.267 Y141.748 E.01314
G1 X79.267 Y150.977 E.28937
G1 X78.848 Y150.918 E.01327
G1 X78.848 Y141.748 E.28752
G1 X78.429 Y141.748 E.01314
G1 X78.429 Y150.86 E.2857
G1 X78.01 Y150.749 E.01359
G1 X78.01 Y141.748 E.28222
G1 X77.591 Y141.748 E.01314
G1 X77.591 Y150.611 E.27789
G1 X77.172 Y150.455 E.01402
G1 X77.172 Y141.748 E.273
G1 X76.753 Y141.748 E.01314
G1 X76.753 Y150.226 E.26582
G1 X76.334 Y149.998 E.01496
G1 X76.334 Y141.748 E.25867
G1 X75.915 Y141.748 E.01314
G1 X75.915 Y149.668 E.24833
G1 X75.496 Y149.33 E.01688
G1 X75.496 Y141.748 E.23773
G1 X75.077 Y141.748 E.01314
G1 X75.077 Y148.857 E.2229
G1 X74.658 Y148.32 E.02136
G1 X74.658 Y141.748 E.20606
G1 X74.586 Y141.748 E.00226
G1 X74.239 Y142.327 E.02116
G1 X74.239 Y147.608 E.16558
G1 X73.82 Y146.465 E.03817
G1 X73.82 Y142.945 E.11037
G1 E-3.5 F1500
G1 X80.015 Y106.075 F54000
G1 E3.5 F1500
G1 F1800
G1 X80.612 Y106.1 E.01873
G1 X81.73 Y106.354 E.03595
G1 X82.784 Y106.803 E.03592
G1 X83.74 Y107.434 E.03592
G1 X84.568 Y108.226 E.03593
G1 X85.241 Y109.153 E.03592
G1 X85.736 Y110.186 E.03592
G1 X86.038 Y111.29 E.03589
G1 X86.138 Y112.43 E.03588
G1 X86.032 Y113.569 E.03587
G1 X85.725 Y114.67 E.03584
G1 X85.483 Y115.167 E.01733
G1 X86.569 Y114.814 E.0358
G1 X87.7 Y114.661 E.03578
G1 X88.841 Y114.712 E.03581
G1 X89.954 Y114.966 E.03579
G1 X91.003 Y115.415 E.03578
G1 X91.956 Y116.044 E.0358
G1 X92.781 Y116.833 E.03579
G1 X93.453 Y117.756 E.0358
G1 X93.948 Y118.785 E.0358
G1 X94.252 Y119.885 E.03578
G1 X94.354 Y121.022 E.03579
G1 X94.252 Y122.159 E.03579
G1 X93.948 Y123.26 E.03581
G1 X93.453 Y124.289 E.0358
G1 X92.781 Y125.212 E.0358
G1 X91.956 Y126.001 E.03579
G1 X91.003 Y126.63 E.0358
G1 X89.954 Y127.079 E.03578
G1 X88.841 Y127.333 E.03579
G1 X87.7 Y127.384 E.03581
G1 X86.569 Y127.231 E.03578
G1 X85.483 Y126.878 E.0358
G1 X84.296 Y126.192 E.04299
G1 X84.296 Y116.294 E.31034
G1 X84.041 Y116.039 E.01131
G1 X74.551 Y116.039 E.29755
G1 X74.04 Y115.187 E.03115
G1 X73.637 Y114.123 E.03567
G1 X73.43 Y113.004 E.03568
G1 X73.426 Y111.865 E.03571
G1 X73.625 Y110.742 E.03576
G1 X74.022 Y109.672 E.03578
G1 X74.603 Y108.69 E.03578
G1 X75.351 Y107.827 E.03581
G1 X76.242 Y107.111 E.03584
G1 X77.248 Y106.565 E.03589
G1 X78.335 Y106.208 E.03587
G1 X79.47 Y106.051 E.03593
G1 X79.958 Y106.073 E.01532
G1 E-3.5 F1500
G1 X93.931 Y122.684 F54000
G1 E3.5 F1500
G1 F1800
G1 X93.916 Y119.946 E.08585
G1 X93.512 Y118.662 E.0422
G1 X93.512 Y123.383 E.14802
G1 X93.093 Y124.206 E.02896
G1 X93.093 Y117.839 E.19963
G1 X92.674 Y117.262 E.02236
G1 X92.674 Y124.783 E.23582
G1 X92.255 Y125.246 E.01958
G1 X92.255 Y116.799 E.26485
G1 X91.836 Y116.398 E.01818
G1 X91.836 Y125.647 E.29
G1 X91.417 Y125.95 E.01621
G1 X91.417 Y116.094 E.30903
G1 X90.998 Y115.818 E.01573
G1 X90.998 Y126.227 E.32637
G1 X90.579 Y126.442 E.01477
G1 X90.579 Y115.602 E.33988
G1 X90.16 Y115.423 E.01429
G1 X90.16 Y126.621 E.35111
G1 X89.741 Y126.779 E.01404
G1 X89.741 Y115.266 E.36098
G1 X89.322 Y115.17 E.01348
G1 X89.322 Y126.875 E.367
G1 X88.903 Y126.97 E.01347
G1 X88.903 Y115.074 E.37299
G1 X88.484 Y115.036 E.01319
G1 X88.484 Y127.009 E.37541
G1 X88.065 Y127.028 E.01315
G1 X88.065 Y115.017 E.3766
G1 X87.646 Y115.01 E.01314
G1 X87.646 Y127.034 E.377
G1 X87.227 Y126.978 E.01325
G1 X87.227 Y115.067 E.37346
G1 X86.808 Y115.124 E.01326
G1 X86.808 Y126.921 E.36989
G1 X86.389 Y126.816 E.01354
G1 X86.389 Y115.229 E.3633
G1 X85.97 Y115.365 E.01381
G1 X85.97 Y126.679 E.35474
G1 X85.551 Y126.529 E.01395
G1 X85.551 Y115.323 E.35136
G1 X85.551 Y114.638 F54000
G1 F1800
G1 X85.551 Y110.796 E.12046
G1 X85.417 Y110.305 E.01596
G1 X85.132 Y109.712 E.02063
G1 X85.132 Y126.304 E.52023
G1 X84.713 Y126.078 E.01493
G1 X84.713 Y109.004 E.53534
G1 X84.294 Y108.434 E.02218
G1 X84.294 Y115.812 E.23133
G1 X84.182 Y115.7 E.00497
G1 X83.875 Y115.7 E.00963
G1 X83.875 Y108.033 E.24039
G1 X83.456 Y107.653 E.01774
G1 X83.456 Y115.7 E.25231
G1 X83.038 Y115.7 E.01311
G1 X83.038 Y107.377 E.26096
G1 X82.623 Y107.103 E.01559
G1 X82.619 Y115.7 E.26955
G1 X82.2 Y115.7 E.01314
G1 X82.2 Y106.923 E.2752
G1 X81.781 Y106.744 E.01429
G1 X81.781 Y115.7 E.28081
G1 X81.362 Y115.7 E.01314
G1 X81.362 Y106.618 E.28476
G1 X80.943 Y106.523 E.01347
G1 X80.943 Y115.7 E.28774
G1 X80.524 Y115.7 E.01314
G1 X80.524 Y106.436 E.29047
G1 X80.105 Y106.419 E.01315
G1 X80.105 Y115.7 E.291
G1 X79.686 Y115.7 E.01314
G1 X79.686 Y106.4 E.29159
G1 X79.267 Y106.422 E.01316
G1 X79.267 Y115.7 E.29091
G1 X78.848 Y115.7 E.01314
G1 X78.848 Y106.48 E.28909
G1 X78.429 Y106.538 E.01326
G1 X78.429 Y115.7 E.28727
G1 X78.01 Y115.7 E.01314
G1 X78.01 Y106.672 E.28307
G1 X77.591 Y106.81 E.01383
G1 X77.591 Y115.7 E.27874
G1 X77.172 Y115.7 E.01314
G1 X77.172 Y106.992 E.27303
G1 X76.753 Y107.22 E.01496
G1 X76.753 Y115.7 E.26588
G1 X76.334 Y115.7 E.01314
G1 X76.334 Y107.472 E.25798
G1 X75.915 Y107.809 E.01686
G1 X75.915 Y115.7 E.24742
G1 X75.496 Y115.7 E.01314
G1 X75.496 Y108.178 E.23585
G1 X75.077 Y108.662 E.02007
G1 X75.077 Y115.7 E.22067
G1 X74.743 Y115.7 E.01047
G1 X74.658 Y115.558 E.00519
G1 X74.658 Y109.264 E.19734
G1 X74.239 Y110.063 E.02829
G1 X74.239 Y114.755 E.14711
G1 X73.965 Y114.032 E.02424
G1 X73.82 Y113.246 E.02506
G1 X73.82 Y110.705 E.07967
G1 E-3.5 F1500
G1 X26.509 Y114.436 F54000
G1 E3.5 F1500
G1 F1800
G1 X26.991 Y114.458 E.01513
G1 X28.104 Y114.712 E.03579
G1 X29.154 Y115.161 E.03581
G1 X30.367 Y116.039 E.04695
G1 X30.081 Y116.039 E.00897
G1 X29.826 Y116.294 E.01131
G1 X29.826 Y125.933 E.30222
G1 X29.154 Y126.376 E.02524
G1 X28.104 Y126.825 E.03581
G1 X26.991 Y127.079 E.03579
G1 X25.851 Y127.13 E.03578
G1 X24.72 Y126.977 E.03578
G1 X23.634 Y126.624 E.0358
G1 X22.628 Y126.083 E.03581
G1 X21.736 Y125.372 E.03577
G1 X20.984 Y124.512 E.03582
G1 X20.399 Y123.532 E.03579
G1 X19.998 Y122.463 E.0358
G1 X19.794 Y121.339 E.03582
G1 X19.794 Y120.198 E.03578
G1 X19.998 Y119.074 E.03582
G1 X20.399 Y118.005 E.0358
G1 X20.984 Y117.025 E.03579
G1 X21.736 Y116.165 E.03582
G1 X22.628 Y115.454 E.03577
G1 X23.634 Y114.913 E.03581
G1 X24.72 Y114.56 E.0358
G1 X25.851 Y114.407 E.03578
G1 X26.452 Y114.434 E.01886
G1 X29.408 Y126.005 F54000
G1 F1800
G1 X29.408 Y115.736 E.32198
G1 X28.989 Y115.46 E.01573
G1 X28.989 Y126.077 E.33289
G1 X28.571 Y126.256 E.01426
G1 X28.571 Y115.281 E.34411
G1 X28.152 Y115.101 E.0143
G1 X28.152 Y126.436 E.3554
G1 X27.999 Y126.501 E.00521
G1 X27.733 Y126.562 E.00856
G1 X27.733 Y114.975 E.3633
G1 X27.314 Y114.88 E.01347
G1 X27.314 Y126.657 E.36926
G1 X26.895 Y126.744 E.01342
G1 X26.895 Y114.794 E.37468
G1 X26.476 Y114.775 E.01315
G1 X26.476 Y126.762 E.37584
G1 X26.057 Y126.781 E.01315
G1 X26.057 Y114.756 E.37704
G1 X25.638 Y114.778 E.01316
G1 X25.638 Y126.759 E.37566
G1 X25.219 Y126.702 E.01326
G1 X25.219 Y114.835 E.37208
G1 X24.8 Y114.892 E.01326
G1 X24.8 Y126.645 E.36851
G1 X24.381 Y126.51 E.0138
G1 X24.381 Y115.027 E.36004
G1 X23.962 Y115.163 E.01381
G1 X23.962 Y126.374 E.35151
G1 X23.543 Y126.19 E.01435
G1 X23.543 Y115.347 E.33997
G1 X23.124 Y115.572 E.01491
G1 X23.124 Y125.965 E.32587
G1 X22.705 Y125.71 E.01538
G1 X22.705 Y115.827 E.30987
G1 X22.286 Y116.161 E.0168
G1 X22.286 Y125.376 E.28893
G1 X21.867 Y125.006 E.01753
G1 X21.867 Y116.531 E.26573
G1 X21.448 Y117.011 E.01998
G1 X21.448 Y124.526 E.23563
G1 X21.029 Y123.925 E.02297
G1 X21.029 Y117.612 E.19794
G1 X20.61 Y118.409 E.02823
G1 X20.61 Y123.128 E.14796
G1 X20.326 Y122.372 E.02532
G1 X20.191 Y121.628 E.02371
G1 X20.191 Y119.042 E.08108
G1 E-3.5 F1500
G1 X26.509 Y129.937 F54000
G1 E3.5 F1500
G1 F1800
G1 X26.992 Y129.958 E.01516
G1 X28.105 Y130.213 E.0358
G1 X29.155 Y130.661 E.03579
G1 X29.826 Y131.104 E.02521
G1 X29.826 Y141.154 E.31511
G1 X29.994 Y141.322 E.00745
G1 X29.155 Y141.876 E.03152
G1 X28.105 Y142.325 E.03581
G1 X26.992 Y142.579 E.03579
G1 X25.852 Y142.63 E.03578
G1 X24.72 Y142.477 E.03582
G1 X23.635 Y142.125 E.03576
G1 X22.629 Y141.584 E.03581
G1 X21.736 Y140.872 E.03581
G1 X20.985 Y140.012 E.0358
G1 X20.399 Y139.032 E.0358
G1 X19.998 Y137.963 E.0358
G1 X19.794 Y136.84 E.03579
G1 X19.794 Y135.698 E.03581
G1 X19.998 Y134.574 E.03582
G1 X20.399 Y133.505 E.0358
G1 X20.985 Y132.525 E.0358
G1 X21.736 Y131.665 E.0358
G1 X22.629 Y130.954 E.03579
G1 X23.634 Y130.413 E.03579
G1 X24.72 Y130.06 E.0358
G1 X25.852 Y129.907 E.03582
G1 X26.452 Y129.934 E.01883
G1 X29.408 Y141.505 F54000
G1 F1800
G1 X29.408 Y131.235 E.32201
G1 X28.989 Y130.96 E.01571
G1 X28.989 Y141.578 E.33292
G1 X28.571 Y141.757 E.01426
G1 X28.571 Y130.781 E.34414
G1 X28.152 Y130.601 E.0143
G1 X28.152 Y141.936 E.3554
G1 X28 Y142.001 E.00518
G1 X27.733 Y142.062 E.00859
G1 X27.733 Y130.476 E.36327
G1 X27.314 Y130.38 E.01348
G1 X27.314 Y142.157 E.36926
G1 X26.895 Y142.244 E.01342
G1 X26.895 Y130.294 E.37468
G1 X26.476 Y130.275 E.01315
G1 X26.476 Y142.263 E.37588
G1 X26.057 Y142.281 E.01315
G1 X26.057 Y130.256 E.37704
G1 X25.638 Y130.278 E.01316
G1 X25.638 Y142.259 E.37566
G1 X25.219 Y142.202 E.01326
G1 X25.219 Y130.335 E.37208
