; File Parsed By Flow Comp Script
; Script Ver. V0.7.1
; Flow Model Ver. V0.2.1
; Logger Ver. V0.0.1
; Flow Comp Model Points:
; (0, 0)
; (0.2, 0.4444)
; (0.4, 0.6145)
; (0.6, 0.7059)
; (0.8, 0.7619)
; (1.5, 0.8571)
; (2, 0.8889)
; (3, 0.9231)
; (5, 0.952)
; (10, 1)

; generated by PrusaSlicer 2.9.2 on 2025-06-16 at 18:38:31 UTC

; 

; external perimeters extrusion width = 0.45mm
; perimeters extrusion width = 0.45mm
; infill extrusion width = 0.45mm
; solid infill extrusion width = 0.45mm
; top infill extrusion width = 0.40mm
; support material extrusion width = 0.35mm
; first layer extrusion width = 0.42mm

;TYPE:Custom
G90 ; use absolute coordinates
M83 ; extruder relative mode
CALCULATE_PA BOWDEN_LENGTH=34.0 MATERIAL=PLA LAYER_HEIGHT=0.2 NOZZLE_SIZE=0.4 PRINT_SPEED=120 FILAMENT_DIAMETER=1.75 LINE_WIDTH=0.45 ; auto pressure advance
M104 S208 ; set temporary nozzle temp to prevent oozing during homing
M140 S58 ; set final bed temp
G4 S30 ; allow partial nozzle warmup
G28 ; home all axis
G1 Z50 F240
G1 X2.0 Y10 F3000
M104 S208 ; set final nozzle temp
M190 S58 ; wait for bed temp to stabilize
M109 S208 ; wait for nozzle temp to stabilize
G1 Z0.28 F240
G92 E0
G1 X2.0 Y140 E10 F1500 ; prime the nozzle
G1 X2.3 Y140 F5000
G92 E0
G1 X2.3 Y10 E10 F1200 ; prime the nozzle
G92 E0
G21 ; set units to millimeters
G90 ; use absolute coordinates
M83 ; use relative distances for extrusion
; Filament gcode
M107
;LAYER_CHANGE
;Z:0.2
;HEIGHT:0.2
G1 E-3.5 F1500
G1 Z.2 F54000
G1 X12.627 Y18.793
G1 Z.2
G1 E3.5 F1500
M204 S3500
;TYPE:Skirt/Brim
;WIDTH:0.42
G1 F1800
G1 X15.544 Y18.063 E.09428
G1 X102.544 Y18.063 E2.72782
G1 X104.724 Y18.46 E.06948
G1 X106.625 Y19.599 E.06948
G1 X108.002 Y21.335 E.06948
G1 X108.732 Y24.252 E.09428
G1 X108.732 Y86.252 E1.94397
G1 X108.336 Y88.432 E.06947
G1 X107.196 Y90.332 E.06947
G1 X105.46 Y91.71 E.06949
G1 X102.544 Y92.44 E.09425
G1 X15.544 Y92.44 E2.72782
G1 X13.364 Y92.043 E.06948
G1 X11.463 Y90.904 E.06948
G1 X10.086 Y89.168 E.06948
G1 X9.355 Y86.252 E.09426
G1 X9.355 Y24.252 E1.94397
G1 X9.752 Y22.071 E.06951
G1 X10.891 Y20.171 E.06946
G1 X12.58 Y18.831 E.0676
G1 E-3.5 F1500
G1 X60.175 Y84.91 F54000
G1 E3.5 F1500
;TYPE:Perimeter
;WIDTH:0.419999
G1 F1800
G1 X16.885 Y84.91 E1.35733
G1 X16.885 Y25.593 E1.85984
G1 X101.203 Y25.593 E2.64373
G1 X101.203 Y55.252 E.92994
G1 X101.203 Y84.91 E.9299
G1 X60.235 Y84.91 E1.28452
G1 X59.798 Y85.287 F54000
G1 F1800
G1 X16.508 Y85.287 E1.35733
G1 X16.508 Y25.216 E1.88348
G1 X101.58 Y25.216 E2.66737
G1 X101.58 Y55.252 E.94176
G1 X101.58 Y85.287 E.94172
G1 X59.858 Y85.287 E1.30816
G1 X59.421 Y85.665 F54000
G1 F1800
G1 X16.131 Y85.665 E1.35733
G1 X16.131 Y24.839 E1.90715
G1 X101.957 Y24.839 E2.69101
G1 X101.957 Y55.252 E.95358
G1 X101.957 Y85.665 E.95358
G1 X59.481 Y85.665 E1.3318
G1 X59.044 Y86.042 F54000
;TYPE:External perimeter
G1 F1800
G1 X15.754 Y86.042 E1.35733
G1 X15.754 Y24.462 E1.93079
G1 X102.334 Y24.462 E2.71465
G1 X102.334 Y55.252 E.9654
G1 X102.334 Y86.042 E.9654
G1 X59.104 Y86.042 E1.35544
G1 X58.704 Y86.042 F54000
G1 E-3.5 F1500
G1 X17.762 Y84.797 F54000
G1 E3.5 F1500
;TYPE:Solid infill
;WIDTH:0.4209
G1 F1800
G1 X17.168 Y84.203 E0.02034; Old Flow Value: 0.0264   Length: 0.84004
G1 X17.168 Y83.668 E0.01142; Old Flow Value: 0.01681   Length: 0.53500
G1 X18.127 Y84.628 E0.03602; Old Flow Value: 0.04265   Length: 1.35694
G1 X18.662 Y84.628 E0.01142; Old Flow Value: 0.01681   Length: 0.53500
G1 X17.168 Y83.134 E0.05938; Old Flow Value: 0.0664   Length: 2.11283
G1 X17.168 Y82.599 E0.01142; Old Flow Value: 0.01681   Length: 0.53500
G1 X19.196 Y84.628 E0.08294; Old Flow Value: 0.09016   Length: 2.86873
G1 X19.731 Y84.628 E0.01142; Old Flow Value: 0.01681   Length: 0.53500
G1 X17.168 Y82.065 E0.10655; Old Flow Value: 0.11392   Length: 3.62463
G1 X17.168 Y81.53 E0.01142; Old Flow Value: 0.01681   Length: 0.53500
G1 X20.265 Y84.628 E0.13018; Old Flow Value: 0.13768   Length: 4.38053
G1 X20.8 Y84.628 E0.01142; Old Flow Value: 0.01681   Length: 0.53500
G1 X17.168 Y80.996 E0.15390; Old Flow Value: 0.16143   Length: 5.13642
G1 X17.168 Y80.461 E0.01142; Old Flow Value: 0.01681   Length: 0.53500
G1 X21.334 Y84.628 E0.17794; Old Flow Value: 0.18519   Length: 5.89232
G1 X21.869 Y84.628 E0.01142; Old Flow Value: 0.01681   Length: 0.53500
G1 X17.168 Y79.926 E0.20233; Old Flow Value: 0.20897   Length: 6.64892
G1 X17.168 Y79.392 E0.01139; Old Flow Value: 0.01678   Length: 0.53400
G1 X22.404 Y84.628 E0.22702; Old Flow Value: 0.23273   Length: 7.40482
G1 X22.938 Y84.628 E0.01139; Old Flow Value: 0.01678   Length: 0.53400
G1 X17.168 Y78.857 E0.25203; Old Flow Value: 0.25648   Length: 8.16072
G1 X17.168 Y78.323 E0.01139; Old Flow Value: 0.01678   Length: 0.53400
G1 X23.473 Y84.628 E0.27738; Old Flow Value: 0.28024   Length: 8.91662
G1 X24.007 Y84.628 E0.01139; Old Flow Value: 0.01678   Length: 0.53400
G1 X17.168 Y77.788 E0.30306; Old Flow Value: 0.304   Length: 9.67251
G1 X17.168 Y77.254 E0.01139; Old Flow Value: 0.01678   Length: 0.53400
G1 X24.542 Y84.628 E.32776; Old Flow Value: 0.32776   Length: 10.42841
G1 X25.076 Y84.628 E0.01139; Old Flow Value: 0.01678   Length: 0.53400
G1 X17.168 Y76.719 E.35151; Old Flow Value: 0.35151   Length: 11.18431
G1 X17.168 Y76.185 E0.01139; Old Flow Value: 0.01678   Length: 0.53400
G1 X25.611 Y84.628 E.37527; Old Flow Value: 0.37527   Length: 11.94021
G1 X26.145 Y84.628 E0.01139; Old Flow Value: 0.01678   Length: 0.53400
G1 X17.168 Y75.65 E.39903; Old Flow Value: 0.39903   Length: 12.69610
G1 X17.168 Y75.116 E0.01139; Old Flow Value: 0.01678   Length: 0.53400
G1 X26.68 Y84.628 E.42279; Old Flow Value: 0.42279   Length: 13.45200
G1 X27.214 Y84.628 E0.01139; Old Flow Value: 0.01678   Length: 0.53400
G1 X17.168 Y74.581 E.44654; Old Flow Value: 0.44654   Length: 14.20790
G1 X17.168 Y74.046 E0.01142; Old Flow Value: 0.01681   Length: 0.53500
G1 X27.749 Y84.628 E.47032; Old Flow Value: 0.47032   Length: 14.96450
G1 X28.284 Y84.628 E0.01142; Old Flow Value: 0.01681   Length: 0.53500
G1 X17.168 Y73.512 E.49408; Old Flow Value: 0.49408   Length: 15.72040
G1 X17.168 Y72.977 E0.01142; Old Flow Value: 0.01681   Length: 0.53500
G1 X28.818 Y84.628 E.51784; Old Flow Value: 0.51784   Length: 16.47630
G1 X29.353 Y84.628 E0.01142; Old Flow Value: 0.01681   Length: 0.53500
G1 X17.168 Y72.443 E.54159; Old Flow Value: 0.54159   Length: 17.23219
G1 X17.168 Y71.908 E0.01142; Old Flow Value: 0.01681   Length: 0.53500
G1 X29.887 Y84.628 E.56535; Old Flow Value: 0.56535   Length: 17.98809
G1 X30.422 Y84.628 E0.01142; Old Flow Value: 0.01681   Length: 0.53500
G1 X17.168 Y71.374 E.58911; Old Flow Value: 0.58911   Length: 18.74399
G1 X17.168 Y70.839 E0.01142; Old Flow Value: 0.01681   Length: 0.53500
G1 X30.956 Y84.628 E.61287; Old Flow Value: 0.61287   Length: 19.49989
G1 X31.491 Y84.628 E0.01142; Old Flow Value: 0.01681   Length: 0.53500
G1 X17.168 Y70.305 E.63662; Old Flow Value: 0.63662   Length: 20.25578
G1 X17.168 Y69.77 E0.01142; Old Flow Value: 0.01681   Length: 0.53500
G1 X32.025 Y84.628 E.66038; Old Flow Value: 0.66038   Length: 21.01168
G1 X32.56 Y84.628 E0.01142; Old Flow Value: 0.01681   Length: 0.53500
G1 X17.168 Y69.236 E.68414; Old Flow Value: 0.68414   Length: 21.76757
G1 X17.168 Y68.701 E0.01142; Old Flow Value: 0.01681   Length: 0.53500
G1 X33.094 Y84.628 E.70789; Old Flow Value: 0.70789   Length: 22.52348
G1 X33.629 Y84.628 E0.01142; Old Flow Value: 0.01681   Length: 0.53500
G1 X17.168 Y68.166 E.73167; Old Flow Value: 0.73167   Length: 23.28008
G1 X17.168 Y67.632 E0.01139; Old Flow Value: 0.01678   Length: 0.53400
G1 X34.163 Y84.628 E.75541; Old Flow Value: 0.75541   Length: 24.03526
G1 X34.698 Y84.628 E0.01142; Old Flow Value: 0.01681   Length: 0.53500
G1 X17.168 Y67.097 E.77919; Old Flow Value: 0.77919   Length: 24.79187
G1 X17.168 Y66.563 E0.01139; Old Flow Value: 0.01678   Length: 0.53400
G1 X35.233 Y84.628 E.80295; Old Flow Value: 0.80295   Length: 25.54777
G1 X35.767 Y84.628 E0.01139; Old Flow Value: 0.01678   Length: 0.53400
G1 X17.168 Y66.028 E.8267; Old Flow Value: 0.8267   Length: 26.30366
G1 X17.168 Y65.494 E0.01139; Old Flow Value: 0.01678   Length: 0.53400
G1 X36.302 Y84.628 E.85046; Old Flow Value: 0.85046   Length: 27.05956
G1 X36.836 Y84.628 E0.01139; Old Flow Value: 0.01678   Length: 0.53400
G1 X17.168 Y64.959 E.87422; Old Flow Value: 0.87422   Length: 27.81546
G1 X17.168 Y64.425 E0.01139; Old Flow Value: 0.01678   Length: 0.53400
G1 X37.371 Y84.628 E.89797; Old Flow Value: 0.89797   Length: 28.57135
G1 X37.905 Y84.628 E0.01139; Old Flow Value: 0.01678   Length: 0.53400
G1 X17.168 Y63.89 E.92173; Old Flow Value: 0.92173   Length: 29.32725
G1 X17.168 Y63.356 E0.01139; Old Flow Value: 0.01678   Length: 0.53400
G1 X38.44 Y84.628 E.94549; Old Flow Value: 0.94549   Length: 30.08315
G1 X38.974 Y84.628 E0.01139; Old Flow Value: 0.01678   Length: 0.53400
G1 X17.168 Y62.821 E.96925; Old Flow Value: 0.96925   Length: 30.83905
G1 X17.168 Y62.286 E0.01142; Old Flow Value: 0.01681   Length: 0.53500
G1 X39.509 Y84.628 E.99303; Old Flow Value: 0.99303   Length: 31.59565
G1 X40.043 Y84.628 E0.01139; Old Flow Value: 0.01678   Length: 0.53400
G1 X17.168 Y61.752 E1.01676; Old Flow Value: 1.01676   Length: 32.35084
G1 X17.168 Y61.217 E0.01142; Old Flow Value: 0.01681   Length: 0.53500
G1 X40.578 Y84.628 E1.04054; Old Flow Value: 1.04054   Length: 33.10745
G1 X41.113 Y84.628 E0.01142; Old Flow Value: 0.01681   Length: 0.53500
G1 X17.168 Y60.683 E1.0643; Old Flow Value: 1.0643   Length: 33.86334
G1 X17.168 Y60.148 E0.01142; Old Flow Value: 0.01681   Length: 0.53500
G1 X41.647 Y84.628 E1.08805; Old Flow Value: 1.08805   Length: 34.61924
G1 X42.182 Y84.628 E0.01142; Old Flow Value: 0.01681   Length: 0.53500
G1 X17.168 Y59.614 E1.11181; Old Flow Value: 1.11181   Length: 35.37514
G1 X17.168 Y59.079 E0.01142; Old Flow Value: 0.01681   Length: 0.53500
G1 X42.716 Y84.628 E1.13557; Old Flow Value: 1.13557   Length: 36.13103
G1 X43.251 Y84.628 E0.01142; Old Flow Value: 0.01681   Length: 0.53500
G1 X17.168 Y58.545 E1.15933; Old Flow Value: 1.15933   Length: 36.88693
G1 X17.168 Y58.01 E0.01142; Old Flow Value: 0.01681   Length: 0.53500
G1 X43.785 Y84.628 E1.18308; Old Flow Value: 1.18308   Length: 37.64283
G1 X44.32 Y84.628 E0.01142; Old Flow Value: 0.01681   Length: 0.53500
G1 X17.168 Y57.476 E1.20684; Old Flow Value: 1.20684   Length: 38.39872
G1 X17.168 Y56.941 E0.01142; Old Flow Value: 0.01681   Length: 0.53500
G1 X44.854 Y84.628 E1.2306; Old Flow Value: 1.2306   Length: 39.15462
G1 X45.389 Y84.628 E0.01142; Old Flow Value: 0.01681   Length: 0.53500
G1 X17.168 Y56.407 E1.25435; Old Flow Value: 1.25435   Length: 39.91052
G1 X17.168 Y55.872 E0.01142; Old Flow Value: 0.01681   Length: 0.53500
G1 X45.923 Y84.628 E1.27811; Old Flow Value: 1.27811   Length: 40.66642
G1 X46.458 Y84.628 E0.01142; Old Flow Value: 0.01681   Length: 0.53500
G1 X17.168 Y55.337 E1.30189; Old Flow Value: 1.30189   Length: 41.42302
G1 X17.168 Y54.803 E0.01139; Old Flow Value: 0.01678   Length: 0.53400
G1 X46.993 Y84.628 E1.32565; Old Flow Value: 1.32565   Length: 42.17892
G1 X47.527 Y84.628 E0.01139; Old Flow Value: 0.01678   Length: 0.53400
G1 X17.168 Y54.268 E1.34941; Old Flow Value: 1.34941   Length: 42.93481
G1 X17.168 Y53.734 E0.01139; Old Flow Value: 0.01678   Length: 0.53400
G1 X48.062 Y84.628 E1.37316; Old Flow Value: 1.37316   Length: 43.69071
G1 X48.596 Y84.628 E0.01139; Old Flow Value: 0.01678   Length: 0.53400
G1 X17.168 Y53.199 E1.39692; Old Flow Value: 1.39692   Length: 44.44661
G1 X17.168 Y52.665 E0.01139; Old Flow Value: 0.01678   Length: 0.53400
G1 X49.131 Y84.628 E1.42068; Old Flow Value: 1.42068   Length: 45.20251
G1 X49.665 Y84.628 E0.01139; Old Flow Value: 0.01678   Length: 0.53400
G1 X17.168 Y52.13 E1.44443; Old Flow Value: 1.44443   Length: 45.95840
G1 X17.168 Y51.596 E0.01139; Old Flow Value: 0.01678   Length: 0.53400
G1 X50.2 Y84.628 E1.46819; Old Flow Value: 1.46819   Length: 46.71430
G1 X50.734 Y84.628 E0.01139; Old Flow Value: 0.01678   Length: 0.53400
G1 X17.168 Y51.061 E1.49195; Old Flow Value: 1.49195   Length: 47.47020
G1 X17.168 Y50.527 E0.01139; Old Flow Value: 0.01678   Length: 0.53400
G1 X51.269 Y84.628 E1.51571; Old Flow Value: 1.51571   Length: 48.22610
G1 X51.803 Y84.628 E0.01139; Old Flow Value: 0.01678   Length: 0.53400
G1 X17.168 Y49.992 E1.53946; Old Flow Value: 1.53946   Length: 48.98199
G1 X17.168 Y49.457 E0.01142; Old Flow Value: 0.01681   Length: 0.53500
G1 X52.338 Y84.628 E1.56324; Old Flow Value: 1.56324   Length: 49.73860
G1 X52.873 Y84.628 E0.01142; Old Flow Value: 0.01681   Length: 0.53500
G1 X17.168 Y48.923 E1.587; Old Flow Value: 1.587   Length: 50.49450
G1 X17.168 Y48.388 E0.01142; Old Flow Value: 0.01681   Length: 0.53500
G1 X53.407 Y84.628 E1.61076; Old Flow Value: 1.61076   Length: 51.25039
G1 X53.942 Y84.628 E0.01142; Old Flow Value: 0.01681   Length: 0.53500
G1 X17.168 Y47.854 E1.63451; Old Flow Value: 1.63451   Length: 52.00629
G1 X17.168 Y47.319 E0.01142; Old Flow Value: 0.01681   Length: 0.53500
G1 X54.476 Y84.628 E1.65827; Old Flow Value: 1.65827   Length: 52.76219
G1 X55.011 Y84.628 E0.01142; Old Flow Value: 0.01681   Length: 0.53500
G1 X17.168 Y46.785 E1.68203; Old Flow Value: 1.68203   Length: 53.51809
G1 X17.168 Y46.25 E0.01142; Old Flow Value: 0.01681   Length: 0.53500
G1 X55.545 Y84.628 E1.70579; Old Flow Value: 1.70579   Length: 54.27398
G1 X56.08 Y84.628 E0.01142; Old Flow Value: 0.01681   Length: 0.53500
G1 X17.168 Y45.716 E1.72954; Old Flow Value: 1.72954   Length: 55.02988
G1 X17.168 Y45.181 E0.01142; Old Flow Value: 0.01681   Length: 0.53500
G1 X56.614 Y84.628 E1.7533; Old Flow Value: 1.7533   Length: 55.78577
G1 X57.149 Y84.628 E0.01142; Old Flow Value: 0.01681   Length: 0.53500
G1 X17.168 Y44.647 E1.77706; Old Flow Value: 1.77706   Length: 56.54167
G1 X17.168 Y44.112 E0.01142; Old Flow Value: 0.01681   Length: 0.53500
G1 X57.683 Y84.628 E1.80081; Old Flow Value: 1.80081   Length: 57.29757
G1 X58.218 Y84.628 E0.01142; Old Flow Value: 0.01681   Length: 0.53500
G1 X17.168 Y43.577 E1.82459; Old Flow Value: 1.82459   Length: 58.05417
G1 X17.168 Y43.043 E0.01139; Old Flow Value: 0.01678   Length: 0.53400
G1 X58.753 Y84.628 E1.84835; Old Flow Value: 1.84835   Length: 58.81007
G1 X59.287 Y84.628 E0.01139; Old Flow Value: 0.01678   Length: 0.53400
G1 X17.168 Y42.508 E1.87211; Old Flow Value: 1.87211   Length: 59.56597
G1 X17.168 Y41.974 E0.01139; Old Flow Value: 0.01678   Length: 0.53400
G1 X59.822 Y84.628 E1.89587; Old Flow Value: 1.89587   Length: 60.32187
G1 X60.356 Y84.628 E0.01139; Old Flow Value: 0.01678   Length: 0.53400
G1 X17.168 Y41.439 E1.91962; Old Flow Value: 1.91962   Length: 61.07776
G1 X17.168 Y40.905 E0.01139; Old Flow Value: 0.01678   Length: 0.53400
G1 X60.891 Y84.628 E1.94338; Old Flow Value: 1.94338   Length: 61.83366
G1 X61.425 Y84.628 E0.01139; Old Flow Value: 0.01678   Length: 0.53400
G1 X17.168 Y40.37 E1.96714; Old Flow Value: 1.96714   Length: 62.58956
G1 X17.168 Y39.836 E0.01139; Old Flow Value: 0.01678   Length: 0.53400
G1 X61.96 Y84.628 E1.99089; Old Flow Value: 1.99089   Length: 63.34546
G1 X62.494 Y84.628 E0.01139; Old Flow Value: 0.01678   Length: 0.53400
G1 X17.168 Y39.301 E2.01465; Old Flow Value: 2.01465   Length: 64.10135
G1 X17.168 Y38.767 E0.01139; Old Flow Value: 0.01678   Length: 0.53400
G1 X63.029 Y84.628 E2.03841; Old Flow Value: 2.03841   Length: 64.85725
G1 X63.563 Y84.628 E0.01139; Old Flow Value: 0.01678   Length: 0.53400
G1 X17.168 Y38.232 E2.06217; Old Flow Value: 2.06217   Length: 65.61314
G1 X17.168 Y37.697 E0.01142; Old Flow Value: 0.01681   Length: 0.53500
G1 X64.098 Y84.628 E2.08595; Old Flow Value: 2.08595   Length: 66.36975
G1 X64.633 Y84.628 E0.01142; Old Flow Value: 0.01681   Length: 0.53500
G1 X17.168 Y37.163 E2.1097; Old Flow Value: 2.1097   Length: 67.12565
G1 X17.168 Y36.628 E0.01142; Old Flow Value: 0.01681   Length: 0.53500
G1 X65.167 Y84.628 E2.13346; Old Flow Value: 2.13346   Length: 67.88155
G1 X65.702 Y84.628 E0.01142; Old Flow Value: 0.01681   Length: 0.53500
G1 X17.168 Y36.094 E2.15722; Old Flow Value: 2.15722   Length: 68.63744
