; generated by PrusaSlicer 2.9.0 on 2025-02-09 at 11:01:52 UTC

; 

; external perimeters extrusion width = 0.42mm
; perimeters extrusion width = 0.44mm
; infill extrusion width = 0.44mm
; solid infill extrusion width = 0.44mm
; top infill extrusion width = 0.40mm
; first layer extrusion width = 0.42mm


; printing object heat_part_cover.stl id:0 copy 0
; stop printing object heat_part_cover.stl id:0 copy 0

;TYPE:Custom
G90 ; use absolute coordinates
M83 ; extruder relative mode
M104 S210 ; set temporary nozzle temp to prevent oozing during homing
M140 S60 ; set final bed temp
G4 S30 ; allow partial nozzle warmup
G28 ; home all axis
G1 Z50 F240
G1 X2.0 Y10 F3000
M104 S210 ; set final nozzle temp
M190 S60 ; wait for bed temp to stabilize
M109 S210 ; wait for nozzle temp to stabilize
G1 Z0.28 F240
G92 E0
G1 X2.0 Y140 E10 F1500 ; prime the nozzle
G1 X2.3 Y140 F5000
G92 E0
G1 X2.3 Y10 E10 F1200 ; prime the nozzle
G92 E0
G21 ; set units to millimeters
G90 ; use absolute coordinates
M83 ; use relative distances for extrusion
; Filament gcode
M107
;LAYER_CHANGE
;Z:0.32
;HEIGHT:0.32
G1 E-2.5 F1800
G1 Z.32 F54000
; printing object heat_part_cover.stl id:0 copy 0
G1 X88.146 Y89.815
G1 Z.32
G1 E2.5 F1200
M204 S3500
;TYPE:Perimeter
;WIDTH:0.42
G1 F2400
G1 X87.797 Y89.813 E.01631
G1 X87.438 Y89.73 E.01722
G1 X86.958 Y89.536 E.0242
G1 X86.654 Y89.326 E.01727
G1 X86.277 Y88.968 E.0243
G1 X85.971 Y88.483 E.0268
G1 X85.802 Y88.006 E.02365
G1 X85.77 Y87.847 E.00758
G1 X85.759 Y87.259 E.02749
G1 X85.83 Y86.849 E.01945
G1 X86.02 Y86.369 E.02413
G1 X86.249 Y86.022 E.01943
G1 X86.593 Y85.659 E.02338
G1 X86.913 Y85.441 E.0181
G1 X87.384 Y85.224 E.02424
G1 X87.934 Y85.118 E.02618
G1 X88.448 Y85.135 E.02404
G1 X88.769 Y85.214 E.01545
G1 X89.248 Y85.408 E.02416
G1 X89.553 Y85.618 E.01731
G1 X89.929 Y85.976 E.02427
G1 X90.235 Y86.461 E.0268
G1 X90.405 Y86.938 E.02367
G1 X90.447 Y87.259 E.01513
G1 X90.444 Y87.778 E.02426
G1 X90.361 Y88.137 E.01722
G1 X90.167 Y88.617 E.0242
G1 X89.957 Y88.922 E.01731
G1 X89.599 Y89.298 E.02427
G1 X89.114 Y89.604 E.0268
G1 X88.637 Y89.773 E.02365
G1 X88.316 Y89.816 E.01514
G1 X88.206 Y89.815 E.00514
G1 X88.206 Y89.815 F54000
G1 X88.135 Y89.461
G1 F2400
G1 X87.891 Y89.465 E.01141
G1 X87.567 Y89.403 E.01542
G1 X87.097 Y89.213 E.0237
G1 X86.894 Y89.07 E.01161
G1 X86.527 Y88.72 E.0237
G1 X86.264 Y88.285 E.02376
G1 X86.118 Y87.801 E.02363
G1 X86.11 Y87.259 E.02534
G1 X86.172 Y86.936 E.01537
G1 X86.362 Y86.466 E.0237
G1 X86.505 Y86.263 E.01161
G1 X86.856 Y85.895 E.02377
G1 X87.062 Y85.759 E.01154
G1 X87.525 Y85.546 E.02382
G1 X88.031 Y85.462 E.02397
G1 X88.544 Y85.509 E.02408
G1 X89.035 Y85.698 E.02459
G1 X89.312 Y85.874 E.01534
G1 X89.679 Y86.224 E.0237
G1 X89.942 Y86.659 E.02376
G1 X90.088 Y87.143 E.02363
G1 X90.096 Y87.685 E.02534
G1 X90.034 Y88.008 E.01537
G1 X89.844 Y88.478 E.0237
G1 X89.701 Y88.681 E.01161
G1 X89.352 Y89.048 E.02367
G1 X88.917 Y89.311 E.02376
G1 X88.432 Y89.457 E.02367
G1 X88.195 Y89.46 E.01108
G1 X88.195 Y89.46 F54000
G1 X88.124 Y89.111
G1 F2400
G1 X87.811 Y89.107 E.01463
G1 X87.301 Y88.92 E.02539
G1 X87.135 Y88.814 E.00921
G1 X86.773 Y88.468 E.02341
G1 X86.542 Y88.037 E.02286
G1 X86.466 Y87.754 E.0137
G1 X86.462 Y87.249 E.0236
G1 X86.499 Y87.065 E.00877
G1 X86.689 Y86.6 E.02348
G1 X87.052 Y86.193 E.02549
G1 X87.212 Y86.077 E.00924
G1 X87.673 Y85.867 E.02368
G1 X88.139 Y85.813 E.02193
G1 X88.51 Y85.868 E.01753
G1 X88.976 Y86.058 E.02352
G1 X89.382 Y86.421 E.02546
G1 X89.645 Y86.852 E.0236
G1 X89.745 Y87.259 E.01959
G1 X89.739 Y87.765 E.02365
G1 X89.551 Y88.274 E.02536
G1 X89.445 Y88.441 E.00925
G1 X89.099 Y88.802 E.02337
G1 X88.668 Y89.033 E.02286
G1 X88.316 Y89.113 E.01687
G1 X88.184 Y89.112 E.00617
G1 X88.184 Y89.112 F54000
G1 X88.112 Y88.757
;TYPE:External perimeter
G1 F2400
G1 X87.826 Y88.75 E.01337
G1 X87.375 Y88.558 E.02291
G1 X87.031 Y88.223 E.02244
G1 X86.88 Y87.939 E.01503
G1 X86.815 Y87.708 E.01122
G1 X86.821 Y87.207 E.02342
G1 X87.015 Y86.746 E.02338
G1 X87.362 Y86.395 E.02307
G1 X87.799 Y86.199 E.02239
G1 X88.108 Y86.163 E.01454
G1 X88.38 Y86.194 E.0128
G1 X88.831 Y86.386 E.02291
G1 X89.175 Y86.721 E.02244
G1 X89.327 Y87.005 E.01506
G1 X89.393 Y87.259 E.01227
G1 X89.381 Y87.749 E.02291
G1 X89.189 Y88.2 E.02291
G1 X88.854 Y88.544 E.02244
G1 X88.57 Y88.695 E.01503
G1 X88.316 Y88.762 E.01228
G1 X88.172 Y88.758 E.00673
G1 E-.5 F1800
;WIPE_START
G1 F43200
G1 X88.112 Y88.757 E-.00238
G1 X87.826 Y88.75 E-.01132
G1 X87.375 Y88.558 E-.0194
G1 X87.031 Y88.223 E-.01901
G1 X86.88 Y87.939 E-.01273
G1 X86.815 Y87.708 E-.0095
G1 X86.821 Y87.207 E-.01983
G1 X87.015 Y86.746 E-.0198
G1 X87.362 Y86.395 E-.01954
G1 X87.799 Y86.199 E-.01896
G1 X88.108 Y86.163 E-.01231
G1 X88.38 Y86.194 E-.01084
G1 X88.831 Y86.386 E-.0194
G1 X89.175 Y86.721 E-.01901
G1 X89.327 Y87.005 E-.01275
G1 X89.393 Y87.259 E-.01039
G1 X89.381 Y87.749 E-.0194
G1 X89.189 Y88.2 E-.0194
G1 X88.854 Y88.544 E-.01901
G1 X88.57 Y88.695 E-.01273
G1 X88.316 Y88.762 E-.0104
G1 X88.172 Y88.758 E-.0057
;WIPE_END
G1 E-1.67619 F1800
G1 X162.146 Y163.821 F54000
G1 E2.5 F1200
;TYPE:Perimeter
G1 F2400
G1 X161.951 Y163.827 E.00912
G1 X161.477 Y163.752 E.02243
G1 X160.912 Y163.502 E.02888
G1 X160.539 Y163.231 E.02155
G1 X160.144 Y162.793 E.02757
G1 X159.845 Y162.135 E.03378
G1 X159.764 Y161.786 E.01675
G1 X159.759 Y161.26 E.02459
G1 X159.824 Y160.868 E.01857
G1 X160.024 Y160.36 E.02552
G1 X160.249 Y160.023 E.01894
G1 X160.605 Y159.648 E.02417
G1 X160.912 Y159.442 E.01728
G1 X161.4 Y159.217 E.02512
G1 X161.521 Y159.18 E.00591
G1 X162.019 Y159.11 E.02351
G1 X162.533 Y159.148 E.02409
G1 X163.163 Y159.371 E.03124
G1 X163.425 Y159.513 E.01393
G1 X163.862 Y159.908 E.02753
G1 X164.133 Y160.281 E.02155
G1 X164.383 Y160.846 E.02888
G1 X164.468 Y161.472 E.02953
G1 X164.414 Y161.966 E.02323
G1 X164.215 Y162.534 E.02813
G1 X163.875 Y163.022 E.0278
G1 X163.538 Y163.338 E.02159
G1 X162.976 Y163.669 E.03049
G1 X162.332 Y163.815 E.03086
G1 X162.206 Y163.819 E.00589
G1 X162.206 Y163.819 F54000
G1 X162.137 Y163.483
G1 F2400
G1 X162.131 Y163.484 E.00028
G1 X161.575 Y163.415 E.02619
G1 X161.062 Y163.184 E.0263
G1 X160.796 Y162.991 E.01536
G1 X160.43 Y162.589 E.02541
G1 X160.172 Y162.006 E.0298
G1 X160.111 Y161.684 E.01532
G1 X160.12 Y161.133 E.02576
G1 X160.329 Y160.541 E.02934
G1 X160.505 Y160.263 E.01538
G1 X160.859 Y159.892 E.02397
G1 X161.062 Y159.76 E.01132
G1 X161.607 Y159.521 E.02782
G1 X162.103 Y159.459 E.02336
G1 X162.552 Y159.512 E.02113
G1 X163.034 Y159.697 E.02413
G1 X163.312 Y159.874 E.0154
G1 X163.728 Y160.284 E.0273
G1 X163.997 Y160.816 E.02786
G1 X164.074 Y161.082 E.01294
G1 X164.11 Y161.58 E.02334
G1 X164.029 Y162.052 E.02238
G1 X163.84 Y162.472 E.02153
G1 X163.505 Y162.916 E.026
G1 X162.991 Y163.269 E.02914
G1 X162.685 Y163.39 E.01538
G1 X162.196 Y163.473 E.02318
G1 X162.196 Y163.473 F54000
G1 X162.125 Y163.132
G1 F2400
G1 X162.12 Y163.133 E.00024
G1 X161.674 Y163.077 E.02101
G1 X161.212 Y162.867 E.02372
G1 X161.052 Y162.75 E.00926
G1 X160.681 Y162.329 E.02623
G1 X160.481 Y161.825 E.02534
G1 X160.462 Y161.26 E.02642
G1 X160.499 Y161.067 E.00919
G1 X160.695 Y160.591 E.02406
G1 X161.052 Y160.193 E.02499
G1 X161.212 Y160.077 E.00924
G1 X161.693 Y159.861 E.02465
G1 X162.14 Y159.813 E.02101
G1 X162.508 Y159.868 E.01739
G1 X163.017 Y160.085 E.02586
G1 X163.446 Y160.493 E.02767
G1 X163.68 Y160.966 E.02467
G1 X163.765 Y161.472 E.02398
G1 X163.698 Y161.933 E.02177
G1 X163.556 Y162.265 E.01688
G1 X163.255 Y162.669 E.02355
G1 X162.803 Y162.972 E.02543
G1 X162.619 Y163.045 E.00925
G1 X162.184 Y163.122 E.02065
G1 X162.184 Y163.122 F54000
G1 X162.113 Y162.775
;TYPE:External perimeter
G1 F2400
G1 X162.081 Y162.781 E.00152
G1 X161.747 Y162.73 E.01579
G1 X161.308 Y162.51 E.02295
G1 X160.982 Y162.144 E.02291
G1 X160.813 Y161.684 E.02291
G1 X160.826 Y161.196 E.02282
G1 X161.017 Y160.744 E.02294
G1 X161.361 Y160.395 E.0229
G1 X161.779 Y160.202 E.02152
G1 X162.109 Y160.163 E.01553
G1 X162.379 Y160.194 E.0127
G1 X162.831 Y160.386 E.02295
G1 X163.18 Y160.73 E.0229
G1 X163.377 Y161.169 E.02249
G1 X163.412 Y161.494 E.01528
G1 X163.368 Y161.813 E.01505
G1 X163.272 Y162.059 E.01234
G1 X162.974 Y162.448 E.0229
G1 X162.553 Y162.7 E.02293
G1 X162.172 Y162.765 E.01807
G1 E-.5 F1800
;WIPE_START
G1 F43200
G1 X162.113 Y162.775 E-.00237
G1 X162.081 Y162.781 E-.00129
G1 X161.747 Y162.73 E-.01337
G1 X161.308 Y162.51 E-.01944
G1 X160.982 Y162.144 E-.0194
G1 X160.813 Y161.684 E-.0194
G1 X160.826 Y161.196 E-.01932
G1 X161.017 Y160.744 E-.01942
G1 X161.361 Y160.395 E-.0194
G1 X161.779 Y160.202 E-.01822
G1 X162.109 Y160.163 E-.01315
G1 X162.379 Y160.194 E-.01076
G1 X162.831 Y160.386 E-.01944
G1 X163.18 Y160.73 E-.0194
G1 X163.377 Y161.169 E-.01905
G1 X163.412 Y161.494 E-.01294
G1 X163.368 Y161.813 E-.01275
G1 X163.272 Y162.059 E-.01045
G1 X162.974 Y162.448 E-.0194
G1 X162.553 Y162.7 E-.01942
G1 X162.172 Y162.765 E-.0153
;WIPE_END
G1 E-1.67631 F1800
G1 X162.146 Y15.814 F54000
G1 E2.5 F1200
;TYPE:Perimeter
G1 F2400
G1 X161.891 Y15.816 E.01192
G1 X161.499 Y15.752 E.01856
G1 X160.99 Y15.551 E.02558
G1 X160.653 Y15.326 E.01894
G1 X160.281 Y14.972 E.024
G1 X159.971 Y14.483 E.02706
G1 X159.84 Y14.12 E.01804
G1 X159.761 Y13.702 E.01988
G1 X159.745 Y13.348 E.01656
G1 X159.84 Y12.824 E.02489
G1 X159.971 Y12.461 E.01804
G1 X160.261 Y11.995 E.02565
G1 X160.524 Y11.713 E.01802
G1 X161.028 Y11.378 E.02829
G1 X161.451 Y11.21 E.02127
G1 X162.029 Y11.11 E.02742
G1 X162.6 Y11.161 E.0268
G1 X163.163 Y11.371 E.02809
G1 X163.554 Y11.618 E.02162
G1 X163.99 Y12.048 E.02862
G1 X164.314 Y12.635 E.03134
G1 X164.446 Y13.242 E.02903
G1 X164.446 Y13.702 E.0215
G1 X164.314 Y14.309 E.02903
G1 X163.99 Y14.896 E.03134
G1 X163.554 Y15.326 E.02862
G1 X163.294 Y15.513 E.01497
G1 X162.767 Y15.73 E.02664
G1 X162.418 Y15.812 E.01676
G1 X162.206 Y15.814 E.00991
G1 X162.206 Y15.814 F54000
G1 X162.134 Y15.453
G1 F2400
G1 X161.891 Y15.465 E.01137
G1 X161.568 Y15.403 E.01537
G1 X161.1 Y15.214 E.02359
G1 X160.894 Y15.07 E.01175
G1 X160.525 Y14.718 E.02384
G1 X160.261 Y14.28 E.0239
G1 X160.106 Y13.636 E.03096
G1 X160.106 Y13.308 E.01533
G1 X160.205 Y12.807 E.02387
G1 X160.464 Y12.304 E.02644
G1 X160.753 Y11.979 E.02033
G1 X161.216 Y11.675 E.02589
G1 X161.518 Y11.555 E.01519
G1 X162.048 Y11.461 E.02516
G1 X162.519 Y11.503 E.0221
G1 X163.034 Y11.697 E.02572
G1 X163.313 Y11.874 E.01544
G1 X163.714 Y12.265 E.02618
G1 X163.984 Y12.755 E.02615
G1 X164.101 Y13.308 E.02642
G1 X164.101 Y13.636 E.01533
G1 X163.984 Y14.189 E.02642
G1 X163.714 Y14.679 E.02615
G1 X163.313 Y15.07 E.02618
G1 X163.034 Y15.247 E.01544
G1 X162.551 Y15.433 E.02419
G1 X162.194 Y15.45 E.01671
G1 X162.194 Y15.45 F54000
G1 X162.124 Y15.11
G1 F2400
G1 X161.891 Y15.113 E.01089
G1 X161.697 Y15.077 E.00922
G1 X161.222 Y14.88 E.02404
G1 X160.824 Y14.522 E.02502
G1 X160.556 Y14.077 E.02428
G1 X160.451 Y13.57 E.0242
G1 X160.451 Y13.373 E.00921
G1 X160.561 Y12.854 E.0248
G1 X160.789 Y12.458 E.02136
G1 X161.044 Y12.2 E.01696
G1 X161.489 Y11.928 E.02438
G1 X161.993 Y11.82 E.02409
G1 X162.437 Y11.845 E.02079
G1 X162.905 Y12.024 E.02342
G1 X163.072 Y12.13 E.00925
G1 X163.437 Y12.481 E.02367
G1 X163.654 Y12.874 E.02098
G1 X163.756 Y13.373 E.02381
G1 X163.756 Y13.57 E.00921
G1 X163.654 Y14.069 E.02381
G1 X163.437 Y14.463 E.02102
G1 X163.072 Y14.814 E.02367
G1 X162.905 Y14.92 E.00925
G1 X162.406 Y15.106 E.02489
G1 X162.184 Y15.109 E.01038
G1 X162.184 Y15.109 F54000
G1 X162.112 Y14.757
;TYPE:External perimeter
G1 F2400
G1 X161.827 Y14.75 E.01333
G1 X161.375 Y14.558 E.02295
G1 X161.031 Y14.223 E.02244
G1 X160.876 Y13.923 E.01578
G1 X160.796 Y13.505 E.01989
G1 X160.88 Y13.005 E.0237
G1 X161.053 Y12.69 E.0168
G1 X161.232 Y12.496 E.01234
G1 X161.652 Y12.245 E.02287
G1 X162.109 Y12.163 E.0217
G1 X162.38 Y12.194 E.01275
G1 X162.832 Y12.386 E.02295
G1 X163.176 Y12.721 E.02244
G1 X163.331 Y13.021 E.01578
G1 X163.41 Y13.505 E.02292
G1 X163.312 Y13.975 E.02244
G1 X163.142 Y14.266 E.01575
G1 X162.776 Y14.593 E.02294
G1 X162.315 Y14.762 E.02295
G1 X162.172 Y14.759 E.00669
G1 E-.5 F1800
;WIPE_START
G1 F43200
G1 X162.112 Y14.757 E-.00238
G1 X161.827 Y14.75 E-.01128
G1 X161.375 Y14.558 E-.01944
G1 X161.031 Y14.223 E-.01901
G1 X160.876 Y13.923 E-.01337
G1 X160.796 Y13.505 E-.01685
G1 X160.88 Y13.005 E-.02007
G1 X161.053 Y12.69 E-.01423
G1 X161.232 Y12.496 E-.01045
G1 X161.652 Y12.245 E-.01937
G1 X162.109 Y12.163 E-.01838
G1 X162.38 Y12.194 E-.0108
G1 X162.832 Y12.386 E-.01944
G1 X163.176 Y12.721 E-.01901
G1 X163.331 Y13.021 E-.01337
G1 X163.41 Y13.505 E-.01941
G1 X163.312 Y13.975 E-.019
G1 X163.142 Y14.266 E-.01334
G1 X162.776 Y14.593 E-.01943
G1 X162.315 Y14.762 E-.01944
G1 X162.172 Y14.759 E-.00566
;WIPE_END
G1 E-1.67627 F1800
G1 X14.146 Y15.823 F54000
G1 E2.5 F1200
;TYPE:Perimeter
G1 F2400
G1 X13.873 Y15.814 E.01277
G1 X13.318 Y15.7 E.02648
G1 X13.027 Y15.565 E.01499
G1 X12.549 Y15.252 E.02671
G1 X12.332 Y15.022 E.01478
G1 X11.982 Y14.516 E.02876
G1 X11.778 Y13.898 E.03042
G1 X11.759 Y13.259 E.02988
G1 X11.846 Y12.807 E.02151
G1 X12.111 Y12.2 E.03096
G1 X12.533 Y11.72 E.02987
G1 X12.913 Y11.441 E.02203
G1 X13.474 Y11.193 E.02867
G1 X14.093 Y11.108 E.0292
G1 X14.601 Y11.161 E.02387
G1 X15.164 Y11.371 E.02809
G1 X15.553 Y11.618 E.02154
G1 X15.998 Y12.058 E.02925
G1 X16.295 Y12.586 E.02832
G1 X16.446 Y13.241 E.03142
G1 X16.458 Y13.624 E.01791
G1 X16.366 Y14.121 E.02362
G1 X16.235 Y14.483 E.01799
G1 X15.965 Y14.927 E.02429
G1 X15.605 Y15.292 E.02396
G1 X15.18 Y15.565 E.02361
G1 X14.823 Y15.719 E.01817
G1 X14.255 Y15.827 E.02702
G1 X14.206 Y15.825 E.00229
G1 X14.206 Y15.825 F54000
G1 X14.133 Y15.481
G1 F2400
G1 X13.521 Y15.39 E.02892
G1 X13.215 Y15.268 E.0154
G1 X12.771 Y14.98 E.02474
G1 X12.366 Y14.471 E.0304
G1 X12.241 Y14.226 E.01286
G1 X12.122 Y13.823 E.01964
G1 X12.111 Y13.259 E.02637
G1 X12.172 Y12.936 E.01536
G1 X12.406 Y12.39 E.02777
G1 X12.789 Y11.96 E.02692
G1 X13.063 Y11.759 E.01588
G1 X13.574 Y11.53 E.02617
G1 X14.093 Y11.459 E.02448
G1 X14.519 Y11.503 E.02002
G1 X15.035 Y11.697 E.02577
G1 X15.312 Y11.874 E.01536
G1 X15.719 Y12.271 E.02657
G1 X15.97 Y12.72 E.02404
G1 X16.101 Y13.307 E.02811
G1 X16.101 Y13.637 E.01542
G1 X15.995 Y14.158 E.02485
G1 X15.758 Y14.616 E.0241
G1 X15.419 Y14.993 E.0237
G1 X14.992 Y15.268 E.02374
G1 X14.686 Y15.39 E.0154
G1 X14.192 Y15.476 E.02344
G1 X14.192 Y15.476 F54000
G1 X14.124 Y15.124
G1 F2400
G1 X14.005 Y15.124 E.00556
G1 X13.466 Y15.006 E.02579
G1 X12.994 Y14.707 E.02612
G1 X12.65 Y14.264 E.02622
G1 X12.47 Y13.776 E.02431
G1 X12.462 Y13.259 E.02417
G1 X12.499 Y13.065 E.00923
G1 X12.702 Y12.579 E.02462
G1 X13.045 Y12.201 E.02386
G1 X13.212 Y12.077 E.00972
G1 X13.673 Y11.867 E.02368
G1 X14.139 Y11.813 E.02193
G1 X14.51 Y11.868 E.01753
G1 X14.996 Y12.071 E.02462
G1 X15.382 Y12.421 E.02435
G1 X15.645 Y12.853 E.02364
G1 X15.755 Y13.373 E.02484
G1 X15.755 Y13.571 E.00925
G1 X15.651 Y14.077 E.02415
G1 X15.417 Y14.487 E.02207
G1 X15.162 Y14.744 E.01692
G1 X14.728 Y15.012 E.02384
G1 X14.202 Y15.124 E.02514
G1 X14.184 Y15.124 E.00084
G1 X14.184 Y15.124 F54000
G1 X14.113 Y14.772
;TYPE:External perimeter
G1 F2400
G1 X14.07 Y14.779 E.00204
G1 X13.591 Y14.675 E.02291
G1 X13.184 Y14.402 E.02291
G1 X12.909 Y14.009 E.02242
G1 X12.813 Y13.685 E.01579
G1 X12.813 Y13.259 E.01991
G1 X12.998 Y12.769 E.02448
G1 X13.362 Y12.395 E.02439
G1 X13.799 Y12.199 E.02239
G1 X14.108 Y12.163 E.01454
G1 X14.38 Y12.194 E.0128
G1 X14.831 Y12.386 E.02291
G1 X15.175 Y12.721 E.02244
G1 X15.331 Y13.021 E.0158
G1 X15.41 Y13.505 E.02292
G1 X15.312 Y13.975 E.02244
G1 X15.153 Y14.255 E.01505
G1 X14.974 Y14.447 E.01227
G1 X14.554 Y14.699 E.02289
G1 X14.172 Y14.762 E.0181
G1 E-.5 F1800
;WIPE_START
G1 F43200
G1 X14.113 Y14.772 E-.00237
G1 X14.07 Y14.779 E-.00172
G1 X13.591 Y14.675 E-.0194
G1 X13.184 Y14.402 E-.0194
G1 X12.909 Y14.009 E-.01899
G1 X12.813 Y13.685 E-.01338
G1 X12.813 Y13.259 E-.01686
G1 X12.998 Y12.769 E-.02073
G1 X13.362 Y12.395 E-.02066
G1 X13.799 Y12.199 E-.01896
G1 X14.108 Y12.163 E-.01231
G1 X14.38 Y12.194 E-.01084
G1 X14.831 Y12.386 E-.0194
G1 X15.175 Y12.721 E-.01901
G1 X15.331 Y13.021 E-.01338
G1 X15.41 Y13.505 E-.01941
G1 X15.312 Y13.975 E-.019
