; generated by PrusaSlicer 2.6.0-alpha5+MacOS-arm64 on 2023-03-25 at 15:09:31 UTC

; 

; external perimeters extrusion width = 0.42mm
; perimeters extrusion width = 0.44mm
; infill extrusion width = 0.44mm
; solid infill extrusion width = 0.44mm
; top infill extrusion width = 0.40mm
; first layer extrusion width = 0.42mm

; external perimeters extrusion width = 0.42mm
; perimeters extrusion width = 0.44mm
; infill extrusion width = 0.44mm
; solid infill extrusion width = 0.44mm
; top infill extrusion width = 0.40mm
; first layer extrusion width = 0.42mm

; external perimeters extrusion width = 0.42mm
; perimeters extrusion width = 0.44mm
; infill extrusion width = 0.44mm
; solid infill extrusion width = 0.44mm
; top infill extrusion width = 0.40mm
; first layer extrusion width = 0.42mm

; external perimeters extrusion width = 0.42mm
; perimeters extrusion width = 0.44mm
; infill extrusion width = 0.44mm
; solid infill extrusion width = 0.44mm
; top infill extrusion width = 0.40mm
; first layer extrusion width = 0.42mm

; external perimeters extrusion width = 0.42mm
; perimeters extrusion width = 0.44mm
; infill extrusion width = 0.44mm
; solid infill extrusion width = 0.44mm
; top infill extrusion width = 0.40mm
; first layer extrusion width = 0.42mm

M201 X500 Y500 Z100 E5000 ; sets maximum accelerations, mm/sec^2
M203 X500 Y500 Z10 E60 ; sets maximum feedrates, mm / sec
M204 P500 R1000 T500 ; sets acceleration (P, T) and retract acceleration (R), mm/sec^2
M205 X8.00 Y8.00 Z0.40 E5.00 ; sets the jerk limits, mm/sec
M205 S0 T0 ; sets the minimum extruding and travel feed rate, mm/sec
M107
;TYPE:Custom
G90 ; use absolute coordinates
M83 ; extruder relative mode
M104 S150 ; set temporary nozzle temp to prevent oozing during homing
M140 S62 ; set final bed temp
G4 S30 ; allow partial nozzle warmup
G28 ; home all axis
G1 Z50 F240
G1 X2.0 Y10 F3000
M104 S210 ; set final nozzle temp
M190 S62 ; wait for bed temp to stabilize
M109 S210 ; wait for nozzle temp to stabilize
G1 Z0.28 F240
G92 E0
G1 X2.0 Y140 E10 F1500 ; prime the nozzle
G1 X2.3 Y140 F5000
G92 E0
G1 X2.3 Y10 E10 F1200 ; prime the nozzle
G92 E0
G21 ; set units to millimeters
G90 ; use absolute coordinates
M83 ; use relative distances for extrusion
; Filament gcode
M107
;LAYER_CHANGE
;Z:0.2
;HEIGHT:0.2
;BEFORE_LAYER_CHANGE
G92 E0
;0.2


G1 E-4 F3600
G1 Z.2 F9000
;AFTER_LAYER_CHANGE
;0.2
G1 X7.522 Y7.521
G1 E4 F2400
M204 S500
;TYPE:Skirt/Brim
;WIDTH:0.42
G1 F1200
G1 X8.023 Y7.021 E.02219
G1 X9.067 Y6.168 E.04227
G1 X10.191 Y5.425 E.04225
G1 X11.385 Y4.799 E.04227
G1 X12.635 Y4.297 E.04224
G1 X13.93 Y3.922 E.04227
G1 X15.256 Y3.68 E.04226
G1 X16.6 Y3.573 E.04227
G1 X146.224 Y3.712 E4.06427
G1 X147.538 Y3.786 E.04126
G1 X148.869 Y3.995 E.04224
G1 X149.852 Y4.239 E.03176
G1 X151.126 Y4.678 E.04225
G1 X152.349 Y5.243 E.04224
G1 X153.415 Y5.866 E.03871
G1 X154.243 Y6.449 E.03175
G1 X155.272 Y7.318 E.04223
G1 X156.209 Y8.287 E.04226
G1 X156.978 Y9.253 E.03871
G1 X157.711 Y10.384 E.04226
G1 X158.185 Y11.278 E.03173
G1 X158.709 Y12.52 E.04227
G1 X159.105 Y13.809 E.04228
G1 X159.352 Y15.018 E.03869
G1 X159.493 Y16.359 E.04228
G1 X158.448 Y145.781 E4.05807
G1 X158.352 Y147.125 E.04225
G1 X158.146 Y148.343 E.03873
G1 X157.486 Y150.488 E.07037
G1 X156.477 Y152.493 E.07038
G1 X155.716 Y153.605 E.04225
G1 X155.072 Y154.387 E.03176
G1 X154.127 Y155.348 E.04226
G1 X152.819 Y156.407 E.05277
G1 X151.682 Y157.131 E.04226
G1 X150.478 Y157.736 E.04225
G1 X149.219 Y158.218 E.04227
G1 X147.918 Y158.571 E.04227
G1 X146.476 Y158.803 E.04579
G1 X145.13 Y158.876 E.04226
G1 X18.926 Y157.283 E3.95735
G1 X16.696 Y157.029 E.07037
G1 X15.389 Y156.699 E.04227
G1 X14.227 Y156.282 E.03871
G1 X13.008 Y155.707 E.04226
G1 X12.134 Y155.196 E.03174
G1 X10.349 Y153.835 E.07038
G1 X9.396 Y152.882 E.04226
G1 X8.544 Y151.838 E.04225
G1 X7.801 Y150.714 E.04225
G1 X7.175 Y149.52 E.04227
G1 X6.672 Y148.269 E.04228
G1 X6.298 Y146.975 E.04223
G1 X6.056 Y145.649 E.04226
G1 X5.949 Y144.31 E.04212
G1 X3.617 Y16.887 E3.99593
G1 X3.69 Y15.541 E.04226
G1 X3.876 Y14.321 E.03869
G1 X4.207 Y13.014 E.04227
G1 X4.541 Y12.059 E.03172
G1 X5.095 Y10.83 E.04227
G1 X5.71 Y9.759 E.03872
G1 X7.07 Y7.974 E.07036
G1 X7.48 Y7.564 E.01818
; printing object Single_Layer_Disc.stl id:0 copy 0
G1 E-2.8 F3600
;WIPE_START
G1 F7200
G1 X8.023 Y7.021 E-.36476
G1 X9.067 Y6.168 E-.64038
G1 X9.409 Y5.942 E-.19486
;WIPE_END
G1 X137.328 Y15.595 F9000
G1 E4 F2400
;TYPE:Perimeter
;WIDTH:0.419999
G1 F1200
G1 X137.523 Y14.716 E.02823
G1 X137.805 Y13.862 E.0282
G1 X138.172 Y13.04 E.02823
G1 X138.62 Y12.259 E.02823
G1 X139.149 Y11.52 E.0285
G1 X139.528 Y11.076 E.0183
G1 X140.179 Y10.43 E.02876
G1 X140.626 Y10.055 E.01829
G1 X141.369 Y9.532 E.02849
G1 X142.154 Y9.091 E.02823
G1 X142.979 Y8.731 E.02822
G1 X143.836 Y8.456 E.02822
G1 X144.716 Y8.268 E.02821
G1 X145.611 Y8.17 E.02823
G1 X146.512 Y8.162 E.02825
G1 X147.408 Y8.245 E.02821
G1 X148.299 Y8.42 E.02847
G1 X148.861 Y8.58 E.01832
G1 X149.711 Y8.901 E.02849
G1 X150.517 Y9.302 E.02823
G1 X151.278 Y9.782 E.02821
G1 X151.987 Y10.337 E.02823
G1 X152.637 Y10.96 E.02823
G1 X153.221 Y11.645 E.02822
G1 X153.733 Y12.386 E.02824
G1 X154.167 Y13.174 E.02821
G1 X154.521 Y14.002 E.02823
G1 X154.789 Y14.861 E.02821
G1 X154.969 Y15.743 E.02822
G1 X155.06 Y16.639 E.02824
G1 X155.06 Y17.539 E.02822
G1 X154.969 Y18.435 E.02824
G1 X154.789 Y19.317 E.02822
G1 X154.521 Y20.176 E.02821
G1 X154.167 Y21.004 E.02823
G1 X153.733 Y21.793 E.02823
G1 X153.221 Y22.533 E.02821
G1 X152.637 Y23.218 E.02822
G1 X151.987 Y23.841 E.02823
G1 X151.272 Y24.401 E.02848
G1 X150.783 Y24.721 E.01832
G1 X149.984 Y25.153 E.02848
G1 X149.153 Y25.499 E.02822
G1 X148.291 Y25.76 E.02824
G1 X147.408 Y25.933 E.02821
G1 X146.512 Y26.016 E.02821
G1 X145.611 Y26.008 E.02825
G1 X144.716 Y25.91 E.02823
G1 X143.836 Y25.722 E.02821
G1 X142.979 Y25.447 E.02822
G1 X142.154 Y25.087 E.02822
G1 X141.369 Y24.646 E.02823
G1 X140.633 Y24.128 E.02822
G1 X139.953 Y23.538 E.02823
G1 X139.335 Y22.883 E.02824
G1 X138.787 Y22.169 E.02822
G1 X138.313 Y21.404 E.02822
G1 X137.918 Y20.595 E.02823
G1 X137.607 Y19.75 E.02823
G1 X137.383 Y18.878 E.02823
G1 X137.247 Y17.988 E.02823
G1 X137.201 Y17.081 E.02847
G1 X137.221 Y16.497 E.01832
G1 X137.321 Y15.655 E.02659
G1 X136.955 Y15.532 F9000
G1 F1200
G1 X137.159 Y14.616 E.02942
G1 X137.453 Y13.725 E.02942
G1 X137.836 Y12.868 E.02943
G1 X138.303 Y12.055 E.0294
G1 X138.852 Y11.288 E.02957
G1 X139.251 Y10.819 E.01931
G1 X139.924 Y10.151 E.02973
G1 X140.396 Y9.756 E.0193
G1 X141.168 Y9.213 E.02959
G1 X141.986 Y8.753 E.02942
G1 X142.845 Y8.378 E.02939
G1 X143.739 Y8.091 E.02944
G1 X144.656 Y7.895 E.0294
G1 X145.589 Y7.793 E.02943
G1 X146.527 Y7.785 E.02941
G1 X147.462 Y7.872 E.02944
G1 X148.387 Y8.053 E.02955
G1 X148.98 Y8.221 E.01932
G1 X149.862 Y8.555 E.02957
G1 X150.702 Y8.973 E.02942
G1 X151.495 Y9.473 E.02939
G1 X152.235 Y10.051 E.02944
G1 X152.912 Y10.701 E.02943
G1 X153.52 Y11.415 E.0294
G1 X154.054 Y12.187 E.02943
G1 X154.507 Y13.008 E.0294
G1 X154.875 Y13.871 E.02942
G1 X155.154 Y14.767 E.02942
G1 X155.342 Y15.686 E.02941
G1 X155.437 Y16.62 E.02944
G1 X155.437 Y17.558 E.02941
G1 X155.342 Y18.492 E.02944
G1 X155.154 Y19.411 E.02941
G1 X154.875 Y20.307 E.02942
G1 X154.507 Y21.17 E.02942
G1 X154.054 Y21.991 E.0294
G1 X153.52 Y22.763 E.02943
G1 X152.912 Y23.477 E.0294
G1 X152.235 Y24.127 E.02943
G1 X151.492 Y24.708 E.02957
G1 X150.976 Y25.045 E.01932
G1 X150.147 Y25.494 E.02956
G1 X149.28 Y25.854 E.02943
G1 X148.382 Y26.126 E.02942
G1 X147.462 Y26.306 E.02939
G1 X146.527 Y26.393 E.02944
G1 X145.589 Y26.385 E.02941
G1 X144.656 Y26.283 E.02943
G1 X143.739 Y26.087 E.0294
G1 X142.845 Y25.8 E.02944
G1 X141.986 Y25.425 E.02939
G1 X141.168 Y24.965 E.02942
G1 X140.4 Y24.425 E.02944
G1 X139.691 Y23.811 E.02941
G1 X139.048 Y23.128 E.02941
G1 X138.476 Y22.384 E.02942
G1 X137.982 Y21.586 E.02943
G1 X137.571 Y20.743 E.02941
G1 X137.247 Y19.862 E.02943
G1 X137.013 Y18.954 E.0294
G1 X136.871 Y18.026 E.02944
G1 X136.824 Y17.084 E.02957
G1 X136.845 Y16.469 E.01929
G1 X136.948 Y15.592 E.02769
G1 X136.583 Y15.469 F9000
;TYPE:External perimeter
G1 F1200
G1 X136.795 Y14.516 E.03061
G1 X137.101 Y13.589 E.03061
G1 X137.499 Y12.697 E.03063
G1 X137.985 Y11.85 E.03062
G1 X138.554 Y11.055 E.03065
G1 X138.974 Y10.562 E.02031
G1 X139.67 Y9.872 E.03073
G1 X140.166 Y9.457 E.02028
G1 X140.966 Y8.894 E.03067
G1 X141.817 Y8.415 E.03062
G1 X142.712 Y8.025 E.03061
G1 X143.642 Y7.726 E.03063
G1 X144.596 Y7.522 E.03059
G1 X145.567 Y7.416 E.03063
G1 X146.543 Y7.408 E.0306
G1 X147.515 Y7.498 E.03061
G1 X148.475 Y7.686 E.03067
G1 X149.098 Y7.863 E.02031
G1 X150.013 Y8.209 E.03067
G1 X150.887 Y8.644 E.03061
G1 X151.713 Y9.165 E.03062
G1 X152.482 Y9.766 E.0306
G1 X153.186 Y10.442 E.0306
G1 X153.82 Y11.185 E.03062
G1 X154.375 Y11.988 E.03061
G1 X154.846 Y12.843 E.03061
G1 X155.229 Y13.741 E.03061
G1 X155.52 Y14.673 E.03061
G1 X155.716 Y15.63 E.03063
G1 X155.814 Y16.601 E.0306
G1 X155.814 Y17.577 E.0306
G1 X155.716 Y18.549 E.03063
G1 X155.52 Y19.505 E.0306
G1 X155.229 Y20.437 E.03061
G1 X154.846 Y21.335 E.03061
G1 X154.375 Y22.19 E.03061
G1 X153.82 Y22.993 E.03061
G1 X153.186 Y23.736 E.03062
G1 X152.482 Y24.412 E.0306
G1 X151.711 Y25.015 E.03069
G1 X151.17 Y25.369 E.02027
G1 X150.309 Y25.834 E.03068
G1 X149.408 Y26.21 E.03061
G1 X148.473 Y26.493 E.03063
G1 X147.515 Y26.68 E.0306
G1 X146.543 Y26.77 E.03061
G1 X145.567 Y26.762 E.0306
G1 X144.596 Y26.656 E.03063
G1 X143.642 Y26.452 E.03059
G1 X142.712 Y26.154 E.03062
G1 X141.817 Y25.763 E.03062
G1 X140.966 Y25.284 E.03062
G1 X140.168 Y24.722 E.0306
G1 X139.43 Y24.083 E.03061
G1 X138.76 Y23.373 E.03061
G1 X138.165 Y22.599 E.03061
G1 X137.651 Y21.769 E.03061
G1 X137.224 Y20.891 E.03061
G1 X136.886 Y19.975 E.03061
G1 X136.643 Y19.029 E.03062
G1 X136.496 Y18.064 E.03061
G1 X136.447 Y17.087 E.03067
G1 X136.468 Y16.44 E.0203
G1 X136.576 Y15.528 E.02879
G1 X136.959 Y15.332 F9000
G1 E-2.8 F3600
;WIPE_START
G1 F7200
G1 X136.795 Y14.516 E-.49183
G1 X137.101 Y13.589 E-.46369
G1 X137.311 Y13.119 E-.24448
;WIPE_END
G1 X151.03 Y9.768 F9000
G1 E4 F2400
;TYPE:Solid infill
;WIDTH:0.426823
G1 F1200
G1 X152.452 Y11.191 E.06422
G1 X152.99 Y11.822 E.02647
G1 X153.486 Y12.539 E.02783
G1 X153.766 Y13.047 E.01852
G1 X150.175 Y9.456 E.16211
G1 X149.595 Y9.167 E.02069
G1 X149.19 Y9.014 E.01382
G1 X154.225 Y14.05 E.22732
G1 X154.48 Y14.847 E.02671
G1 X148.377 Y8.744 E.27551
G1 X147.686 Y8.596 E.02256
G1 X154.631 Y15.541 E.31353
G1 X154.682 Y15.787 E.00802
G1 X154.721 Y16.174 E.01242
G1 X147.051 Y8.504 E.34625
G1 X146.457 Y8.453 E.01903
G1 X154.769 Y16.765 E.37524
G1 X154.769 Y17.308 E.01733
G1 X145.919 Y8.458 E.39952
G1 X145.628 Y8.46 E.00929
G1 X145.403 Y8.485 E.00723
G1 X154.739 Y17.821 E.42146
G1 X154.689 Y18.314 E.01582
G1 X144.914 Y8.538 E.44131
G1 X144.453 Y8.621 E.01495
G1 X154.604 Y18.771 E.45823
G1 X154.512 Y19.222 E.01469
G1 X144.006 Y8.716 E.47428
G1 X143.587 Y8.841 E.01396
G1 X154.384 Y19.638 E.48742
G1 X154.255 Y20.052 E.01384
G1 X143.176 Y8.973 E.50015
G1 X142.791 Y9.13 E.01327
G1 X154.095 Y20.434 E.51031
G1 X153.933 Y20.815 E.01322
G1 X142.413 Y9.295 E.52006
G1 X142.055 Y9.48 E.01286
G1 X153.745 Y21.17 E.52773
G1 X153.552 Y21.52 E.01276
G1 X141.707 Y9.675 E.53473
G1 X141.374 Y9.885 E.01257
G1 X153.34 Y21.851 E.54019
G1 X153.118 Y22.172 E.01246
G1 X141.055 Y10.109 E.54457
G1 X140.741 Y10.338 E.01241
G1 X152.884 Y22.481 E.54818
G1 X152.634 Y22.774 E.01229
G1 X140.446 Y10.585 E.55024
G1 X140.168 Y10.85 E.01226
G1 X152.38 Y23.063 E.55132
G1 X152.103 Y23.328 E.01224
G1 X139.895 Y11.12 E.55112
G1 X139.632 Y11.401 E.01229
G1 X151.826 Y23.594 E.55046
G1 X151.524 Y23.835 E.01233
G1 X139.383 Y11.694 E.54809
G1 X139.156 Y12.01 E.01242
G1 X151.219 Y24.073 E.54457
G1 X150.9 Y24.297 E.01244
G1 X138.929 Y12.326 E.54042
G1 X138.723 Y12.663 E.01261
G1 X150.567 Y24.507 E.53469
G1 X150.215 Y24.698 E.01278
G1 X138.525 Y13.008 E.52773
G1 X138.343 Y13.369 E.01291
G1 X149.862 Y24.888 E.52001
G1 X149.48 Y25.048 E.01322
G1 X138.175 Y13.744 E.51033
G1 X138.021 Y14.133 E.01336
G1 X149.096 Y25.208 E.49997
G1 X148.683 Y25.338 E.01382
G1 X137.886 Y14.541 E.48742
G1 X137.765 Y14.963 E.01401
G1 X148.266 Y25.464 E.47406
G1 X147.816 Y25.557 E.01467
G1 X137.667 Y15.407 E.45819
G1 X137.587 Y15.871 E.01503
G1 X147.362 Y25.645 E.44126
G1 X146.865 Y25.691 E.01593
G1 X137.53 Y16.356 E.42142
G1 X137.499 Y16.868 E.01637
G1 X146.355 Y25.724 E.3998
G1 X145.807 Y25.72 E.01749
G1 X137.509 Y17.422 E.37461
G1 X137.542 Y17.997 E.01839
G1 X145.218 Y25.673 E.34653
G1 X144.763 Y25.623 E.01461
G1 X144.588 Y25.586 E.00571
G1 X137.64 Y18.638 E.31366
G1 X137.668 Y18.82 E.00588
G1 X137.802 Y19.343 E.01723
G1 X143.896 Y25.437 E.27511
G1 X143.096 Y25.18 E.02682
G1 X138.063 Y20.147 E.22721
G1 X138.186 Y20.481 E.01136
G1 X138.501 Y21.128 E.02297
G1 X142.092 Y24.719 E.16211
G1 X141.524 Y24.4 E.0208
G1 X140.812 Y23.899 E.02779
G1 X140.188 Y23.357 E.02638
G1 X138.813 Y21.983 E.06205
; stop printing object Single_Layer_Disc.stl id:0 copy 0
; printing object Single_Layer_Disc.stl id:0 copy 0
G1 E-2.8 F3600
;WIPE_START
G1 F7200
G1 X140.188 Y23.357 E-.92332
G1 X140.628 Y23.739 E-.27668
;WIPE_END
G1 X145.45 Y136.573 F9000
G1 E4 F2400
;TYPE:Perimeter
;WIDTH:0.419999
G1 F1200
G1 X146.346 Y136.656 E.02821
G1 X147.237 Y136.83 E.02846
G1 X147.799 Y136.99 E.01832
G1 X148.649 Y137.311 E.02849
G1 X149.455 Y137.713 E.02824
G1 X150.216 Y138.193 E.02821
G1 X150.925 Y138.747 E.02821
G1 X151.575 Y139.37 E.02823
G1 X152.159 Y140.056 E.02825
G1 X152.671 Y140.796 E.02821
G1 X153.106 Y141.585 E.02825
G1 X153.459 Y142.413 E.02822
G1 X153.727 Y143.272 E.02821
G1 X153.907 Y144.154 E.02822
G1 X153.998 Y145.05 E.02824
G1 X153.998 Y145.95 E.02822
G1 X153.907 Y146.845 E.02821
G1 X153.727 Y147.727 E.02822
G1 X153.459 Y148.587 E.02824
G1 X153.106 Y149.415 E.02822
G1 X152.671 Y150.203 E.02822
G1 X152.159 Y150.944 E.02824
G1 X151.575 Y151.629 E.02822
G1 X150.925 Y152.252 E.02823
G1 X150.21 Y152.812 E.02848
G1 X149.721 Y153.131 E.01831
G1 X148.922 Y153.563 E.02848
G1 X148.091 Y153.91 E.02824
G1 X147.229 Y154.171 E.02824
G1 X146.346 Y154.343 E.02821
G1 X145.45 Y154.426 E.02821
G1 X144.549 Y154.419 E.02825
G1 X143.655 Y154.321 E.0282
G1 X142.774 Y154.133 E.02825
G1 X141.917 Y153.858 E.02822
G1 X141.092 Y153.498 E.02822
G1 X140.307 Y153.056 E.02825
G1 X139.571 Y152.538 E.02822
G1 X138.891 Y151.949 E.02821
G1 X138.273 Y151.294 E.02824
G1 X137.725 Y150.58 E.02822
G1 X137.251 Y149.814 E.02824
G1 X136.856 Y149.005 E.02823
G1 X136.545 Y148.161 E.0282
G1 X136.321 Y147.289 E.02823
G1 X136.185 Y146.399 E.02823
G1 X136.139 Y145.492 E.02847
G1 X136.159 Y144.908 E.01832
G1 X136.266 Y144.006 E.02848
G1 X136.461 Y143.127 E.02823
G1 X136.743 Y142.272 E.02823
G1 X137.11 Y141.45 E.02823
G1 X137.558 Y140.669 E.02823
G1 X138.087 Y139.931 E.02847
G1 X138.466 Y139.486 E.01833
G1 X139.117 Y138.841 E.02873
G1 X139.564 Y138.466 E.01829
G1 X140.307 Y137.943 E.02849
G1 X141.092 Y137.502 E.02823
G1 X141.917 Y137.142 E.02822
G1 X142.774 Y136.866 E.02823
G1 X143.655 Y136.679 E.02824
G1 X144.549 Y136.581 E.0282
G1 X145.39 Y136.573 E.02637
G1 X145.465 Y136.196 F9000
G1 F1200
G1 X146.4 Y136.282 E.02944
G1 X147.325 Y136.463 E.02955
G1 X147.918 Y136.632 E.01933
G1 X148.8 Y136.965 E.02956
G1 X149.64 Y137.384 E.02943
G1 X150.433 Y137.884 E.02939
G1 X151.173 Y138.462 E.02944
G1 X151.85 Y139.111 E.02941
G1 X152.458 Y139.826 E.02943
G1 X152.992 Y140.597 E.02941
G1 X153.445 Y141.419 E.02943
G1 X153.813 Y142.282 E.02942
G1 X154.092 Y143.178 E.02942
G1 X154.28 Y144.097 E.02941
G1 X154.375 Y145.031 E.02944
G1 X154.375 Y145.969 E.02941
G1 X154.28 Y146.902 E.0294
G1 X154.092 Y147.822 E.02944
G1 X153.813 Y148.717 E.02939
G1 X153.445 Y149.58 E.02942
G1 X152.992 Y150.402 E.02943
G1 X152.458 Y151.174 E.02943
G1 X151.85 Y151.888 E.0294
G1 X151.173 Y152.537 E.02941
G1 X150.43 Y153.118 E.02957
G1 X149.914 Y153.456 E.01934
G1 X149.085 Y153.904 E.02955
G1 X148.219 Y154.265 E.02942
G1 X147.32 Y154.537 E.02945
G1 X146.4 Y154.717 E.02939
G1 X145.465 Y154.804 E.02944
G1 X144.527 Y154.796 E.02941
G1 X143.595 Y154.694 E.0294
G1 X142.677 Y154.498 E.02943
